; generated by Slic3r Prusa Edition 1.39.2+win64 on 2018-10-20 at 21:19:57

; 

; external perimeters extrusion width = 0.45mm
; perimeters extrusion width = 0.45mm
; infill extrusion width = 0.45mm
; solid infill extrusion width = 0.45mm
; top infill extrusion width = 0.45mm
; first layer extrusion width = 0.42mm

M107
M115 U3.1.0 ; tell printer latest fw version
M83  ; extruder relative mode
M104 S205 ; set extruder temp
M140 S55 ; set bed temp
M190 S55 ; wait for bed temp
M109 S205 ; wait for extruder temp
G28 W ; home all without mesh bed level
G80 ; mesh bed leveling
G1 Y-3.0 F1000.0 ; go outside print area
G92 E0.0
G1 X60.0 E9.0  F1000.0 ; intro line
G1 X100.0 E12.5  F1000.0 ; intro line
G92 E0.0
M900 K30; Filament gcode
G21 ; set units to millimeters
G90 ; use absolute coordinates
M83 ; use relative distances for extrusion
;BEFORE_LAYER_CHANGE
;0.2


G1 E-0.80000 F2100.00000
G1 Z0.600 F7200.000
;AFTER_LAYER_CHANGE
;0.2
G1 X32.130 Y24.707
G1 Z0.200
G1 E0.80000 F2100.00000
M204 S1000
G1 F1800
G1 X33.544 Y23.279 E0.06300
G1 X35.186 Y22.246 E0.06081
G1 X36.805 Y21.563 E0.05512
G1 X38.705 Y21.063 E0.06159
G1 X40.860 Y20.797 E0.06807
G1 X104.722 Y19.294 E2.00292
G1 X144.765 Y19.294 E1.25552
G1 X147.299 Y19.326 E0.07945
G1 X149.333 Y19.581 E0.06429
G1 X151.289 Y20.094 E0.06339
G1 X153.125 Y20.889 E0.06275
G1 X154.659 Y21.905 E0.05766
G1 X155.945 Y23.233 E0.05797
G1 X156.800 Y24.793 E0.05577
G1 X157.115 Y26.339 E0.04949
G1 X156.346 Y39.498 E0.41327
G1 X155.977 Y41.287 E0.05729
G1 X155.119 Y42.807 E0.05474
G1 X153.706 Y44.209 E0.06240
G1 X152.098 Y45.218 E0.05951
G1 X150.482 Y45.900 E0.05498
G1 X148.583 Y46.399 E0.06159
G1 X146.432 Y46.665 E0.06795
G1 X86.266 Y48.178 E1.88705
G1 X42.367 Y48.177 E1.37642
G1 X40.276 Y47.921 E0.06605
G1 X38.470 Y47.454 E0.05849
G1 X36.424 Y46.581 E0.06975
G1 X34.960 Y45.612 E0.05504
G1 X33.787 Y44.433 E0.05215
G1 X32.918 Y42.974 E0.05323
G1 X32.694 Y42.349 E0.02083
G1 X32.478 Y41.122 E0.03904
G1 X30.945 Y28.370 E0.40273
G1 X30.957 Y27.819 E0.01728
G1 X31.209 Y26.462 E0.04325
G1 X31.392 Y26.003 E0.01550
G1 X32.100 Y24.759 E0.04489
G1 F5760
G1 X33.544 Y23.279 E-0.71604
G1 X33.652 Y23.212 E-0.04396
G1 E-0.04000 F2100.00000
G1 Z0.800 F7200.000
G1 X97.591 Y26.671
G1 Z0.200
G1 E0.80000 F2100.00000
G1 F1800
G1 X98.597 Y24.583 E0.07265
G1 X100.856 Y24.068 E0.07265
G1 X102.667 Y25.512 E0.07265
G1 X102.667 Y27.829 E0.07265
G1 X100.856 Y29.274 E0.07265
G1 X98.597 Y28.758 E0.07265
G1 X97.617 Y26.725 E0.07077
G1 X98.010 Y26.671 F7200.000
G1 F1800
G1 X98.858 Y24.910 E0.06126
G1 X100.762 Y24.476 E0.06126
G1 X102.290 Y25.694 E0.06127
G1 X102.290 Y27.648 E0.06126
G1 X100.762 Y28.866 E0.06127
G1 X98.858 Y28.431 E0.06126
G1 X98.036 Y26.725 E0.05938
G1 X98.428 Y26.671 F7200.000
G1 F1800
G1 X99.119 Y25.238 E0.04987
G1 X100.669 Y24.884 E0.04987
G1 X101.913 Y25.875 E0.04988
G1 X101.913 Y27.466 E0.04987
G1 X100.669 Y28.458 E0.04988
G1 X99.119 Y28.104 E0.04987
G1 X98.454 Y26.725 E0.04799
G1 X98.082 Y26.471 F7200.000
G1 F5760
G1 X99.119 Y25.238 E-0.56412
G1 X99.670 Y25.112 E-0.19588
G1 E-0.04000 F2100.00000
G1 Z0.800 F7200.000
G1 X147.856 Y25.512
G1 Z0.200
G1 E0.80000 F2100.00000
G1 F1800
G1 X149.667 Y24.068 E0.07265
G1 X151.926 Y24.583 E0.07265
G1 X152.932 Y26.671 E0.07265
G1 X151.926 Y28.758 E0.07265
G1 X149.667 Y29.274 E0.07265
G1 X147.856 Y27.829 E0.07265
G1 X147.856 Y25.572 E0.07077
G1 X148.233 Y25.694 F7200.000
G1 F1800
G1 X149.761 Y24.476 E0.06127
G1 X151.665 Y24.910 E0.06126
G1 X152.513 Y26.671 E0.06126
G1 X151.665 Y28.431 E0.06126
G1 X149.761 Y28.866 E0.06126
G1 X148.233 Y27.648 E0.06127
G1 X148.233 Y25.754 E0.05938
G1 X148.610 Y25.875 F7200.000
G1 F1800
G1 X149.854 Y24.884 E0.04988
G1 X151.404 Y25.238 E0.04987
G1 X152.095 Y26.671 E0.04987
G1 X151.404 Y28.104 E0.04987
G1 X149.854 Y28.458 E0.04987
G1 X148.610 Y27.466 E0.04988
G1 X148.610 Y25.935 E0.04799
G1 X148.385 Y25.545 F7200.000
G1 F5760
G1 X149.854 Y24.884 E-0.56416
G1 X150.405 Y25.010 E-0.19584
G1 E-0.04000 F2100.00000
G1 Z0.800 F7200.000
G1 X143.797 Y22.867
G1 Z0.200
G1 E0.80000 F2100.00000
G1 F1800
G1 X145.433 Y22.662 E0.05168
G1 X147.090 Y22.662 E0.05195
G1 X148.705 Y22.864 E0.05104
G1 X150.198 Y23.255 E0.04839
G1 X151.492 Y23.808 E0.04413
G1 X152.523 Y24.482 E0.03860
G1 X153.246 Y25.219 E0.03236
G1 X153.655 Y25.958 E0.02648
G1 X153.782 Y26.671 E0.02271
G1 X153.655 Y27.384 E0.02271
G1 X153.246 Y28.123 E0.02648
G1 X152.523 Y28.860 E0.03236
G1 X151.492 Y29.533 E0.03860
G1 X150.198 Y30.086 E0.04413
G1 X148.705 Y30.477 E0.04839
G1 X147.090 Y30.679 E0.05104
G1 X145.433 Y30.679 E0.05195
G1 X143.797 Y30.475 E0.05168
G1 X143.797 Y30.707 E0.00727
G1 X105.726 Y30.707 E1.19371
G1 X105.726 Y30.679 E0.00086
G1 X103.433 Y30.679 E0.07188
G1 X101.818 Y30.477 E0.05104
G1 X100.325 Y30.086 E0.04839
G1 X99.030 Y29.533 E0.04413
G1 X98.000 Y28.860 E0.03860
G1 X97.277 Y28.123 E0.03236
G1 X96.868 Y27.384 E0.02648
G1 X96.741 Y26.671 E0.02271
G1 X96.868 Y25.958 E0.02271
G1 X97.277 Y25.219 E0.02648
G1 X98.000 Y24.482 E0.03236
G1 X99.030 Y23.808 E0.03860
G1 X100.325 Y23.255 E0.04413
G1 X101.818 Y22.864 E0.04839
G1 X103.433 Y22.662 E0.05104
G1 X105.726 Y22.662 E0.07188
G1 X105.726 Y22.635 E0.00086
G1 X143.797 Y22.635 E1.19371
G1 X143.797 Y22.807 E0.00539
G1 F5760
G1 X145.433 Y22.662 E-0.56872
G1 X145.985 Y22.662 E-0.19128
G1 E-0.04000 F2100.00000
G1 Z0.800 F7200.000
G1 X154.165 Y26.671
G1 Z0.200
G1 E0.80000 F2100.00000
G1 F1800
G1 X154.015 Y27.512 E0.02678
G1 X153.551 Y28.350 E0.03005
G1 X152.764 Y29.153 E0.03526
G1 X151.671 Y29.867 E0.04092
G1 X150.321 Y30.444 E0.04604
G1 X148.777 Y30.848 E0.05004
G1 X147.113 Y31.056 E0.05256
G1 X145.410 Y31.056 E0.05343
G1 X144.174 Y30.902 E0.03903
G1 X144.174 Y31.084 E0.00570
G1 X105.349 Y31.084 E1.21736
G1 X105.349 Y31.056 E0.00086
G1 X103.410 Y31.056 E0.06080
G1 X101.746 Y30.848 E0.05256
G1 X100.202 Y30.444 E0.05004
G1 X98.852 Y29.867 E0.04604
G1 X97.759 Y29.153 E0.04092
G1 X96.972 Y28.350 E0.03526
G1 X96.508 Y27.512 E0.03005
G1 X96.358 Y26.671 E0.02678
G1 X96.508 Y25.830 E0.02678
G1 X96.972 Y24.991 E0.03005
G1 X97.759 Y24.189 E0.03526
G1 X98.852 Y23.475 E0.04092
G1 X100.202 Y22.898 E0.04604
G1 X101.746 Y22.493 E0.05004
G1 X103.410 Y22.285 E0.05256
G1 X105.349 Y22.285 E0.06080
G1 X105.349 Y22.258 E0.00086
G1 X144.174 Y22.258 E1.21736
G1 X144.174 Y22.440 E0.00570
G1 X145.410 Y22.285 E0.03903
G1 X147.113 Y22.285 E0.05343
G1 X148.777 Y22.493 E0.05256
G1 X150.321 Y22.898 E0.05004
G1 X151.671 Y23.475 E0.04604
G1 X152.764 Y24.189 E0.04092
G1 X153.551 Y24.991 E0.03526
G1 X154.015 Y25.830 E0.03005
G1 X154.155 Y26.612 E0.02490
G1 X154.548 Y26.671 F7200.000
G1 F1800
G1 X154.375 Y27.639 E0.03085
G1 X153.857 Y28.578 E0.03362
G1 X153.004 Y29.446 E0.03816
G1 X151.850 Y30.201 E0.04324
G1 X150.443 Y30.802 E0.04795
G1 X148.848 Y31.219 E0.05170
G1 X147.137 Y31.433 E0.05408
G1 X145.386 Y31.433 E0.05490
G1 X144.551 Y31.329 E0.02637
G1 X144.551 Y31.461 E0.00413
G1 X104.971 Y31.461 E1.24100
G1 X104.971 Y31.433 E0.00086
G1 X103.386 Y31.433 E0.04971
G1 X101.675 Y31.219 E0.05408
G1 X100.080 Y30.802 E0.05170
G1 X98.673 Y30.201 E0.04795
G1 X97.519 Y29.446 E0.04324
G1 X96.666 Y28.578 E0.03816
G1 X96.148 Y27.639 E0.03362
G1 X95.975 Y26.671 E0.03085
G1 X96.148 Y25.702 E0.03085
G1 X96.666 Y24.764 E0.03362
G1 X97.519 Y23.895 E0.03816
G1 X98.673 Y23.141 E0.04324
G1 X100.080 Y22.540 E0.04795
G1 X101.675 Y22.122 E0.05170
G1 X103.386 Y21.908 E0.05408
G1 X104.971 Y21.908 E0.04971
G1 X104.971 Y21.881 E0.00086
G1 X144.551 Y21.881 E1.24100
G1 X144.551 Y22.012 E0.00413
G1 X145.386 Y21.908 E0.02637
G1 X147.137 Y21.908 E0.05490
G1 X148.848 Y22.122 E0.05408
G1 X150.443 Y22.540 E0.05170
G1 X151.850 Y23.141 E0.04795
G1 X153.004 Y23.895 E0.04324
G1 X153.857 Y24.764 E0.03816
G1 X154.375 Y25.702 E0.03362
G1 X154.538 Y26.612 E0.02896
G1 X154.201 Y26.870 F7200.000
G1 F5760
G1 X154.375 Y27.639 E-0.36031
G1 X153.857 Y28.578 E-0.37140
G1 X153.799 Y28.636 E-0.02829
G1 E-0.04000 F2100.00000
G1 Z0.800 F7200.000
G1 X153.445 Y25.812
G1 Z0.200
G1 E0.80000 F2100.00000
G1 F1800
G1 X152.731 Y25.098 E0.03199
G1 X152.549 Y25.225 E0.00702
G1 X152.763 Y25.668 E0.01558
G1 X153.436 Y26.342 E0.03016
G1 X153.495 Y26.671 E0.01059
G1 X153.454 Y26.899 E0.00733
G1 X153.239 Y26.684 E0.00962
G1 X153.064 Y27.047 E0.01278
G1 X153.356 Y27.339 E0.01308
G1 X153.164 Y27.686 E0.01256
G1 X152.889 Y27.411 E0.01234
G1 X152.714 Y27.775 E0.01278
G1 X153.075 Y28.136 E0.01618
G1 X152.478 Y28.412 F7200.000
G1 F1800
G1 X152.150 Y28.879 E0.01288
G1 X151.989 Y28.959 F7200.000
G1 F1800
G1 X151.727 Y29.070 E0.00234
G1 X151.465 Y29.181 E0.00463
G1 X151.064 Y29.325 E0.01036
G1 X150.382 Y29.227 F7200.000
G1 F1800
G1 X150.713 Y29.559 E0.01481
G1 X150.337 Y29.719 E0.01293
G1 X150.086 Y29.468 E0.01121
G1 X149.649 Y29.568 E0.01417
G1 X149.942 Y29.861 E0.01308
G1 X149.516 Y29.973 E0.01390
G1 X142.461 Y22.918 E0.31516
G1 X142.998 Y22.918 E0.01697
G1 X147.573 Y27.493 E0.20436
G1 X147.573 Y26.955 E0.01697
G1 X143.772 Y23.155 E0.16977
G1 X144.250 Y23.095 E0.01520
G1 X147.573 Y26.418 E0.14844
G1 X147.573 Y25.881 E0.01697
G1 X144.728 Y23.035 E0.12711
G1 X145.205 Y22.976 E0.01520
G1 X147.591 Y25.362 E0.10658
G1 X147.890 Y25.123 E0.01208
G1 X145.712 Y22.945 E0.09730
G1 X146.249 Y22.945 E0.01697
G1 X148.189 Y24.885 E0.08665
G1 X148.488 Y24.647 E0.01208
G1 X146.786 Y22.945 E0.07601
G1 X147.072 Y22.945 E0.00904
G1 X147.359 Y22.981 E0.00914
G1 X148.787 Y24.408 E0.06376
G1 X149.086 Y24.170 E0.01208
G1 X147.973 Y23.058 E0.04968
G1 X148.587 Y23.135 E0.01955
G1 X149.384 Y23.932 E0.03560
G1 X149.598 Y23.762 E0.00861
G1 X149.797 Y23.807 E0.00647
G1 X149.303 Y23.313 E0.02206
G1 X150.031 Y23.504 E0.02377
G1 X150.719 Y24.192 E0.03072
G1 X151.064 Y24.017 F7200.000
G1 F1800
G1 X151.465 Y24.160 E0.01036
G1 X151.727 Y24.272 E0.00463
G1 X151.989 Y24.383 E0.00234
G1 X152.150 Y24.463 F7200.000
G1 F1800
G1 X152.478 Y24.930 E0.01288
G1 F5760
G1 X152.150 Y24.463 E-0.19764
G1 E-0.60236 F2100.00000
G1 Z0.800 F7200.000
G1 X149.229 Y30.223
G1 Z0.200
G1 E0.80000 F2100.00000
G1 F1800
G1 X141.924 Y22.918 E0.32635
G1 X141.386 Y22.918 E0.01697
G1 X148.664 Y30.196 E0.32512
G1 X148.188 Y30.257 E0.01516
G1 X140.849 Y22.918 E0.32786
G1 X140.312 Y22.918 E0.01697
G1 X147.711 Y30.317 E0.33052
G1 X147.233 Y30.376 E0.01520
G1 X139.775 Y22.918 E0.33319
G1 X139.237 Y22.918 E0.01697
G1 X146.716 Y30.396 E0.33409
G1 X146.179 Y30.396 E0.01697
G1 X138.700 Y22.918 E0.33409
G1 X138.163 Y22.918 E0.01697
G1 X145.642 Y30.396 E0.33409
G1 X145.451 Y30.396 E0.00604
G1 X145.055 Y30.347 E0.01259
G1 X137.626 Y22.918 E0.33188
G1 X137.088 Y22.918 E0.01697
G1 X144.441 Y30.270 E0.32845
G1 X143.827 Y30.194 E0.01954
G1 X136.551 Y22.918 E0.32503
G1 X136.014 Y22.918 E0.01697
G1 X143.515 Y30.424 E0.33519
G1 X142.983 Y30.424 E0.01679
G1 X135.477 Y22.918 E0.33531
G1 X134.940 Y22.918 E0.01697
G1 X142.446 Y30.424 E0.33531
G1 X141.908 Y30.424 E0.01697
G1 X134.402 Y22.918 E0.33531
G1 X133.865 Y22.918 E0.01697
G1 X141.371 Y30.424 E0.33531
G1 X140.834 Y30.424 E0.01697
G1 X133.328 Y22.918 E0.33531
G1 X132.791 Y22.918 E0.01697
G1 X140.297 Y30.424 E0.33531
G1 X139.759 Y30.424 E0.01697
G1 X132.253 Y22.918 E0.33531
G1 X131.716 Y22.918 E0.01697
G1 X139.222 Y30.424 E0.33531
G1 X138.685 Y30.424 E0.01697
G1 X131.179 Y22.918 E0.33531
G1 X130.642 Y22.918 E0.01697
G1 X138.148 Y30.424 E0.33531
G1 X137.610 Y30.424 E0.01697
G1 X130.104 Y22.918 E0.33531
G1 X129.567 Y22.918 E0.01697
G1 X137.073 Y30.424 E0.33531
G1 X136.536 Y30.424 E0.01697
G1 X129.030 Y22.918 E0.33531
G1 X128.493 Y22.918 E0.01697
G1 X135.999 Y30.424 E0.33531
G1 X135.461 Y30.424 E0.01697
G1 X127.955 Y22.918 E0.33531
G1 X127.418 Y22.918 E0.01697
G1 X134.924 Y30.424 E0.33531
G1 X134.387 Y30.424 E0.01697
G1 X126.881 Y22.918 E0.33531
G1 X126.344 Y22.918 E0.01697
G1 X133.850 Y30.424 E0.33531
G1 X133.312 Y30.424 E0.01697
G1 X125.806 Y22.918 E0.33531
G1 X125.269 Y22.918 E0.01697
G1 X132.775 Y30.424 E0.33531
G1 X132.238 Y30.424 E0.01697
G1 X124.732 Y22.918 E0.33531
G1 X124.195 Y22.918 E0.01697
G1 X131.701 Y30.424 E0.33531
G1 X131.163 Y30.424 E0.01697
G1 X123.657 Y22.918 E0.33531
G1 X123.120 Y22.918 E0.01697
G1 X130.626 Y30.424 E0.33531
G1 X130.089 Y30.424 E0.01697
G1 X122.583 Y22.918 E0.33531
G1 X122.046 Y22.918 E0.01697
G1 X129.552 Y30.424 E0.33531
G1 X129.015 Y30.424 E0.01697
G1 X121.508 Y22.918 E0.33531
G1 X120.971 Y22.918 E0.01697
G1 X128.477 Y30.424 E0.33531
G1 X127.940 Y30.424 E0.01697
G1 X120.434 Y22.918 E0.33531
G1 X119.897 Y22.918 E0.01697
G1 X127.403 Y30.424 E0.33531
G1 X126.866 Y30.424 E0.01697
G1 X119.359 Y22.918 E0.33531
G1 X118.822 Y22.918 E0.01697
G1 X126.328 Y30.424 E0.33531
G1 X125.791 Y30.424 E0.01697
G1 X118.285 Y22.918 E0.33531
G1 X117.748 Y22.918 E0.01697
G1 X125.254 Y30.424 E0.33531
G1 X124.717 Y30.424 E0.01697
G1 X117.210 Y22.918 E0.33531
G1 X116.673 Y22.918 E0.01697
G1 X124.179 Y30.424 E0.33531
G1 X123.642 Y30.424 E0.01697
G1 X116.136 Y22.918 E0.33531
G1 X115.599 Y22.918 E0.01697
G1 X123.105 Y30.424 E0.33531
G1 X122.568 Y30.424 E0.01697
G1 X115.061 Y22.918 E0.33531
G1 X114.524 Y22.918 E0.01697
G1 X122.030 Y30.424 E0.33531
G1 X121.493 Y30.424 E0.01697
G1 X113.987 Y22.918 E0.33531
G1 X113.450 Y22.918 E0.01697
G1 X120.956 Y30.424 E0.33531
G1 X120.419 Y30.424 E0.01697
G1 X112.913 Y22.918 E0.33531
G1 X112.375 Y22.918 E0.01697
G1 X119.881 Y30.424 E0.33531
G1 X119.344 Y30.424 E0.01697
G1 X111.838 Y22.918 E0.33531
G1 X111.301 Y22.918 E0.01697
G1 X118.807 Y30.424 E0.33531
G1 X118.270 Y30.424 E0.01697
G1 X110.764 Y22.918 E0.33531
G1 X110.226 Y22.918 E0.01697
G1 X117.732 Y30.424 E0.33531
G1 X117.195 Y30.424 E0.01697
G1 X109.689 Y22.918 E0.33531
G1 X109.152 Y22.918 E0.01697
G1 X116.658 Y30.424 E0.33531
G1 X116.121 Y30.424 E0.01697
G1 X108.615 Y22.918 E0.33531
G1 X108.077 Y22.918 E0.01697
G1 X115.583 Y30.424 E0.33531
G1 X115.046 Y30.424 E0.01697
G1 X107.540 Y22.918 E0.33531
G1 X107.003 Y22.918 E0.01697
G1 X114.509 Y30.424 E0.33531
G1 X113.972 Y30.424 E0.01697
G1 X106.466 Y22.918 E0.33531
G1 X106.008 Y22.918 E0.01444
G1 X106.008 Y22.945 E0.00087
G1 X105.956 Y22.945 E0.00166
G1 X113.434 Y30.424 E0.33409
G1 X112.897 Y30.424 E0.01697
G1 X105.418 Y22.945 E0.33409
G1 X104.881 Y22.945 E0.01697
G1 X112.360 Y30.424 E0.33409
G1 X111.823 Y30.424 E0.01697
G1 X104.344 Y22.945 E0.33409
G1 X103.807 Y22.945 E0.01697
G1 X111.285 Y30.424 E0.33409
G1 X110.748 Y30.424 E0.01697
G1 X103.290 Y22.965 E0.33319
G1 X102.812 Y23.025 E0.01520
G1 X110.211 Y30.424 E0.33052
G1 X109.674 Y30.424 E0.01697
G1 X102.335 Y23.085 E0.32786
G1 X101.859 Y23.146 E0.01516
G1 X109.136 Y30.424 E0.32512
G1 X108.599 Y30.424 E0.01697
G1 X101.433 Y23.257 E0.32014
G1 X101.007 Y23.369 E0.01390
G1 X108.062 Y30.424 E0.31516
G1 X107.525 Y30.424 E0.01697
G1 X102.950 Y25.849 E0.20436
G1 X102.950 Y26.386 E0.01697
G1 X106.988 Y30.424 E0.18036
G1 X106.450 Y30.424 E0.01697
G1 X102.950 Y26.924 E0.15636
G1 X102.950 Y27.461 E0.01697
G1 X105.886 Y30.396 E0.13114
G1 X105.348 Y30.396 E0.01697
G1 X102.932 Y27.980 E0.10795
G1 X102.633 Y28.218 E0.01208
G1 X104.811 Y30.396 E0.09730
G1 X104.274 Y30.396 E0.01697
G1 X102.334 Y28.457 E0.08665
G1 X102.035 Y28.695 E0.01208
G1 X103.737 Y30.396 E0.07601
G1 X103.451 Y30.396 E0.00903
G1 X103.164 Y30.361 E0.00914
G1 X101.736 Y28.933 E0.06376
G1 X101.437 Y29.172 E0.01208
G1 X102.549 Y30.284 E0.04968
G1 X101.935 Y30.207 E0.01955
G1 X101.139 Y29.410 E0.03560
G1 X100.925 Y29.580 E0.00861
G1 X100.726 Y29.534 E0.00647
G1 X101.220 Y30.028 E0.02206
G1 X100.492 Y29.838 E0.02377
G1 X99.804 Y29.150 E0.03072
G1 X99.459 Y29.325 F7200.000
G1 F1800
G1 X99.189 Y29.237 E0.00745
G1 X99.058 Y29.181 E0.00346
G1 X98.927 Y29.126 E0.00289
G1 X98.796 Y29.070 E0.00231
G1 X98.665 Y29.014 E0.00174
G1 X98.534 Y28.959 E0.00117
G1 X98.373 Y28.879 F7200.000
G1 F1800
G1 X98.045 Y28.412 E0.01288
G1 X97.914 Y28.366 F7200.000
G1 F1800
G1 X97.078 Y27.530 E0.03743
G1 X96.877 Y26.790 F7200.000
G1 F1800
G1 X97.760 Y27.673 E0.03956
G1 X97.284 Y26.658 E0.03553
G1 X97.069 Y26.443 E0.00962
G1 X97.138 Y26.054 E0.01254
G1 X97.167 Y26.002 E0.00185
G1 X97.459 Y26.294 E0.01308
G1 X97.634 Y25.931 E0.01278
G1 X97.358 Y25.655 E0.01234
G1 X97.506 Y25.389 E0.00963
G1 X97.568 Y25.326 E0.00281
G1 X97.936 Y25.694 E0.01651
