; generated by Slic3r Prusa Edition 1.39.2+win64 on 2018-10-13 at 08:19:10

; 

; external perimeters extrusion width = 0.45mm
; perimeters extrusion width = 0.45mm
; infill extrusion width = 0.45mm
; solid infill extrusion width = 0.45mm
; top infill extrusion width = 0.45mm
; first layer extrusion width = 0.42mm

M107
M115 U3.1.0 ; tell printer latest fw version
M83  ; extruder relative mode
M104 S205 ; set extruder temp
M140 S55 ; set bed temp
M190 S55 ; wait for bed temp
M109 S205 ; wait for extruder temp
G28 W ; home all without mesh bed level
G80 ; mesh bed leveling
G1 Y-3.0 F1000.0 ; go outside print area
G92 E0.0
G1 X60.0 E9.0  F1000.0 ; intro line
G1 X100.0 E12.5  F1000.0 ; intro line
G92 E0.0
M900 K30; Filament gcode
G21 ; set units to millimeters
G90 ; use absolute coordinates
M83 ; use relative distances for extrusion
;BEFORE_LAYER_CHANGE
;0.2


G1 E-0.80000 F2100.00000
G1 Z0.600 F7200.000
;AFTER_LAYER_CHANGE
;0.2
G1 X44.116 Y41.837
G1 Z0.200
G1 E0.80000 F2100.00000
M204 S1000
G1 F1800
G1 X44.613 Y41.468 E0.01941
G1 X68.062 Y31.933 E0.79368
G1 X68.718 Y31.772 E0.02119
G1 X143.953 Y31.761 E2.35892
G1 X144.802 Y31.919 E0.02708
G1 X145.541 Y32.373 E0.02720
G1 X146.067 Y33.058 E0.02708
G1 X146.313 Y33.890 E0.02720
G1 X146.323 Y54.253 E0.63845
G1 X143.089 Y72.068 E0.56773
G1 X142.929 Y72.540 E0.01562
G1 X142.674 Y72.968 E0.01562
G1 X142.336 Y73.333 E0.01562
G1 X141.929 Y73.620 E0.01562
G1 X141.242 Y73.874 E0.02296
G1 X66.109 Y88.897 E2.40237
G1 X45.645 Y88.918 E0.64164
G1 X45.058 Y88.812 E0.01870
G1 X44.513 Y88.561 E0.01882
G1 X44.050 Y88.185 E0.01870
G1 X43.694 Y87.701 E0.01882
G1 X43.472 Y87.152 E0.01858
G1 X43.394 Y86.561 E0.01870
G1 X43.394 Y43.498 E1.35018
G1 X43.485 Y42.890 E0.01929
G1 X43.732 Y42.322 E0.01941
G1 X44.079 Y41.884 E0.01753
G1 F5760
G1 X44.613 Y41.468 E-0.23457
G1 X46.019 Y40.896 E-0.52543
G1 E-0.04000 F2100.00000
G1 Z0.800 F7200.000
G1 X72.129 Y44.138
G1 Z0.200
G1 E0.80000 F2100.00000
G1 F1800
G1 X72.213 Y43.345 E0.02502
G1 X72.459 Y42.585 E0.02504
G1 X72.859 Y41.893 E0.02505
G1 X73.393 Y41.300 E0.02504
G1 X74.039 Y40.831 E0.02503
G1 X74.768 Y40.506 E0.02503
G1 X75.550 Y40.340 E0.02504
G1 X76.348 Y40.340 E0.02504
G1 X77.130 Y40.506 E0.02504
G1 X77.859 Y40.831 E0.02503
G1 X78.504 Y41.300 E0.02503
G1 X79.039 Y41.893 E0.02504
G1 X79.439 Y42.585 E0.02505
G1 X79.685 Y43.345 E0.02504
G1 X79.768 Y44.138 E0.02502
G1 X79.685 Y44.932 E0.02502
G1 X79.439 Y45.692 E0.02504
G1 X79.039 Y46.384 E0.02505
G1 X78.504 Y46.977 E0.02504
G1 X77.859 Y47.446 E0.02503
G1 X77.129 Y47.771 E0.02503
G1 X76.348 Y47.937 E0.02504
G1 X75.550 Y47.937 E0.02504
G1 X74.768 Y47.771 E0.02504
G1 X74.039 Y47.446 E0.02503
G1 X73.393 Y46.977 E0.02503
G1 X72.859 Y46.384 E0.02504
G1 X72.459 Y45.692 E0.02505
G1 X72.213 Y44.932 E0.02504
G1 X72.136 Y44.198 E0.02314
G1 X72.511 Y44.159 F7200.000
G1 F1800
G1 X72.583 Y43.423 E0.02317
G1 X72.806 Y42.739 E0.02256
G1 X73.165 Y42.116 E0.02256
G1 X73.647 Y41.582 E0.02256
G1 X74.229 Y41.159 E0.02254
G1 X74.885 Y40.866 E0.02254
G1 X75.589 Y40.717 E0.02256
G1 X76.309 Y40.717 E0.02256
G1 X77.012 Y40.866 E0.02256
G1 X77.669 Y41.159 E0.02254
G1 X78.251 Y41.582 E0.02254
G1 X78.732 Y42.116 E0.02256
G1 X79.092 Y42.739 E0.02256
G1 X79.314 Y43.423 E0.02256
G1 X79.389 Y44.138 E0.02254
G1 X79.314 Y44.853 E0.02254
G1 X79.092 Y45.538 E0.02256
G1 X78.732 Y46.161 E0.02256
G1 X78.251 Y46.695 E0.02256
G1 X77.669 Y47.118 E0.02254
G1 X77.012 Y47.410 E0.02254
G1 X76.309 Y47.560 E0.02256
G1 X75.589 Y47.560 E0.02256
G1 X74.885 Y47.410 E0.02256
G1 X74.229 Y47.118 E0.02254
G1 X73.647 Y46.695 E0.02254
G1 X73.165 Y46.161 E0.02256
G1 X72.806 Y45.538 E0.02256
G1 X72.583 Y44.853 E0.02256
G1 X72.517 Y44.218 E0.02002
G1 X72.892 Y44.179 F7200.000
G1 F1800
G1 X72.954 Y43.502 E0.02132
G1 X73.152 Y42.893 E0.02007
G1 X73.472 Y42.339 E0.02007
G1 X73.901 Y41.863 E0.02007
G1 X74.418 Y41.487 E0.02006
G1 X75.003 Y41.227 E0.02006
G1 X75.629 Y41.094 E0.02007
G1 X76.269 Y41.094 E0.02007
G1 X76.895 Y41.227 E0.02007
G1 X77.479 Y41.487 E0.02006
G1 X77.997 Y41.863 E0.02006
G1 X78.426 Y42.339 E0.02007
G1 X78.746 Y42.893 E0.02007
G1 X78.943 Y43.502 E0.02007
G1 X79.010 Y44.138 E0.02006
G1 X78.943 Y44.775 E0.02006
G1 X78.746 Y45.383 E0.02007
G1 X78.426 Y45.938 E0.02007
G1 X77.997 Y46.413 E0.02007
G1 X77.479 Y46.789 E0.02006
G1 X76.895 Y47.050 E0.02006
G1 X76.269 Y47.183 E0.02007
G1 X75.629 Y47.183 E0.02007
G1 X75.003 Y47.050 E0.02007
G1 X74.418 Y46.789 E0.02006
G1 X73.901 Y46.413 E0.02006
G1 X73.472 Y45.938 E0.02007
G1 X73.152 Y45.383 E0.02007
G1 X72.954 Y44.775 E0.02007
G1 X72.898 Y44.239 E0.01689
G1 X72.544 Y43.982 F7200.000
G1 F5760
G1 X72.954 Y43.502 E-0.25595
G1 X73.152 Y42.893 E-0.22167
G1 X73.472 Y42.339 E-0.22169
G1 X73.589 Y42.209 E-0.06068
G1 E-0.04000 F2100.00000
G1 Z0.800 F7200.000
G1 X89.379 Y44.138
G1 Z0.200
G1 E0.80000 F2100.00000
G1 F1800
G1 X89.458 Y43.396 E0.02341
G1 X89.688 Y42.686 E0.02340
G1 X90.061 Y42.041 E0.02338
G1 X90.560 Y41.486 E0.02338
G1 X91.164 Y41.047 E0.02343
G1 X91.846 Y40.744 E0.02340
G1 X92.575 Y40.588 E0.02337
G1 X93.322 Y40.588 E0.02342
G1 X94.051 Y40.744 E0.02337
G1 X94.733 Y41.047 E0.02340
G1 X95.338 Y41.486 E0.02343
G1 X95.836 Y42.041 E0.02338
G1 X96.209 Y42.686 E0.02338
G1 X96.440 Y43.396 E0.02340
G1 X96.518 Y44.138 E0.02341
G1 X96.440 Y44.881 E0.02341
G1 X96.209 Y45.590 E0.02340
G1 X95.836 Y46.236 E0.02338
G1 X95.338 Y46.791 E0.02338
G1 X94.733 Y47.230 E0.02343
G1 X94.051 Y47.533 E0.02340
G1 X93.322 Y47.688 E0.02337
G1 X92.575 Y47.688 E0.02342
G1 X91.846 Y47.533 E0.02337
G1 X91.164 Y47.230 E0.02340
G1 X90.560 Y46.791 E0.02343
G1 X90.061 Y46.236 E0.02338
G1 X89.688 Y45.590 E0.02338
G1 X89.458 Y44.881 E0.02340
G1 X89.386 Y44.198 E0.02152
G1 X89.761 Y44.158 F7200.000
G1 F1800
G1 X89.828 Y43.475 E0.02154
G1 X90.035 Y42.841 E0.02091
G1 X90.368 Y42.263 E0.02090
G1 X90.814 Y41.768 E0.02090
G1 X91.354 Y41.375 E0.02093
G1 X91.963 Y41.104 E0.02092
G1 X92.615 Y40.965 E0.02089
G1 X93.283 Y40.965 E0.02093
G1 X93.934 Y41.104 E0.02089
G1 X94.544 Y41.375 E0.02092
G1 X95.084 Y41.768 E0.02093
G1 X95.530 Y42.263 E0.02090
G1 X95.863 Y42.841 E0.02090
G1 X96.069 Y43.475 E0.02091
G1 X96.139 Y44.138 E0.02092
G1 X96.069 Y44.802 E0.02092
G1 X95.863 Y45.436 E0.02091
G1 X95.530 Y46.013 E0.02090
G1 X95.084 Y46.509 E0.02090
G1 X94.544 Y46.901 E0.02093
G1 X93.934 Y47.172 E0.02092
G1 X93.283 Y47.311 E0.02089
G1 X92.615 Y47.311 E0.02093
G1 X91.963 Y47.172 E0.02089
G1 X91.354 Y46.901 E0.02092
G1 X90.814 Y46.509 E0.02093
G1 X90.368 Y46.013 E0.02090
G1 X90.035 Y45.436 E0.02090
G1 X89.828 Y44.802 E0.02091
G1 X89.767 Y44.218 E0.01840
G1 X90.142 Y44.179 F7200.000
G1 F1800
G1 X90.199 Y43.554 E0.01967
G1 X90.381 Y42.995 E0.01843
G1 X90.675 Y42.486 E0.01843
G1 X91.067 Y42.049 E0.01841
G1 X91.543 Y41.704 E0.01844
G1 X92.081 Y41.465 E0.01844
G1 X92.655 Y41.342 E0.01840
G1 X93.243 Y41.342 E0.01844
G1 X93.817 Y41.465 E0.01840
G1 X94.354 Y41.704 E0.01844
G1 X94.830 Y42.049 E0.01844
G1 X95.223 Y42.486 E0.01841
G1 X95.517 Y42.995 E0.01843
G1 X95.698 Y43.554 E0.01843
G1 X95.760 Y44.138 E0.01843
G1 X95.698 Y44.723 E0.01843
G1 X95.517 Y45.282 E0.01843
G1 X95.223 Y45.791 E0.01843
G1 X94.830 Y46.227 E0.01841
G1 X94.354 Y46.573 E0.01844
G1 X93.817 Y46.812 E0.01844
G1 X93.243 Y46.934 E0.01840
G1 X92.655 Y46.934 E0.01844
G1 X92.081 Y46.812 E0.01840
G1 X91.543 Y46.573 E0.01844
G1 X91.068 Y46.227 E0.01844
G1 X90.675 Y45.791 E0.01841
G1 X90.381 Y45.282 E0.01843
G1 X90.199 Y44.723 E0.01843
G1 X90.148 Y44.238 E0.01528
G1 X89.794 Y43.982 F7200.000
G1 F5760
G1 X90.199 Y43.554 E-0.23773
G1 X90.381 Y42.995 E-0.20354
G1 X90.675 Y42.486 E-0.20354
G1 X90.897 Y42.239 E-0.11519
G1 E-0.04000 F2100.00000
G1 Z0.800 F7200.000
G1 X69.913 Y53.174
G1 Z0.200
G1 E0.80000 F2100.00000
G1 F1800
G1 X69.913 Y35.102 E0.56663
G1 X142.985 Y35.102 E2.29111
G1 X142.985 Y53.174 E0.56663
G1 X69.973 Y53.174 E2.28923
G1 X69.536 Y53.551 F7200.000
G1 F1800
G1 X69.536 Y34.725 E0.59027
G1 X143.362 Y34.725 E2.31476
G1 X143.362 Y53.551 E0.59027
G1 X69.596 Y53.551 E2.31288
G1 X69.159 Y53.928 F7200.000
G1 F1800
G1 X69.159 Y34.348 E0.61392
G1 X143.739 Y34.348 E2.33840
G1 X143.739 Y53.928 E0.61392
G1 X69.219 Y53.928 E2.33652
G1 X69.329 Y53.566 F7200.000
G1 F5760
G1 X69.212 Y51.734 E-0.76000
G1 E-0.04000 F2100.00000
G1 Z0.800 F7200.000
G1 X70.789 Y53.061
G1 Z0.200
G1 E0.80000 F2100.00000
G1 F1800
G1 X70.196 Y52.468 E0.02635
G1 X70.196 Y51.934 E0.01676
G1 X71.154 Y52.891 E0.04252
G1 X71.687 Y52.891 E0.01676
G1 X70.196 Y51.400 E0.06622
G1 X70.196 Y50.866 E0.01676
G1 X72.221 Y52.891 E0.08993
G1 X72.755 Y52.891 E0.01676
G1 X70.196 Y50.332 E0.11363
G1 X70.196 Y49.798 E0.01676
G1 X73.289 Y52.891 E0.13733
G1 X73.823 Y52.891 E0.01676
G1 X70.196 Y49.264 E0.16104
G1 X70.196 Y48.730 E0.01676
G1 X74.357 Y52.891 E0.18474
G1 X74.891 Y52.891 E0.01676
G1 X70.196 Y48.196 E0.20844
G1 X70.196 Y47.662 E0.01676
G1 X75.425 Y52.891 E0.23215
G1 X75.959 Y52.891 E0.01676
G1 X70.196 Y47.128 E0.25585
G1 X70.196 Y46.594 E0.01676
G1 X76.493 Y52.891 E0.27956
G1 X77.027 Y52.891 E0.01676
G1 X70.196 Y46.060 E0.30326
G1 X70.196 Y45.527 E0.01676
G1 X77.561 Y52.891 E0.32696
G1 X78.095 Y52.891 E0.01676
G1 X70.196 Y44.993 E0.35067
G1 X70.196 Y44.459 E0.01676
G1 X78.798 Y53.061 E0.38190
G1 F5760
G1 X77.247 Y51.509 E-0.76000
G1 E-0.04000 F2100.00000
G1 Z0.800 F7200.000
G1 X74.017 Y47.746
G1 Z0.200
G1 E0.80000 F2100.00000
G1 F1800
G1 X79.162 Y52.891 E0.22845
G1 X79.696 Y52.891 E0.01676
G1 X74.891 Y48.086 E0.21334
G1 X75.558 Y48.220 E0.02137
G1 X80.230 Y52.891 E0.20740
G1 X80.764 Y52.891 E0.01676
G1 X76.092 Y48.220 E0.20740
G1 X76.378 Y48.220 E0.00896
G1 X76.583 Y48.176 E0.00657
G1 X81.298 Y52.891 E0.20934
G1 X81.832 Y52.891 E0.01676
G1 X77.023 Y48.083 E0.21349
G1 X77.217 Y48.041 E0.00623
G1 X77.424 Y47.949 E0.00709
G1 X82.366 Y52.891 E0.21941
G1 X82.900 Y52.891 E0.01676
G1 X77.793 Y47.785 E0.22671
G1 X78.001 Y47.692 E0.00714
G1 X78.136 Y47.594 E0.00525
G1 X83.434 Y52.891 E0.23518
G1 X83.968 Y52.891 E0.01676
G1 X78.445 Y47.369 E0.24516
G1 X78.744 Y47.134 E0.01193
G1 X84.502 Y52.891 E0.25562
G1 X85.035 Y52.891 E0.01676
G1 X78.997 Y46.853 E0.26809
G1 X79.250 Y46.572 E0.01187
G1 X85.569 Y52.891 E0.28055
G1 X86.103 Y52.891 E0.01676
G1 X79.450 Y46.238 E0.29539
G1 X79.645 Y45.899 E0.01227
G1 X86.637 Y52.891 E0.31041
G1 X87.171 Y52.891 E0.01676
G1 X79.794 Y45.514 E0.32753
G1 X79.925 Y45.111 E0.01330
G1 X87.705 Y52.891 E0.34542
G1 X88.239 Y52.891 E0.01676
G1 X79.999 Y44.651 E0.36582
G1 X80.050 Y44.168 E0.01526
G1 X88.773 Y52.891 E0.38728
G1 X89.307 Y52.891 E0.01676
G1 X79.994 Y43.579 E0.41345
G1 X79.963 Y43.286 E0.00925
G1 X79.833 Y42.883 E0.01327
G1 X89.841 Y52.891 E0.44431
G1 X90.375 Y52.891 E0.01676
G1 X72.869 Y35.385 E0.77719
G1 X73.402 Y35.385 E0.01676
G1 X90.909 Y52.891 E0.77719
G1 X91.442 Y52.891 E0.01676
G1 X73.936 Y35.385 E0.77719
G1 X74.470 Y35.385 E0.01676
G1 X91.976 Y52.891 E0.77719
G1 X92.510 Y52.891 E0.01676
G1 X75.004 Y35.385 E0.77719
G1 X75.538 Y35.385 E0.01676
G1 X93.044 Y52.891 E0.77719
G1 X93.578 Y52.891 E0.01676
G1 X76.072 Y35.385 E0.77719
G1 X76.606 Y35.385 E0.01676
G1 X94.112 Y52.891 E0.77719
G1 X94.646 Y52.891 E0.01676
G1 X77.140 Y35.385 E0.77719
G1 X77.674 Y35.385 E0.01676
G1 X95.180 Y52.891 E0.77719
G1 X95.714 Y52.891 E0.01676
G1 X78.208 Y35.385 E0.77719
G1 X78.742 Y35.385 E0.01676
G1 X96.417 Y53.061 E0.78473
G1 F5760
G1 X94.866 Y51.509 E-0.76000
G1 E-0.04000 F2100.00000
G1 Z0.800 F7200.000
G1 X91.642 Y47.752
G1 Z0.200
G1 E0.80000 F2100.00000
G1 F1800
G1 X96.782 Y52.891 E0.22818
G1 X97.316 Y52.891 E0.01676
G1 X92.355 Y47.930 E0.22025
G1 X92.546 Y47.971 E0.00613
G1 X92.929 Y47.971 E0.01204
G1 X97.850 Y52.891 E0.21844
G1 X98.383 Y52.891 E0.01676
G1 X93.444 Y47.952 E0.21930
G1 X93.884 Y47.858 E0.01413
G1 X98.917 Y52.891 E0.22347
G1 X99.451 Y52.891 E0.01676
G1 X94.294 Y47.734 E0.22894
G1 X94.664 Y47.570 E0.01270
G1 X99.985 Y52.891 E0.23624
G1 X100.519 Y52.891 E0.01676
G1 X95.008 Y47.380 E0.24468
G1 X95.317 Y47.155 E0.01200
G1 X101.053 Y52.891 E0.25465
G1 X101.587 Y52.891 E0.01676
G1 X95.608 Y46.913 E0.26542
G1 X95.861 Y46.632 E0.01187
G1 X102.121 Y52.891 E0.27791
G1 X102.655 Y52.891 E0.01676
G1 X96.103 Y46.340 E0.29087
G1 X96.299 Y46.001 E0.01227
G1 X103.189 Y52.891 E0.30589
G1 X103.723 Y52.891 E0.01676
G1 X96.486 Y45.655 E0.32128
G1 X96.617 Y45.252 E0.01330
G1 X104.257 Y52.891 E0.33917
G1 X104.790 Y52.891 E0.01676
G1 X96.730 Y44.831 E0.35786
G1 X96.781 Y44.348 E0.01525
G1 X105.324 Y52.891 E0.37930
G1 X105.858 Y52.891 E0.01676
G1 X96.767 Y43.800 E0.40361
G1 X96.718 Y43.337 E0.01463
G1 X96.661 Y43.160 E0.00584
G1 X106.392 Y52.891 E0.43204
G1 X106.926 Y52.891 E0.01676
G1 X89.420 Y35.385 E0.77719
G1 X89.954 Y35.385 E0.01676
G1 X107.460 Y52.891 E0.77719
G1 X107.994 Y52.891 E0.01676
G1 X90.488 Y35.385 E0.77719
G1 X91.022 Y35.385 E0.01676
G1 X108.528 Y52.891 E0.77719
G1 X109.062 Y52.891 E0.01676
G1 X91.556 Y35.385 E0.77719
G1 X92.090 Y35.385 E0.01676
G1 X109.596 Y52.891 E0.77719
G1 X110.130 Y52.891 E0.01676
G1 X92.624 Y35.385 E0.77719
G1 X93.157 Y35.385 E0.01676
G1 X110.664 Y52.891 E0.77719
G1 X111.198 Y52.891 E0.01676
G1 X93.691 Y35.385 E0.77719
G1 X94.225 Y35.385 E0.01676
G1 X111.731 Y52.891 E0.77719
G1 X112.265 Y52.891 E0.01676
G1 X94.759 Y35.385 E0.77719
G1 X95.293 Y35.385 E0.01676
G1 X112.799 Y52.891 E0.77719
G1 X113.333 Y52.891 E0.01676
G1 X95.827 Y35.385 E0.77719
G1 X96.361 Y35.385 E0.01676
G1 X113.867 Y52.891 E0.77719
G1 X114.401 Y52.891 E0.01676
G1 X96.895 Y35.385 E0.77719
G1 X97.429 Y35.385 E0.01676
G1 X114.935 Y52.891 E0.77719
G1 X115.469 Y52.891 E0.01676
G1 X97.963 Y35.385 E0.77719
G1 X98.497 Y35.385 E0.01676
G1 X116.003 Y52.891 E0.77719
G1 X116.537 Y52.891 E0.01676
G1 X99.031 Y35.385 E0.77719
G1 X99.565 Y35.385 E0.01676
G1 X117.071 Y52.891 E0.77719
G1 X117.605 Y52.891 E0.01676
G1 X100.098 Y35.385 E0.77719
G1 X100.632 Y35.385 E0.01676
G1 X118.138 Y52.891 E0.77719
G1 X118.672 Y52.891 E0.01676
G1 X101.166 Y35.385 E0.77719
G1 X101.700 Y35.385 E0.01676
G1 X119.206 Y52.891 E0.77719
G1 X119.740 Y52.891 E0.01676
G1 X102.234 Y35.385 E0.77719
G1 X102.768 Y35.385 E0.01676
G1 X120.274 Y52.891 E0.77719
G1 X120.808 Y52.891 E0.01676
G1 X103.302 Y35.385 E0.77719
G1 X103.836 Y35.385 E0.01676
G1 X121.342 Y52.891 E0.77719
G1 X121.876 Y52.891 E0.01676
G1 X104.370 Y35.385 E0.77719
G1 X104.904 Y35.385 E0.01676
G1 X122.410 Y52.891 E0.77719
G1 X122.944 Y52.891 E0.01676
G1 X105.438 Y35.385 E0.77719
G1 X105.972 Y35.385 E0.01676
G1 X123.478 Y52.891 E0.77719
G1 X124.012 Y52.891 E0.01676
G1 X106.505 Y35.385 E0.77719
G1 X107.039 Y35.385 E0.01676
G1 X124.545 Y52.891 E0.77719
G1 X125.079 Y52.891 E0.01676
G1 X107.573 Y35.385 E0.77719
G1 X108.107 Y35.385 E0.01676
G1 X125.613 Y52.891 E0.77719
G1 X126.147 Y52.891 E0.01676
G1 X108.641 Y35.385 E0.77719
G1 X109.175 Y35.385 E0.01676
G1 X126.681 Y52.891 E0.77719
G1 X127.215 Y52.891 E0.01676
G1 X109.709 Y35.385 E0.77719
G1 X110.243 Y35.385 E0.01676
G1 X127.749 Y52.891 E0.77719
G1 X128.283 Y52.891 E0.01676
G1 X110.777 Y35.385 E0.77719
G1 X111.311 Y35.385 E0.01676
G1 X128.817 Y52.891 E0.77719
G1 X129.351 Y52.891 E0.01676
G1 X111.845 Y35.385 E0.77719
G1 X112.379 Y35.385 E0.01676
G1 X129.885 Y52.891 E0.77719
G1 X130.419 Y52.891 E0.01676
G1 X112.912 Y35.385 E0.77719
G1 X113.446 Y35.385 E0.01676
G1 X130.953 Y52.891 E0.77719
G1 X131.486 Y52.891 E0.01676
G1 X113.980 Y35.385 E0.77719
G1 X114.514 Y35.385 E0.01676
G1 X132.020 Y52.891 E0.77719
G1 X132.554 Y52.891 E0.01676
G1 X115.048 Y35.385 E0.77719
G1 X115.582 Y35.385 E0.01676
G1 X133.088 Y52.891 E0.77719
G1 X133.622 Y52.891 E0.01676
G1 X116.116 Y35.385 E0.77719
G1 X116.650 Y35.385 E0.01676
G1 X134.156 Y52.891 E0.77719
G1 X134.690 Y52.891 E0.01676
G1 X117.184 Y35.385 E0.77719
G1 X117.718 Y35.385 E0.01676
G1 X135.224 Y52.891 E0.77719
G1 X135.758 Y52.891 E0.01676
G1 X118.252 Y35.385 E0.77719
G1 X118.786 Y35.385 E0.01676
G1 X136.292 Y52.891 E0.77719
G1 X136.826 Y52.891 E0.01676
G1 X119.320 Y35.385 E0.77719
G1 X119.853 Y35.385 E0.01676
G1 X137.360 Y52.891 E0.77719
G1 X137.893 Y52.891 E0.01676
G1 X120.387 Y35.385 E0.77719
G1 X120.921 Y35.385 E0.01676
G1 X138.427 Y52.891 E0.77719
G1 X138.961 Y52.891 E0.01676
G1 X121.455 Y35.385 E0.77719
