; generated by Slic3r Prusa Edition 1.39.2+win64 on 2018-09-05 at 06:09:14

; 

; external perimeters extrusion width = 0.45mm
; perimeters extrusion width = 0.45mm
; infill extrusion width = 0.45mm
; solid infill extrusion width = 0.45mm
; top infill extrusion width = 0.45mm
; first layer extrusion width = 0.42mm

M107
M115 U3.1.0 ; tell printer latest fw version
M83  ; extruder relative mode
M104 S255 ; set extruder temp
M140 S100 ; set bed temp
M190 S100 ; wait for bed temp
M109 S255 ; wait for extruder temp
G28 W ; home all without mesh bed level
G80 ; mesh bed leveling
G1 Y-3.0 F1000.0 ; go outside print area
G92 E0.0
G1 X60.0 E9.0  F1000.0 ; intro line
G1 X100.0 E12.5  F1000.0 ; intro line
G92 E0.0
M900 K30; Filament gcode
G21 ; set units to millimeters
G90 ; use absolute coordinates
M83 ; use relative distances for extrusion
;BEFORE_LAYER_CHANGE
;0.2


G1 E-0.80000 F2100.00000
G1 Z0.600 F7200.000
;AFTER_LAYER_CHANGE
;0.2
G1 X96.261 Y98.701
G1 Z0.200
G1 E0.80000 F2100.00000
M204 S1000
G1 F1800
G1 X96.552 Y98.137 E0.01989
G1 X96.985 Y97.668 E0.02000
G1 X97.527 Y97.331 E0.02000
G1 X98.138 Y97.151 E0.02000
G1 X106.504 Y97.123 E0.26229
G1 X128.219 Y97.740 E0.68113
G1 X141.659 Y98.799 E0.42271
G1 X142.275 Y98.949 E0.01989
G1 X142.833 Y99.258 E0.02000
G1 X143.463 Y99.963 E0.02966
G1 X143.769 Y100.862 E0.02977
G1 X145.232 Y118.115 E0.54288
G1 X145.234 Y124.433 E0.19812
G1 X145.094 Y125.106 E0.02154
G1 X144.767 Y125.710 E0.02154
G1 X144.432 Y126.073 E0.01550
G1 X144.025 Y126.361 E0.01562
G1 X143.568 Y126.559 E0.01562
G1 X143.080 Y126.656 E0.01562
G1 X134.580 Y126.649 E0.26648
G1 X119.368 Y124.694 E0.48090
G1 X99.217 Y120.565 E0.64493
G1 X98.734 Y120.405 E0.01597
G1 X98.295 Y120.146 E0.01597
G1 X97.678 Y119.464 E0.02884
G1 X97.366 Y118.595 E0.02896
G1 X96.134 Y105.726 E0.40534
G1 X96.123 Y99.458 E0.19653
G1 X96.251 Y98.760 E0.02226
G1 F5760
G1 X96.552 Y98.137 E-0.23961
G1 X96.985 Y97.668 E-0.22097
G1 X97.527 Y97.331 E-0.22097
G1 X97.744 Y97.267 E-0.07845
G1 E-0.04000 F2100.00000
G1 Z0.800 F7200.000
G1 X99.464 Y100.464
G1 Z0.200
G1 E0.80000 F2100.00000
G1 F1800
G1 X105.536 Y100.464 E0.19037
G1 X105.536 Y104.536 E0.12766
G1 X99.464 Y104.536 E0.19037
G1 X99.464 Y100.524 E0.12578
G1 X99.087 Y100.087 F7200.000
G1 F1800
G1 X105.913 Y100.087 E0.21402
G1 X105.913 Y104.913 E0.15131
G1 X99.087 Y104.913 E0.21402
G1 X99.087 Y100.147 E0.14943
G1 X98.710 Y99.710 F7200.000
G1 F1800
G1 X106.290 Y99.710 E0.23767
G1 X106.290 Y105.290 E0.17496
G1 X98.710 Y105.290 E0.23767
G1 X98.710 Y99.770 E0.17308
G1 X99.101 Y99.794 F7200.000
G1 F5760
G1 X100.904 Y99.753 E-0.76000
G1 E-0.04000 F2100.00000
G1 Z0.800 F7200.000
G1 X100.353 Y104.423
G1 Z0.200
G1 E0.80000 F2100.00000
G1 F1800
G1 X99.747 Y103.816 E0.02736
G1 X99.747 Y103.274 E0.01731
G1 X100.726 Y104.253 E0.04418
G1 X101.269 Y104.253 E0.01731
G1 X99.747 Y102.731 E0.06866
G1 X99.747 Y102.189 E0.01731
G1 X101.811 Y104.253 E0.09314
G1 X102.354 Y104.253 E0.01731
G1 X99.747 Y101.646 E0.11762
G1 X99.747 Y101.103 E0.01731
G1 X102.897 Y104.253 E0.14210
G1 X103.439 Y104.253 E0.01731
G1 X99.933 Y100.747 E0.15818
G1 X100.476 Y100.747 E0.01731
G1 X103.982 Y104.253 E0.15818
G1 X104.524 Y104.253 E0.01731
G1 X101.018 Y100.747 E0.15818
G1 X101.561 Y100.747 E0.01731
G1 X105.067 Y104.253 E0.15818
G1 X105.253 Y104.253 E0.00594
G1 X105.253 Y103.897 E0.01137
G1 X102.103 Y100.747 E0.14210
G1 X102.646 Y100.747 E0.01731
G1 X105.253 Y103.354 E0.11762
G1 X105.253 Y102.812 E0.01731
G1 X103.188 Y100.747 E0.09314
G1 X103.731 Y100.747 E0.01731
G1 X105.253 Y102.269 E0.06867
G1 X105.253 Y101.726 E0.01731
G1 X104.274 Y100.747 E0.04419
G1 X104.816 Y100.747 E0.01731
G1 X105.423 Y101.353 E0.02736
G1 F5760
G1 X104.816 Y100.747 E-0.29710
G1 X104.274 Y100.747 E-0.18792
G1 X104.835 Y101.308 E-0.27498
G1 E-0.04000 F2100.00000
G1 Z0.800 F7200.000
G1 X106.753 Y113.205
G1 Z0.200
G1 E0.80000 F2100.00000
G1 F1800
G1 X106.753 Y117.277 E0.12766
G1 X100.681 Y117.277 E0.19037
G1 X100.681 Y113.205 E0.12766
G1 X106.693 Y113.205 E0.18849
G1 X107.130 Y112.828 F7200.000
G1 F1800
G1 X107.130 Y117.654 E0.15131
G1 X100.304 Y117.654 E0.21402
G1 X100.304 Y112.828 E0.15131
G1 X107.070 Y112.828 E0.21214
G1 X107.507 Y112.451 F7200.000
G1 F1800
G1 X107.507 Y118.031 E0.17496
G1 X99.927 Y118.031 E0.23767
G1 X99.927 Y112.451 E0.17496
G1 X107.447 Y112.451 E0.23578
G1 X107.384 Y112.832 F7200.000
G1 F5760
G1 X107.470 Y114.645 E-0.76000
G1 E-0.04000 F2100.00000
G1 Z0.800 F7200.000
G1 X106.640 Y114.095
G1 Z0.200
G1 E0.80000 F2100.00000
G1 F1800
G1 X106.033 Y113.488 E0.02736
G1 X105.490 Y113.488 E0.01731
G1 X106.470 Y114.468 E0.04419
G1 X106.470 Y115.010 E0.01731
G1 X104.948 Y113.488 E0.06867
G1 X104.405 Y113.488 E0.01731
G1 X106.470 Y115.553 E0.09314
G1 X106.470 Y116.095 E0.01731
G1 X103.863 Y113.488 E0.11762
G1 X103.320 Y113.488 E0.01731
G1 X106.470 Y116.638 E0.14210
G1 X106.470 Y116.994 E0.01137
G1 X106.284 Y116.994 E0.00594
G1 X102.778 Y113.488 E0.15818
G1 X102.235 Y113.488 E0.01731
G1 X105.741 Y116.994 E0.15818
G1 X105.198 Y116.994 E0.01731
G1 X101.692 Y113.488 E0.15818
G1 X101.150 Y113.488 E0.01731
G1 X104.656 Y116.994 E0.15818
G1 X104.113 Y116.994 E0.01731
G1 X100.964 Y113.845 E0.14210
G1 X100.964 Y114.387 E0.01731
G1 X103.571 Y116.994 E0.11762
G1 X103.028 Y116.994 E0.01731
G1 X100.964 Y114.930 E0.09314
G1 X100.964 Y115.472 E0.01731
G1 X102.486 Y116.994 E0.06866
G1 X101.943 Y116.994 E0.01731
G1 X100.964 Y116.015 E0.04418
G1 X100.964 Y116.558 E0.01731
G1 X101.570 Y117.164 E0.02736
G1 F5760
G1 X100.964 Y116.558 E-0.29703
G1 X100.964 Y116.015 E-0.18792
G1 X101.525 Y116.577 E-0.27504
G1 E-0.04000 F2100.00000
G1 Z0.800 F7200.000
G1 X120.751 Y117.318
G1 Z0.200
G1 E0.80000 F2100.00000
G1 F1800
G1 X126.823 Y117.318 E0.19037
G1 X126.823 Y121.390 E0.12766
G1 X120.751 Y121.390 E0.19037
G1 X120.751 Y117.378 E0.12578
G1 X120.374 Y116.941 F7200.000
G1 F1800
G1 X127.200 Y116.941 E0.21402
G1 X127.200 Y121.767 E0.15131
G1 X120.374 Y121.767 E0.21402
G1 X120.374 Y117.001 E0.14943
G1 X119.997 Y116.564 F7200.000
G1 F1800
G1 X127.577 Y116.564 E0.23767
G1 X127.577 Y122.144 E0.17496
G1 X119.997 Y122.144 E0.23767
G1 X119.997 Y116.624 E0.17308
G1 X120.388 Y116.648 F7200.000
G1 F5760
G1 X122.191 Y116.606 E-0.76000
G1 E-0.04000 F2100.00000
G1 Z0.800 F7200.000
G1 X121.641 Y121.276
G1 Z0.200
G1 E0.80000 F2100.00000
G1 F1800
G1 X121.034 Y120.670 E0.02736
G1 X121.034 Y120.128 E0.01731
G1 X122.013 Y121.107 E0.04418
G1 X122.556 Y121.107 E0.01731
G1 X121.034 Y119.585 E0.06866
G1 X121.034 Y119.042 E0.01731
G1 X123.099 Y121.107 E0.09314
G1 X123.641 Y121.107 E0.01731
G1 X121.034 Y118.500 E0.11762
G1 X121.034 Y117.957 E0.01731
G1 X124.184 Y121.107 E0.14210
G1 X124.726 Y121.107 E0.01731
G1 X121.220 Y117.601 E0.15818
G1 X121.763 Y117.601 E0.01731
G1 X125.269 Y121.107 E0.15818
G1 X125.811 Y121.107 E0.01731
G1 X122.305 Y117.601 E0.15818
G1 X122.848 Y117.601 E0.01731
G1 X126.354 Y121.107 E0.15818
G1 X126.540 Y121.107 E0.00594
G1 X126.540 Y120.750 E0.01137
G1 X123.391 Y117.601 E0.14210
G1 X123.933 Y117.601 E0.01731
G1 X126.540 Y120.208 E0.11762
G1 X126.540 Y119.665 E0.01731
G1 X124.476 Y117.601 E0.09314
G1 X125.018 Y117.601 E0.01731
G1 X126.540 Y119.123 E0.06867
G1 X126.540 Y118.580 E0.01731
G1 X125.561 Y117.601 E0.04419
G1 X126.103 Y117.601 E0.01731
G1 X126.710 Y118.207 E0.02736
G1 F5760
G1 X126.103 Y117.601 E-0.29710
G1 X125.561 Y117.601 E-0.18792
G1 X126.122 Y118.162 E-0.27498
G1 E-0.04000 F2100.00000
G1 Z0.800 F7200.000
G1 X135.826 Y119.253
G1 Z0.200
G1 E0.80000 F2100.00000
G1 F1800
G1 X141.897 Y119.253 E0.19037
G1 X141.897 Y123.325 E0.12766
G1 X135.826 Y123.325 E0.19037
G1 X135.826 Y119.313 E0.12578
G1 X135.449 Y118.876 F7200.000
G1 F1800
G1 X142.275 Y118.876 E0.21402
G1 X142.275 Y123.702 E0.15131
G1 X135.449 Y123.702 E0.21402
G1 X135.449 Y118.936 E0.14943
G1 X135.072 Y118.499 F7200.000
G1 F1800
G1 X142.652 Y118.499 E0.23767
G1 X142.652 Y124.079 E0.17496
G1 X135.072 Y124.079 E0.23767
G1 X135.072 Y118.559 E0.17308
G1 X135.463 Y118.583 F7200.000
G1 F5760
G1 X137.266 Y118.541 E-0.76000
G1 E-0.04000 F2100.00000
G1 Z0.800 F7200.000
G1 X136.715 Y123.212
G1 Z0.200
G1 E0.80000 F2100.00000
G1 F1800
G1 X136.109 Y122.605 E0.02736
G1 X136.109 Y122.063 E0.01731
G1 X137.088 Y123.042 E0.04418
G1 X137.630 Y123.042 E0.01731
G1 X136.109 Y121.520 E0.06866
G1 X136.109 Y120.977 E0.01731
G1 X138.173 Y123.042 E0.09314
G1 X138.716 Y123.042 E0.01731
G1 X136.109 Y120.435 E0.11762
G1 X136.109 Y119.892 E0.01731
G1 X139.258 Y123.042 E0.14210
G1 X139.801 Y123.042 E0.01731
G1 X136.295 Y119.536 E0.15818
G1 X136.837 Y119.536 E0.01731
G1 X140.343 Y123.042 E0.15818
G1 X140.886 Y123.042 E0.01731
G1 X137.380 Y119.536 E0.15818
G1 X137.922 Y119.536 E0.01731
G1 X141.428 Y123.042 E0.15818
G1 X141.615 Y123.042 E0.00594
G1 X141.615 Y122.685 E0.01137
G1 X138.465 Y119.536 E0.14210
G1 X139.008 Y119.536 E0.01731
G1 X141.615 Y122.143 E0.11762
G1 X141.615 Y121.600 E0.01731
G1 X139.550 Y119.536 E0.09314
G1 X140.093 Y119.536 E0.01731
G1 X141.615 Y121.058 E0.06867
G1 X141.615 Y120.515 E0.01731
G1 X140.635 Y119.536 E0.04419
G1 X141.178 Y119.536 E0.01731
G1 X141.784 Y120.142 E0.02736
G1 F5760
G1 X141.178 Y119.536 E-0.29710
G1 X140.635 Y119.536 E-0.18792
G1 X141.197 Y120.097 E-0.27498
G1 E-0.04000 F2100.00000
G1 Z0.800 F7200.000
G1 X140.447 Y106.199
G1 Z0.200
G1 E0.80000 F2100.00000
G1 F1800
G1 X134.376 Y106.199 E0.19037
G1 X134.376 Y102.127 E0.12766
G1 X140.447 Y102.127 E0.19037
G1 X140.447 Y106.139 E0.12578
G1 X140.824 Y106.576 F7200.000
G1 F1800
G1 X133.999 Y106.576 E0.21402
G1 X133.999 Y101.750 E0.15131
G1 X140.824 Y101.750 E0.21402
G1 X140.824 Y106.516 E0.14943
G1 X141.201 Y106.953 F7200.000
G1 F1800
G1 X133.621 Y106.953 E0.23767
G1 X133.621 Y101.373 E0.17496
G1 X141.201 Y101.373 E0.23767
G1 X141.201 Y106.893 E0.17308
G1 X140.810 Y106.869 F7200.000
G1 F5760
G1 X139.007 Y106.911 E-0.76000
G1 E-0.04000 F2100.00000
G1 Z0.800 F7200.000
G1 X140.334 Y103.017
G1 Z0.200
G1 E0.80000 F2100.00000
G1 F1800
G1 X139.728 Y102.410 E0.02736
G1 X139.185 Y102.410 E0.01731
G1 X140.165 Y103.390 E0.04419
G1 X140.165 Y103.932 E0.01731
G1 X138.643 Y102.410 E0.06867
G1 X138.100 Y102.410 E0.01731
G1 X140.165 Y104.475 E0.09314
G1 X140.165 Y105.017 E0.01731
G1 X137.557 Y102.410 E0.11762
G1 X137.015 Y102.410 E0.01731
G1 X140.165 Y105.560 E0.14210
G1 X140.165 Y105.916 E0.01137
G1 X139.978 Y105.916 E0.00594
G1 X136.472 Y102.410 E0.15818
G1 X135.930 Y102.410 E0.01731
G1 X139.436 Y105.916 E0.15818
G1 X138.893 Y105.916 E0.01731
G1 X135.387 Y102.410 E0.15818
G1 X134.845 Y102.410 E0.01731
G1 X138.351 Y105.916 E0.15818
G1 X137.808 Y105.916 E0.01731
G1 X134.658 Y102.767 E0.14210
G1 X134.658 Y103.309 E0.01731
G1 X137.265 Y105.916 E0.11762
G1 X136.723 Y105.916 E0.01731
G1 X134.658 Y103.852 E0.09314
G1 X134.658 Y104.395 E0.01731
G1 X136.180 Y105.916 E0.06866
G1 X135.638 Y105.916 E0.01731
G1 X134.658 Y104.937 E0.04418
G1 X134.658 Y105.480 E0.01731
G1 X135.265 Y106.086 E0.02736
G1 F5760
G1 X134.658 Y105.480 E-0.29703
G1 X134.658 Y104.937 E-0.18792
G1 X135.220 Y105.499 E-0.27504
G1 E-0.04000 F2100.00000
G1 Z0.800 F7200.000
G1 X127.115 Y105.149
G1 Z0.200
G1 E0.80000 F2100.00000
G1 F1800
G1 X121.043 Y105.149 E0.19037
G1 X121.043 Y101.077 E0.12766
G1 X127.115 Y101.077 E0.19037
G1 X127.115 Y105.089 E0.12578
G1 X127.492 Y105.526 F7200.000
G1 F1800
G1 X120.666 Y105.526 E0.21402
G1 X120.666 Y100.700 E0.15131
G1 X127.492 Y100.700 E0.21402
G1 X127.492 Y105.466 E0.14943
G1 X127.869 Y105.903 F7200.000
G1 F1800
G1 X120.289 Y105.903 E0.23767
G1 X120.289 Y100.323 E0.17496
G1 X127.869 Y100.323 E0.23767
G1 X127.869 Y105.843 E0.17308
G1 X127.478 Y105.819 F7200.000
G1 F5760
G1 X125.675 Y105.861 E-0.76000
G1 E-0.04000 F2100.00000
G1 Z0.800 F7200.000
G1 X127.002 Y101.967
G1 Z0.200
G1 E0.80000 F2100.00000
G1 F1800
G1 X126.395 Y101.360 E0.02736
G1 X125.852 Y101.360 E0.01731
G1 X126.832 Y102.340 E0.04419
G1 X126.832 Y102.882 E0.01731
G1 X125.310 Y101.360 E0.06867
G1 X124.767 Y101.360 E0.01731
G1 X126.832 Y103.425 E0.09314
G1 X126.832 Y103.967 E0.01731
G1 X124.225 Y101.360 E0.11762
G1 X123.682 Y101.360 E0.01731
G1 X126.832 Y104.510 E0.14210
G1 X126.832 Y104.866 E0.01137
G1 X126.646 Y104.866 E0.00594
G1 X123.140 Y101.360 E0.15818
G1 X122.597 Y101.360 E0.01731
G1 X126.103 Y104.866 E0.15818
G1 X125.561 Y104.866 E0.01731
G1 X122.054 Y101.360 E0.15818
G1 X121.512 Y101.360 E0.01731
G1 X125.018 Y104.866 E0.15818
G1 X124.475 Y104.866 E0.01731
G1 X121.326 Y101.717 E0.14210
G1 X121.326 Y102.259 E0.01731
G1 X123.933 Y104.866 E0.11762
G1 X123.390 Y104.866 E0.01731
G1 X121.326 Y102.802 E0.09314
G1 X121.326 Y103.344 E0.01731
G1 X122.848 Y104.866 E0.06866
G1 X122.305 Y104.866 E0.01731
G1 X121.326 Y103.887 E0.04418
G1 X121.326 Y104.430 E0.01731
G1 X121.932 Y105.036 E0.02736
;BEFORE_LAYER_CHANGE
;0.35


G1 F5760
G1 X121.326 Y104.430 E-0.29703
G1 X121.326 Y103.887 E-0.18792
G1 X121.887 Y104.449 E-0.27504
G1 E-0.04000 F2100.00000
G1 Z0.800 F7200.000
;AFTER_LAYER_CHANGE
;0.35
G1 X143.463 Y99.963
G1 Z0.350
G1 E0.80000 F2100.00000
G1 F3000
G1 X143.769 Y100.862 E0.02297
G1 X145.232 Y118.115 E0.41875
G1 X145.234 Y124.433 E0.15282
G1 X145.094 Y125.106 E0.01662
G1 X144.767 Y125.710 E0.01662
G1 X144.432 Y126.073 E0.01195
G1 X144.025 Y126.361 E0.01205
G1 X143.568 Y126.559 E0.01205
G1 X143.080 Y126.656 E0.01205
G1 X134.580 Y126.649 E0.20555
G1 X119.368 Y124.694 E0.37094
G1 X99.217 Y120.565 E0.49746
G1 X98.734 Y120.405 E0.01232
G1 X98.295 Y120.146 E0.01232
G1 X97.678 Y119.464 E0.02224
G1 X97.366 Y118.595 E0.02233
G1 X96.134 Y105.726 E0.31265
G1 X96.123 Y99.458 E0.15159
G1 X96.261 Y98.701 E0.01862
G1 X96.552 Y98.137 E0.01534
G1 X96.985 Y97.668 E0.01543
G1 X97.527 Y97.331 E0.01543
G1 X98.138 Y97.151 E0.01543
G1 X106.504 Y97.123 E0.20232
G1 X128.219 Y97.740 E0.52538
G1 X141.659 Y98.799 E0.32605
G1 X142.275 Y98.949 E0.01534
G1 X142.833 Y99.258 E0.01543
G1 X143.423 Y99.919 E0.02143
G1 F5760
G1 X143.769 Y100.862 E-0.34813
G1 X143.870 Y102.047 E-0.41187
G1 E-0.04000 F2100.00000
G1 Z0.950 F7200.000
G1 X105.439 Y100.561
G1 Z0.350
G1 E0.80000 F2100.00000
M204 S800
G1 F1200
G1 X105.439 Y104.439 E0.10106
G1 X99.561 Y104.439 E0.15318
G1 X99.561 Y100.561 E0.10106
G1 X105.379 Y100.561 E0.15161
M204 S1000
G1 X105.857 Y100.143 F7200.000
M204 S800
G1 F1200
G1 X105.857 Y104.857 E0.12284
G1 X99.143 Y104.857 E0.17495
G1 X99.143 Y100.143 E0.12284
G1 X105.797 Y100.143 E0.17339
M204 S1000
G1 X106.275 Y99.725 F7200.000
M204 S800
G1 F1200
G1 X106.275 Y105.275 E0.14461
G1 X98.725 Y105.275 E0.19672
G1 X98.725 Y99.725 E0.14461
G1 X106.215 Y99.725 E0.19516
M204 S1000
G1 X106.152 Y100.106 F7200.000
G1 F5760
G1 X106.239 Y101.919 E-0.76000
G1 E-0.04000 F2100.00000
G1 Z0.950 F7200.000
G1 X104.422 Y104.314
G1 Z0.350
G1 E0.80000 F2100.00000
M204 S2000
G1 F3000
G1 X105.126 Y103.610 E0.02735
G1 X105.126 Y102.987 E0.01710
G1 X103.987 Y104.126 E0.04422
G1 X103.364 Y104.126 E0.01710
G1 X105.126 Y102.365 E0.06840
G1 X105.126 Y101.742 E0.01710
G1 X102.742 Y104.126 E0.09258
G1 X102.119 Y104.126 E0.01710
G1 X105.126 Y101.119 E0.11676
G1 X105.126 Y100.874 E0.00673
G1 X104.749 Y100.874 E0.01036
G1 X101.497 Y104.126 E0.12628
G1 X100.874 Y104.126 E0.01710
G1 X104.126 Y100.874 E0.12628
G1 X103.503 Y100.874 E0.01710
G1 X100.251 Y104.126 E0.12628
G1 X99.874 Y104.126 E0.01036
G1 X99.874 Y103.881 E0.00674
G1 X102.881 Y100.874 E0.11675
G1 X102.258 Y100.874 E0.01710
G1 X99.874 Y103.258 E0.09257
G1 X99.874 Y102.635 E0.01710
G1 X101.635 Y100.874 E0.06840
G1 X101.013 Y100.874 E0.01710
G1 X99.874 Y102.013 E0.04422
G1 X99.874 Y101.390 E0.01710
G1 X100.578 Y100.686 E0.02734
M204 S1000
G1 F5760
G1 X99.874 Y101.390 E-0.34489
G1 X99.874 Y102.013 E-0.21566
G1 X100.281 Y101.606 E-0.19945
G1 E-0.04000 F2100.00000
G1 Z0.950 F7200.000
G1 X100.777 Y113.302
G1 Z0.350
G1 E0.80000 F2100.00000
M204 S800
G1 F1200
G1 X106.656 Y113.302 E0.15318
G1 X106.656 Y117.181 E0.10106
G1 X100.777 Y117.181 E0.15318
G1 X100.777 Y113.362 E0.09950
M204 S1000
G1 X100.360 Y112.884 F7200.000
M204 S800
G1 F1200
G1 X107.074 Y112.884 E0.17495
G1 X107.074 Y117.598 E0.12284
G1 X100.360 Y117.598 E0.17495
G1 X100.360 Y112.944 E0.12127
M204 S1000
G1 X99.942 Y112.466 F7200.000
M204 S800
G1 F1200
