; generated by Slic3r Prusa Edition 1.39.2+win64 on 2018-10-04 at 11:44:32

; 

; external perimeters extrusion width = 0.45mm
; perimeters extrusion width = 0.45mm
; infill extrusion width = 0.45mm
; solid infill extrusion width = 0.45mm
; top infill extrusion width = 0.45mm
; first layer extrusion width = 0.42mm

M107
M115 U3.1.0 ; tell printer latest fw version
M83  ; extruder relative mode
M104 S205 ; set extruder temp
M140 S55 ; set bed temp
M190 S55 ; wait for bed temp
M109 S205 ; wait for extruder temp
G28 W ; home all without mesh bed level
G80 ; mesh bed leveling
G1 Y-3.0 F1000.0 ; go outside print area
G92 E0.0
G1 X60.0 E9.0  F1000.0 ; intro line
G1 X100.0 E12.5  F1000.0 ; intro line
G92 E0.0
M900 K30; Filament gcode
G21 ; set units to millimeters
G90 ; use absolute coordinates
M83 ; use relative distances for extrusion
;BEFORE_LAYER_CHANGE
;0.2


G1 E-0.80000 F2100.00000
G1 Z0.600 F7200.000
;AFTER_LAYER_CHANGE
;0.2
G1 X94.692 Y38.152
G1 Z0.200
G1 E0.80000 F2100.00000
M204 S1000
G1 F1800
G1 X95.422 Y38.028 E0.02319
G1 X105.455 Y38.028 E0.31459
G1 X125.906 Y40.072 E0.64443
G1 X160.003 Y47.679 E1.09536
G1 X160.501 Y47.865 E0.01668
G1 X160.949 Y48.160 E0.01680
G1 X161.319 Y48.548 E0.01680
G1 X161.593 Y49.008 E0.01680
G1 X161.803 Y49.950 E0.03024
G1 X161.762 Y60.424 E0.32843
G1 X147.831 Y127.312 E2.14223
G1 X147.651 Y127.829 E0.01716
G1 X147.355 Y128.294 E0.01728
G1 X146.960 Y128.678 E0.01728
G1 X146.487 Y128.961 E0.01728
G1 X145.762 Y129.158 E0.02355
G1 X125.671 Y131.166 E0.63307
G1 X115.496 Y131.171 E0.31906
G1 X114.901 Y131.092 E0.01882
G1 X78.671 Y115.854 E1.23233
G1 X63.502 Y107.767 E0.53899
G1 X62.918 Y107.301 E0.02343
G1 X62.507 Y106.677 E0.02343
G1 X62.353 Y106.211 E0.01538
G1 X62.297 Y105.728 E0.01526
G1 X62.297 Y95.680 E0.31504
G1 X62.377 Y95.085 E0.01882
G1 X78.198 Y47.649 E1.56786
G1 X78.436 Y47.144 E0.01752
G1 X78.816 Y46.679 E0.01882
G1 X79.301 Y46.325 E0.01882
G1 X94.639 Y38.180 E0.54453
G1 F5760
G1 X95.422 Y38.028 E-0.27602
G1 X96.819 Y38.028 E-0.48398
G1 E-0.04000 F2100.00000
G1 Z0.800 F7200.000
G1 X132.716 Y93.544
G1 Z0.200
G1 E0.80000 F2100.00000
G1 F1800
G1 X133.254 Y93.304 E0.01848
G1 X133.831 Y93.181 E0.01848
G1 X134.421 Y93.181 E0.01848
G1 X134.997 Y93.304 E0.01848
G1 X135.536 Y93.544 E0.01848
G1 X136.012 Y93.890 E0.01848
G1 X136.407 Y94.328 E0.01848
G1 X136.702 Y94.840 E0.01853
G1 X136.885 Y95.407 E0.01868
G1 X136.945 Y95.985 E0.01822
G1 X136.884 Y96.571 E0.01848
G1 X136.702 Y97.132 E0.01849
G1 X136.407 Y97.642 E0.01848
G1 X136.012 Y98.080 E0.01848
G1 X135.536 Y98.427 E0.01848
G1 X134.997 Y98.667 E0.01848
G1 X134.421 Y98.789 E0.01848
G1 X133.831 Y98.789 E0.01848
G1 X133.254 Y98.667 E0.01848
G1 X132.716 Y98.427 E0.01848
G1 X132.239 Y98.080 E0.01848
G1 X131.845 Y97.642 E0.01848
G1 X131.549 Y97.131 E0.01853
G1 X131.367 Y96.563 E0.01868
G1 X131.306 Y95.985 E0.01822
G1 X131.368 Y95.399 E0.01848
G1 X131.550 Y94.838 E0.01849
G1 X131.845 Y94.328 E0.01848
G1 X132.239 Y93.890 E0.01848
G1 X132.667 Y93.579 E0.01659
G1 X132.889 Y93.884 F7200.000
G1 F1800
G1 X133.372 Y93.664 E0.01662
G1 X133.871 Y93.558 E0.01600
G1 X134.381 Y93.558 E0.01600
G1 X134.880 Y93.664 E0.01600
G1 X135.346 Y93.872 E0.01600
G1 X135.759 Y94.172 E0.01599
G1 X136.100 Y94.551 E0.01600
G1 X136.356 Y94.993 E0.01603
G1 X136.514 Y95.485 E0.01620
G1 X136.566 Y95.985 E0.01576
G1 X136.513 Y96.492 E0.01599
G1 X136.355 Y96.978 E0.01600
G1 X136.100 Y97.420 E0.01600
G1 X135.759 Y97.799 E0.01600
G1 X135.346 Y98.098 E0.01599
G1 X134.880 Y98.306 E0.01600
G1 X134.381 Y98.412 E0.01600
G1 X133.871 Y98.412 E0.01600
G1 X133.372 Y98.306 E0.01600
G1 X132.906 Y98.098 E0.01600
G1 X132.493 Y97.799 E0.01599
G1 X132.152 Y97.420 E0.01600
G1 X131.896 Y96.977 E0.01603
G1 X131.738 Y96.485 E0.01620
G1 X131.685 Y95.985 E0.01576
G1 X131.739 Y95.478 E0.01599
G1 X131.896 Y94.993 E0.01600
G1 X132.152 Y94.551 E0.01600
G1 X132.493 Y94.172 E0.01600
G1 X132.841 Y93.919 E0.01347
G1 X133.095 Y94.200 F7200.000
G1 F1800
G1 X133.489 Y94.025 E0.01351
G1 X133.910 Y93.935 E0.01351
G1 X134.341 Y93.935 E0.01351
G1 X134.763 Y94.025 E0.01351
G1 X135.156 Y94.200 E0.01351
G1 X135.505 Y94.453 E0.01351
G1 X135.793 Y94.774 E0.01351
G1 X136.009 Y95.147 E0.01352
G1 X136.143 Y95.563 E0.01371
G1 X136.187 Y95.985 E0.01330
G1 X136.142 Y96.414 E0.01351
G1 X136.009 Y96.824 E0.01351
G1 X135.793 Y97.197 E0.01351
G1 X135.505 Y97.517 E0.01351
G1 X135.156 Y97.770 E0.01351
G1 X134.763 Y97.945 E0.01351
G1 X134.341 Y98.035 E0.01351
G1 X133.910 Y98.035 E0.01351
G1 X133.489 Y97.945 E0.01351
G1 X133.095 Y97.770 E0.01351
G1 X132.747 Y97.517 E0.01351
G1 X132.458 Y97.197 E0.01351
G1 X132.243 Y96.823 E0.01352
G1 X132.109 Y96.407 E0.01371
G1 X132.065 Y95.985 E0.01330
G1 X132.110 Y95.557 E0.01351
G1 X132.243 Y95.147 E0.01351
G1 X132.458 Y94.774 E0.01351
G1 X132.747 Y94.453 E0.01351
G1 X133.047 Y94.235 E0.01163
G1 X133.095 Y93.800 F7200.000
G1 F5760
G1 X133.489 Y94.025 E-0.16963
G1 X133.910 Y93.935 E-0.14925
G1 X134.341 Y93.935 E-0.14926
G1 X134.763 Y94.025 E-0.14925
G1 X135.139 Y94.192 E-0.14261
G1 E-0.04000 F2100.00000
G1 Z0.800 F7200.000
G1 X133.831 Y55.789
G1 Z0.200
G1 E0.80000 F2100.00000
G1 F1800
G1 X133.254 Y55.667 E0.01848
G1 X132.716 Y55.427 E0.01848
G1 X132.239 Y55.080 E0.01848
G1 X131.845 Y54.642 E0.01848
G1 X131.549 Y54.131 E0.01853
G1 X131.367 Y53.563 E0.01868
G1 X131.306 Y52.985 E0.01822
G1 X131.368 Y52.399 E0.01848
G1 X131.550 Y51.838 E0.01849
G1 X131.845 Y51.328 E0.01848
G1 X132.239 Y50.890 E0.01848
G1 X132.716 Y50.544 E0.01848
G1 X133.254 Y50.304 E0.01848
G1 X133.831 Y50.181 E0.01848
G1 X134.421 Y50.181 E0.01848
G1 X134.997 Y50.304 E0.01848
G1 X135.536 Y50.544 E0.01848
G1 X136.012 Y50.890 E0.01848
G1 X136.407 Y51.328 E0.01848
G1 X136.702 Y51.840 E0.01853
G1 X136.885 Y52.407 E0.01868
G1 X136.945 Y52.985 E0.01822
G1 X136.884 Y53.571 E0.01848
G1 X136.702 Y54.132 E0.01849
G1 X136.407 Y54.642 E0.01848
G1 X136.012 Y55.080 E0.01848
G1 X135.536 Y55.427 E0.01848
G1 X134.997 Y55.667 E0.01848
G1 X134.421 Y55.789 E0.01848
G1 X133.891 Y55.789 E0.01660
G1 X133.891 Y55.412 F7200.000
G1 F1800
G1 X133.372 Y55.306 E0.01662
G1 X132.906 Y55.098 E0.01600
G1 X132.493 Y54.799 E0.01599
G1 X132.152 Y54.420 E0.01600
G1 X131.896 Y53.977 E0.01603
G1 X131.738 Y53.485 E0.01620
G1 X131.685 Y52.985 E0.01576
G1 X131.739 Y52.478 E0.01599
G1 X131.896 Y51.993 E0.01600
G1 X132.152 Y51.551 E0.01600
G1 X132.493 Y51.172 E0.01600
G1 X132.906 Y50.872 E0.01599
G1 X133.372 Y50.664 E0.01600
G1 X133.871 Y50.558 E0.01600
G1 X134.381 Y50.558 E0.01600
G1 X134.880 Y50.664 E0.01600
G1 X135.346 Y50.872 E0.01600
G1 X135.759 Y51.172 E0.01599
G1 X136.100 Y51.551 E0.01600
G1 X136.356 Y51.993 E0.01603
G1 X136.514 Y52.485 E0.01620
G1 X136.566 Y52.985 E0.01576
G1 X136.513 Y53.492 E0.01599
G1 X136.355 Y53.978 E0.01600
G1 X136.100 Y54.420 E0.01600
G1 X135.759 Y54.799 E0.01600
G1 X135.346 Y55.098 E0.01599
G1 X134.880 Y55.306 E0.01600
G1 X134.381 Y55.412 E0.01600
G1 X133.951 Y55.412 E0.01348
G1 X133.910 Y55.035 F7200.000
G1 F1800
G1 X133.489 Y54.945 E0.01351
G1 X133.095 Y54.770 E0.01351
G1 X132.747 Y54.517 E0.01351
G1 X132.458 Y54.197 E0.01351
G1 X132.243 Y53.823 E0.01352
G1 X132.109 Y53.407 E0.01371
G1 X132.065 Y52.985 E0.01330
G1 X132.110 Y52.557 E0.01351
G1 X132.243 Y52.147 E0.01351
G1 X132.458 Y51.774 E0.01351
G1 X132.747 Y51.453 E0.01351
G1 X133.095 Y51.200 E0.01351
G1 X133.489 Y51.025 E0.01351
G1 X133.910 Y50.935 E0.01351
G1 X134.341 Y50.935 E0.01351
G1 X134.763 Y51.025 E0.01351
G1 X135.156 Y51.200 E0.01351
G1 X135.505 Y51.453 E0.01351
G1 X135.793 Y51.774 E0.01351
G1 X136.009 Y52.147 E0.01352
G1 X136.143 Y52.563 E0.01371
G1 X136.187 Y52.985 E0.01330
G1 X136.142 Y53.414 E0.01351
G1 X136.009 Y53.824 E0.01351
G1 X135.793 Y54.197 E0.01351
G1 X135.505 Y54.517 E0.01351
G1 X135.156 Y54.770 E0.01351
G1 X134.763 Y54.945 E0.01351
G1 X134.341 Y55.035 E0.01351
G1 X133.970 Y55.035 E0.01163
G1 X133.675 Y55.359 F7200.000
G1 F5760
G1 X133.489 Y54.945 E-0.16963
G1 X133.095 Y54.770 E-0.14925
G1 X132.747 Y54.517 E-0.14923
G1 X132.458 Y54.197 E-0.14924
G1 X132.252 Y53.840 E-0.14265
G1 E-0.04000 F2100.00000
G1 Z0.800 F7200.000
G1 X138.462 Y50.949
G1 Z0.200
G1 E0.80000 F2100.00000
G1 F1800
G1 X158.462 Y50.949 E0.62709
G1 X158.462 Y59.021 E0.25308
G1 X138.462 Y59.021 E0.62709
G1 X138.462 Y102.021 E1.34823
G1 X130.390 Y102.021 E0.25308
G1 X130.390 Y65.021 E1.16011
G1 X115.390 Y65.021 E0.47031
G1 X115.390 Y56.949 E0.25308
G1 X130.390 Y56.949 E0.47031
G1 X130.390 Y48.949 E0.25083
G1 X138.462 Y48.949 E0.25308
G1 X138.462 Y50.889 E0.06083
G1 X138.839 Y50.572 F7200.000
G1 F1800
G1 X158.839 Y50.572 E0.62709
G1 X158.839 Y59.398 E0.27673
G1 X138.839 Y59.398 E0.62709
G1 X138.839 Y102.398 E1.34823
G1 X130.013 Y102.398 E0.27673
G1 X130.013 Y65.398 E1.16011
G1 X115.013 Y65.398 E0.47031
G1 X115.013 Y56.572 E0.27673
G1 X130.013 Y56.572 E0.47031
G1 X130.013 Y48.572 E0.25083
G1 X138.839 Y48.572 E0.27673
G1 X138.839 Y50.512 E0.06083
G1 X139.216 Y50.195 F7200.000
G1 F1800
G1 X159.216 Y50.195 E0.62709
G1 X159.216 Y59.775 E0.30037
G1 X139.216 Y59.775 E0.62709
G1 X139.216 Y102.775 E1.34823
G1 X129.636 Y102.775 E0.30037
G1 X129.636 Y65.775 E1.16011
G1 X114.636 Y65.775 E0.47031
G1 X114.636 Y56.195 E0.30037
G1 X129.636 Y56.195 E0.47031
G1 X129.636 Y48.195 E0.25083
G1 X139.216 Y48.195 E0.30037
G1 X139.216 Y50.135 E0.06083
G1 X139.392 Y50.554 F7200.000
G1 F5760
G1 X141.410 Y50.142 E-0.76000
G1 E-0.04000 F2100.00000
G1 Z0.800 F7200.000
G1 X138.349 Y49.511
G1 Z0.200
G1 E0.80000 F2100.00000
G1 F1800
G1 X138.070 Y49.232 E0.01241
G1 X137.534 Y49.232 E0.01688
G1 X138.179 Y49.877 E0.02873
G1 X138.179 Y50.413 E0.01688
G1 X136.998 Y49.232 E0.05260
G1 X136.462 Y49.232 E0.01688
G1 X145.969 Y58.738 E0.42354
G1 X146.504 Y58.738 E0.01688
G1 X138.998 Y51.232 E0.33443
G1 X139.534 Y51.232 E0.01688
G1 X147.040 Y58.738 E0.33443
G1 X147.576 Y58.738 E0.01688
G1 X140.070 Y51.232 E0.33443
G1 X140.606 Y51.232 E0.01688
G1 X148.112 Y58.738 E0.33443
G1 X148.648 Y58.738 E0.01688
G1 X141.142 Y51.232 E0.33443
G1 X141.677 Y51.232 E0.01688
G1 X149.184 Y58.738 E0.33443
G1 X149.719 Y58.738 E0.01688
G1 X142.213 Y51.232 E0.33443
G1 X142.749 Y51.232 E0.01688
G1 X150.255 Y58.738 E0.33443
G1 X150.791 Y58.738 E0.01688
G1 X143.285 Y51.232 E0.33443
G1 X143.821 Y51.232 E0.01688
G1 X151.327 Y58.738 E0.33443
G1 X151.863 Y58.738 E0.01688
G1 X144.357 Y51.232 E0.33443
G1 X144.892 Y51.232 E0.01688
G1 X152.398 Y58.738 E0.33443
G1 X152.934 Y58.738 E0.01688
G1 X145.428 Y51.232 E0.33443
G1 X145.964 Y51.232 E0.01688
G1 X153.470 Y58.738 E0.33443
G1 X154.006 Y58.738 E0.01688
G1 X146.500 Y51.232 E0.33443
G1 X147.036 Y51.232 E0.01688
G1 X154.542 Y58.738 E0.33443
G1 X155.078 Y58.738 E0.01688
G1 X147.571 Y51.232 E0.33443
G1 X148.107 Y51.232 E0.01688
G1 X155.613 Y58.738 E0.33443
G1 X156.149 Y58.738 E0.01688
G1 X148.643 Y51.232 E0.33443
G1 X149.179 Y51.232 E0.01688
G1 X156.685 Y58.738 E0.33443
G1 X157.221 Y58.738 E0.01688
G1 X149.715 Y51.232 E0.33443
G1 X150.251 Y51.232 E0.01688
G1 X157.757 Y58.738 E0.33443
G1 X158.179 Y58.738 E0.01330
G1 X158.179 Y58.625 E0.00358
G1 X150.786 Y51.232 E0.32936
G1 X151.322 Y51.232 E0.01688
G1 X158.179 Y58.089 E0.30549
G1 X158.179 Y57.553 E0.01688
G1 X151.858 Y51.232 E0.28162
G1 X152.394 Y51.232 E0.01688
G1 X158.179 Y57.017 E0.25774
G1 X158.179 Y56.481 E0.01688
G1 X152.930 Y51.232 E0.23387
G1 X153.466 Y51.232 E0.01688
G1 X158.179 Y55.945 E0.21000
G1 X158.179 Y55.410 E0.01688
G1 X154.001 Y51.232 E0.18612
G1 X154.537 Y51.232 E0.01688
G1 X158.179 Y54.874 E0.16225
G1 X158.179 Y54.338 E0.01688
G1 X155.073 Y51.232 E0.13838
G1 X155.609 Y51.232 E0.01688
G1 X158.179 Y53.802 E0.11450
G1 X158.179 Y53.266 E0.01688
G1 X156.145 Y51.232 E0.09063
G1 X156.680 Y51.232 E0.01688
G1 X158.179 Y52.730 E0.06676
G1 X158.179 Y52.195 E0.01688
G1 X157.216 Y51.232 E0.04289
G1 X157.752 Y51.232 E0.01688
G1 X158.349 Y51.829 E0.02657
G1 F5760
G1 X157.752 Y51.232 E-0.29214
G1 X157.216 Y51.232 E-0.18558
G1 X157.793 Y51.808 E-0.28228
G1 E-0.04000 F2100.00000
G1 Z0.800 F7200.000
G1 X145.602 Y58.908
G1 Z0.200
G1 E0.80000 F2100.00000
G1 F1800
G1 X135.927 Y49.232 E0.43110
G1 X135.391 Y49.232 E0.01688
G1 X144.897 Y58.738 E0.42354
G1 X144.361 Y58.738 E0.01688
G1 X134.855 Y49.232 E0.42354
G1 X134.319 Y49.232 E0.01688
G1 X135.149 Y50.062 E0.03695
G1 X135.085 Y50.033 E0.00219
G1 X134.450 Y49.898 E0.02047
G1 X133.783 Y49.232 E0.02968
G1 X133.248 Y49.232 E0.01688
G1 X133.914 Y49.898 E0.02968
G1 X133.801 Y49.898 E0.00354
G1 X133.452 Y49.973 E0.01125
G1 X132.712 Y49.232 E0.03299
G1 X132.176 Y49.232 E0.01688
G1 X133.035 Y50.092 E0.03830
G1 X132.665 Y50.257 E0.01278
G1 X131.640 Y49.232 E0.04565
G1 X131.104 Y49.232 E0.01688
G1 X132.340 Y50.467 E0.05504
G1 X132.033 Y50.697 E0.01206
G1 X130.673 Y49.336 E0.06060
G1 X130.673 Y49.872 E0.01688
G1 X131.779 Y50.978 E0.04928
G1 X131.615 Y51.161 E0.00773
G1 X131.545 Y51.281 E0.00437
G1 X130.673 Y50.408 E0.03888
G1 X130.673 Y50.944 E0.01688
G1 X131.349 Y51.620 E0.03014
G1 X131.290 Y51.723 E0.00372
G1 X131.198 Y52.005 E0.00937
G1 X130.673 Y51.480 E0.02342
G1 X130.673 Y52.016 E0.01688
G1 X131.081 Y52.424 E0.01819
G1 X131.030 Y52.909 E0.01536
G1 X130.673 Y52.551 E0.01592
G1 X130.673 Y53.087 E0.01688
G1 X131.075 Y53.489 E0.01792
G1 X131.089 Y53.622 E0.00419
G1 X131.286 Y54.237 E0.02034
G1 X130.673 Y53.623 E0.02733
G1 X130.673 Y54.159 E0.01688
G1 X138.179 Y61.665 E0.33443
G1 X138.179 Y61.129 E0.01688
G1 X132.842 Y55.793 E0.23776
G1 X133.167 Y55.937 E0.01118
G1 X133.619 Y56.033 E0.01456
G1 X138.179 Y60.593 E0.20317
G1 X138.179 Y60.058 E0.01688
G1 X134.193 Y56.072 E0.17757
G1 X134.450 Y56.072 E0.00809
G1 X134.680 Y56.023 E0.00741
G1 X138.179 Y59.522 E0.15588
G1 X138.179 Y58.986 E0.01688
G1 X135.116 Y55.923 E0.13645
G1 X135.487 Y55.758 E0.01278
G1 X138.467 Y58.738 E0.13278
G1 X139.003 Y58.738 E0.01688
G1 X135.828 Y55.564 E0.14144
G1 X136.139 Y55.338 E0.01209
G1 X139.539 Y58.738 E0.15148
G1 X140.074 Y58.738 E0.01688
G1 X136.404 Y55.068 E0.16353
G1 X136.653 Y54.781 E0.01197
G1 X140.610 Y58.738 E0.17630
G1 X141.146 Y58.738 E0.01688
G1 X136.849 Y54.441 E0.19144
G1 X136.961 Y54.248 E0.00705
G1 X137.018 Y54.074 E0.00575
G1 X141.682 Y58.738 E0.20781
G1 X142.218 Y58.738 E0.01688
G1 X137.149 Y53.670 E0.22583
G1 X137.208 Y53.192 E0.01514
G1 X142.754 Y58.738 E0.24709
G1 X143.289 Y58.738 E0.01688
G1 X137.194 Y52.642 E0.27159
G1 X137.163 Y52.349 E0.00931
G1 X137.034 Y51.947 E0.01330
G1 X143.995 Y58.908 E0.31015
G1 F5760
G1 X142.443 Y57.356 E-0.76000
G1 E-0.04000 F2100.00000
G1 Z0.800 F7200.000
G1 X138.349 Y62.371
G1 Z0.200
G1 E0.80000 F2100.00000
G1 F1800
G1 X130.673 Y54.695 E0.34199
G1 X130.673 Y55.231 E0.01688
G1 X138.179 Y62.737 E0.33443
G1 X138.179 Y63.272 E0.01688
G1 X130.673 Y55.766 E0.33443
G1 X130.673 Y56.302 E0.01688
G1 X138.179 Y63.808 E0.33443
G1 X138.179 Y64.344 E0.01688
G1 X130.673 Y56.838 E0.33443
G1 X130.673 Y57.232 E0.01242
G1 X130.531 Y57.232 E0.00447
G1 X138.179 Y64.880 E0.34074
G1 X138.179 Y65.416 E0.01688
G1 X129.995 Y57.232 E0.36461
G1 X129.459 Y57.232 E0.01688
G1 X138.179 Y65.952 E0.38849
G1 X138.179 Y66.487 E0.01688
G1 X128.924 Y57.232 E0.41236
G1 X128.388 Y57.232 E0.01688
G1 X138.179 Y67.023 E0.43623
G1 X138.179 Y67.559 E0.01688
G1 X127.852 Y57.232 E0.46011
G1 X127.316 Y57.232 E0.01688
G1 X138.179 Y68.095 E0.48398
G1 X138.179 Y68.631 E0.01688
G1 X126.780 Y57.232 E0.50785
G1 X126.244 Y57.232 E0.01688
G1 X138.179 Y69.167 E0.53173
G1 X138.179 Y69.702 E0.01688
G1 X125.709 Y57.232 E0.55560
G1 X125.173 Y57.232 E0.01688
G1 X138.179 Y70.238 E0.57947
G1 X138.179 Y70.774 E0.01688
G1 X124.637 Y57.232 E0.60335
G1 X124.101 Y57.232 E0.01688
G1 X138.179 Y71.310 E0.62722
G1 X138.179 Y71.846 E0.01688
G1 X123.565 Y57.232 E0.65109
G1 X123.029 Y57.232 E0.01688
G1 X138.179 Y72.381 E0.67496
G1 X138.179 Y72.917 E0.01688
G1 X130.673 Y65.411 E0.33443
G1 X130.673 Y65.947 E0.01688
G1 X138.179 Y73.453 E0.33443
G1 X138.179 Y73.989 E0.01688
G1 X130.673 Y66.483 E0.33443
G1 X130.673 Y67.019 E0.01688
G1 X138.179 Y74.525 E0.33443
G1 X138.179 Y75.061 E0.01688
G1 X130.673 Y67.554 E0.33443
G1 X130.673 Y68.090 E0.01688
G1 X138.179 Y75.596 E0.33443
G1 X138.179 Y76.132 E0.01688
G1 X130.673 Y68.626 E0.33443
G1 X130.673 Y69.162 E0.01688
