; generated by Slic3r Prusa Edition 1.39.2+win64 on 2018-10-28 at 12:13:49

; 

; external perimeters extrusion width = 0.45mm
; perimeters extrusion width = 0.45mm
; infill extrusion width = 0.45mm
; solid infill extrusion width = 0.45mm
; top infill extrusion width = 0.45mm
; first layer extrusion width = 0.42mm

M107
M115 U3.1.0 ; tell printer latest fw version
M83  ; extruder relative mode
M104 S205 ; set extruder temp
M140 S55 ; set bed temp
M190 S55 ; wait for bed temp
M109 S205 ; wait for extruder temp
G28 W ; home all without mesh bed level
G80 ; mesh bed leveling
G1 Y-3.0 F1000.0 ; go outside print area
G92 E0.0
G1 X60.0 E9.0  F1000.0 ; intro line
G1 X100.0 E12.5  F1000.0 ; intro line
G92 E0.0
M900 K30; Filament gcode
G21 ; set units to millimeters
G90 ; use absolute coordinates
M83 ; use relative distances for extrusion
;BEFORE_LAYER_CHANGE
;0.2


G1 E-0.80000 F2100.00000
G1 Z0.600 F7200.000
;AFTER_LAYER_CHANGE
;0.2
G1 X46.907 Y23.620
G1 Z0.200
G1 E0.80000 F2100.00000
M204 S1000
G1 F1800
G1 X49.383 Y22.531 E0.08480
G1 X51.676 Y22.042 E0.07351
G1 X79.321 Y17.609 E0.87786
G1 X91.599 Y17.594 E0.38498
G1 X125.738 Y20.020 E1.07310
G1 X127.146 Y20.351 E0.04534
G1 X128.072 Y20.777 E0.03198
G1 X128.922 Y21.380 E0.03269
G1 X129.854 Y22.368 E0.04255
G1 X130.469 Y23.409 E0.03792
G1 X130.870 Y24.598 E0.03935
G1 X131.002 Y25.697 E0.03471
G1 X131.008 Y46.385 E0.64865
G1 X130.820 Y47.815 E0.04522
G1 X130.501 Y48.755 E0.03113
G1 X130.016 Y49.621 E0.03113
G1 X129.183 Y50.619 E0.04074
G1 X107.748 Y71.679 E0.94221
G1 X100.152 Y77.694 E0.30379
G1 X99.205 Y78.354 E0.03618
G1 X98.101 Y78.829 E0.03768
G1 X96.752 Y79.078 E0.04302
G1 X73.453 Y79.078 E0.73052
G1 X72.042 Y78.814 E0.04502
G1 X70.941 Y78.330 E0.03770
G1 X70.067 Y77.715 E0.03352
G1 X62.601 Y71.819 E0.29826
G1 X62.108 Y71.274 E0.02308
G1 X43.011 Y41.487 E1.10938
G1 X41.870 Y39.512 E0.07152
G1 X41.008 Y36.941 E0.08503
G1 X40.742 Y34.574 E0.07469
G1 X40.743 Y34.084 E0.01534
G1 X41.062 Y31.529 E0.08074
G1 X41.797 Y29.306 E0.07343
G1 X42.958 Y27.266 E0.07357
G1 X44.670 Y25.288 E0.08202
G1 X46.859 Y23.656 E0.08563
G1 F5760
G1 X48.863 Y22.763 E-0.76000
G1 E-0.04000 F2100.00000
G1 Z0.800 F7200.000
G1 X101.217 Y45.152
G1 Z0.200
G1 E0.80000 F2100.00000
G1 F1800
G1 X101.465 Y44.723 E0.01553
G1 X101.796 Y44.355 E0.01553
G1 X102.197 Y44.064 E0.01553
G1 X102.649 Y43.862 E0.01553
G1 X103.134 Y43.759 E0.01553
G1 X103.629 Y43.759 E0.01553
G1 X104.114 Y43.862 E0.01553
G1 X104.566 Y44.064 E0.01553
G1 X104.967 Y44.355 E0.01553
G1 X105.298 Y44.723 E0.01553
G1 X105.546 Y45.152 E0.01553
G1 X105.699 Y45.623 E0.01553
G1 X105.751 Y46.116 E0.01553
G1 X105.699 Y46.608 E0.01553
G1 X105.546 Y47.080 E0.01553
G1 X105.298 Y47.509 E0.01553
G1 X104.967 Y47.877 E0.01553
G1 X104.566 Y48.168 E0.01553
G1 X104.114 Y48.369 E0.01553
G1 X103.629 Y48.472 E0.01553
G1 X103.134 Y48.472 E0.01552
G1 X102.649 Y48.369 E0.01553
G1 X102.197 Y48.168 E0.01553
G1 X101.796 Y47.877 E0.01553
G1 X101.465 Y47.509 E0.01553
G1 X101.217 Y47.080 E0.01553
G1 X101.064 Y46.608 E0.01553
G1 X101.012 Y46.116 E0.01553
G1 X101.064 Y45.623 E0.01553
G1 X101.198 Y45.209 E0.01365
G1 X101.557 Y45.326 F7200.000
G1 F1800
G1 X101.771 Y44.946 E0.01367
G1 X102.050 Y44.637 E0.01304
G1 X102.386 Y44.392 E0.01305
G1 X102.766 Y44.223 E0.01305
G1 X103.173 Y44.136 E0.01305
G1 X103.589 Y44.136 E0.01304
G1 X103.996 Y44.223 E0.01305
G1 X104.377 Y44.392 E0.01305
G1 X104.713 Y44.637 E0.01305
G1 X104.992 Y44.946 E0.01305
G1 X105.200 Y45.306 E0.01305
G1 X105.328 Y45.702 E0.01304
G1 X105.372 Y46.116 E0.01305
G1 X105.328 Y46.530 E0.01305
G1 X105.200 Y46.925 E0.01304
G1 X104.992 Y47.286 E0.01305
G1 X104.713 Y47.595 E0.01305
G1 X104.377 Y47.839 E0.01304
G1 X103.996 Y48.009 E0.01305
G1 X103.589 Y48.095 E0.01305
G1 X103.173 Y48.095 E0.01304
G1 X102.766 Y48.009 E0.01305
G1 X102.386 Y47.839 E0.01305
G1 X102.050 Y47.595 E0.01305
G1 X101.771 Y47.286 E0.01305
G1 X101.563 Y46.925 E0.01305
G1 X101.435 Y46.530 E0.01305
G1 X101.391 Y46.116 E0.01305
G1 X101.435 Y45.702 E0.01305
G1 X101.538 Y45.383 E0.01053
G1 X101.910 Y45.461 F7200.000
G1 F1800
G1 X102.078 Y45.169 E0.01056
G1 X102.303 Y44.918 E0.01056
G1 X102.576 Y44.721 E0.01056
G1 X102.884 Y44.584 E0.01056
G1 X103.213 Y44.513 E0.01056
G1 X103.550 Y44.513 E0.01056
G1 X103.879 Y44.584 E0.01056
G1 X104.187 Y44.721 E0.01056
G1 X104.459 Y44.918 E0.01056
G1 X104.685 Y45.169 E0.01056
G1 X104.853 Y45.461 E0.01056
G1 X104.957 Y45.781 E0.01056
G1 X104.993 Y46.116 E0.01056
G1 X104.957 Y46.451 E0.01056
G1 X104.853 Y46.771 E0.01056
G1 X104.685 Y47.063 E0.01056
G1 X104.459 Y47.313 E0.01056
G1 X104.187 Y47.511 E0.01056
G1 X103.879 Y47.648 E0.01056
G1 X103.550 Y47.718 E0.01056
G1 X103.213 Y47.718 E0.01056
G1 X102.884 Y47.648 E0.01056
G1 X102.576 Y47.511 E0.01056
G1 X102.303 Y47.313 E0.01056
G1 X102.078 Y47.063 E0.01056
G1 X101.910 Y46.771 E0.01056
G1 X101.805 Y46.451 E0.01056
G1 X101.770 Y46.116 E0.01056
G1 X101.805 Y45.781 E0.01056
G1 X101.891 Y45.518 E0.00868
G1 X101.712 Y45.188 F7200.000
G1 F5760
G1 X102.078 Y45.169 E-0.13708
G1 X102.303 Y44.918 E-0.11665
G1 X102.576 Y44.721 E-0.11667
G1 X102.884 Y44.584 E-0.11667
G1 X103.213 Y44.513 E-0.11666
G1 X103.550 Y44.513 E-0.11663
G1 X103.662 Y44.537 E-0.03965
G1 E-0.04000 F2100.00000
G1 Z0.800 F7200.000
G1 X103.134 Y34.472
G1 Z0.200
G1 E0.80000 F2100.00000
G1 F1800
G1 X102.649 Y34.369 E0.01553
G1 X102.197 Y34.168 E0.01553
G1 X101.796 Y33.877 E0.01553
G1 X101.465 Y33.509 E0.01553
G1 X101.217 Y33.080 E0.01553
G1 X101.064 Y32.608 E0.01553
G1 X101.012 Y32.116 E0.01553
G1 X101.064 Y31.623 E0.01553
G1 X101.217 Y31.152 E0.01553
G1 X101.465 Y30.723 E0.01553
G1 X101.796 Y30.355 E0.01553
G1 X102.197 Y30.064 E0.01553
G1 X102.649 Y29.862 E0.01553
G1 X103.134 Y29.759 E0.01553
G1 X103.629 Y29.759 E0.01553
G1 X104.114 Y29.862 E0.01553
G1 X104.566 Y30.064 E0.01553
G1 X104.967 Y30.355 E0.01553
G1 X105.298 Y30.723 E0.01553
G1 X105.546 Y31.152 E0.01553
G1 X105.699 Y31.623 E0.01553
G1 X105.751 Y32.116 E0.01553
G1 X105.699 Y32.608 E0.01553
G1 X105.546 Y33.080 E0.01553
G1 X105.298 Y33.509 E0.01553
G1 X104.967 Y33.877 E0.01553
G1 X104.566 Y34.168 E0.01553
G1 X104.114 Y34.369 E0.01553
G1 X103.629 Y34.472 E0.01553
G1 X103.194 Y34.472 E0.01365
G1 X103.194 Y34.095 F7200.000
G1 F1800
G1 X102.766 Y34.009 E0.01367
G1 X102.386 Y33.839 E0.01305
G1 X102.050 Y33.595 E0.01305
G1 X101.771 Y33.286 E0.01304
G1 X101.563 Y32.925 E0.01305
G1 X101.435 Y32.530 E0.01305
G1 X101.391 Y32.116 E0.01305
G1 X101.435 Y31.702 E0.01305
G1 X101.563 Y31.306 E0.01305
G1 X101.771 Y30.946 E0.01305
G1 X102.050 Y30.637 E0.01304
G1 X102.386 Y30.392 E0.01305
G1 X102.766 Y30.223 E0.01305
G1 X103.173 Y30.136 E0.01305
G1 X103.589 Y30.136 E0.01304
G1 X103.996 Y30.223 E0.01305
G1 X104.377 Y30.392 E0.01305
G1 X104.713 Y30.637 E0.01305
G1 X104.992 Y30.946 E0.01305
G1 X105.200 Y31.306 E0.01305
G1 X105.328 Y31.702 E0.01305
G1 X105.372 Y32.116 E0.01305
G1 X105.328 Y32.530 E0.01305
G1 X105.200 Y32.925 E0.01305
G1 X104.992 Y33.286 E0.01305
G1 X104.713 Y33.595 E0.01305
G1 X104.377 Y33.839 E0.01305
G1 X103.996 Y34.009 E0.01305
G1 X103.589 Y34.095 E0.01305
G1 X103.254 Y34.095 E0.01052
G1 X103.213 Y33.718 F7200.000
G1 F1800
G1 X102.884 Y33.648 E0.01056
G1 X102.576 Y33.511 E0.01056
G1 X102.303 Y33.313 E0.01056
G1 X102.078 Y33.063 E0.01056
G1 X101.910 Y32.771 E0.01056
G1 X101.805 Y32.451 E0.01056
G1 X101.770 Y32.116 E0.01056
G1 X101.805 Y31.781 E0.01056
G1 X101.910 Y31.460 E0.01056
G1 X102.078 Y31.169 E0.01056
G1 X102.303 Y30.918 E0.01056
G1 X102.576 Y30.721 E0.01056
G1 X102.884 Y30.584 E0.01056
G1 X103.213 Y30.513 E0.01056
G1 X103.550 Y30.513 E0.01056
G1 X103.879 Y30.584 E0.01056
G1 X104.187 Y30.721 E0.01056
G1 X104.459 Y30.918 E0.01056
G1 X104.685 Y31.169 E0.01056
G1 X104.853 Y31.460 E0.01056
G1 X104.957 Y31.781 E0.01056
G1 X104.993 Y32.116 E0.01056
G1 X104.957 Y32.451 E0.01056
G1 X104.853 Y32.771 E0.01056
G1 X104.685 Y33.063 E0.01056
G1 X104.459 Y33.313 E0.01056
G1 X104.187 Y33.511 E0.01056
G1 X103.879 Y33.648 E0.01056
G1 X103.550 Y33.718 E0.01056
G1 X103.273 Y33.718 E0.00868
G1 X103.015 Y33.991 F7200.000
G1 F5760
G1 X102.884 Y33.648 E-0.13706
G1 X102.576 Y33.511 E-0.11667
G1 X102.303 Y33.313 E-0.11667
G1 X102.078 Y33.063 E-0.11664
G1 X101.910 Y32.771 E-0.11667
G1 X101.805 Y32.451 E-0.11666
G1 X101.794 Y32.337 E-0.03963
G1 E-0.04000 F2100.00000
G1 Z0.800 F7200.000
G1 X122.012 Y32.116
G1 Z0.200
G1 E0.80000 F2100.00000
G1 F1800
G1 X122.064 Y31.623 E0.01553
G1 X122.217 Y31.152 E0.01553
G1 X122.464 Y30.723 E0.01553
G1 X122.796 Y30.355 E0.01553
G1 X123.197 Y30.064 E0.01553
G1 X123.649 Y29.862 E0.01553
G1 X124.134 Y29.759 E0.01553
G1 X124.629 Y29.759 E0.01553
G1 X125.114 Y29.862 E0.01553
G1 X125.566 Y30.064 E0.01553
G1 X125.967 Y30.355 E0.01553
G1 X126.298 Y30.723 E0.01553
G1 X126.546 Y31.152 E0.01553
G1 X126.699 Y31.623 E0.01553
G1 X126.751 Y32.116 E0.01553
G1 X126.699 Y32.608 E0.01553
G1 X126.546 Y33.080 E0.01553
G1 X126.298 Y33.509 E0.01553
G1 X125.967 Y33.877 E0.01553
G1 X125.566 Y34.168 E0.01553
G1 X125.114 Y34.369 E0.01553
G1 X124.629 Y34.472 E0.01553
G1 X124.134 Y34.472 E0.01553
G1 X123.649 Y34.369 E0.01553
G1 X123.197 Y34.168 E0.01553
G1 X122.796 Y33.877 E0.01553
G1 X122.464 Y33.509 E0.01553
G1 X122.217 Y33.080 E0.01553
G1 X122.064 Y32.608 E0.01553
G1 X122.018 Y32.175 E0.01365
G1 X122.393 Y32.136 F7200.000
G1 F1800
G1 X122.435 Y31.702 E0.01367
G1 X122.563 Y31.306 E0.01305
G1 X122.771 Y30.946 E0.01305
G1 X123.050 Y30.637 E0.01305
G1 X123.386 Y30.392 E0.01305
G1 X123.766 Y30.223 E0.01305
G1 X124.173 Y30.136 E0.01305
G1 X124.589 Y30.136 E0.01304
G1 X124.996 Y30.223 E0.01305
G1 X125.377 Y30.392 E0.01305
G1 X125.713 Y30.637 E0.01305
G1 X125.992 Y30.946 E0.01304
G1 X126.200 Y31.306 E0.01305
G1 X126.328 Y31.702 E0.01305
G1 X126.372 Y32.116 E0.01305
G1 X126.328 Y32.530 E0.01305
G1 X126.200 Y32.925 E0.01305
G1 X125.992 Y33.286 E0.01305
G1 X125.713 Y33.595 E0.01304
G1 X125.377 Y33.839 E0.01305
G1 X124.996 Y34.009 E0.01305
G1 X124.589 Y34.095 E0.01305
G1 X124.173 Y34.095 E0.01304
G1 X123.766 Y34.009 E0.01305
G1 X123.386 Y33.839 E0.01305
G1 X123.050 Y33.595 E0.01305
G1 X122.771 Y33.286 E0.01305
G1 X122.563 Y32.925 E0.01305
G1 X122.435 Y32.530 E0.01305
G1 X122.399 Y32.196 E0.01053
G1 X122.770 Y32.116 F7200.000
G1 F1800
G1 X122.805 Y31.781 E0.01056
G1 X122.910 Y31.460 E0.01056
G1 X123.078 Y31.169 E0.01056
G1 X123.303 Y30.918 E0.01056
G1 X123.576 Y30.721 E0.01056
G1 X123.884 Y30.584 E0.01056
G1 X124.213 Y30.513 E0.01056
G1 X124.550 Y30.513 E0.01056
G1 X124.879 Y30.584 E0.01056
G1 X125.187 Y30.721 E0.01056
G1 X125.460 Y30.918 E0.01056
G1 X125.685 Y31.169 E0.01056
G1 X125.853 Y31.460 E0.01056
G1 X125.957 Y31.781 E0.01056
G1 X125.993 Y32.116 E0.01056
G1 X125.957 Y32.451 E0.01056
G1 X125.853 Y32.771 E0.01056
G1 X125.685 Y33.063 E0.01056
G1 X125.460 Y33.313 E0.01056
G1 X125.187 Y33.511 E0.01056
G1 X124.879 Y33.648 E0.01056
G1 X124.550 Y33.718 E0.01056
G1 X124.213 Y33.718 E0.01056
G1 X123.884 Y33.648 E0.01056
G1 X123.576 Y33.511 E0.01056
G1 X123.303 Y33.313 E0.01056
G1 X123.078 Y33.063 E0.01056
G1 X122.910 Y32.771 E0.01056
G1 X122.805 Y32.451 E0.01056
G1 X122.777 Y32.175 E0.00868
G1 X122.479 Y31.947 F7200.000
G1 F5760
G1 X122.805 Y31.781 E-0.13706
G1 X122.910 Y31.460 E-0.11666
G1 X123.078 Y31.169 E-0.11666
G1 X123.303 Y30.918 E-0.11666
G1 X123.576 Y30.721 E-0.11666
G1 X123.884 Y30.584 E-0.11667
G1 X123.995 Y30.560 E-0.03964
G1 E-0.04000 F2100.00000
G1 Z0.800 F7200.000
G1 X124.134 Y43.759
G1 Z0.200
G1 E0.80000 F2100.00000
G1 F1800
G1 X124.629 Y43.759 E0.01553
G1 X125.114 Y43.862 E0.01553
G1 X125.566 Y44.064 E0.01553
G1 X125.967 Y44.355 E0.01553
G1 X126.298 Y44.723 E0.01553
G1 X126.546 Y45.152 E0.01553
G1 X126.699 Y45.623 E0.01553
G1 X126.751 Y46.116 E0.01553
G1 X126.699 Y46.608 E0.01553
G1 X126.546 Y47.080 E0.01553
G1 X126.298 Y47.509 E0.01553
G1 X125.967 Y47.877 E0.01553
G1 X125.566 Y48.168 E0.01553
G1 X125.114 Y48.369 E0.01553
G1 X124.629 Y48.472 E0.01553
G1 X124.134 Y48.472 E0.01552
G1 X123.649 Y48.369 E0.01553
G1 X123.197 Y48.168 E0.01553
G1 X122.796 Y47.877 E0.01553
G1 X122.464 Y47.509 E0.01553
G1 X122.217 Y47.080 E0.01553
G1 X122.064 Y46.608 E0.01553
G1 X122.012 Y46.116 E0.01553
G1 X122.064 Y45.623 E0.01553
G1 X122.217 Y45.152 E0.01553
G1 X122.464 Y44.723 E0.01553
G1 X122.796 Y44.355 E0.01553
G1 X123.197 Y44.064 E0.01553
G1 X123.649 Y43.862 E0.01553
G1 X124.075 Y43.772 E0.01365
G1 X124.153 Y44.141 F7200.000
G1 F1800
G1 X124.589 Y44.136 E0.01367
G1 X124.996 Y44.223 E0.01305
G1 X125.377 Y44.392 E0.01305
G1 X125.713 Y44.637 E0.01305
G1 X125.992 Y44.946 E0.01304
G1 X126.200 Y45.306 E0.01305
G1 X126.328 Y45.702 E0.01305
G1 X126.372 Y46.116 E0.01305
G1 X126.328 Y46.530 E0.01305
G1 X126.200 Y46.925 E0.01305
G1 X125.992 Y47.286 E0.01305
G1 X125.713 Y47.595 E0.01305
G1 X125.377 Y47.839 E0.01305
G1 X124.996 Y48.009 E0.01305
G1 X124.589 Y48.095 E0.01305
G1 X124.173 Y48.095 E0.01304
G1 X123.766 Y48.009 E0.01305
G1 X123.386 Y47.839 E0.01305
G1 X123.050 Y47.595 E0.01304
G1 X122.771 Y47.286 E0.01305
G1 X122.563 Y46.925 E0.01305
G1 X122.435 Y46.530 E0.01304
G1 X122.391 Y46.116 E0.01305
G1 X122.435 Y45.702 E0.01305
G1 X122.563 Y45.306 E0.01304
G1 X122.771 Y44.946 E0.01305
G1 X123.050 Y44.637 E0.01305
G1 X123.386 Y44.392 E0.01305
G1 X123.766 Y44.223 E0.01305
G1 X124.095 Y44.153 E0.01053
G1 X124.213 Y44.513 F7200.000
G1 F1800
G1 X124.550 Y44.513 E0.01056
G1 X124.879 Y44.584 E0.01056
G1 X125.187 Y44.721 E0.01056
G1 X125.460 Y44.918 E0.01056
G1 X125.685 Y45.169 E0.01056
G1 X125.853 Y45.461 E0.01056
G1 X125.957 Y45.781 E0.01056
G1 X125.993 Y46.116 E0.01056
G1 X125.957 Y46.451 E0.01056
G1 X125.853 Y46.771 E0.01056
G1 X125.685 Y47.063 E0.01056
G1 X125.459 Y47.313 E0.01056
G1 X125.187 Y47.511 E0.01056
G1 X124.879 Y47.648 E0.01056
G1 X124.550 Y47.718 E0.01056
G1 X124.213 Y47.718 E0.01056
G1 X123.884 Y47.648 E0.01056
G1 X123.576 Y47.511 E0.01056
G1 X123.303 Y47.313 E0.01056
G1 X123.078 Y47.063 E0.01056
G1 X122.910 Y46.771 E0.01056
G1 X122.805 Y46.451 E0.01056
G1 X122.770 Y46.116 E0.01056
G1 X122.805 Y45.781 E0.01056
G1 X122.910 Y45.461 E0.01056
G1 X123.078 Y45.169 E0.01056
G1 X123.303 Y44.918 E0.01056
G1 X123.576 Y44.721 E0.01056
G1 X123.884 Y44.584 E0.01056
G1 X124.154 Y44.526 E0.00868
G1 X124.350 Y44.206 F7200.000
G1 F5760
G1 X124.550 Y44.513 E-0.13703
G1 X124.879 Y44.584 E-0.11666
G1 X125.187 Y44.721 E-0.11667
G1 X125.460 Y44.918 E-0.11667
G1 X125.685 Y45.169 E-0.11664
G1 X125.853 Y45.461 E-0.11668
G1 X125.889 Y45.569 E-0.03964
G1 E-0.04000 F2100.00000
G1 Z0.800 F7200.000
G1 X127.607 Y46.892
G1 Z0.200
G1 E0.80000 F2100.00000
G1 F1800
G1 X127.443 Y47.395 E0.01659
G1 X127.179 Y47.853 E0.01658
G1 X126.825 Y48.246 E0.01659
G1 X126.397 Y48.557 E0.01659
G1 X125.913 Y48.772 E0.01659
G1 X125.396 Y48.882 E0.01659
G1 X102.367 Y48.882 E0.72206
G1 X101.849 Y48.772 E0.01659
G1 X101.366 Y48.557 E0.01659
G1 X100.938 Y48.246 E0.01659
G1 X100.584 Y47.853 E0.01659
G1 X100.320 Y47.395 E0.01658
G1 X100.156 Y46.892 E0.01659
G1 X100.096 Y46.315 E0.01818
G1 X100.096 Y25.916 E0.63959
G1 X100.156 Y25.340 E0.01818
G1 X100.320 Y24.837 E0.01659
G1 X100.584 Y24.378 E0.01658
G1 X100.938 Y23.985 E0.01659
G1 X101.366 Y23.674 E0.01659
G1 X101.849 Y23.459 E0.01659
G1 X102.367 Y23.349 E0.01658
G1 X125.432 Y23.357 E0.72318
G1 X125.913 Y23.459 E0.01545
G1 X126.397 Y23.674 E0.01659
G1 X126.825 Y23.985 E0.01659
G1 X127.179 Y24.378 E0.01659
G1 X127.443 Y24.837 E0.01658
G1 X127.607 Y25.340 E0.01659
G1 X127.667 Y25.916 E0.01818
G1 X127.667 Y46.315 E0.63959
G1 X127.613 Y46.832 E0.01630
G1 X127.977 Y46.971 F7200.000
G1 F1800
G1 X127.790 Y47.549 E0.01907
G1 X127.485 Y48.076 E0.01907
G1 X127.078 Y48.528 E0.01907
G1 X126.586 Y48.886 E0.01907
G1 X126.031 Y49.133 E0.01907
G1 X125.436 Y49.260 E0.01907
G1 X102.327 Y49.260 E0.72454
G1 X101.732 Y49.133 E0.01907
G1 X101.177 Y48.886 E0.01907
G1 X100.684 Y48.528 E0.01907
G1 X100.277 Y48.076 E0.01907
G1 X99.973 Y47.549 E0.01907
G1 X99.785 Y46.971 E0.01907
G1 X99.718 Y46.335 E0.02004
G1 X99.718 Y25.897 E0.64083
G1 X99.785 Y25.261 E0.02004
G1 X99.973 Y24.682 E0.01907
G1 X100.277 Y24.156 E0.01907
G1 X100.684 Y23.703 E0.01907
G1 X101.177 Y23.346 E0.01907
G1 X101.732 Y23.099 E0.01907
