; generated by Slic3r Prusa Edition 1.39.2+win64 on 2018-09-24 at 10:17:19

; 

; external perimeters extrusion width = 0.45mm
; perimeters extrusion width = 0.45mm
; infill extrusion width = 0.45mm
; solid infill extrusion width = 0.45mm
; top infill extrusion width = 0.45mm
; first layer extrusion width = 0.42mm

M107
M115 U3.1.0 ; tell printer latest fw version
M83  ; extruder relative mode
M104 S205 ; set extruder temp
M140 S55 ; set bed temp
M190 S55 ; wait for bed temp
M109 S205 ; wait for extruder temp
G28 W ; home all without mesh bed level
G80 ; mesh bed leveling
G1 Y-3.0 F1000.0 ; go outside print area
G92 E0.0
G1 X60.0 E9.0  F1000.0 ; intro line
G1 X100.0 E12.5  F1000.0 ; intro line
G92 E0.0
M900 K30; Filament gcode
G21 ; set units to millimeters
G90 ; use absolute coordinates
M83 ; use relative distances for extrusion
;BEFORE_LAYER_CHANGE
;0.2


G1 E-0.80000 F2100.00000
G1 Z0.600 F7200.000
;AFTER_LAYER_CHANGE
;0.2
G1 X67.643 Y79.049
G1 Z0.200
G1 E0.80000 F2100.00000
M204 S1000
G1 F1800
G1 X68.275 Y78.736 E0.02213
G1 X68.995 Y78.623 E0.02284
G1 X136.004 Y78.623 E2.10101
G1 X136.856 Y78.783 E0.02720
G1 X137.595 Y79.237 E0.02720
G1 X138.121 Y79.927 E0.02720
G1 X138.365 Y80.763 E0.02731
G1 X138.377 Y100.015 E0.60364
G1 X138.235 Y100.810 E0.02532
G1 X137.908 Y101.418 E0.02166
G1 X119.886 Y125.447 E0.94177
G1 X119.368 Y125.944 E0.02249
G1 X118.722 Y126.265 E0.02260
G1 X118.010 Y126.377 E0.02260
G1 X86.992 Y126.377 E0.97254
G1 X86.456 Y126.314 E0.01692
G1 X85.952 Y126.133 E0.01680
G1 X85.489 Y125.835 E0.01728
G1 X85.105 Y125.434 E0.01740
G1 X67.094 Y101.420 E0.94119
G1 X66.735 Y100.722 E0.02461
G1 X66.623 Y100.014 E0.02249
G1 X66.629 Y80.836 E0.60129
G1 X66.781 Y80.147 E0.02213
G1 X67.129 Y79.533 E0.02213
G1 X67.599 Y79.090 E0.02025
G1 F5760
G1 X68.275 Y78.736 E-0.26441
G1 X68.995 Y78.623 E-0.25230
G1 X69.698 Y78.623 E-0.24329
G1 E-0.04000 F2100.00000
G1 Z0.800 F7200.000
G1 X93.461 Y112.193
G1 Z0.200
G1 E0.80000 F2100.00000
G1 F1800
G1 X94.089 Y111.830 E0.02274
G1 X94.779 Y111.606 E0.02274
G1 X95.485 Y111.532 E0.02225
G1 X96.219 Y111.606 E0.02314
G1 X96.911 Y111.830 E0.02282
G1 X97.539 Y112.193 E0.02274
G1 X98.078 Y112.678 E0.02274
G1 X98.505 Y113.265 E0.02274
G1 X98.800 Y113.928 E0.02274
G1 X98.950 Y114.637 E0.02274
G1 X98.950 Y115.363 E0.02274
G1 X98.800 Y116.072 E0.02274
G1 X98.505 Y116.735 E0.02274
G1 X98.078 Y117.322 E0.02274
G1 X97.539 Y117.807 E0.02274
G1 X96.911 Y118.170 E0.02274
G1 X96.221 Y118.394 E0.02274
G1 X95.500 Y118.469 E0.02274
G1 X94.779 Y118.394 E0.02274
G1 X94.089 Y118.170 E0.02274
G1 X93.461 Y117.807 E0.02274
G1 X92.922 Y117.322 E0.02274
G1 X92.495 Y116.735 E0.02274
G1 X92.200 Y116.072 E0.02274
G1 X92.050 Y115.363 E0.02274
G1 X92.050 Y114.637 E0.02274
G1 X92.200 Y113.928 E0.02274
G1 X92.495 Y113.265 E0.02274
G1 X92.922 Y112.678 E0.02274
G1 X93.416 Y112.233 E0.02086
G1 X93.668 Y112.514 F7200.000
G1 F1800
G1 X94.243 Y112.177 E0.02088
G1 X94.857 Y111.977 E0.02026
G1 X95.486 Y111.911 E0.01980
G1 X96.141 Y111.977 E0.02066
G1 X96.757 Y112.177 E0.02030
G1 X97.316 Y112.500 E0.02026
G1 X97.797 Y112.932 E0.02026
G1 X98.176 Y113.455 E0.02026
G1 X98.439 Y114.045 E0.02026
G1 X98.573 Y114.677 E0.02025
G1 X98.573 Y115.323 E0.02026
G1 X98.439 Y115.955 E0.02025
G1 X98.176 Y116.545 E0.02026
G1 X97.797 Y117.068 E0.02026
G1 X97.316 Y117.500 E0.02026
G1 X96.757 Y117.823 E0.02026
G1 X96.143 Y118.023 E0.02026
G1 X95.500 Y118.090 E0.02026
G1 X94.857 Y118.023 E0.02026
G1 X94.243 Y117.823 E0.02026
G1 X93.684 Y117.500 E0.02026
G1 X93.203 Y117.068 E0.02026
G1 X92.824 Y116.545 E0.02026
G1 X92.561 Y115.955 E0.02026
G1 X92.427 Y115.323 E0.02025
G1 X92.427 Y114.677 E0.02026
G1 X92.561 Y114.045 E0.02025
G1 X92.824 Y113.455 E0.02026
G1 X93.203 Y112.932 E0.02026
G1 X93.624 Y112.554 E0.01774
G1 X93.876 Y112.834 F7200.000
G1 F1800
G1 X94.397 Y112.523 E0.01903
G1 X94.936 Y112.348 E0.01777
G1 X95.486 Y112.290 E0.01735
G1 X96.063 Y112.348 E0.01817
G1 X96.603 Y112.523 E0.01779
G1 X97.094 Y112.807 E0.01777
G1 X97.515 Y113.186 E0.01777
G1 X97.848 Y113.644 E0.01777
G1 X98.078 Y114.162 E0.01777
G1 X98.196 Y114.717 E0.01777
G1 X98.196 Y115.283 E0.01777
G1 X98.078 Y115.838 E0.01777
G1 X97.848 Y116.356 E0.01777
G1 X97.515 Y116.814 E0.01777
G1 X97.094 Y117.193 E0.01777
G1 X96.603 Y117.477 E0.01777
G1 X96.064 Y117.652 E0.01777
G1 X95.500 Y117.711 E0.01777
G1 X94.936 Y117.652 E0.01777
G1 X94.397 Y117.477 E0.01777
G1 X93.906 Y117.193 E0.01777
G1 X93.485 Y116.814 E0.01777
G1 X93.152 Y116.356 E0.01777
G1 X92.922 Y115.838 E0.01777
G1 X92.804 Y115.283 E0.01777
G1 X92.804 Y114.717 E0.01777
G1 X92.922 Y114.162 E0.01777
G1 X93.152 Y113.644 E0.01777
G1 X93.485 Y113.186 E0.01777
G1 X93.832 Y112.874 E0.01461
G1 X93.830 Y112.437 F7200.000
G1 F5760
G1 X94.397 Y112.523 E-0.23060
G1 X94.936 Y112.348 E-0.19629
G1 X95.486 Y112.290 E-0.19160
G1 X95.893 Y112.331 E-0.14151
G1 E-0.04000 F2100.00000
G1 Z0.800 F7200.000
G1 X76.585 Y96.761
G1 Z0.200
G1 E0.80000 F2100.00000
G1 F1800
G1 X76.185 Y97.052 E0.01553
G1 X75.732 Y97.254 E0.01553
G1 X75.248 Y97.356 E0.01553
G1 X74.752 Y97.356 E0.01553
G1 X74.268 Y97.254 E0.01553
G1 X73.815 Y97.052 E0.01553
G1 X73.413 Y96.759 E0.01561
G1 X73.078 Y96.384 E0.01576
G1 X72.835 Y95.964 E0.01522
G1 X72.682 Y95.493 E0.01553
G1 X72.631 Y95.000 E0.01553
G1 X72.682 Y94.507 E0.01553
G1 X72.835 Y94.036 E0.01553
G1 X73.083 Y93.607 E0.01553
G1 X73.415 Y93.239 E0.01553
G1 X73.815 Y92.948 E0.01553
G1 X74.268 Y92.746 E0.01553
G1 X74.752 Y92.644 E0.01553
G1 X75.248 Y92.644 E0.01553
G1 X75.732 Y92.746 E0.01553
G1 X76.185 Y92.948 E0.01553
G1 X76.585 Y93.239 E0.01553
G1 X76.917 Y93.607 E0.01553
G1 X77.165 Y94.036 E0.01553
G1 X77.318 Y94.507 E0.01553
G1 X77.369 Y95.000 E0.01553
G1 X77.318 Y95.493 E0.01553
G1 X77.165 Y95.964 E0.01553
G1 X76.917 Y96.393 E0.01553
G1 X76.626 Y96.716 E0.01365
G1 X76.345 Y96.464 F7200.000
G1 F1800
G1 X75.995 Y96.724 E0.01367
G1 X75.615 Y96.893 E0.01305
G1 X75.208 Y96.979 E0.01305
G1 X74.792 Y96.979 E0.01304
G1 X74.385 Y96.893 E0.01305
G1 X74.005 Y96.724 E0.01305
G1 X73.667 Y96.478 E0.01309
G1 X73.385 Y96.162 E0.01327
G1 X73.182 Y95.810 E0.01277
G1 X73.053 Y95.414 E0.01304
G1 X73.010 Y95.000 E0.01305
G1 X73.053 Y94.586 E0.01305
G1 X73.182 Y94.190 E0.01304
G1 X73.390 Y93.830 E0.01305
G1 X73.668 Y93.521 E0.01305
G1 X74.005 Y93.276 E0.01304
G1 X74.385 Y93.107 E0.01305
G1 X74.792 Y93.021 E0.01305
G1 X75.208 Y93.021 E0.01304
G1 X75.615 Y93.107 E0.01305
G1 X75.995 Y93.276 E0.01305
G1 X76.332 Y93.521 E0.01304
G1 X76.610 Y93.830 E0.01305
G1 X76.818 Y94.190 E0.01305
G1 X76.947 Y94.586 E0.01304
G1 X76.990 Y95.000 E0.01305
G1 X76.947 Y95.414 E0.01305
G1 X76.818 Y95.810 E0.01304
G1 X76.610 Y96.170 E0.01305
G1 X76.386 Y96.419 E0.01053
G1 X76.078 Y96.197 F7200.000
G1 F1800
G1 X75.806 Y96.395 E0.01056
G1 X75.498 Y96.532 E0.01056
G1 X75.168 Y96.602 E0.01056
G1 X74.832 Y96.602 E0.01056
G1 X74.502 Y96.532 E0.01056
G1 X74.194 Y96.395 E0.01056
G1 X73.922 Y96.197 E0.01058
G1 X73.693 Y95.940 E0.01079
G1 X73.528 Y95.655 E0.01032
G1 X73.424 Y95.335 E0.01056
G1 X73.389 Y95.000 E0.01056
G1 X73.424 Y94.665 E0.01056
G1 X73.528 Y94.345 E0.01056
G1 X73.697 Y94.053 E0.01056
G1 X73.922 Y93.803 E0.01056
G1 X74.194 Y93.605 E0.01056
G1 X74.502 Y93.468 E0.01056
G1 X74.832 Y93.398 E0.01056
G1 X75.168 Y93.398 E0.01056
G1 X75.498 Y93.468 E0.01056
G1 X75.806 Y93.605 E0.01056
G1 X76.078 Y93.803 E0.01056
G1 X76.303 Y94.053 E0.01056
G1 X76.472 Y94.345 E0.01056
G1 X76.576 Y94.665 E0.01056
G1 X76.611 Y95.000 E0.01056
G1 X76.576 Y95.335 E0.01056
G1 X76.472 Y95.655 E0.01056
G1 X76.303 Y95.947 E0.01056
G1 X76.118 Y96.153 E0.00868
G1 X76.148 Y96.527 F7200.000
G1 F5760
G1 X75.806 Y96.395 E-0.13704
G1 X75.498 Y96.532 E-0.11667
G1 X75.168 Y96.602 E-0.11666
G1 X74.832 Y96.602 E-0.11665
G1 X74.502 Y96.532 E-0.11666
G1 X74.194 Y96.395 E-0.11667
G1 X74.102 Y96.328 E-0.03964
G1 E-0.04000 F2100.00000
G1 Z0.800 F7200.000
G1 X75.248 Y87.356
G1 Z0.200
G1 E0.80000 F2100.00000
G1 F1800
G1 X74.752 Y87.356 E0.01553
G1 X74.268 Y87.254 E0.01553
G1 X73.815 Y87.052 E0.01553
G1 X73.415 Y86.761 E0.01553
G1 X73.083 Y86.393 E0.01553
G1 X72.835 Y85.964 E0.01553
G1 X72.682 Y85.493 E0.01553
G1 X72.631 Y85.000 E0.01553
G1 X72.682 Y84.507 E0.01553
G1 X72.835 Y84.036 E0.01553
G1 X73.083 Y83.607 E0.01553
G1 X73.415 Y83.239 E0.01553
G1 X73.815 Y82.948 E0.01553
G1 X74.268 Y82.746 E0.01553
G1 X74.752 Y82.644 E0.01553
G1 X75.248 Y82.644 E0.01553
G1 X75.732 Y82.746 E0.01553
G1 X76.185 Y82.948 E0.01553
G1 X76.585 Y83.239 E0.01553
G1 X76.917 Y83.607 E0.01553
G1 X77.165 Y84.036 E0.01553
G1 X77.318 Y84.507 E0.01553
G1 X77.369 Y85.000 E0.01553
G1 X77.318 Y85.493 E0.01553
G1 X77.165 Y85.964 E0.01553
G1 X76.917 Y86.393 E0.01553
G1 X76.585 Y86.761 E0.01553
G1 X76.185 Y87.052 E0.01553
G1 X75.732 Y87.254 E0.01553
G1 X75.306 Y87.344 E0.01365
G1 X75.228 Y86.975 F7200.000
G1 F1800
G1 X74.792 Y86.979 E0.01367
G1 X74.385 Y86.893 E0.01305
G1 X74.005 Y86.724 E0.01305
G1 X73.668 Y86.479 E0.01304
G1 X73.390 Y86.170 E0.01305
G1 X73.182 Y85.810 E0.01305
G1 X73.053 Y85.414 E0.01304
G1 X73.010 Y85.000 E0.01305
G1 X73.053 Y84.586 E0.01305
G1 X73.182 Y84.190 E0.01304
G1 X73.390 Y83.830 E0.01305
G1 X73.668 Y83.521 E0.01305
G1 X74.005 Y83.276 E0.01304
G1 X74.385 Y83.107 E0.01305
G1 X74.792 Y83.021 E0.01305
G1 X75.208 Y83.021 E0.01304
G1 X75.615 Y83.107 E0.01305
G1 X75.995 Y83.276 E0.01305
G1 X76.332 Y83.521 E0.01304
G1 X76.610 Y83.830 E0.01305
G1 X76.818 Y84.190 E0.01305
G1 X76.947 Y84.586 E0.01304
G1 X76.990 Y85.000 E0.01305
G1 X76.947 Y85.414 E0.01305
G1 X76.818 Y85.810 E0.01304
G1 X76.610 Y86.170 E0.01305
G1 X76.332 Y86.479 E0.01305
G1 X75.995 Y86.724 E0.01304
G1 X75.615 Y86.893 E0.01305
G1 X75.287 Y86.963 E0.01053
G1 X75.168 Y86.602 F7200.000
G1 F1800
G1 X74.832 Y86.602 E0.01056
G1 X74.502 Y86.532 E0.01056
G1 X74.194 Y86.395 E0.01056
G1 X73.922 Y86.197 E0.01056
G1 X73.697 Y85.947 E0.01056
G1 X73.528 Y85.655 E0.01056
G1 X73.424 Y85.335 E0.01056
G1 X73.389 Y85.000 E0.01056
G1 X73.424 Y84.665 E0.01056
G1 X73.528 Y84.345 E0.01056
G1 X73.697 Y84.053 E0.01056
G1 X73.922 Y83.803 E0.01056
G1 X74.194 Y83.605 E0.01056
G1 X74.502 Y83.468 E0.01056
G1 X74.832 Y83.398 E0.01056
G1 X75.168 Y83.398 E0.01056
G1 X75.498 Y83.468 E0.01056
G1 X75.806 Y83.605 E0.01056
G1 X76.078 Y83.803 E0.01056
G1 X76.303 Y84.053 E0.01056
G1 X76.472 Y84.345 E0.01056
G1 X76.576 Y84.665 E0.01056
G1 X76.611 Y85.000 E0.01056
G1 X76.576 Y85.335 E0.01056
G1 X76.472 Y85.655 E0.01056
G1 X76.303 Y85.947 E0.01056
G1 X76.078 Y86.197 E0.01056
G1 X75.806 Y86.395 E0.01056
G1 X75.498 Y86.532 E0.01056
G1 X75.227 Y86.590 E0.00868
G1 X75.031 Y86.910 F7200.000
G1 F5760
G1 X74.832 Y86.602 E-0.13704
G1 X74.502 Y86.532 E-0.11666
G1 X74.194 Y86.395 E-0.11667
G1 X73.922 Y86.197 E-0.11664
G1 X73.697 Y85.947 E-0.11666
G1 X73.528 Y85.655 E-0.11667
G1 X73.493 Y85.546 E-0.03965
G1 E-0.04000 F2100.00000
G1 Z0.800 F7200.000
G1 X127.631 Y85.000
G1 Z0.200
G1 E0.80000 F2100.00000
G1 F1800
G1 X127.682 Y84.507 E0.01553
G1 X127.835 Y84.036 E0.01553
G1 X128.083 Y83.607 E0.01553
G1 X128.415 Y83.239 E0.01553
G1 X128.815 Y82.948 E0.01553
G1 X129.268 Y82.746 E0.01553
G1 X129.752 Y82.644 E0.01553
G1 X130.248 Y82.644 E0.01552
G1 X130.732 Y82.746 E0.01553
G1 X131.185 Y82.948 E0.01553
G1 X131.585 Y83.239 E0.01553
G1 X131.917 Y83.607 E0.01553
G1 X132.165 Y84.036 E0.01553
G1 X132.318 Y84.507 E0.01553
G1 X132.369 Y85.000 E0.01553
G1 X132.318 Y85.493 E0.01553
G1 X132.165 Y85.964 E0.01553
G1 X131.917 Y86.393 E0.01553
G1 X131.585 Y86.761 E0.01553
G1 X131.185 Y87.052 E0.01553
G1 X130.732 Y87.254 E0.01553
G1 X130.248 Y87.356 E0.01553
G1 X129.752 Y87.356 E0.01552
G1 X129.268 Y87.254 E0.01553
G1 X128.815 Y87.052 E0.01553
G1 X128.415 Y86.761 E0.01553
G1 X128.083 Y86.393 E0.01553
G1 X127.835 Y85.964 E0.01553
G1 X127.682 Y85.493 E0.01553
G1 X127.637 Y85.060 E0.01365
G1 X128.012 Y85.020 F7200.000
G1 F1800
G1 X128.053 Y84.586 E0.01367
G1 X128.182 Y84.190 E0.01305
G1 X128.390 Y83.830 E0.01305
G1 X128.668 Y83.521 E0.01305
G1 X129.005 Y83.276 E0.01305
G1 X129.385 Y83.107 E0.01305
G1 X129.792 Y83.021 E0.01305
G1 X130.208 Y83.021 E0.01304
G1 X130.615 Y83.107 E0.01305
G1 X130.995 Y83.276 E0.01305
G1 X131.332 Y83.521 E0.01305
G1 X131.610 Y83.830 E0.01305
G1 X131.818 Y84.190 E0.01305
G1 X131.947 Y84.586 E0.01305
G1 X131.990 Y85.000 E0.01305
G1 X131.947 Y85.414 E0.01305
G1 X131.818 Y85.810 E0.01305
G1 X131.610 Y86.170 E0.01305
G1 X131.332 Y86.479 E0.01305
G1 X130.995 Y86.724 E0.01305
G1 X130.615 Y86.893 E0.01305
G1 X130.208 Y86.979 E0.01305
G1 X129.792 Y86.979 E0.01304
G1 X129.385 Y86.893 E0.01305
G1 X129.005 Y86.724 E0.01305
G1 X128.668 Y86.479 E0.01305
G1 X128.390 Y86.170 E0.01305
G1 X128.182 Y85.810 E0.01305
G1 X128.053 Y85.414 E0.01305
G1 X128.018 Y85.080 E0.01053
G1 X128.389 Y85.000 F7200.000
G1 F1800
G1 X128.424 Y84.665 E0.01056
G1 X128.528 Y84.345 E0.01056
G1 X128.697 Y84.053 E0.01056
G1 X128.922 Y83.803 E0.01056
G1 X129.194 Y83.605 E0.01056
G1 X129.502 Y83.468 E0.01056
G1 X129.832 Y83.398 E0.01056
G1 X130.168 Y83.398 E0.01056
G1 X130.498 Y83.468 E0.01056
G1 X130.806 Y83.605 E0.01056
G1 X131.078 Y83.803 E0.01056
G1 X131.303 Y84.053 E0.01056
G1 X131.472 Y84.345 E0.01056
G1 X131.576 Y84.665 E0.01056
G1 X131.611 Y85.000 E0.01056
G1 X131.576 Y85.335 E0.01056
G1 X131.472 Y85.655 E0.01056
G1 X131.303 Y85.947 E0.01056
G1 X131.078 Y86.197 E0.01056
G1 X130.806 Y86.395 E0.01056
G1 X130.498 Y86.532 E0.01056
G1 X130.168 Y86.602 E0.01056
G1 X129.832 Y86.602 E0.01056
G1 X129.502 Y86.532 E0.01056
G1 X129.194 Y86.395 E0.01056
G1 X128.922 Y86.197 E0.01056
G1 X128.697 Y85.947 E0.01056
G1 X128.528 Y85.655 E0.01056
G1 X128.424 Y85.335 E0.01056
G1 X128.395 Y85.060 E0.00868
G1 X128.097 Y84.832 F7200.000
G1 F5760
G1 X128.424 Y84.665 E-0.13706
G1 X128.528 Y84.345 E-0.11664
G1 X128.697 Y84.053 E-0.11668
G1 X128.922 Y83.803 E-0.11665
G1 X129.194 Y83.605 E-0.11665
G1 X129.502 Y83.468 E-0.11668
G1 X129.614 Y83.444 E-0.03963
G1 E-0.04000 F2100.00000
G1 Z0.800 F7200.000
G1 X129.752 Y92.644
G1 Z0.200
G1 E0.80000 F2100.00000
G1 F1800
G1 X130.248 Y92.644 E0.01552
G1 X130.732 Y92.746 E0.01553
G1 X131.185 Y92.948 E0.01553
G1 X131.585 Y93.239 E0.01553
G1 X131.917 Y93.607 E0.01553
G1 X132.165 Y94.036 E0.01553
G1 X132.318 Y94.507 E0.01553
G1 X132.369 Y95.000 E0.01553
G1 X132.318 Y95.493 E0.01553
G1 X132.165 Y95.964 E0.01553
G1 X131.917 Y96.393 E0.01553
G1 X131.585 Y96.761 E0.01553
G1 X131.185 Y97.052 E0.01553
G1 X130.732 Y97.254 E0.01553
G1 X130.248 Y97.356 E0.01553
G1 X129.752 Y97.356 E0.01552
G1 X129.268 Y97.254 E0.01553
G1 X128.815 Y97.052 E0.01553
G1 X128.415 Y96.761 E0.01553
G1 X128.083 Y96.393 E0.01553
G1 X127.835 Y95.964 E0.01553
G1 X127.682 Y95.493 E0.01553
G1 X127.631 Y95.000 E0.01553
G1 X127.682 Y94.507 E0.01553
G1 X127.835 Y94.036 E0.01553
G1 X128.083 Y93.607 E0.01553
G1 X128.415 Y93.239 E0.01553
G1 X128.815 Y92.948 E0.01553
G1 X129.268 Y92.746 E0.01553
G1 X129.694 Y92.656 E0.01365
G1 X129.772 Y93.025 F7200.000
G1 F1800
G1 X130.208 Y93.021 E0.01367
G1 X130.615 Y93.107 E0.01305
G1 X130.995 Y93.276 E0.01305
G1 X131.332 Y93.521 E0.01305
G1 X131.610 Y93.830 E0.01305
G1 X131.818 Y94.190 E0.01305
G1 X131.947 Y94.586 E0.01305
G1 X131.990 Y95.000 E0.01305
G1 X131.947 Y95.414 E0.01305
G1 X131.818 Y95.810 E0.01305
G1 X131.610 Y96.170 E0.01305
G1 X131.332 Y96.479 E0.01305
G1 X130.995 Y96.724 E0.01305
G1 X130.615 Y96.893 E0.01305
G1 X130.208 Y96.979 E0.01305
G1 X129.792 Y96.979 E0.01304
G1 X129.385 Y96.893 E0.01305
G1 X129.005 Y96.724 E0.01305
G1 X128.668 Y96.479 E0.01305
G1 X128.390 Y96.170 E0.01305
G1 X128.182 Y95.810 E0.01305
G1 X128.053 Y95.414 E0.01305
G1 X128.010 Y95.000 E0.01305
G1 X128.053 Y94.586 E0.01305
G1 X128.182 Y94.190 E0.01305
G1 X128.390 Y93.830 E0.01305
G1 X128.668 Y93.521 E0.01305
G1 X129.005 Y93.276 E0.01305
G1 X129.385 Y93.107 E0.01305
G1 X129.713 Y93.037 E0.01053
G1 X129.832 Y93.398 F7200.000
G1 F1800
G1 X130.168 Y93.398 E0.01056
G1 X130.498 Y93.468 E0.01056
G1 X130.806 Y93.605 E0.01056
G1 X131.078 Y93.803 E0.01056
G1 X131.303 Y94.053 E0.01056
G1 X131.472 Y94.345 E0.01056
G1 X131.576 Y94.665 E0.01056
G1 X131.611 Y95.000 E0.01056
G1 X131.576 Y95.335 E0.01056
G1 X131.472 Y95.655 E0.01056
G1 X131.303 Y95.947 E0.01056
