; generated by Slic3r Prusa Edition 1.39.2+win64 on 2018-10-04 at 14:06:29

; 

; external perimeters extrusion width = 0.45mm
; perimeters extrusion width = 0.45mm
; infill extrusion width = 0.45mm
; solid infill extrusion width = 0.45mm
; top infill extrusion width = 0.45mm
; first layer extrusion width = 0.42mm

M107
M115 U3.1.0 ; tell printer latest fw version
M83  ; extruder relative mode
M104 S205 ; set extruder temp
M140 S55 ; set bed temp
M190 S55 ; wait for bed temp
M109 S205 ; wait for extruder temp
G28 W ; home all without mesh bed level
G80 ; mesh bed leveling
G1 Y-3.0 F1000.0 ; go outside print area
G92 E0.0
G1 X60.0 E9.0  F1000.0 ; intro line
G1 X100.0 E12.5  F1000.0 ; intro line
G92 E0.0
M900 K30; Filament gcode
G21 ; set units to millimeters
G90 ; use absolute coordinates
M83 ; use relative distances for extrusion
;BEFORE_LAYER_CHANGE
;0.2


G1 E-0.80000 F2100.00000
G1 Z0.600 F7200.000
;AFTER_LAYER_CHANGE
;0.2
G1 X74.479 Y58.546
G1 Z0.200
G1 E0.80000 F2100.00000
M204 S1000
G1 F1800
G1 X74.814 Y58.071 E0.01823
G1 X88.167 Y43.485 E0.62004
G1 X88.574 Y43.136 E0.01680
G1 X89.045 Y42.889 E0.01668
G1 X89.894 Y42.727 E0.02708
G1 X115.111 Y42.727 E0.79069
G1 X142.157 Y44.509 E0.84983
G1 X142.751 Y44.654 E0.01917
G1 X143.289 Y44.945 E0.01917
G1 X143.737 Y45.366 E0.01929
G1 X144.061 Y45.886 E0.01917
G1 X144.219 Y46.362 E0.01574
G1 X144.275 Y46.864 E0.01585
G1 X144.275 Y104.876 E1.81893
G1 X144.203 Y105.453 E0.01823
G1 X143.993 Y105.995 E0.01823
G1 X143.609 Y106.523 E0.02048
G1 X143.091 Y106.928 E0.02060
G1 X115.660 Y122.652 E0.99137
G1 X114.855 Y122.933 E0.02673
G1 X104.120 Y122.932 E0.33660
G1 X76.074 Y116.993 E0.89886
G1 X75.450 Y116.764 E0.02083
G1 X74.942 Y116.397 E0.01965
G1 X74.545 Y115.907 E0.01977
G1 X74.291 Y115.331 E0.01977
G1 X74.198 Y114.711 E0.01965
G1 X74.197 Y59.658 E1.72615
G1 X74.270 Y59.085 E0.01811
G1 X74.457 Y58.602 E0.01623
G1 F5760
G1 X74.814 Y58.071 E-0.22156
G1 X75.864 Y56.925 E-0.53844
G1 E-0.04000 F2100.00000
G1 Z0.800 F7200.000
G1 X81.579 Y107.865
G1 Z0.200
G1 E0.80000 F2100.00000
G1 F1800
G1 X82.170 Y107.865 E0.01853
G1 X82.746 Y107.988 E0.01847
G1 X83.283 Y108.227 E0.01844
G1 X83.761 Y108.574 E0.01850
G1 X84.156 Y109.013 E0.01851
G1 X84.450 Y109.523 E0.01846
G1 X84.632 Y110.082 E0.01846
G1 X84.694 Y110.669 E0.01850
G1 X84.632 Y111.256 E0.01850
G1 X84.450 Y111.816 E0.01846
G1 X84.156 Y112.326 E0.01846
G1 X83.761 Y112.765 E0.01851
G1 X83.283 Y113.111 E0.01850
G1 X82.746 Y113.350 E0.01844
G1 X82.170 Y113.473 E0.01847
G1 X81.579 Y113.473 E0.01853
G1 X81.003 Y113.350 E0.01847
G1 X80.465 Y113.111 E0.01844
G1 X79.988 Y112.765 E0.01850
G1 X79.593 Y112.326 E0.01851
G1 X79.298 Y111.814 E0.01851
G1 X79.116 Y111.248 E0.01866
G1 X79.055 Y110.669 E0.01824
G1 X79.116 Y110.082 E0.01850
G1 X79.299 Y109.523 E0.01846
G1 X79.593 Y109.013 E0.01846
G1 X79.988 Y108.574 E0.01851
G1 X80.465 Y108.227 E0.01850
G1 X81.003 Y107.988 E0.01844
G1 X81.520 Y107.878 E0.01659
G1 X81.599 Y108.246 F7200.000
G1 F1800
G1 X82.130 Y108.242 E0.01664
G1 X82.629 Y108.349 E0.01599
G1 X83.094 Y108.556 E0.01597
G1 X83.507 Y108.855 E0.01601
G1 X83.849 Y109.235 E0.01602
G1 X84.104 Y109.677 E0.01598
G1 X84.261 Y110.161 E0.01597
G1 X84.315 Y110.669 E0.01601
G1 X84.261 Y111.177 E0.01601
G1 X84.104 Y111.661 E0.01597
G1 X83.849 Y112.103 E0.01598
G1 X83.507 Y112.483 E0.01602
G1 X83.094 Y112.783 E0.01601
G1 X82.629 Y112.989 E0.01597
G1 X82.130 Y113.096 E0.01599
G1 X81.619 Y113.096 E0.01602
G1 X81.120 Y112.989 E0.01599
G1 X80.655 Y112.783 E0.01597
G1 X80.241 Y112.483 E0.01601
G1 X79.900 Y112.103 E0.01602
G1 X79.645 Y111.660 E0.01601
G1 X79.487 Y111.170 E0.01617
G1 X79.434 Y110.669 E0.01578
G1 X79.487 Y110.161 E0.01601
G1 X79.645 Y109.677 E0.01597
G1 X79.900 Y109.235 E0.01598
G1 X80.241 Y108.855 E0.01602
G1 X80.655 Y108.556 E0.01601
G1 X81.120 Y108.349 E0.01597
G1 X81.540 Y108.259 E0.01348
G1 X81.659 Y108.619 F7200.000
G1 F1800
G1 X82.090 Y108.619 E0.01352
G1 X82.511 Y108.709 E0.01351
G1 X82.905 Y108.884 E0.01350
G1 X83.254 Y109.137 E0.01351
G1 X83.542 Y109.458 E0.01353
G1 X83.757 Y109.831 E0.01351
G1 X83.890 Y110.240 E0.01349
G1 X83.935 Y110.669 E0.01352
G1 X83.890 Y111.098 E0.01352
G1 X83.757 Y111.507 E0.01349
G1 X83.542 Y111.880 E0.01351
G1 X83.254 Y112.201 E0.01353
G1 X82.905 Y112.454 E0.01351
G1 X82.511 Y112.629 E0.01350
G1 X82.090 Y112.719 E0.01351
G1 X81.659 Y112.719 E0.01352
G1 X81.237 Y112.629 E0.01351
G1 X80.844 Y112.454 E0.01350
G1 X80.495 Y112.201 E0.01351
G1 X80.207 Y111.880 E0.01353
G1 X79.991 Y111.507 E0.01352
G1 X79.857 Y111.091 E0.01368
G1 X79.813 Y110.669 E0.01331
G1 X79.858 Y110.240 E0.01352
G1 X79.991 Y109.831 E0.01349
G1 X80.207 Y109.458 E0.01351
G1 X80.495 Y109.137 E0.01353
G1 X80.844 Y108.884 E0.01351
G1 X81.237 Y108.709 E0.01350
G1 X81.600 Y108.632 E0.01163
G1 X81.821 Y108.254 F7200.000
G1 F5760
G1 X82.090 Y108.619 E-0.16974
G1 X82.511 Y108.709 E-0.14926
G1 X82.905 Y108.884 E-0.14911
G1 X83.254 Y109.137 E-0.14924
G1 X83.529 Y109.444 E-0.14264
G1 E-0.04000 F2100.00000
G1 Z0.800 F7200.000
G1 X81.600 Y68.473
G1 Z0.200
G1 E0.80000 F2100.00000
G1 F1800
G1 X81.003 Y68.350 E0.01912
G1 X80.465 Y68.111 E0.01844
G1 X79.988 Y67.765 E0.01850
G1 X79.593 Y67.326 E0.01851
G1 X79.298 Y66.814 E0.01851
G1 X79.116 Y66.248 E0.01866
G1 X79.055 Y65.669 E0.01824
G1 X79.116 Y65.082 E0.01850
G1 X79.299 Y64.523 E0.01846
G1 X79.593 Y64.013 E0.01846
G1 X79.988 Y63.574 E0.01851
G1 X80.465 Y63.227 E0.01850
G1 X81.003 Y62.988 E0.01844
G1 X81.579 Y62.865 E0.01847
G1 X82.170 Y62.865 E0.01853
G1 X82.746 Y62.988 E0.01847
G1 X83.283 Y63.227 E0.01844
G1 X83.762 Y63.575 E0.01855
G1 X84.160 Y64.020 E0.01870
G1 X84.450 Y64.523 E0.01820
G1 X84.632 Y65.082 E0.01846
G1 X84.694 Y65.669 E0.01850
G1 X84.632 Y66.256 E0.01850
G1 X84.450 Y66.816 E0.01846
G1 X84.156 Y67.326 E0.01846
G1 X83.761 Y67.765 E0.01851
G1 X83.283 Y68.111 E0.01850
G1 X82.746 Y68.350 E0.01844
G1 X82.170 Y68.473 E0.01847
G1 X81.660 Y68.473 E0.01598
G1 X81.660 Y68.096 F7200.000
G1 F1800
G1 X81.120 Y67.989 E0.01726
G1 X80.655 Y67.783 E0.01597
G1 X80.241 Y67.483 E0.01601
G1 X79.900 Y67.103 E0.01602
G1 X79.645 Y66.660 E0.01601
G1 X79.487 Y66.170 E0.01617
G1 X79.434 Y65.669 E0.01578
G1 X79.487 Y65.161 E0.01601
G1 X79.645 Y64.677 E0.01597
G1 X79.900 Y64.235 E0.01598
G1 X80.241 Y63.855 E0.01602
G1 X80.655 Y63.556 E0.01601
G1 X81.120 Y63.349 E0.01597
G1 X81.619 Y63.242 E0.01599
G1 X82.130 Y63.242 E0.01602
G1 X82.629 Y63.349 E0.01599
G1 X83.094 Y63.556 E0.01597
G1 X83.508 Y63.856 E0.01604
G1 X83.852 Y64.242 E0.01621
G1 X84.104 Y64.677 E0.01575
G1 X84.261 Y65.161 E0.01597
G1 X84.315 Y65.669 E0.01601
G1 X84.261 Y66.177 E0.01601
G1 X84.104 Y66.661 E0.01597
G1 X83.849 Y67.103 E0.01598
G1 X83.507 Y67.483 E0.01602
G1 X83.094 Y67.783 E0.01601
G1 X82.629 Y67.989 E0.01597
G1 X82.130 Y68.096 E0.01599
G1 X81.720 Y68.096 E0.01285
G1 X81.659 Y67.719 F7200.000
G1 F1800
G1 X81.237 Y67.629 E0.01351
G1 X80.844 Y67.454 E0.01350
G1 X80.495 Y67.201 E0.01351
G1 X80.207 Y66.880 E0.01353
G1 X79.991 Y66.507 E0.01352
G1 X79.857 Y66.091 E0.01368
G1 X79.813 Y65.669 E0.01331
G1 X79.858 Y65.240 E0.01352
G1 X79.991 Y64.831 E0.01349
G1 X80.207 Y64.458 E0.01351
G1 X80.495 Y64.137 E0.01353
G1 X80.844 Y63.884 E0.01351
G1 X81.237 Y63.709 E0.01350
G1 X81.659 Y63.619 E0.01351
G1 X82.090 Y63.619 E0.01352
G1 X82.511 Y63.709 E0.01351
G1 X82.905 Y63.884 E0.01350
G1 X83.254 Y64.137 E0.01352
G1 X83.545 Y64.464 E0.01372
G1 X83.757 Y64.831 E0.01329
G1 X83.890 Y65.240 E0.01349
G1 X83.935 Y65.669 E0.01352
G1 X83.890 Y66.098 E0.01352
G1 X83.757 Y66.507 E0.01349
G1 X83.542 Y66.880 E0.01351
G1 X83.254 Y67.201 E0.01353
G1 X82.905 Y67.454 E0.01351
G1 X82.511 Y67.629 E0.01350
G1 X82.090 Y67.719 E0.01351
G1 X81.719 Y67.719 E0.01164
G1 X81.423 Y68.043 F7200.000
G1 F5760
G1 X81.237 Y67.629 E-0.16964
G1 X80.844 Y67.454 E-0.14911
G1 X80.495 Y67.201 E-0.14924
G1 X80.207 Y66.880 E-0.14942
G1 X80.001 Y66.524 E-0.14259
G1 E-0.04000 F2100.00000
G1 Z0.800 F7200.000
G1 X85.610 Y104.633
G1 Z0.200
G1 E0.80000 F2100.00000
G1 F1800
G1 X100.810 Y104.633 E0.47659
G1 X100.810 Y113.705 E0.28444
G1 X77.538 Y113.705 E0.72967
G1 X77.538 Y60.633 E1.66403
G1 X85.610 Y60.633 E0.25308
G1 X85.610 Y104.573 E1.37771
G1 X85.987 Y104.256 F7200.000
G1 F1800
G1 X101.187 Y104.256 E0.47659
G1 X101.187 Y114.082 E0.30808
G1 X77.161 Y114.082 E0.75331
G1 X77.161 Y60.256 E1.68767
G1 X85.987 Y60.256 E0.27673
G1 X85.987 Y104.196 E1.37771
G1 X86.364 Y103.879 F7200.000
G1 F1800
G1 X101.564 Y103.879 E0.47659
G1 X101.564 Y114.459 E0.33173
G1 X76.784 Y114.459 E0.77696
G1 X76.784 Y59.879 E1.71132
G1 X86.364 Y59.879 E0.30037
G1 X86.364 Y103.819 E1.37771
G1 X86.393 Y104.278 F7200.000
G1 F5760
G1 X88.559 Y103.828 E-0.76000
G1 E-0.04000 F2100.00000
G1 Z0.800 F7200.000
G1 X83.696 Y112.952
G1 Z0.200
G1 E0.80000 F2100.00000
G1 F1800
G1 X84.166 Y113.422 E0.02104
G1 X84.704 Y113.422 E0.01700
G1 X84.096 Y112.815 E0.02717
G1 X84.351 Y112.531 E0.01204
G1 X85.242 Y113.422 E0.03983
G1 X85.779 Y113.422 E0.01700
G1 X84.556 Y112.198 E0.05472
G1 X84.710 Y111.931 E0.00974
G1 X84.738 Y111.843 E0.00293
G1 X86.317 Y113.422 E0.07060
G1 X86.855 Y113.422 E0.01700
G1 X84.870 Y111.438 E0.08874
G1 X84.910 Y111.315 E0.00408
G1 X84.946 Y110.975 E0.01080
G1 X87.393 Y113.422 E0.10940
G1 X87.930 Y113.422 E0.01700
G1 X84.955 Y110.446 E0.13306
G1 X84.910 Y110.023 E0.01346
G1 X84.834 Y109.788 E0.00783
G1 X88.638 Y113.592 E0.17010
G1 F5760
G1 X87.086 Y112.040 E-0.76000
G1 E-0.04000 F2100.00000
G1 Z0.800 F7200.000
G1 X93.478 Y113.592
G1 Z0.200
G1 E0.80000 F2100.00000
G1 F1800
G1 X77.821 Y97.935 E0.70007
G1 X77.821 Y98.473 E0.01700
G1 X92.770 Y113.422 E0.66843
G1 X92.232 Y113.422 E0.01700
G1 X77.821 Y99.011 E0.64439
G1 X77.821 Y99.549 E0.01700
G1 X91.695 Y113.422 E0.62034
G1 X91.157 Y113.422 E0.01700
G1 X77.821 Y100.086 E0.59630
G1 X77.821 Y100.624 E0.01700
G1 X90.619 Y113.422 E0.57225
G1 X90.081 Y113.422 E0.01700
G1 X77.821 Y101.162 E0.54821
G1 X77.821 Y101.700 E0.01700
G1 X89.544 Y113.422 E0.52416
G1 X89.006 Y113.422 E0.01700
G1 X77.821 Y102.237 E0.50012
G1 X77.821 Y102.775 E0.01700
G1 X82.745 Y107.699 E0.22016
G1 X82.200 Y107.582 E0.01763
G1 X82.090 Y107.582 E0.00346
G1 X77.821 Y103.313 E0.19089
G1 X77.821 Y103.851 E0.01700
G1 X81.553 Y107.582 E0.16685
G1 X81.109 Y107.676 E0.01434
G1 X77.821 Y104.389 E0.14701
G1 X77.821 Y104.926 E0.01700
G1 X80.706 Y107.811 E0.12898
G1 X80.333 Y107.976 E0.01288
G1 X77.821 Y105.464 E0.11233
G1 X77.821 Y106.002 E0.01700
G1 X80.020 Y108.201 E0.09832
G1 X79.797 Y108.362 E0.00871
G1 X79.725 Y108.443 E0.00343
G1 X77.821 Y106.540 E0.08511
G1 X77.821 Y107.077 E0.01700
G1 X79.470 Y108.726 E0.07373
G1 X79.363 Y108.846 E0.00508
G1 X79.249 Y109.043 E0.00720
G1 X77.821 Y107.615 E0.06384
G1 X77.821 Y108.153 E0.01700
G1 X79.052 Y109.384 E0.05504
G1 X78.916 Y109.785 E0.01340
G1 X77.821 Y108.691 E0.04894
G1 X77.821 Y109.228 E0.01700
G1 X78.817 Y110.224 E0.04453
G1 X78.776 Y110.721 E0.01575
G1 X77.821 Y109.766 E0.04269
G1 X77.821 Y110.304 E0.01700
G1 X78.844 Y111.326 E0.04572
G1 X79.038 Y111.930 E0.02003
G1 X79.214 Y112.234 E0.01111
G1 X77.821 Y110.842 E0.06226
G1 X77.821 Y111.379 E0.01700
G1 X79.864 Y113.422 E0.09134
G1 X79.326 Y113.422 E0.01700
G1 X77.821 Y111.917 E0.06730
G1 X77.821 Y112.455 E0.01700
G1 X78.789 Y113.422 E0.04325
G1 X78.251 Y113.422 E0.01700
G1 X77.652 Y112.823 E0.02680
G1 F5760
G1 X78.251 Y113.422 E-0.29353
G1 X78.789 Y113.422 E-0.18625
G1 X78.216 Y112.850 E-0.28022
G1 E-0.04000 F2100.00000
G1 Z0.800 F7200.000
G1 X80.342 Y113.259
G1 Z0.200
G1 E0.80000 F2100.00000
G1 F1800
G1 X80.442 Y113.516 E0.00132
G1 F5760
G1 X80.342 Y113.259 E-0.09555
G1 E-0.70445 F2100.00000
G1 Z0.800 F7200.000
G1 X83.307 Y113.516
G1 Z0.200
G1 E0.80000 F2100.00000
G1 F1800
G1 X83.406 Y113.259 E0.00132
G1 F5760
G1 X83.307 Y113.516 E-0.09555
G1 E-0.70445 F2100.00000
G1 Z0.800 F7200.000
G1 X100.697 Y105.216
G1 Z0.200
G1 E0.80000 F2100.00000
G1 F1800
G1 X100.397 Y104.916 E0.01343
G1 X99.859 Y104.916 E0.01700
G1 X100.527 Y105.584 E0.02989
G1 X100.527 Y106.122 E0.01700
G1 X99.321 Y104.916 E0.05393
G1 X98.783 Y104.916 E0.01700
G1 X100.527 Y106.660 E0.07798
G1 X100.527 Y107.198 E0.01700
G1 X98.246 Y104.916 E0.10202
G1 X97.708 Y104.916 E0.01700
G1 X100.527 Y107.735 E0.12607
G1 X100.527 Y108.273 E0.01700
G1 X97.170 Y104.916 E0.15011
G1 X96.632 Y104.916 E0.01700
G1 X100.527 Y108.811 E0.17416
G1 X100.527 Y109.349 E0.01700
G1 X96.095 Y104.916 E0.19820
G1 X95.557 Y104.916 E0.01700
G1 X100.527 Y109.886 E0.22225
G1 X100.527 Y110.424 E0.01700
G1 X95.019 Y104.916 E0.24630
G1 X94.481 Y104.916 E0.01700
G1 X100.527 Y110.962 E0.27034
G1 X100.527 Y111.500 E0.01700
G1 X93.944 Y104.916 E0.29439
G1 X93.406 Y104.916 E0.01700
G1 X100.527 Y112.037 E0.31843
G1 X100.527 Y112.575 E0.01700
G1 X92.868 Y104.916 E0.34248
G1 X92.330 Y104.916 E0.01700
G1 X100.527 Y113.113 E0.36652
G1 X100.527 Y113.422 E0.00978
G1 X100.299 Y113.422 E0.00723
G1 X91.793 Y104.916 E0.38035
G1 X91.255 Y104.916 E0.01700
G1 X99.761 Y113.422 E0.38035
G1 X99.223 Y113.422 E0.01700
G1 X90.717 Y104.916 E0.38035
G1 X90.179 Y104.916 E0.01700
G1 X98.686 Y113.422 E0.38035
G1 X98.148 Y113.422 E0.01700
G1 X89.642 Y104.916 E0.38035
G1 X89.104 Y104.916 E0.01700
G1 X97.610 Y113.422 E0.38035
G1 X97.072 Y113.422 E0.01700
G1 X88.566 Y104.916 E0.38035
G1 X88.028 Y104.916 E0.01700
G1 X96.534 Y113.422 E0.38035
G1 X95.997 Y113.422 E0.01700
G1 X87.491 Y104.916 E0.38035
G1 X86.953 Y104.916 E0.01700
G1 X95.459 Y113.422 E0.38035
G1 X94.921 Y113.422 E0.01700
G1 X86.415 Y104.916 E0.38035
G1 X85.877 Y104.916 E0.01700
G1 X94.383 Y113.422 E0.38035
G1 X93.846 Y113.422 E0.01700
G1 X77.821 Y97.398 E0.71653
G1 X77.821 Y96.860 E0.01700
G1 X85.327 Y104.366 E0.33563
G1 X85.327 Y103.828 E0.01700
G1 X77.821 Y96.322 E0.33563
G1 X77.821 Y95.784 E0.01700
G1 X85.327 Y103.291 E0.33563
G1 X85.327 Y102.753 E0.01700
G1 X77.821 Y95.247 E0.33563
G1 X77.821 Y94.709 E0.01700
G1 X85.327 Y102.215 E0.33563
G1 X85.327 Y101.677 E0.01700
G1 X77.821 Y94.171 E0.33563
G1 X77.821 Y93.633 E0.01700
G1 X85.327 Y101.140 E0.33563
G1 X85.327 Y100.602 E0.01700
G1 X77.821 Y93.096 E0.33563
G1 X77.821 Y92.558 E0.01700
G1 X85.327 Y100.064 E0.33563
G1 X85.327 Y99.526 E0.01700
G1 X77.821 Y92.020 E0.33563
G1 X77.821 Y91.482 E0.01700
G1 X85.327 Y98.989 E0.33563
G1 X85.327 Y98.451 E0.01700
G1 X77.821 Y90.945 E0.33563
G1 X77.821 Y90.407 E0.01700
G1 X85.327 Y97.913 E0.33563
G1 X85.327 Y97.375 E0.01700
G1 X77.821 Y89.869 E0.33563
G1 X77.821 Y89.331 E0.01700
G1 X85.327 Y96.837 E0.33563
G1 X85.327 Y96.300 E0.01700
G1 X77.821 Y88.794 E0.33563
G1 X77.821 Y88.256 E0.01700
G1 X85.327 Y95.762 E0.33563
G1 X85.327 Y95.224 E0.01700
G1 X77.821 Y87.718 E0.33563
G1 X77.821 Y87.180 E0.01700
G1 X85.327 Y94.686 E0.33563
G1 X85.327 Y94.149 E0.01700
G1 X77.821 Y86.643 E0.33563
G1 X77.821 Y86.105 E0.01700
G1 X85.327 Y93.611 E0.33563
G1 X85.327 Y93.073 E0.01700
G1 X77.821 Y85.567 E0.33563
G1 X77.821 Y85.029 E0.01700
G1 X85.327 Y92.535 E0.33563
G1 X85.327 Y91.998 E0.01700
G1 X77.821 Y84.492 E0.33563
G1 X77.821 Y83.954 E0.01700
G1 X85.327 Y91.460 E0.33563
G1 X85.327 Y90.922 E0.01700
G1 X77.821 Y83.416 E0.33563
G1 X77.821 Y82.878 E0.01700
G1 X85.327 Y90.384 E0.33563
G1 X85.327 Y89.847 E0.01700
G1 X77.821 Y82.341 E0.33563
G1 X77.821 Y81.803 E0.01700
G1 X85.327 Y89.309 E0.33563
G1 X85.327 Y88.771 E0.01700
G1 X77.821 Y81.265 E0.33563
G1 X77.821 Y80.727 E0.01700
G1 X85.327 Y88.233 E0.33563
G1 X85.327 Y87.696 E0.01700
G1 X77.821 Y80.190 E0.33563
G1 X77.821 Y79.652 E0.01700
G1 X85.327 Y87.158 E0.33563
G1 X85.327 Y86.620 E0.01700
G1 X77.821 Y79.114 E0.33563
G1 X77.821 Y78.576 E0.01700
G1 X85.327 Y86.082 E0.33563
G1 X85.327 Y85.545 E0.01700
G1 X77.821 Y78.039 E0.33563
G1 X77.821 Y77.501 E0.01700
G1 X85.327 Y85.007 E0.33563
G1 X85.327 Y84.469 E0.01700
G1 X77.821 Y76.963 E0.33563
G1 X77.821 Y76.425 E0.01700
G1 X85.327 Y83.931 E0.33563
G1 X85.327 Y83.394 E0.01700
G1 X77.821 Y75.888 E0.33563
G1 X77.821 Y75.350 E0.01700
G1 X85.327 Y82.856 E0.33563
G1 X85.327 Y82.318 E0.01700
G1 X77.821 Y74.812 E0.33563
G1 X77.821 Y74.274 E0.01700
G1 X85.327 Y81.780 E0.33563
G1 X85.327 Y81.243 E0.01700
G1 X77.821 Y73.736 E0.33563
G1 X77.821 Y73.199 E0.01700
G1 X85.327 Y80.705 E0.33563
