; generated by Slic3r 1.3.0 on 2021-10-08 at 15:26:26

; external perimeters extrusion width = 0.44mm (3.38mm^3/s)
; perimeters extrusion width = 0.48mm (7.54mm^3/s)
; infill extrusion width = 0.48mm (10.05mm^3/s)
; solid infill extrusion width = 0.48mm (2.51mm^3/s)
; top infill extrusion width = 0.48mm (1.88mm^3/s)

M107
M190 S60 ; set bed temperature and wait for it to be reached
M104 S190 ; set temperature
G28 X0 Y0
G28 Z0
G29 L20 R330 F20 B250 V4 T
G1 Z5 F5000 ; lift nozzle
M106 S150


; Filament gcode

M109 S190 ; set temperature and wait for it to be reached
G21 ; set units to millimeters
G90 ; use absolute coordinates
M82 ; use absolute distances for extrusion
G92 E0
G1 Z0.350 F7800.000
G1 E-2.00000 F2400.00000
G92 E0
G1 X151.796 Y123.026 F7800.000
G1 E2.00000 F2400.00000
G1 F1800
G1 X153.569 Y121.409 E2.21823
G1 X155.773 Y120.459 E2.43646
G1 X157.500 Y120.250 E2.59463
G1 X182.500 Y120.250 E4.86787
G1 X184.867 Y120.647 E5.08609
G1 X186.974 Y121.796 E5.30432
G1 X188.591 Y123.569 E5.52255
G1 X189.541 Y125.773 E5.74078
G1 X189.750 Y127.500 E5.89895
G1 X189.750 Y152.500 E8.17219
G1 X189.353 Y154.867 E8.39041
G1 X188.204 Y156.974 E8.60864
G1 X186.431 Y158.591 E8.82687
G1 X184.227 Y159.541 E9.04510
G1 X182.500 Y159.750 E9.20327
G1 X157.500 Y159.750 E11.47651
G1 X155.133 Y159.353 E11.69474
G1 X153.026 Y158.204 E11.91296
G1 X151.409 Y156.431 E12.13119
G1 X150.459 Y154.227 E12.34942
G1 X150.250 Y152.500 E12.50759
G1 X150.250 Y127.500 E14.78083
G1 X150.647 Y125.133 E14.99906
G1 X151.767 Y123.078 E15.21183
G1 X152.415 Y123.253 F7800.000
G1 F1800
G1 X154.168 Y121.774 E15.42037
G1 X156.320 Y120.981 E15.62891
G1 X157.500 Y120.875 E15.73662
G1 X182.500 Y120.875 E18.00986
G1 X184.759 Y121.272 E18.21840
G1 X186.747 Y122.415 E18.42695
G1 X188.226 Y124.168 E18.63549
G1 X189.019 Y126.320 E18.84403
G1 X189.125 Y127.500 E18.95174
G1 X189.125 Y152.500 E21.22498
G1 X188.728 Y154.759 E21.43352
G1 X187.585 Y156.747 E21.64206
G1 X185.832 Y158.226 E21.85061
G1 X183.680 Y159.019 E22.05915
G1 X182.500 Y159.125 E22.16686
G1 X157.500 Y159.125 E24.44010
G1 X155.241 Y158.728 E24.64864
G1 X153.253 Y157.585 E24.85718
G1 X151.774 Y155.832 E25.06572
G1 X150.981 Y153.680 E25.27427
G1 X150.875 Y152.500 E25.38198
G1 X150.875 Y127.500 E27.65522
G1 X151.272 Y125.241 E27.86376
G1 X152.386 Y123.305 E28.06684
G1 E26.06684 F2400.00000
G92 E0
G1 X154.167 Y125.004 F7800.000
G1 E2.00000 F2400.00000
G1 F1800
G1 X155.793 Y123.378 E2.20914
G1 X184.207 Y123.378 E4.79334
G1 X186.622 Y125.793 E5.10390
G1 X186.622 Y154.207 E7.68810
G1 X184.207 Y156.622 E7.99866
G1 X155.793 Y156.622 E10.58286
G1 X153.378 Y154.207 E10.89342
G1 X153.378 Y125.793 E13.47762
G1 X154.124 Y125.047 E13.57358
G1 X154.608 Y125.446 F7800.000
G1 F1800
G1 X156.052 Y124.003 E13.75917
G1 X183.948 Y124.003 E16.29629
G1 X185.997 Y126.052 E16.55976
G1 X185.997 Y153.948 E19.09687
G1 X183.948 Y155.997 E19.36034
G1 X156.052 Y155.997 E21.89745
G1 X154.003 Y153.948 E22.16092
G1 X154.003 Y126.052 E24.69803
G1 X154.566 Y125.488 E24.77044
G1 X155.050 Y125.888 F7800.000
G1 F1800
G1 X156.310 Y124.628 E24.93250
G1 X183.690 Y124.628 E27.42252
G1 X185.372 Y126.310 E27.63890
G1 X185.372 Y153.690 E30.12892
G1 X183.690 Y155.372 E30.34530
G1 X156.310 Y155.372 E32.83533
G1 X154.628 Y153.690 E33.05171
G1 X154.628 Y126.310 E35.54173
G1 X155.008 Y125.930 E35.59060
G1 X155.492 Y126.330 F7800.000
G1 F1800
G1 X156.569 Y125.253 E35.72911
G1 X183.431 Y125.253 E38.17204
G1 X184.747 Y126.569 E38.34133
G1 X184.747 Y153.431 E40.78427
G1 X183.431 Y154.747 E40.95356
G1 X156.569 Y154.747 E43.39650
G1 X155.253 Y153.431 E43.56579
G1 X155.253 Y126.569 E46.00872
G1 X155.450 Y126.372 E46.03405
G1 X155.934 Y126.772 F7800.000
G1 F1800
G1 X156.828 Y125.878 E46.14901
G1 X183.172 Y125.878 E48.54486
G1 X184.122 Y126.828 E48.66706
G1 X184.122 Y153.172 E51.06291
G1 X183.172 Y154.122 E51.18511
G1 X156.828 Y154.122 E53.58095
G1 X155.878 Y153.172 E53.70316
G1 X155.878 Y126.828 E56.09900
G1 X155.892 Y126.814 E56.10078
G1 X156.503 Y127.087 F7800.000
G1 F1800
G1 X157.087 Y126.503 E56.17590
G1 X182.913 Y126.503 E58.52466
G1 X183.497 Y127.087 E58.59977
G1 X183.497 Y152.913 E60.94853
G1 X182.913 Y153.497 E61.02364
G1 X157.087 Y153.497 E63.37240
G1 X156.503 Y152.913 E63.44751
G1 X156.503 Y127.147 E65.79081
G1 X157.128 Y127.346 F7800.000
G1 F1800
G1 X157.346 Y127.128 E65.81884
G1 X182.654 Y127.128 E68.12051
G1 X182.872 Y127.346 E68.14853
G1 X182.872 Y152.654 E70.45020
G1 X182.654 Y152.872 E70.47823
G1 X157.346 Y152.872 E72.77990
G1 X157.128 Y152.654 E72.80792
G1 X157.128 Y127.406 E75.10413
G1 E73.10413 F2400.00000
G92 E0
G1 X182.150 Y152.150 F7800.000
G1 E2.00000 F2400.00000
G1 F1800
G1 X157.850 Y152.150 E4.20959
G1 X157.850 Y127.850 E6.41918
G1 X182.150 Y127.850 E8.62877
G1 X182.150 Y152.090 E10.83290
G1 X181.764 Y152.046 F7800.000
G1 X181.525 Y151.525 F7800.000
G1 F1800
G1 X158.475 Y151.525 E12.92885
G1 X158.475 Y128.475 E15.02479
G1 X181.525 Y128.475 E17.12074
G1 X181.525 Y151.465 E19.21123
G1 X180.900 Y150.900 F7800.000
G1 F1800
G1 X159.100 Y150.900 E21.19354
G1 X159.100 Y129.100 E23.17584
G1 X180.900 Y129.100 E25.15815
G1 X180.900 Y150.840 E27.13500
G1 X180.032 Y150.518 F7800.000
G1 F1800
G1 X180.518 Y150.032 E27.19821
G1 X180.518 Y149.139 E27.28036
G1 X179.139 Y150.518 E27.45974
G1 X178.245 Y150.518 E27.54188
G1 X180.518 Y148.245 E27.83744
G1 X180.518 Y147.352 E27.91958
G1 X177.352 Y150.518 E28.33130
G1 X176.458 Y150.518 E28.41345
G1 X180.518 Y146.458 E28.94134
G1 X180.518 Y145.565 E29.02348
G1 X175.565 Y150.518 E29.66755
G1 X174.671 Y150.518 E29.74969
G1 X180.518 Y144.671 E30.50992
G1 X180.518 Y143.778 E30.59207
G1 X173.778 Y150.518 E31.46847
G1 X172.884 Y150.518 E31.55062
G1 X180.518 Y142.884 E32.54319
G1 X180.518 Y141.991 E32.62533
G1 X171.991 Y150.518 E33.73408
G1 X171.097 Y150.518 E33.81622
G1 X180.518 Y141.097 E35.04113
G1 X180.518 Y140.204 E35.12328
G1 X170.204 Y150.518 E36.46436
G1 X169.310 Y150.518 E36.54651
G1 X180.518 Y139.310 E38.00376
G1 X180.518 Y138.417 E38.08590
G1 X168.417 Y150.518 E39.65933
G1 X167.523 Y150.518 E39.74147
G1 X180.518 Y137.523 E41.43106
G1 X180.518 Y136.630 E41.51321
G1 X166.630 Y150.518 E43.31897
G1 X165.736 Y150.518 E43.40112
G1 X180.518 Y135.736 E45.32305
G1 X180.518 Y134.843 E45.40519
G1 X164.843 Y150.518 E47.44330
G1 X163.949 Y150.518 E47.52544
G1 X180.518 Y133.949 E49.67971
G1 X180.518 Y133.056 E49.76186
G1 X163.056 Y150.518 E52.03230
G1 X162.162 Y150.518 E52.11445
G1 X180.518 Y132.162 E54.50106
G1 X180.518 Y131.269 E54.58320
G1 X161.269 Y150.518 E57.08599
G1 X160.375 Y150.518 E57.16813
G1 X180.518 Y130.375 E59.78708
G1 X180.518 Y129.482 E59.86923
G1 X159.482 Y150.518 E62.60435
G1 X159.482 Y149.625 E62.68650
G1 X179.625 Y129.482 E65.30545
G1 X178.731 Y129.482 E65.38759
G1 X159.482 Y148.731 E67.89038
G1 X159.482 Y147.838 E67.97252
G1 X177.838 Y129.482 E70.35913
G1 X176.944 Y129.482 E70.44128
G1 X159.482 Y146.944 E72.71172
G1 X159.482 Y146.051 E72.79387
G1 X176.051 Y129.482 E74.94814
G1 X175.157 Y129.482 E75.03028
G1 X159.482 Y145.157 E77.06839
G1 X159.482 Y144.264 E77.15053
G1 X174.264 Y129.482 E79.07246
G1 X173.370 Y129.482 E79.15461
G1 X159.482 Y143.370 E80.96037
G1 X159.482 Y142.477 E81.04252
G1 X172.477 Y129.482 E82.73211
G1 X171.583 Y129.482 E82.81425
G1 X159.482 Y141.583 E84.38768
G1 X159.482 Y140.690 E84.46982
G1 X170.690 Y129.482 E85.92707
G1 X169.796 Y129.482 E86.00922
G1 X159.482 Y139.796 E87.35030
G1 X159.482 Y138.903 E87.43245
G1 X168.903 Y129.482 E88.65736
G1 X168.009 Y129.482 E88.73950
G1 X159.482 Y138.009 E89.84825
G1 X159.482 Y137.116 E89.93039
G1 X167.116 Y129.482 E90.92297
G1 X166.222 Y129.482 E91.00511
G1 X159.482 Y136.222 E91.88151
G1 X159.482 Y135.329 E91.96366
G1 X165.329 Y129.482 E92.72389
G1 X164.435 Y129.482 E92.80603
G1 X159.482 Y134.435 E93.45010
G1 X159.482 Y133.542 E93.53224
G1 X163.542 Y129.482 E94.06014
G1 X162.648 Y129.482 E94.14228
G1 X159.482 Y132.648 E94.55400
G1 X159.482 Y131.755 E94.63615
G1 X161.755 Y129.482 E94.93170
G1 X160.861 Y129.482 E95.01385
G1 X159.482 Y130.861 E95.19323
G1 X159.482 Y129.968 E95.27537
G1 X159.968 Y129.482 E95.33859
M104 S180 ; set temperature
G1 Z0.650 F7800.000
G1 X181.464 Y151.464 F7800.000
G1 F3600
G1 X158.536 Y151.464 E96.53644
G1 X158.536 Y128.536 E97.73430
G1 X181.464 Y128.536 E98.93216
G1 X181.464 Y151.404 E100.12688
G1 X181.883 Y151.883 F7800.000
G1 F3600
G1 X158.117 Y151.883 E101.36851
G1 X158.117 Y128.117 E102.61013
G1 X181.883 Y128.117 E103.85176
G1 X181.883 Y151.823 E105.09025
G1 X182.280 Y152.280 F7800.000
G1 F1800
G1 X157.720 Y152.280 E106.24087
G1 X157.720 Y127.720 E107.39149
G1 X182.280 Y127.720 E108.54211
G1 X182.280 Y152.220 E109.68992
G1 X181.894 Y152.176 F7800.000
G1 X181.208 Y129.118 F7800.000
G1 F1200
G1 X180.882 Y128.792 E109.71419
G1 X180.285 Y128.792 E109.74563
G1 X181.208 Y129.715 E109.81436
G1 X181.208 Y130.312 E109.84579
G1 X179.688 Y128.792 E109.95898
G1 X179.091 Y128.792 E109.99041
G1 X181.208 Y130.909 E110.14805
G1 X181.208 Y131.506 E110.17949
G1 X178.494 Y128.792 E110.38159
G1 X177.897 Y128.792 E110.41302
G1 X181.208 Y132.103 E110.65958
G1 X181.208 Y132.700 E110.69102
G1 X177.300 Y128.792 E110.98203
G1 X176.703 Y128.792 E111.01346
G1 X181.208 Y133.297 E111.34893
G1 X181.208 Y133.894 E111.38037
G1 X176.106 Y128.792 E111.76029
G1 X175.509 Y128.792 E111.79173
G1 X181.208 Y134.491 E112.21611
G1 X181.208 Y135.088 E112.24755
G1 X174.912 Y128.792 E112.71639
G1 X174.315 Y128.792 E112.74782
G1 X181.208 Y135.685 E113.26112
G1 X181.208 Y136.282 E113.29255
G1 X173.718 Y128.792 E113.85030
G1 X173.121 Y128.792 E113.88174
G1 X181.208 Y136.879 E114.48395
G1 X181.208 Y137.476 E114.51538
G1 X172.524 Y128.792 E115.16205
G1 X171.927 Y128.792 E115.19349
G1 X181.208 Y138.073 E115.88461
G1 X181.208 Y138.670 E115.91604
G1 X171.330 Y128.792 E116.65162
G1 X170.733 Y128.792 E116.68306
G1 X181.208 Y139.267 E117.46310
G1 X181.208 Y139.864 E117.49453
G1 X170.136 Y128.792 E118.31902
G1 X169.539 Y128.792 E118.35046
G1 X181.208 Y140.461 E119.21941
G1 X181.208 Y141.058 E119.25084
G1 X168.942 Y128.792 E120.16425
G1 X168.344 Y128.792 E120.19569
G1 X181.208 Y141.656 E121.15355
G1 X181.208 Y142.253 E121.18498
G1 X167.747 Y128.792 E122.18730
G1 X167.150 Y128.792 E122.21874
G1 X181.208 Y142.850 E123.26552
G1 X181.208 Y143.447 E123.29695
G1 X166.553 Y128.792 E124.38818
G1 X165.956 Y128.792 E124.41962
G1 X181.208 Y144.044 E125.55531
G1 X181.208 Y144.641 E125.58675
G1 X165.359 Y128.792 E126.76689
G1 X164.762 Y128.792 E126.79833
G1 X181.208 Y145.238 E128.02293
G1 X181.208 Y145.835 E128.05437
G1 X164.165 Y128.792 E129.32343
G1 X163.568 Y128.792 E129.35486
G1 X181.208 Y146.432 E130.66838
G1 X181.208 Y147.029 E130.69981
G1 X162.971 Y128.792 E132.05779
G1 X162.374 Y128.792 E132.08922
G1 X181.208 Y147.626 E133.49165
G1 X181.208 Y148.223 E133.52309
G1 X161.777 Y128.792 E134.96998
G1 X161.180 Y128.792 E135.00141
G1 X181.208 Y148.820 E136.49275
G1 X181.208 Y149.417 E136.52419
G1 X160.583 Y128.792 E138.05999
G1 X159.986 Y128.792 E138.09143
G1 X181.208 Y150.014 E139.67168
G1 X181.208 Y150.611 E139.70312
G1 X159.389 Y128.792 E141.32783
G1 X158.792 Y128.792 E141.35927
G1 X181.208 Y151.208 E143.02844
G1 X180.611 Y151.208 E143.05987
G1 X158.792 Y129.389 E144.68459
G1 X158.792 Y129.986 E144.71603
G1 X180.014 Y151.208 E146.29629
G1 X179.417 Y151.208 E146.32773
G1 X158.792 Y130.583 E147.86353
G1 X158.792 Y131.180 E147.89497
G1 X178.820 Y151.208 E149.38632
G1 X178.223 Y151.208 E149.41775
G1 X158.792 Y131.777 E150.86464
G1 X158.792 Y132.374 E150.89608
G1 X177.626 Y151.208 E152.29852
G1 X177.029 Y151.208 E152.32995
G1 X158.792 Y132.971 E153.68793
G1 X158.792 Y133.568 E153.71937
G1 X176.432 Y151.208 E155.03289
G1 X175.835 Y151.208 E155.06432
G1 X158.792 Y134.165 E156.33339
G1 X158.792 Y134.762 E156.36483
G1 X175.238 Y151.208 E157.58943
G1 X174.641 Y151.208 E157.62087
G1 X158.792 Y135.359 E158.80102
G1 X158.792 Y135.956 E158.83246
G1 X174.044 Y151.208 E159.96815
G1 X173.447 Y151.208 E159.99959
G1 X158.792 Y136.553 E161.09083
G1 X158.792 Y137.150 E161.12226
G1 X172.850 Y151.208 E162.16904
G1 X172.253 Y151.208 E162.20048
G1 X158.792 Y137.747 E163.20281
G1 X158.792 Y138.344 E163.23424
G1 X171.656 Y151.208 E164.19211
G1 X171.059 Y151.208 E164.22355
G1 X158.792 Y138.941 E165.13696
G1 X158.792 Y139.538 E165.16839
G1 X170.462 Y151.208 E166.03735
G1 X169.865 Y151.208 E166.06878
G1 X158.792 Y140.135 E166.89328
G1 X158.792 Y140.733 E166.92472
G1 X169.268 Y151.208 E167.70476
G1 X168.670 Y151.208 E167.73619
G1 X158.792 Y141.330 E168.47178
G1 X158.792 Y141.927 E168.50322
G1 X168.073 Y151.208 E169.19434
G1 X167.476 Y151.208 E169.22578
G1 X158.792 Y142.524 E169.87245
G1 X158.792 Y143.121 E169.90389
G1 X166.879 Y151.208 E170.50610
G1 X166.282 Y151.208 E170.53754
G1 X158.792 Y143.718 E171.09529
G1 X158.792 Y144.315 E171.12673
G1 X165.685 Y151.208 E171.64003
G1 X165.088 Y151.208 E171.67147
G1 X158.792 Y144.912 E172.14031
G1 X158.792 Y145.509 E172.17175
G1 X164.491 Y151.208 E172.59614
G1 X163.894 Y151.208 E172.62757
G1 X158.792 Y146.106 E173.00750
G1 X158.792 Y146.703 E173.03894
G1 X163.297 Y151.208 E173.37441
G1 X162.700 Y151.208 E173.40585
G1 X158.792 Y147.300 E173.69687
G1 X158.792 Y147.897 E173.72830
G1 X162.103 Y151.208 E173.97486
G1 X161.506 Y151.208 E174.00630
G1 X158.792 Y148.494 E174.20840
G1 X158.792 Y149.091 E174.23984
G1 X160.909 Y151.208 E174.39749
G1 X160.312 Y151.208 E174.42892
G1 X158.792 Y149.688 E174.54211
G1 X158.792 Y150.285 E174.57355
G1 X159.715 Y151.208 E174.64228
G1 X159.118 Y151.208 E174.67372
G1 X158.792 Y150.882 E174.69799
G1 Z0.950 F7800.000
G1 X181.464 Y151.464 F7800.000
G1 F3600
G1 X158.536 Y151.464 E175.89585
G1 X158.536 Y128.536 E177.09371
G1 X181.464 Y128.536 E178.29157
G1 X181.464 Y151.404 E179.48629
G1 X181.883 Y151.883 F7800.000
G1 F3600
G1 X158.117 Y151.883 E180.72792
G1 X158.117 Y128.117 E181.96954
G1 X181.883 Y128.117 E183.21117
G1 X181.883 Y151.823 E184.44966
G1 X182.280 Y152.280 F7800.000
G1 F1800
G1 X157.720 Y152.280 E185.60028
G1 X157.720 Y127.720 E186.75090
G1 X182.280 Y127.720 E187.90152
G1 X182.280 Y152.220 E189.04933
G1 X181.894 Y152.176 F7800.000
G1 X180.882 Y151.208 F7800.000
G1 F1200
G1 X181.208 Y150.882 E189.07360
G1 X181.208 Y150.285 E189.10504
G1 X180.285 Y151.208 E189.17377
G1 X179.688 Y151.208 E189.20520
G1 X181.208 Y149.688 E189.31839
G1 X181.208 Y149.091 E189.34982
G1 X179.091 Y151.208 E189.50746
G1 X178.494 Y151.208 E189.53890
G1 X181.208 Y148.494 E189.74100
G1 X181.208 Y147.897 E189.77243
G1 X177.897 Y151.208 E190.01899
G1 X177.300 Y151.208 E190.05042
G1 X181.208 Y147.300 E190.34144
G1 X181.208 Y146.703 E190.37287
G1 X176.703 Y151.208 E190.70834
G1 X176.106 Y151.208 E190.73978
G1 X181.208 Y146.106 E191.11970
G1 X181.208 Y145.509 E191.15114
G1 X175.509 Y151.208 E191.57552
G1 X174.912 Y151.208 E191.60695
G1 X181.208 Y144.912 E192.07579
G1 X181.208 Y144.315 E192.10723
G1 X174.315 Y151.208 E192.62052
G1 X173.718 Y151.208 E192.65196
G1 X181.208 Y143.718 E193.20971
G1 X181.208 Y143.121 E193.24115
G1 X173.121 Y151.208 E193.84336
G1 X172.524 Y151.208 E193.87479
G1 X181.208 Y142.524 E194.52146
G1 X181.208 Y141.927 E194.55289
G1 X171.927 Y151.208 E195.24402
G1 X171.330 Y151.208 E195.27545
G1 X181.208 Y141.330 E196.01103
G1 X181.208 Y140.733 E196.04247
G1 X170.733 Y151.208 E196.82250
G1 X170.136 Y151.208 E196.85394
G1 X181.208 Y140.136 E197.67843
G1 X181.208 Y139.539 E197.70987
G1 X169.539 Y151.208 E198.57882
G1 X168.942 Y151.208 E198.61025
G1 X181.208 Y138.942 E199.52366
G1 X181.208 Y138.344 E199.55509
G1 X168.344 Y151.208 E200.51296
G1 X167.747 Y151.208 E200.54439
G1 X181.208 Y137.747 E201.54671
G1 X181.208 Y137.150 E201.57815
G1 X167.150 Y151.208 E202.62492
G1 X166.553 Y151.208 E202.65636
G1 X181.208 Y136.553 E203.74759
G1 X181.208 Y135.956 E203.77903
G1 X165.956 Y151.208 E204.91472
G1 X165.359 Y151.208 E204.94615
G1 X181.208 Y135.359 E206.12630
G1 X181.208 Y134.762 E206.15773
G1 X164.762 Y151.208 E207.38234
G1 X164.165 Y151.208 E207.41377
G1 X181.208 Y134.165 E208.68283
G1 X181.208 Y133.568 E208.71427
G1 X163.568 Y151.208 E210.02778
G1 X162.971 Y151.208 E210.05922
G1 X181.208 Y132.971 E211.41719
G1 X181.208 Y132.374 E211.44863
