;FLAVOR:Marlin
;TIME:2694
;Filament used: 3.30082m
;Layer height: 0.3
;MINX:47.265
;MINY:22.874
;MINZ:0.2
;MAXX:171.065
;MAXY:65.474
;MAXZ:11.9
;Generated with Cura_SteamEngine 4.4.0
M82 ;absolute extrusion mode
G21 ; set units to millimeters
G90 ; use absolute positioning
M82 ; absolute extrusion mode
M104 S215 ; set extruder temp
M140 S65 ; set bed temp
M190 S65 ; wait for bed temp
M109 S215 ; wait for extruder temp
G28 W ; home all without mesh bed level
G80 ; mesh bed leveling
G92 E0.0 ; reset extruder distance position
G1 Y-3.0 F1000.0 ; go outside print area
G1 X60.0 E9.0 F1000.0 ; intro line
G1 X100.0 E21.5 F1000.0 ; intro line
G92 E0.0 ; reset extruder distance position
G92 E0
G92 E0
G1 F2100 E-0.8
;LAYER_COUNT:40
;LAYER:0
M107
G0 F3600 X49.172 Y34.043 Z0.2
;TYPE:SKIRT
G1 F2100 E0
G1 F1800 X49.734 Y33.251 E0.0323
G1 X50.36 Y32.508 E0.06461
G1 X51.045 Y31.819 E0.09693
G1 X51.784 Y31.188 E0.12925
G1 X52.572 Y30.621 E0.16154
G1 X53.404 Y30.12 E0.19384
G1 X54.275 Y29.69 E0.22615
G1 X55.179 Y29.332 E0.25849
G1 X56.108 Y29.05 E0.29078
G1 X57.058 Y28.846 E0.32309
G1 X58.021 Y28.72 E0.3554
G1 X59.068 Y28.674 E0.39025
G1 X62.915 Y28.675 E0.51821
G1 X63.172 Y28.243 E0.53492
G1 X63.734 Y27.451 E0.56722
G1 X64.36 Y26.708 E0.59954
G1 X65.045 Y26.019 E0.63185
G1 X65.784 Y25.388 E0.66417
G1 X66.572 Y24.821 E0.69646
G1 X67.404 Y24.32 E0.72876
G1 X68.275 Y23.89 E0.76107
G1 X69.179 Y23.532 E0.79341
G1 X70.108 Y23.25 E0.8257
G1 X71.058 Y23.046 E0.85802
G1 X72.021 Y22.92 E0.89032
G1 X73.065 Y22.874 E0.92508
G1 X146.065 Y22.874 E3.35307
G1 X147.036 Y22.914 E3.38539
G1 X148 Y23.034 E3.4177
G1 X148.95 Y23.232 E3.44998
G1 X149.882 Y23.508 E3.48231
G1 X150.787 Y23.86 E3.5146
G1 X151.661 Y24.285 E3.54693
G1 X152.496 Y24.781 E3.57923
G1 X153.288 Y25.343 E3.61153
G1 X154.031 Y25.969 E3.64385
G1 X154.72 Y26.654 E3.67616
G1 X155.351 Y27.393 E3.70848
G1 X155.918 Y28.181 E3.74077
G1 X156.215 Y28.675 E3.75994
G1 X159.261 Y28.674 E3.86125
G1 X160.232 Y28.714 E3.89357
G1 X161.196 Y28.833 E3.92588
G1 X162.147 Y29.031 E3.95819
G1 X163.078 Y29.307 E3.99049
G1 X163.984 Y29.659 E4.02281
G1 X164.858 Y30.083 E4.05512
G1 X165.693 Y30.579 E4.08743
G1 X166.485 Y31.141 E4.11973
G1 X167.229 Y31.766 E4.15204
G1 X167.918 Y32.451 E4.18436
G1 X168.548 Y33.19 E4.21666
G1 X169.116 Y33.978 E4.24897
G1 X169.617 Y34.81 E4.28127
G1 X170.048 Y35.681 E4.31359
G1 X170.405 Y36.584 E4.34589
G1 X170.688 Y37.514 E4.37822
G1 X170.892 Y38.463 E4.4105
G1 X171.018 Y39.426 E4.44281
G1 X171.065 Y40.474 E4.4777
G1 X171.065 Y53.674 E4.91673
G1 X171.025 Y54.645 E4.94905
G1 X170.905 Y55.609 E4.98136
G1 X170.707 Y56.559 E5.01364
G1 X170.431 Y57.491 E5.04597
G1 X170.079 Y58.396 E5.07827
G1 X169.654 Y59.27 E5.11059
G1 X169.158 Y60.105 E5.14289
G1 X168.596 Y60.897 E5.17519
G1 X167.97 Y61.64 E5.20751
G1 X167.285 Y62.329 E5.23982
G1 X166.546 Y62.96 E5.27214
G1 X165.758 Y63.527 E5.30443
G1 X164.926 Y64.028 E5.33673
G1 X164.055 Y64.458 E5.36904
G1 X163.151 Y64.816 E5.40138
G1 X162.222 Y65.098 E5.43367
G1 X161.272 Y65.302 E5.46599
G1 X160.309 Y65.428 E5.49829
G1 X159.257 Y65.474 E5.53331
G1 X153.061 Y65.47 E5.73939
G1 X66.268 Y65.47 E8.62614
G1 X59.123 Y65.474 E8.86378
G1 X59.065 Y65.474 E8.86571
G1 X58.094 Y65.434 E8.89804
G1 X57.13 Y65.314 E8.93035
G1 X56.18 Y65.116 E8.96262
G1 X55.248 Y64.84 E8.99495
G1 X54.343 Y64.488 E9.02725
G1 X53.469 Y64.063 E9.05957
G1 X52.634 Y63.567 E9.09187
G1 X51.842 Y63.005 E9.12417
G1 X51.099 Y62.379 E9.15649
G1 X50.41 Y61.694 E9.1888
G1 X49.779 Y60.955 E9.22112
G1 X49.212 Y60.167 E9.25341
G1 X48.711 Y59.335 E9.28571
G1 X48.281 Y58.464 E9.31802
G1 X47.923 Y57.56 E9.35036
G1 X47.641 Y56.631 E9.38265
G1 X47.437 Y55.681 E9.41497
G1 X47.311 Y54.718 E9.44727
G1 X47.265 Y53.674 E9.48203
G1 X47.265 Y40.474 E9.92106
G1 X47.305 Y39.503 E9.95339
G1 X47.425 Y38.539 E9.9857
G1 X47.623 Y37.589 E10.01797
G1 X47.899 Y36.657 E10.0503
G1 X48.251 Y35.752 E10.0826
G1 X48.676 Y34.878 E10.11492
G1 X49.172 Y34.043 E10.14722
G0 F3600 X49.57 Y34.165
G1 F1800 X50.131 Y33.393 E10.17897
G1 X50.755 Y32.67 E10.21073
G1 X51.437 Y32.002 E10.24248
G1 X52.173 Y31.393 E10.27425
G1 X52.957 Y30.849 E10.30599
G1 X53.784 Y30.371 E10.33776
G1 X54.647 Y29.965 E10.36948
G1 X55.542 Y29.632 E10.40125
G1 X56.462 Y29.375 E10.43302
G1 X57.4 Y29.196 E10.46478
G1 X58.349 Y29.096 E10.49652
G1 X59.068 Y29.074 E10.52044
G1 X63.14 Y29.075 E10.65588
G1 X63.57 Y28.365 E10.68349
G1 X64.131 Y27.593 E10.71523
G1 X64.755 Y26.87 E10.74699
G1 X65.437 Y26.202 E10.77874
G1 X66.173 Y25.593 E10.81052
G1 X66.957 Y25.049 E10.84225
G1 X67.784 Y24.571 E10.87402
G1 X68.647 Y24.165 E10.90575
G1 X69.542 Y23.832 E10.93751
G1 X70.462 Y23.575 E10.96928
G1 X71.4 Y23.396 E11.00104
G1 X72.349 Y23.296 E11.03278
G1 X73.065 Y23.274 E11.0566
G1 X146.065 Y23.274 E13.48459
G1 X147.019 Y23.314 E13.51635
G1 X147.966 Y23.434 E13.5481
G1 X148.9 Y23.632 E13.57985
G1 X149.814 Y23.908 E13.61161
G1 X150.702 Y24.26 E13.64338
G1 X151.557 Y24.684 E13.67512
G1 X152.374 Y25.179 E13.7069
G1 X153.146 Y25.74 E13.73864
G1 X153.869 Y26.364 E13.7704
G1 X154.537 Y27.046 E13.80215
G1 X155.146 Y27.782 E13.83393
G1 X155.69 Y28.566 E13.86566
G1 X155.984 Y29.075 E13.88521
G1 X159.262 Y29.074 E13.99424
G1 X160.215 Y29.114 E14.02597
G1 X161.163 Y29.233 E14.05774
G1 X162.097 Y29.431 E14.0895
G1 X163.011 Y29.707 E14.12125
G1 X163.899 Y30.058 E14.15301
G1 X164.754 Y30.482 E14.18476
G1 X165.571 Y30.977 E14.21653
G1 X166.343 Y31.538 E14.24827
G1 X167.066 Y32.161 E14.28001
G1 X167.735 Y32.843 E14.31179
G1 X168.343 Y33.579 E14.34354
G1 X168.889 Y34.363 E14.37531
G1 X169.366 Y35.19 E14.40707
G1 X169.773 Y36.053 E14.4388
G1 X170.106 Y36.948 E14.47056
G1 X170.363 Y37.868 E14.50234
G1 X170.542 Y38.805 E14.53406
G1 X170.642 Y39.755 E14.56584
G1 X170.665 Y40.474 E14.58976
G1 X170.665 Y53.674 E15.0288
G1 X170.625 Y54.628 E15.06055
G1 X170.505 Y55.575 E15.0923
G1 X170.307 Y56.509 E15.12406
G1 X170.031 Y57.423 E15.15581
G1 X169.679 Y58.311 E15.18758
G1 X169.255 Y59.166 E15.21933
G1 X168.76 Y59.983 E15.2511
G1 X168.199 Y60.755 E15.28284
G1 X167.575 Y61.478 E15.3146
G1 X166.893 Y62.146 E15.34636
G1 X166.157 Y62.755 E15.37813
G1 X165.373 Y63.299 E15.40987
G1 X164.546 Y63.777 E15.44164
G1 X163.683 Y64.183 E15.47336
G1 X162.788 Y64.516 E15.50512
G1 X161.868 Y64.773 E15.53689
G1 X160.93 Y64.952 E15.56865
G1 X159.981 Y65.052 E15.60039
G1 X159.258 Y65.074 E15.62445
G1 X153.062 Y65.07 E15.83053
G1 X66.267 Y65.07 E18.71734
G1 X59.122 Y65.074 E18.95499
G1 X59.065 Y65.074 E18.95688
G1 X58.111 Y65.034 E18.98864
G1 X57.164 Y64.914 E19.02039
G1 X56.23 Y64.716 E19.05214
G1 X55.316 Y64.44 E19.0839
G1 X54.428 Y64.088 E19.11567
G1 X53.573 Y63.664 E19.14741
G1 X52.756 Y63.169 E19.17918
G1 X51.984 Y62.608 E19.21092
G1 X51.261 Y61.984 E19.24269
G1 X50.593 Y61.302 E19.27444
G1 X49.984 Y60.566 E19.30621
G1 X49.44 Y59.782 E19.33795
G1 X48.962 Y58.955 E19.36972
G1 X48.556 Y58.092 E19.40144
G1 X48.223 Y57.197 E19.43321
G1 X47.966 Y56.277 E19.46498
G1 X47.787 Y55.339 E19.49674
G1 X47.687 Y54.39 E19.52848
G1 X47.665 Y53.674 E19.5523
G1 X47.665 Y40.474 E19.99134
G1 X47.705 Y39.52 E20.02309
G1 X47.825 Y38.573 E20.05484
G1 X48.023 Y37.639 E20.0866
G1 X48.299 Y36.725 E20.11835
G1 X48.651 Y35.837 E20.15012
G1 X49.075 Y34.982 E20.18187
G1 X49.57 Y34.165 E20.21364
G0 F3600 X49.968 Y34.29
G1 F1800 X50.528 Y33.538 E20.24482
G1 X51.149 Y32.836 E20.276
G1 X51.829 Y32.189 E20.30721
G1 X52.561 Y31.603 E20.3384
G1 X53.34 Y31.081 E20.36959
G1 X54.161 Y30.628 E20.40078
G1 X55.018 Y30.246 E20.43199
G1 X55.904 Y29.938 E20.46318
G1 X56.813 Y29.707 E20.49438
G1 X57.738 Y29.554 E20.52556
G1 X59.068 Y29.474 E20.56988
G1 X63.379 Y29.475 E20.71326
G1 X63.474 Y29.288 E20.72024
G1 X63.968 Y28.49 E20.75145
G1 X64.528 Y27.738 E20.78264
G1 X65.149 Y27.036 E20.81381
G1 X65.829 Y26.389 E20.84503
G1 X66.561 Y25.803 E20.87622
G1 X67.34 Y25.281 E20.90741
G1 X68.161 Y24.828 E20.93859
G1 X69.018 Y24.446 E20.9698
G1 X69.904 Y24.138 E21.001
G1 X70.813 Y23.907 E21.03219
G1 X71.738 Y23.754 E21.06338
G1 X73.065 Y23.674 E21.10759
G1 X146.065 Y23.674 E23.53558
G1 X147.002 Y23.714 E23.56678
G1 X147.932 Y23.834 E23.59797
G1 X148.849 Y24.032 E23.62917
G1 X149.745 Y24.308 E23.66035
G1 X150.615 Y24.659 E23.69155
G1 X151.451 Y25.083 E23.72273
G1 X152.249 Y25.577 E23.75395
G1 X153.001 Y26.137 E23.78513
G1 X153.703 Y26.758 E23.8163
G1 X154.35 Y27.438 E23.84752
G1 X154.936 Y28.17 E23.87871
G1 X155.458 Y28.949 E23.9099
G1 X155.748 Y29.475 E23.92988
G1 X159.262 Y29.474 E24.04675
G1 X160.199 Y29.514 E24.07795
G1 X161.129 Y29.633 E24.10913
G1 X162.046 Y29.831 E24.14033
G1 X162.942 Y30.107 E24.17151
G1 X163.812 Y30.458 E24.20272
G1 X164.649 Y30.881 E24.23391
G1 X165.446 Y31.375 E24.2651
G1 X166.199 Y31.934 E24.29629
G1 X166.901 Y32.556 E24.32748
G1 X167.548 Y33.235 E24.35868
G1 X168.134 Y33.967 E24.38987
G1 X168.656 Y34.746 E24.42105
G1 X169.11 Y35.567 E24.45226
G1 X169.492 Y36.424 E24.48347
G1 X169.8 Y37.31 E24.51466
G1 X170.031 Y38.218 E24.54583
G1 X170.184 Y39.144 E24.57704
G1 X170.265 Y40.474 E24.62136
G1 X170.265 Y53.674 E25.06039
G1 X170.225 Y54.611 E25.09159
G1 X170.105 Y55.541 E25.12278
G1 X169.907 Y56.458 E25.15398
G1 X169.631 Y57.354 E25.18516
G1 X169.28 Y58.224 E25.21636
G1 X168.856 Y59.06 E25.24754
G1 X168.362 Y59.858 E25.27876
G1 X167.802 Y60.61 E25.30994
G1 X167.181 Y61.312 E25.34111
G1 X166.501 Y61.959 E25.37233
G1 X165.769 Y62.545 E25.40352
G1 X164.99 Y63.067 E25.43471
G1 X164.169 Y63.52 E25.4659
G1 X163.312 Y63.902 E25.4971
G1 X162.426 Y64.21 E25.5283
G1 X161.517 Y64.441 E25.5595
G1 X160.592 Y64.594 E25.59068
G1 X159.258 Y64.674 E25.63513
G1 X153.062 Y64.67 E25.84121
G1 X66.267 Y64.67 E28.72802
G1 X59.122 Y64.674 E28.96567
G1 X59.065 Y64.674 E28.96756
G1 X58.128 Y64.634 E28.99875
G1 X57.198 Y64.514 E29.02994
G1 X56.281 Y64.316 E29.06115
G1 X55.385 Y64.04 E29.09233
G1 X54.515 Y63.689 E29.12353
G1 X53.679 Y63.265 E29.15471
G1 X52.881 Y62.771 E29.18592
G1 X52.129 Y62.211 E29.21711
G1 X51.427 Y61.59 E29.24828
G1 X50.78 Y60.91 E29.2795
G1 X50.194 Y60.178 E29.31069
G1 X49.672 Y59.399 E29.34188
G1 X49.219 Y58.578 E29.37306
G1 X48.837 Y57.721 E29.40427
G1 X48.529 Y56.835 E29.43547
G1 X48.298 Y55.926 E29.46666
G1 X48.145 Y55.001 E29.49785
G1 X48.065 Y53.674 E29.54206
G1 X48.065 Y40.474 E29.9811
G1 X48.105 Y39.537 E30.01229
G1 X48.225 Y38.607 E30.04348
G1 X48.423 Y37.69 E30.07468
G1 X48.699 Y36.794 E30.10586
G1 X49.05 Y35.924 E30.13707
G1 X49.474 Y35.088 E30.16824
G1 X49.968 Y34.29 E30.19946
G0 F3600 X50.366 Y34.418
G1 F1800 X50.924 Y33.686 E30.23007
G1 X51.544 Y33.005 E30.2607
G1 X52.22 Y32.38 E30.29133
G1 X52.948 Y31.817 E30.32193
G1 X53.723 Y31.319 E30.35257
G1 X54.537 Y30.89 E30.38318
G1 X55.386 Y30.533 E30.41381
G1 X56.262 Y30.251 E30.44442
G1 X57.16 Y30.047 E30.47505
G1 X58.072 Y29.921 E30.50567
G1 X59.068 Y29.874 E30.53883
G1 X63.625 Y29.875 E30.6904
G1 X63.873 Y29.395 E30.70837
G1 X64.366 Y28.618 E30.73898
G1 X64.924 Y27.886 E30.76959
G1 X65.544 Y27.205 E30.80022
G1 X66.22 Y26.58 E30.83084
G1 X66.948 Y26.017 E30.86145
G1 X67.723 Y25.519 E30.89209
G1 X68.537 Y25.09 E30.92269
G1 X69.386 Y24.733 E30.95333
G1 X70.262 Y24.451 E30.98393
G1 X71.16 Y24.247 E31.01456
G1 X72.072 Y24.121 E31.04518
G1 X73.065 Y24.074 E31.07825
G1 X146.065 Y24.074 E33.50624
G1 X146.985 Y24.114 E33.53687
G1 X147.898 Y24.234 E33.56749
G1 X148.797 Y24.432 E33.59811
G1 X149.675 Y24.708 E33.62872
G1 X150.526 Y25.059 E33.65934
G1 X151.344 Y25.482 E33.68997
G1 X152.121 Y25.975 E33.72058
G1 X152.853 Y26.533 E33.75119
G1 X153.534 Y27.153 E33.78182
G1 X154.159 Y27.829 E33.81244
G1 X154.722 Y28.557 E33.84305
G1 X155.22 Y29.332 E33.87369
G1 X155.506 Y29.875 E33.8941
G1 X159.262 Y29.874 E34.01903
G1 X160.182 Y29.914 E34.04966
G1 X161.094 Y30.033 E34.08025
G1 X161.994 Y30.231 E34.1109
G1 X162.872 Y30.507 E34.14151
G1 X163.723 Y30.857 E34.17211
G1 X164.541 Y31.28 E34.20274
G1 X165.319 Y31.773 E34.23338
G1 X166.051 Y32.331 E34.26399
G1 X166.732 Y32.95 E34.2946
G1 X167.357 Y33.627 E34.32524
G1 X167.92 Y34.355 E34.35585
G1 X168.419 Y35.129 E34.38648
G1 X168.848 Y35.943 E34.41709
G1 X169.205 Y36.792 E34.44772
G1 X169.487 Y37.668 E34.47833
G1 X169.692 Y38.566 E34.50896
G1 X169.818 Y39.478 E34.53958
G1 X169.865 Y40.474 E34.57275
G1 X169.865 Y53.674 E35.01178
G1 X169.825 Y54.594 E35.04241
G1 X169.705 Y55.507 E35.07304
G1 X169.507 Y56.406 E35.10366
G1 X169.231 Y57.284 E35.13427
G1 X168.88 Y58.135 E35.16488
G1 X168.457 Y58.953 E35.19551
G1 X167.964 Y59.73 E35.22612
G1 X167.406 Y60.462 E35.25673
G1 X166.786 Y61.143 E35.28736
G1 X166.11 Y61.768 E35.31799
G1 X165.382 Y62.331 E35.34859
G1 X164.607 Y62.829 E35.37923
G1 X163.793 Y63.258 E35.40984
G1 X162.944 Y63.615 E35.44047
G1 X162.068 Y63.897 E35.47108
G1 X161.17 Y64.101 E35.50171
G1 X160.258 Y64.227 E35.53233
G1 X159.258 Y64.274 E35.56563
G1 X153.062 Y64.27 E35.77171
G1 X66.267 Y64.27 E38.65852
G1 X59.122 Y64.274 E38.89616
G1 X59.065 Y64.274 E38.89806
G1 X58.145 Y64.234 E38.92869
G1 X57.232 Y64.114 E38.95931
G1 X56.333 Y63.916 E38.98993
G1 X55.455 Y63.64 E39.02054
G1 X54.604 Y63.289 E39.05116
G1 X53.786 Y62.866 E39.08179
G1 X53.009 Y62.373 E39.1124
G1 X52.277 Y61.815 E39.14301
G1 X51.596 Y61.195 E39.17364
G1 X50.971 Y60.519 E39.20426
G1 X50.408 Y59.791 E39.23487
G1 X49.91 Y59.016 E39.26551
G1 X49.481 Y58.202 E39.29611
G1 X49.124 Y57.353 E39.32675
G1 X48.842 Y56.477 E39.35736
G1 X48.638 Y55.579 E39.38798
G1 X48.512 Y54.667 E39.41861
G1 X48.465 Y53.674 E39.45167
G1 X48.465 Y40.474 E39.8907
G1 X48.505 Y39.554 E39.92133
G1 X48.625 Y38.641 E39.95196
G1 X48.823 Y37.742 E39.98258
G1 X49.099 Y36.864 E40.01319
G1 X49.45 Y36.013 E40.04381
G1 X49.873 Y35.195 E40.07443
G1 X50.366 Y34.418 E40.10504
G0 F3600 X50.763 Y34.548
G1 F1800 X51.32 Y33.837 E40.13508
G1 X51.938 Y33.177 E40.16515
G1 X52.611 Y32.576 E40.19516
G1 X53.335 Y32.036 E40.22521
G1 X54.104 Y31.562 E40.25525
G1 X54.911 Y31.158 E40.28527
G1 X55.752 Y30.827 E40.31533
G1 X56.618 Y30.572 E40.34535
G1 X57.503 Y30.394 E40.37538
G1 X58.401 Y30.296 E40.40542
G1 X59.068 Y30.274 E40.42762
G1 X63.864 Y30.275 E40.58714
G1 X64.272 Y29.505 E40.61612
G1 X64.763 Y28.748 E40.64613
G1 X65.32 Y28.037 E40.67617
G1 X65.938 Y27.377 E40.70624
G1 X66.611 Y26.776 E40.73625
G1 X67.335 Y26.236 E40.76629
G1 X68.104 Y25.762 E40.79634
G1 X68.911 Y25.358 E40.82636
G1 X69.752 Y25.027 E40.85642
G1 X70.618 Y24.772 E40.88644
G1 X71.503 Y24.594 E40.91647
G1 X72.401 Y24.496 E40.94651
G1 X73.065 Y24.474 E40.96861
G1 X146.065 Y24.474 E43.3966
G1 X146.967 Y24.514 E43.42663
G1 X147.862 Y24.634 E43.45666
G1 X148.743 Y24.832 E43.4867
G1 X149.603 Y25.107 E43.51673
G1 X150.436 Y25.458 E43.54679
G1 X151.234 Y25.881 E43.57683
G1 X151.991 Y26.372 E43.60684
G1 X152.702 Y26.929 E43.63688
G1 X153.362 Y27.547 E43.66695
G1 X153.963 Y28.22 E43.69696
G1 X154.503 Y28.944 E43.72701
G1 X154.977 Y29.713 E43.75705
G1 X155.258 Y30.275 E43.77795
G1 X159.262 Y30.274 E43.91112
G1 X160.164 Y30.314 E43.94115
G1 X161.059 Y30.433 E43.97118
G1 X161.94 Y30.631 E44.00122
G1 X162.801 Y30.906 E44.03128
G1 X163.633 Y31.257 E44.06131
G1 X164.431 Y31.679 E44.09134
G1 X165.189 Y32.171 E44.12139
G1 X165.9 Y32.727 E44.15141
G1 X166.559 Y33.344 E44.18144
G1 X167.161 Y34.017 E44.21147
G1 X167.702 Y34.741 E44.24153
G1 X168.176 Y35.51 E44.27158
G1 X168.58 Y36.318 E44.30162
G1 X168.911 Y37.158 E44.33165
G1 X169.166 Y38.024 E44.36168
G1 X169.344 Y38.909 E44.3917
G1 X169.443 Y39.807 E44.42175
G1 X169.465 Y40.474 E44.44395
G1 X169.465 Y53.674 E44.88298
G1 X169.425 Y54.576 E44.91301
G1 X169.305 Y55.471 E44.94305
G1 X169.107 Y56.352 E44.97308
G1 X168.832 Y57.212 E45.00311
G1 X168.481 Y58.045 E45.03318
G1 X168.058 Y58.843 E45.06322
G1 X167.567 Y59.6 E45.09323
G1 X167.01 Y60.311 E45.12327
G1 X166.392 Y60.971 E45.15334
G1 X165.719 Y61.572 E45.18335
G1 X164.995 Y62.112 E45.21339
G1 X164.226 Y62.586 E45.24344
G1 X163.419 Y62.99 E45.27345
G1 X162.578 Y63.321 E45.30351
G1 X161.712 Y63.576 E45.33354
G1 X160.827 Y63.754 E45.36356
G1 X159.929 Y63.852 E45.39361
G1 X159.258 Y63.874 E45.41594
G1 X153.062 Y63.87 E45.62202
G1 X66.267 Y63.87 E48.50883
G1 X59.122 Y63.874 E48.74647
G1 X59.065 Y63.874 E48.74837
G1 X58.163 Y63.834 E48.7784
G1 X57.268 Y63.714 E48.80843
