; generated by PrusaSlicer 2.3.2+arm64 on 2022-06-03 at 17:22:08 UTC

; 

; external perimeters extrusion width = 0.45mm
; perimeters extrusion width = 0.45mm
; infill extrusion width = 0.45mm
; solid infill extrusion width = 0.45mm
; top infill extrusion width = 0.40mm
; first layer extrusion width = 0.42mm

M201 X9000 Y9000 Z500 E10000 ; sets maximum accelerations, mm/sec^2
M203 X500 Y500 Z12 E120 ; sets maximum feedrates, mm/sec
M204 P1500 R1500 T1500 ; sets acceleration (P, T) and retract acceleration (R), mm/sec^2
M205 X10.00 Y10.00 Z0.20 E2.50 ; sets the jerk limits, mm/sec
M205 S0 T0 ; sets the minimum extruding and travel feed rate, mm/sec
M107
M190 S60 ; set bed temperature and wait for it to be reached
M104 S215 ; set temperature
;TYPE:Custom
G1 X10 Y4
G1 Z0
G1 X20 F1000
G92 E0
G1 F200 E3
G92 E0
M109 S215 ; set temperature and wait for it to be reached
G21 ; set units to millimeters
G90 ; use absolute coordinates
M82 ; use absolute distances for extrusion
G92 E0
; Filament gcode
;LAYER_CHANGE
;Z:0.35
;HEIGHT:0.35
G1 Z0.350 F4800.000
G1 E-2.00000 F2400.000
G92 E0
G1 X59.554 Y117.211 F4800.000
G1 E2.00000 F2400.000
;TYPE:Skirt
;WIDTH:0.42
G1 F1800.000
G1 X60.128 Y115.822 E2.07540
G1 X60.870 Y114.765 E2.14025
G1 X61.806 Y113.883 E2.20479
G1 X86.782 Y95.399 E3.76415
G1 X99.812 Y87.185 E4.53719
G1 X100.880 Y86.681 E4.59644
G1 X102.029 Y86.383 E4.65600
G1 X103.027 Y86.302 E4.70623
G1 X143.048 Y86.302 E6.71473
G1 X144.309 Y86.429 E6.77834
G1 X145.525 Y86.808 E6.84225
G1 X146.641 Y87.421 E6.90617
G1 X147.612 Y88.245 E6.97008
G1 X179.972 Y123.880 E9.38579
G1 X180.685 Y124.852 E9.44628
G1 X181.202 Y125.941 E9.50678
G1 X181.473 Y126.930 E9.55826
G1 X181.580 Y127.956 E9.61004
G1 X181.582 Y142.128 E10.32128
G1 X181.468 Y143.304 E10.38054
G1 X181.140 Y144.431 E10.43948
G1 X180.583 Y145.521 E10.50091
G1 X179.827 Y146.484 E10.56234
G1 X169.693 Y156.621 E11.28168
G1 X168.804 Y157.351 E11.33938
G1 X168.081 Y157.776 E11.38151
G1 X167.301 Y158.103 E11.42395
G1 X166.485 Y158.325 E11.46640
G1 X165.646 Y158.435 E11.50884
G1 X97.350 Y162.286 E14.94177
G1 X93.278 Y162.236 E15.14617
G1 X91.231 Y161.772 E15.25152
G1 X89.209 Y160.847 E15.36308
G1 X62.252 Y144.268 E16.95134
G1 X61.243 Y143.470 E17.01588
G1 X60.417 Y142.485 E17.08041
G1 X59.953 Y141.683 E17.12691
G1 X59.610 Y140.816 E17.17371
G1 X59.398 Y139.914 E17.22020
G1 X59.320 Y138.991 E17.26670
G1 X59.324 Y118.696 E18.28521
G1 X59.545 Y117.270 E18.35760
G1 E16.35760 F2400.000
G92 E0
G1 X147.346 Y133.989 F4800.000
G1 E2.00000 F2400.000
;TYPE:Perimeter
G1 F1800.000
G1 X147.537 Y133.401 E2.03101
G1 X147.846 Y132.866 E2.06202
G1 X148.259 Y132.407 E2.09304
G1 X148.759 Y132.044 E2.12405
G1 X149.324 Y131.792 E2.15506
G1 X149.928 Y131.664 E2.18607
G1 X150.546 Y131.664 E2.21708
G1 X151.151 Y131.792 E2.24809
G1 X151.715 Y132.044 E2.27911
G1 X152.215 Y132.407 E2.31012
G1 X152.628 Y132.866 E2.34113
G1 X152.937 Y133.401 E2.37214
G1 X153.128 Y133.989 E2.40315
G1 X153.193 Y134.604 E2.43417
G1 X153.128 Y135.218 E2.46518
G1 X152.937 Y135.806 E2.49619
G1 X152.628 Y136.341 E2.52720
G1 X152.215 Y136.800 E2.55821
G1 X151.715 Y137.163 E2.58922
G1 X151.151 Y137.415 E2.62024
G1 X150.546 Y137.543 E2.65125
G1 X149.928 Y137.543 E2.68226
G1 X149.324 Y137.415 E2.71327
G1 X148.759 Y137.163 E2.74428
G1 X148.259 Y136.800 E2.77529
G1 X147.846 Y136.341 E2.80631
G1 X147.531 Y135.795 E2.83795
G1 X147.338 Y135.140 E2.87223
G1 X147.281 Y134.604 E2.89928
G1 X147.340 Y134.049 E2.92728
G1 X147.683 Y134.085 F4800.000
G1 F1800.000
G1 X147.854 Y133.542 E2.95582
G1 X148.126 Y133.070 E2.98320
G1 X148.491 Y132.665 E3.01057
G1 X148.933 Y132.344 E3.03794
G1 X149.431 Y132.122 E3.06532
G1 X149.964 Y132.009 E3.09269
G1 X150.510 Y132.009 E3.12006
G1 X151.043 Y132.122 E3.14744
G1 X151.542 Y132.344 E3.17481
G1 X151.983 Y132.665 E3.20218
G1 X152.348 Y133.070 E3.22956
G1 X152.621 Y133.542 E3.25693
G1 X152.789 Y134.061 E3.28430
G1 X152.846 Y134.604 E3.31168
G1 X152.789 Y135.146 E3.33905
G1 X152.621 Y135.665 E3.36642
G1 X152.348 Y136.137 E3.39380
G1 X151.983 Y136.542 E3.42117
G1 X151.542 Y136.863 E3.44854
G1 X151.043 Y137.085 E3.47592
G1 X150.510 Y137.198 E3.50329
G1 X149.964 Y137.198 E3.53066
G1 X149.431 Y137.085 E3.55804
G1 X148.933 Y136.863 E3.58541
G1 X148.491 Y136.542 E3.61278
G1 X148.126 Y136.137 E3.64016
G1 X147.850 Y135.658 E3.66792
G1 X147.677 Y135.072 E3.69855
G1 X147.628 Y134.604 E3.72222
G1 X147.676 Y134.144 E3.74539
G1 X148.024 Y134.133 F4800.000
;TYPE:External perimeter
G1 F1800.000
G1 X148.170 Y133.683 E3.76912
G1 X148.407 Y133.274 E3.79286
G1 X148.723 Y132.922 E3.81659
G1 X149.106 Y132.644 E3.84033
G1 X149.538 Y132.452 E3.86406
G1 X150.001 Y132.354 E3.88780
G1 X150.474 Y132.354 E3.91153
G1 X150.936 Y132.452 E3.93527
G1 X151.368 Y132.644 E3.95900
G1 X151.751 Y132.922 E3.98274
G1 X152.067 Y133.274 E4.00647
G1 X152.304 Y133.683 E4.03021
G1 X152.450 Y134.133 E4.05394
G1 X152.499 Y134.604 E4.07768
G1 X152.450 Y135.074 E4.10141
G1 X152.304 Y135.524 E4.12515
G1 X152.067 Y135.933 E4.14888
G1 X151.751 Y136.285 E4.17262
G1 X151.368 Y136.563 E4.19635
G1 X150.936 Y136.755 E4.22009
G1 X150.474 Y136.853 E4.24382
G1 X150.001 Y136.853 E4.26756
G1 X149.538 Y136.755 E4.29129
G1 X149.106 Y136.563 E4.31503
G1 X148.723 Y136.285 E4.33876
G1 X148.407 Y135.933 E4.36250
G1 X148.169 Y135.521 E4.38638
G1 X148.017 Y135.005 E4.41337
G1 X147.975 Y134.604 E4.43364
G1 X148.018 Y134.193 E4.45436
G1 X147.728 Y133.865 F4800.000
G1 E2.45436 F2400.000
G92 E0
G1 X137.637 Y120.504 F4800.000
G1 E2.00000 F2400.000
;TYPE:Perimeter
G1 F1800.000
G1 X162.837 Y120.504 E3.26466
G1 X162.837 Y126.203 E3.55070
G1 X137.637 Y126.203 E4.81536
G1 X137.637 Y120.564 E5.09839
G1 X137.982 Y120.849 F4800.000
G1 F1800.000
G1 X162.492 Y120.849 E6.32843
G1 X162.492 Y125.858 E6.57985
G1 X137.982 Y125.858 E7.80990
G1 X137.982 Y120.909 E8.05831
G1 X138.327 Y121.194 F4800.000
;TYPE:External perimeter
G1 F1800.000
G1 X162.147 Y121.194 E9.25374
G1 X162.147 Y125.514 E9.47054
G1 X138.327 Y125.514 E10.66597
G1 X138.327 Y121.254 E10.87976
G1 X138.148 Y120.836 F4800.000
G1 E8.87976 F2400.000
G92 E0
G1 X131.740 Y132.500 F4800.000
G1 E2.00000 F2400.000
;TYPE:Perimeter
G1 F1800.000
G1 X132.248 Y132.870 E2.03154
G1 X132.669 Y133.337 E2.06307
G1 X132.983 Y133.881 E2.09461
G1 X133.177 Y134.479 E2.12615
G1 X133.243 Y135.104 E2.15768
G1 X133.177 Y135.728 E2.18922
G1 X132.983 Y136.326 E2.22075
G1 X132.669 Y136.870 E2.25229
G1 X132.248 Y137.337 E2.28383
G1 X131.740 Y137.707 E2.31536
G1 X131.202 Y137.946 E2.34494
G1 X130.558 Y138.093 E2.37808
G1 X129.923 Y138.093 E2.40994
G1 X129.308 Y137.962 E2.44148
G1 X128.734 Y137.707 E2.47301
G1 X128.226 Y137.337 E2.50455
G1 X127.805 Y136.870 E2.53609
G1 X127.491 Y136.326 E2.56762
G1 X127.297 Y135.728 E2.59916
G1 X127.231 Y135.104 E2.63069
G1 X127.297 Y134.479 E2.66223
G1 X127.491 Y133.881 E2.69377
G1 X127.805 Y133.337 E2.72530
G1 X128.226 Y132.870 E2.75684
G1 X128.734 Y132.500 E2.78838
G1 X129.308 Y132.245 E2.81991
G1 X129.923 Y132.114 E2.85145
G1 X130.551 Y132.114 E2.88299
G1 X131.166 Y132.245 E2.91452
G1 X131.685 Y132.476 E2.94305
G1 X131.545 Y132.791 F4800.000
G1 F1800.000
G1 X132.016 Y133.127 E2.97211
G1 X132.388 Y133.541 E3.00001
G1 X132.666 Y134.022 E3.02791
G1 X132.838 Y134.551 E3.05581
G1 X132.896 Y135.104 E3.08370
G1 X132.838 Y135.656 E3.11160
G1 X132.666 Y136.185 E3.13950
G1 X132.388 Y136.666 E3.16740
G1 X132.016 Y137.080 E3.19530
G1 X131.567 Y137.406 E3.22319
G1 X131.092 Y137.618 E3.24925
G1 X130.519 Y137.748 E3.27875
G1 X129.959 Y137.748 E3.30685
G1 X129.415 Y137.632 E3.33475
G1 X128.908 Y137.406 E3.36265
G1 X128.458 Y137.080 E3.39055
G1 X128.086 Y136.666 E3.41845
G1 X127.808 Y136.185 E3.44634
G1 X127.636 Y135.656 E3.47424
G1 X127.578 Y135.104 E3.50214
G1 X127.636 Y134.551 E3.53004
G1 X127.808 Y134.022 E3.55794
G1 X128.086 Y133.541 E3.58583
G1 X128.458 Y133.127 E3.61373
G1 X128.908 Y132.801 E3.64163
G1 X129.415 Y132.575 E3.66953
G1 X129.959 Y132.459 E3.69743
G1 X130.515 Y132.459 E3.72532
G1 X131.059 Y132.575 E3.75322
G1 X131.490 Y132.767 E3.77692
G1 X131.393 Y133.101 F4800.000
;TYPE:External perimeter
G1 F1800.000
G1 X131.784 Y133.385 E3.80118
G1 X132.108 Y133.744 E3.82544
G1 X132.350 Y134.163 E3.84970
G1 X132.499 Y134.623 E3.87396
G1 X132.549 Y135.104 E3.89821
G1 X132.499 Y135.584 E3.92247
G1 X132.350 Y136.044 E3.94673
G1 X132.108 Y136.463 E3.97099
G1 X131.784 Y136.822 E3.99525
G1 X131.393 Y137.106 E4.01951
G1 X130.983 Y137.289 E4.04206
G1 X130.480 Y137.403 E4.06792
G1 X129.995 Y137.403 E4.09226
G1 X129.523 Y137.303 E4.11652
G1 X129.081 Y137.106 E4.14078
G1 X128.690 Y136.822 E4.16504
G1 X128.366 Y136.463 E4.18930
G1 X128.125 Y136.044 E4.21356
G1 X127.975 Y135.584 E4.23782
G1 X127.925 Y135.104 E4.26208
G1 X127.975 Y134.623 E4.28633
G1 X128.125 Y134.163 E4.31059
G1 X128.366 Y133.744 E4.33485
G1 X128.690 Y133.385 E4.35911
G1 X129.081 Y133.101 E4.38337
G1 X129.523 Y132.904 E4.40763
G1 X129.995 Y132.804 E4.43189
G1 X130.479 Y132.804 E4.45615
G1 X130.952 Y132.904 E4.48041
G1 X131.338 Y133.077 E4.50166
G1 X131.740 Y132.901 F4800.000
G1 E2.50166 F2400.000
G92 E0
G1 X167.231 Y135.104 F4800.000
G1 E2.00000 F2400.000
;TYPE:Perimeter
G1 F1800.000
G1 X167.297 Y134.479 E2.03154
G1 X167.491 Y133.881 E2.06307
G1 X167.805 Y133.337 E2.09461
G1 X168.226 Y132.870 E2.12615
G1 X168.734 Y132.500 E2.15768
G1 X169.308 Y132.245 E2.18922
G1 X169.923 Y132.114 E2.22075
G1 X170.551 Y132.114 E2.25229
G1 X171.166 Y132.245 E2.28383
G1 X171.740 Y132.500 E2.31536
G1 X172.248 Y132.870 E2.34690
G1 X172.669 Y133.337 E2.37844
G1 X172.983 Y133.881 E2.40997
G1 X173.177 Y134.479 E2.44151
G1 X173.243 Y135.104 E2.47305
G1 X173.177 Y135.728 E2.50458
G1 X172.983 Y136.326 E2.53612
G1 X172.669 Y136.870 E2.56765
G1 X172.248 Y137.337 E2.59919
G1 X171.740 Y137.707 E2.63073
G1 X171.202 Y137.946 E2.66030
G1 X170.558 Y138.093 E2.69344
G1 X169.923 Y138.093 E2.72530
G1 X169.308 Y137.962 E2.75684
G1 X168.734 Y137.707 E2.78838
G1 X168.226 Y137.337 E2.81991
G1 X167.805 Y136.870 E2.85145
G1 X167.491 Y136.326 E2.88299
G1 X167.297 Y135.728 E2.91452
G1 X167.238 Y135.163 E2.94305
G1 X167.581 Y135.127 F4800.000
G1 F1800.000
G1 X167.636 Y134.551 E2.97211
G1 X167.808 Y134.022 E3.00001
G1 X168.086 Y133.541 E3.02791
G1 X168.458 Y133.127 E3.05581
G1 X168.908 Y132.801 E3.08370
G1 X169.415 Y132.575 E3.11160
G1 X169.959 Y132.459 E3.13950
G1 X170.515 Y132.459 E3.16740
G1 X171.059 Y132.575 E3.19530
G1 X171.567 Y132.801 E3.22319
G1 X172.016 Y133.127 E3.25109
G1 X172.388 Y133.541 E3.27899
G1 X172.666 Y134.022 E3.30689
G1 X172.838 Y134.551 E3.33479
G1 X172.896 Y135.104 E3.36268
G1 X172.838 Y135.656 E3.39058
G1 X172.666 Y136.185 E3.41848
G1 X172.388 Y136.666 E3.44638
G1 X172.016 Y137.080 E3.47428
G1 X171.567 Y137.406 E3.50217
G1 X171.092 Y137.618 E3.52823
G1 X170.519 Y137.748 E3.55773
G1 X169.959 Y137.748 E3.58583
G1 X169.415 Y137.632 E3.61373
G1 X168.908 Y137.406 E3.64163
G1 X168.458 Y137.080 E3.66953
G1 X168.086 Y136.666 E3.69743
G1 X167.808 Y136.185 E3.72532
G1 X167.636 Y135.656 E3.75322
G1 X167.587 Y135.187 E3.77692
G1 X167.925 Y135.104 F4800.000
;TYPE:External perimeter
G1 F1800.000
G1 X167.975 Y134.623 E3.80118
G1 X168.125 Y134.163 E3.82544
G1 X168.366 Y133.744 E3.84970
G1 X168.690 Y133.385 E3.87396
G1 X169.081 Y133.101 E3.89821
G1 X169.523 Y132.904 E3.92247
G1 X169.995 Y132.804 E3.94673
G1 X170.479 Y132.804 E3.97099
G1 X170.952 Y132.904 E3.99525
G1 X171.393 Y133.101 E4.01951
G1 X171.784 Y133.385 E4.04377
G1 X172.108 Y133.744 E4.06803
G1 X172.350 Y134.163 E4.09229
G1 X172.499 Y134.623 E4.11655
G1 X172.549 Y135.104 E4.14081
G1 X172.499 Y135.584 E4.16507
G1 X172.350 Y136.044 E4.18933
G1 X172.108 Y136.463 E4.21359
G1 X171.784 Y136.822 E4.23785
G1 X171.393 Y137.106 E4.26211
G1 X170.983 Y137.289 E4.28465
G1 X170.480 Y137.403 E4.31052
G1 X169.995 Y137.403 E4.33485
G1 X169.523 Y137.303 E4.35911
G1 X169.081 Y137.106 E4.38337
G1 X168.690 Y136.822 E4.40763
G1 X168.366 Y136.463 E4.43189
G1 X168.125 Y136.044 E4.45615
G1 X167.975 Y135.584 E4.48041
G1 X167.931 Y135.163 E4.50166
G1 X167.578 Y134.904 F4800.000
G1 E2.50166 F2400.000
G92 E0
G1 X164.137 Y129.203 F4800.000
G1 E2.00000 F2400.000
;TYPE:Perimeter
G1 F1800.000
G1 X174.137 Y129.203 E2.50186
G1 X174.137 Y141.004 E3.09408
G1 X164.137 Y141.004 E3.59593
G1 X164.137 Y151.004 E4.09779
G1 X136.337 Y151.004 E5.49298
G1 X136.337 Y141.004 E5.99484
G1 X126.337 Y141.004 E6.49670
G1 X126.337 Y129.203 E7.08892
G1 X136.337 Y129.203 E7.59078
G1 X136.337 Y119.203 E8.09264
G1 X164.137 Y119.203 E9.48783
G1 X164.137 Y129.143 E9.98668
G1 X164.482 Y128.858 F4800.000
G1 F1800.000
G1 X174.482 Y128.858 E10.48853
G1 X174.482 Y141.349 E11.11537
G1 X164.482 Y141.349 E11.61723
G1 X164.482 Y151.349 E12.11909
G1 X135.992 Y151.349 E13.54889
G1 X135.992 Y141.349 E14.05075
G1 X125.992 Y141.349 E14.55261
G1 X125.992 Y128.858 E15.17945
G1 X135.992 Y128.858 E15.68130
G1 X135.992 Y118.858 E16.18316
G1 X164.482 Y118.858 E17.61297
G1 X164.482 Y128.798 E18.11182
G1 X164.827 Y128.514 F4800.000
;TYPE:External perimeter
G1 F1800.000
G1 X174.827 Y128.514 E18.61368
G1 X174.827 Y141.694 E19.27513
G1 X164.827 Y141.694 E19.77699
G1 X164.827 Y151.694 E20.27885
G1 X135.647 Y151.694 E21.74327
G1 X135.647 Y141.694 E22.24513
G1 X125.647 Y141.694 E22.74699
G1 X125.647 Y128.514 E23.40844
G1 X135.647 Y128.514 E23.91030
G1 X135.647 Y118.514 E24.41216
G1 X164.827 Y118.514 E25.87658
G1 X164.827 Y128.454 E26.37543
G1 X164.988 Y128.880 F4800.000
G1 E24.37543 F2400.000
G92 E0
G1 X174.034 Y130.007 F4800.000
G1 E2.00000 F2400.000
;TYPE:Solid infill
;WIDTH:0.421394
G1 F1800.000
G1 X173.489 Y129.462 E2.03883
G1 X172.999 Y129.462 E2.06351
G1 X173.879 Y130.341 E2.12618
G1 X173.879 Y130.831 E2.15086
G1 X172.510 Y129.462 E2.24843
G1 X172.020 Y129.462 E2.27310
G1 X173.879 Y131.321 E2.40557
G1 X173.879 Y131.811 E2.43025
G1 X171.530 Y129.462 E2.59761
G1 X171.040 Y129.462 E2.62229
G1 X173.879 Y132.300 E2.82455
G1 X173.879 Y132.790 E2.84923
G1 X170.551 Y129.462 E3.08639
G1 X170.061 Y129.462 E3.11106
G1 X173.879 Y133.280 E3.38312
G1 X173.879 Y133.769 E3.40779
G1 X169.571 Y129.462 E3.71475
G1 X169.081 Y129.462 E3.73943
G1 X173.879 Y134.259 E4.08128
G1 X173.879 Y134.749 E4.10595
G1 X173.373 Y134.243 E4.14201
G1 X173.432 Y134.425 E4.15164
G1 X173.475 Y134.835 E4.17242
G1 X173.879 Y135.239 E4.20120
G1 X173.879 Y135.728 E4.22588
G1 X173.479 Y135.329 E4.25434
G1 X173.433 Y135.772 E4.27679
G1 X173.879 Y136.218 E4.30857
G1 X173.879 Y136.708 E4.33324
G1 X173.314 Y136.144 E4.37345
G1 X173.221 Y136.432 E4.38873
G1 X173.181 Y136.500 E4.39270
G1 X173.879 Y137.198 E4.44240
G1 X173.879 Y137.687 E4.46708
G1 X173.002 Y136.811 E4.52954
G1 X172.879 Y137.023 E4.54191
G1 X172.806 Y137.104 E4.54742
G1 X173.879 Y138.177 E4.62385
G1 X173.879 Y138.667 E4.64853
G1 X172.574 Y137.362 E4.74149
G1 X172.422 Y137.531 E4.75291
G1 X172.324 Y137.602 E4.75903
G1 X173.879 Y139.156 E4.86980
G1 X173.879 Y139.646 E4.89447
G1 X172.041 Y137.808 E5.02546
G1 X171.870 Y137.932 E5.03608
G1 X171.735 Y137.992 E5.04353
G1 X173.879 Y140.136 E5.19629
G1 X173.879 Y140.626 E5.22097
G1 X171.396 Y138.143 E5.39788
G1 X171.284 Y138.193 E5.40407
G1 X171.017 Y138.254 E5.41786
G1 X173.509 Y140.745 E5.59540
G1 X173.019 Y140.745 E5.62008
G1 X170.618 Y138.344 E5.79115
G1 X170.136 Y138.352 E5.81547
G1 X172.529 Y140.745 E5.98603
G1 X172.039 Y140.745 E6.01071
G1 X169.377 Y138.083 E6.20044
G1 E4.20044 F2400.000
G92 E0
G1 X171.338 Y132.208 F4800.000
G1 E2.00000 F2400.000
G1 F1800.000
G1 X168.592 Y129.462 E2.19569
G1 X168.102 Y129.462 E2.22037
G1 X170.496 Y131.856 E2.39093
G1 X170.006 Y131.856 E2.41561
G1 X167.612 Y129.462 E2.58617
G1 X167.123 Y129.462 E2.61085
G1 X169.583 Y131.922 E2.78616
G1 X169.187 Y132.016 E2.80666
G1 X166.633 Y129.462 E2.98865
G1 X166.143 Y129.462 E3.01332
G1 X168.848 Y132.167 E3.20606
G1 X168.604 Y132.275 E3.21950
G1 X168.525 Y132.333 E3.22447
G1 X165.653 Y129.462 E3.42906
G1 X165.164 Y129.462 E3.45374
G1 X168.241 Y132.539 E3.67301
G1 X168.052 Y132.676 E3.68479
G1 X167.974 Y132.762 E3.69062
G1 X164.519 Y129.307 E3.93687
G1 E1.93687 F2400.000
G92 E0
G1 X164.034 Y120.007 F4800.000
G1 E2.00000 F2400.000
G1 F1800.000
G1 X163.489 Y119.462 E2.03883
G1 X162.999 Y119.462 E2.06351
