; generated by PrusaSlicer 2.3.2+arm64 on 2022-06-07 at 19:33:08 UTC

; 

; external perimeters extrusion width = 0.45mm
; perimeters extrusion width = 0.45mm
; infill extrusion width = 0.45mm
; solid infill extrusion width = 0.45mm
; top infill extrusion width = 0.40mm
; first layer extrusion width = 0.42mm

M201 X9000 Y9000 Z500 E10000 ; sets maximum accelerations, mm/sec^2
M203 X500 Y500 Z12 E120 ; sets maximum feedrates, mm/sec
M204 P1500 R1500 T1500 ; sets acceleration (P, T) and retract acceleration (R), mm/sec^2
M205 X10.00 Y10.00 Z0.20 E2.50 ; sets the jerk limits, mm/sec
M205 S0 T0 ; sets the minimum extruding and travel feed rate, mm/sec
M107
M190 S60 ; set bed temperature and wait for it to be reached
M104 S215 ; set temperature
;TYPE:Custom
G1 X10 Y4
G1 Z0
G1 X20 F1000
G92 E0
G1 F200 E3
G92 E0
M109 S215 ; set temperature and wait for it to be reached
G21 ; set units to millimeters
G90 ; use absolute coordinates
M82 ; use absolute distances for extrusion
G92 E0
; Filament gcode
;LAYER_CHANGE
;Z:0.35
;HEIGHT:0.35
G1 Z0.350 F4800.000
G1 E-2.00000 F2400.000
G92 E0
G1 X89.119 Y156.387 F4800.000
G1 E2.00000 F2400.000
;TYPE:Skirt
;WIDTH:0.42
G1 F1800.000
G1 X88.873 Y154.854 E2.07788
G1 X88.870 Y134.541 E3.09734
G1 X88.956 Y133.575 E3.14601
G1 X89.189 Y132.633 E3.19468
G1 X89.562 Y131.738 E3.24335
G1 X90.068 Y130.910 E3.29203
G1 X90.680 Y130.183 E3.33976
G1 X91.395 Y129.555 E3.38750
G1 X116.214 Y111.183 E4.93718
G1 X129.394 Y102.868 E5.71927
G1 X130.441 Y102.379 E5.77728
G1 X131.560 Y102.088 E5.83529
G1 X179.449 Y94.614 E8.26776
G1 X198.212 Y94.569 E9.20940
G1 X199.290 Y94.662 E9.26368
G1 X200.336 Y94.937 E9.31795
G1 X201.320 Y95.386 E9.37223
G1 X202.218 Y95.999 E9.42682
G1 X202.999 Y96.756 E9.48140
G1 X203.635 Y97.631 E9.53568
G1 X204.114 Y98.600 E9.58995
G1 X204.422 Y99.644 E9.64454
G1 X211.089 Y143.078 E11.84985
G1 X211.131 Y157.824 E12.58991
G1 X211.030 Y158.932 E12.64575
G1 X210.737 Y160.005 E12.70158
G1 X210.262 Y161.011 E12.75741
G1 X209.618 Y161.918 E12.81324
G1 X199.220 Y172.344 E13.55224
G1 X197.980 Y173.288 E13.63043
G1 X196.625 Y173.878 E13.70459
G1 X195.177 Y174.138 E13.77844
G1 X126.899 Y177.988 E17.21043
G1 X123.602 Y177.996 E17.37592
G1 X122.790 Y177.932 E17.41680
G1 X120.762 Y177.467 E17.52121
G1 X118.731 Y176.533 E17.63339
G1 X91.774 Y159.953 E19.22165
G1 X90.626 Y159.004 E19.29643
G1 X89.733 Y157.819 E19.37091
G1 X89.143 Y156.442 E19.44609
G1 E17.44609 F2400.000
G92 E0
G1 X186.049 Y125.320 F4800.000
G1 E2.00000 F2400.000
;TYPE:Perimeter
G1 F1800.000
G1 X185.826 Y124.633 E2.03626
G1 X185.750 Y123.914 E2.07252
G1 X185.826 Y123.196 E2.10877
G1 X186.049 Y122.508 E2.14503
G1 X186.410 Y121.883 E2.18129
G1 X186.894 Y121.346 E2.21755
G1 X187.478 Y120.921 E2.25380
G1 X188.138 Y120.627 E2.29006
G1 X188.845 Y120.477 E2.32632
G1 X189.567 Y120.477 E2.36258
G1 X190.274 Y120.627 E2.39883
G1 X190.934 Y120.921 E2.43509
G1 X191.518 Y121.346 E2.47135
G1 X192.002 Y121.883 E2.50761
G1 X192.363 Y122.508 E2.54386
G1 X192.586 Y123.196 E2.58012
G1 X192.662 Y123.914 E2.61638
G1 X192.586 Y124.633 E2.65264
G1 X192.361 Y125.326 E2.68925
G1 X191.969 Y125.982 E2.72759
G1 X191.518 Y126.482 E2.76137
G1 X190.934 Y126.907 E2.79763
G1 X190.274 Y127.201 E2.83388
G1 X189.567 Y127.351 E2.87014
G1 X188.845 Y127.351 E2.90640
G1 X188.138 Y127.201 E2.94266
G1 X187.478 Y126.907 E2.97891
G1 X186.894 Y126.482 E3.01517
G1 X186.410 Y125.945 E3.05143
G1 X186.079 Y125.372 E3.08468
G1 X186.378 Y125.199 F4800.000
G1 F1800.000
G1 X186.165 Y124.560 E3.11846
G1 X186.097 Y123.914 E3.15108
G1 X186.165 Y123.268 E3.18370
G1 X186.366 Y122.650 E3.21632
G1 X186.691 Y122.087 E3.24894
G1 X187.126 Y121.604 E3.28156
G1 X187.651 Y121.222 E3.31418
G1 X188.245 Y120.957 E3.34680
G1 X188.881 Y120.822 E3.37942
G1 X189.531 Y120.822 E3.41203
G1 X190.167 Y120.957 E3.44465
G1 X190.760 Y121.222 E3.47727
G1 X191.286 Y121.604 E3.50989
G1 X191.721 Y122.087 E3.54251
G1 X192.046 Y122.650 E3.57513
G1 X192.247 Y123.268 E3.60775
G1 X192.315 Y123.914 E3.64037
G1 X192.247 Y124.560 E3.67299
G1 X192.045 Y125.183 E3.70582
G1 X191.690 Y125.776 E3.74053
G1 X191.286 Y126.225 E3.77080
G1 X190.760 Y126.607 E3.80342
G1 X190.167 Y126.871 E3.83604
G1 X189.531 Y127.006 E3.86866
G1 X188.881 Y127.006 E3.90128
G1 X188.245 Y126.871 E3.93390
G1 X187.651 Y126.607 E3.96652
G1 X187.126 Y126.225 E3.99914
G1 X186.691 Y125.742 E4.03176
G1 X186.408 Y125.251 E4.06017
G1 X186.706 Y125.079 F4800.000
;TYPE:External perimeter
G1 F1800.000
G1 X186.504 Y124.488 E4.09149
G1 X186.444 Y123.914 E4.12047
G1 X186.504 Y123.340 E4.14945
G1 X186.683 Y122.791 E4.17843
G1 X186.971 Y122.290 E4.20741
G1 X187.358 Y121.861 E4.23639
G1 X187.825 Y121.522 E4.26538
G1 X188.352 Y121.287 E4.29436
G1 X188.917 Y121.167 E4.32334
G1 X189.495 Y121.167 E4.35232
G1 X190.060 Y121.287 E4.38130
G1 X190.587 Y121.522 E4.41028
G1 X191.054 Y121.861 E4.43926
G1 X191.441 Y122.290 E4.46824
G1 X191.729 Y122.791 E4.49722
G1 X191.908 Y123.340 E4.52620
G1 X191.968 Y123.914 E4.55518
G1 X191.908 Y124.488 E4.58416
G1 X191.729 Y125.039 E4.61323
G1 X191.411 Y125.570 E4.64430
G1 X191.054 Y125.967 E4.67106
G1 X190.587 Y126.306 E4.70004
G1 X190.060 Y126.541 E4.72903
G1 X189.495 Y126.661 E4.75801
G1 X188.917 Y126.661 E4.78699
G1 X188.352 Y126.541 E4.81597
G1 X187.825 Y126.306 E4.84495
G1 X187.358 Y125.967 E4.87393
G1 X186.971 Y125.538 E4.90291
G1 X186.736 Y125.131 E4.92650
G1 X186.308 Y125.042 F4800.000
G1 E2.92650 F2400.000
G92 E0
G1 X181.306 Y102.014 F4800.000
G1 E2.00000 F2400.000
;TYPE:Perimeter
G1 F1800.000
G1 X197.106 Y102.014 E2.79296
G1 X197.106 Y120.856 E3.73859
G1 X196.928 Y122.555 E3.82432
G1 X196.418 Y124.125 E3.90715
G1 X195.592 Y125.554 E3.98997
G1 X194.488 Y126.781 E4.07279
G1 X193.153 Y127.751 E4.15562
G1 X191.645 Y128.422 E4.23844
G1 X190.031 Y128.765 E4.32126
G1 X188.381 Y128.765 E4.40409
G1 X186.767 Y128.422 E4.48691
G1 X185.259 Y127.751 E4.56973
G1 X183.924 Y126.781 E4.65256
G1 X182.819 Y125.554 E4.73538
G1 X181.994 Y124.125 E4.81820
G1 X181.484 Y122.555 E4.90103
G1 X181.306 Y120.856 E4.98676
G1 X181.306 Y102.074 E5.92938
G1 X180.961 Y101.669 F4800.000
G1 F1800.000
G1 X197.451 Y101.669 E6.75696
G1 X197.451 Y120.875 E7.72081
G1 X197.267 Y122.627 E7.80926
G1 X196.734 Y124.266 E7.89572
G1 X195.873 Y125.758 E7.98219
G1 X194.720 Y127.038 E8.06865
G1 X193.326 Y128.051 E8.15511
G1 X191.753 Y128.752 E8.24157
G1 X190.067 Y129.110 E8.32803
G1 X188.345 Y129.110 E8.41450
G1 X186.659 Y128.752 E8.50096
G1 X185.085 Y128.051 E8.58742
G1 X183.692 Y127.038 E8.67388
G1 X182.539 Y125.758 E8.76034
G1 X181.677 Y124.266 E8.84680
G1 X181.145 Y122.627 E8.93327
G1 X180.961 Y120.875 E9.02172
G1 X180.961 Y101.729 E9.98256
G1 X180.616 Y101.324 F4800.000
;TYPE:External perimeter
G1 F1800.000
G1 X197.796 Y101.324 E10.84475
G1 X197.796 Y120.893 E11.82682
G1 X197.606 Y122.700 E11.91800
G1 X197.051 Y124.407 E12.00810
G1 X196.154 Y125.962 E12.09820
G1 X194.952 Y127.296 E12.18830
G1 X193.500 Y128.351 E12.27840
G1 X191.860 Y129.082 E12.36850
G1 X190.104 Y129.455 E12.45860
G1 X188.308 Y129.455 E12.54870
G1 X186.552 Y129.082 E12.63880
G1 X184.912 Y128.351 E12.72890
G1 X183.460 Y127.296 E12.81900
G1 X182.258 Y125.962 E12.90910
G1 X181.361 Y124.407 E12.99920
G1 X180.806 Y122.700 E13.08930
G1 X180.616 Y120.893 E13.18049
G1 X180.616 Y101.384 E14.15954
G1 X180.963 Y101.523 F4800.000
G1 E12.15954 F2400.000
G92 E0
G1 X197.003 Y102.816 F4800.000
G1 E2.00000 F2400.000
;TYPE:Solid infill
;WIDTH:0.420898
G1 F1800.000
G1 X196.459 Y102.273 E2.03870
G1 X195.970 Y102.273 E2.06331
G1 X196.848 Y103.150 E2.12577
G1 X196.848 Y103.639 E2.15037
G1 X195.481 Y102.273 E2.24763
G1 X194.992 Y102.273 E2.27223
G1 X196.848 Y104.128 E2.40428
G1 X196.848 Y104.617 E2.42889
G1 X194.503 Y102.273 E2.59574
G1 X194.014 Y102.273 E2.62035
G1 X196.848 Y105.106 E2.82199
G1 X196.848 Y105.595 E2.84660
G1 X193.525 Y102.273 E3.08304
G1 X193.036 Y102.273 E3.10765
G1 X196.848 Y106.084 E3.37889
G1 X196.848 Y106.573 E3.40350
G1 X192.547 Y102.273 E3.70954
G1 X192.058 Y102.273 E3.73415
G1 X196.848 Y107.062 E4.07498
G1 X196.848 Y107.551 E4.09959
G1 X191.569 Y102.273 E4.47522
G1 X191.080 Y102.273 E4.49983
G1 X196.848 Y108.040 E4.91026
G1 X196.848 Y108.529 E4.93487
G1 X190.591 Y102.273 E5.38010
G1 X190.102 Y102.273 E5.40471
G1 X196.848 Y109.018 E5.88473
G1 X196.848 Y109.507 E5.90934
G1 X189.613 Y102.273 E6.42417
G1 X189.124 Y102.273 E6.44877
G1 X196.848 Y109.996 E6.99840
G1 X196.848 Y110.485 E7.02300
G1 X188.635 Y102.273 E7.60742
G1 X188.146 Y102.273 E7.63203
G1 X196.848 Y110.974 E8.25125
G1 X196.848 Y111.464 E8.27585
G1 X187.657 Y102.273 E8.92987
G1 X187.167 Y102.273 E8.95448
G1 X196.848 Y111.953 E9.64329
G1 X196.848 Y112.442 E9.66789
G1 X186.678 Y102.273 E10.39151
G1 X186.189 Y102.273 E10.41611
G1 X196.848 Y112.931 E11.17452
G1 X196.848 Y113.420 E11.19913
G1 X185.700 Y102.273 E11.99233
G1 X185.211 Y102.273 E12.01694
G1 X196.848 Y113.909 E12.84494
G1 X196.848 Y114.398 E12.86955
G1 X184.722 Y102.273 E13.73235
G1 X184.233 Y102.273 E13.75696
G1 X196.848 Y114.887 E14.65456
G1 X196.848 Y115.376 E14.67916
G1 X183.744 Y102.273 E15.61156
G1 X183.255 Y102.273 E15.63617
G1 X196.848 Y115.865 E16.60336
G1 X196.848 Y116.354 E16.62797
G1 X182.766 Y102.273 E17.62996
G1 X182.277 Y102.273 E17.65457
G1 X196.848 Y116.843 E18.69136
G1 X196.848 Y117.332 E18.71596
G1 X181.788 Y102.273 E19.78755
G1 X181.564 Y102.273 E19.79882
G1 X181.564 Y102.538 E19.81215
G1 X196.848 Y117.821 E20.89968
G1 X196.848 Y118.310 E20.92428
G1 X181.564 Y103.027 E22.01180
G1 X181.564 Y103.516 E22.03641
G1 X196.848 Y118.799 E23.12393
G1 X196.848 Y119.288 E23.14854
G1 X181.564 Y104.005 E24.23606
G1 X181.564 Y104.494 E24.26067
G1 X196.848 Y119.777 E25.34819
G1 X196.848 Y120.266 E25.37279
G1 X181.564 Y104.983 E26.46032
G1 X181.564 Y105.472 E26.48492
G1 X196.848 Y120.755 E27.57244
G1 X196.809 Y121.206 E27.59521
G1 X181.564 Y105.961 E28.68002
G1 X181.564 Y106.450 E28.70463
G1 X196.763 Y121.648 E29.78612
G1 X196.716 Y122.091 E29.80851
G1 X181.564 Y106.939 E30.88670
G1 X181.564 Y107.428 E30.91131
G1 X196.665 Y122.528 E31.98581
G1 X196.545 Y122.897 E32.00534
G1 X181.564 Y107.917 E33.07131
G1 X181.564 Y108.406 E33.09591
G1 X196.425 Y123.266 E34.15335
G1 X196.305 Y123.635 E34.17288
G1 X181.564 Y108.895 E35.22178
G1 X181.564 Y109.384 E35.24638
G1 X196.185 Y124.004 E36.28675
G1 X196.008 Y124.317 E36.30481
G1 X181.564 Y109.873 E37.33261
G1 X181.564 Y110.362 E37.35721
G1 X195.829 Y124.627 E38.37228
G1 X195.650 Y124.937 E38.39029
G1 X181.564 Y110.851 E39.39262
G1 X181.564 Y111.340 E39.41722
G1 X190.805 Y120.581 E40.07480
G1 X191.064 Y120.696 E40.08904
G1 X191.692 Y121.153 E40.12812
G1 X192.212 Y121.730 E40.16721
G1 X192.564 Y122.340 E40.20265
G1 X195.471 Y125.247 E40.40950
G1 X195.382 Y125.401 E40.41848
G1 X195.266 Y125.530 E40.42722
G1 X192.823 Y123.088 E40.60103
G1 X192.894 Y123.647 E40.62942
G1 X195.034 Y125.788 E40.78172
G1 X194.802 Y126.045 E40.79914
G1 X192.898 Y124.141 E40.93465
G1 X192.852 Y124.583 E40.95704
G1 X194.571 Y126.302 E41.07937
G1 X194.339 Y126.560 E41.09680
G1 X192.749 Y124.969 E41.20996
G1 X192.629 Y125.338 E41.22948
G1 X194.061 Y126.771 E41.33142
G1 X193.778 Y126.977 E41.34903
G1 X192.462 Y125.661 E41.44267
G1 X192.279 Y125.967 E41.46061
G1 X193.495 Y127.183 E41.54712
G1 X193.212 Y127.388 E41.56473
G1 X192.074 Y126.251 E41.64565
G1 X191.843 Y126.508 E41.66307
G1 X192.910 Y127.576 E41.73902
G1 X192.572 Y127.726 E41.75765
G1 X191.593 Y126.748 E41.82729
G1 X191.310 Y126.954 E41.84490
G1 X192.233 Y127.877 E41.91062
G1 X191.895 Y128.028 E41.92925
G1 X191.019 Y127.152 E41.99156
G1 X190.681 Y127.303 E42.01020
G1 X191.555 Y128.177 E42.07239
G1 X191.152 Y128.262 E42.09314
G1 X190.340 Y127.451 E42.15087
G1 X189.937 Y127.537 E42.17161
G1 X190.748 Y128.348 E42.22935
G1 X190.345 Y128.434 E42.25009
G1 X189.521 Y127.610 E42.30874
G1 X189.032 Y127.610 E42.33335
G1 X189.929 Y128.506 E42.39715
G1 X189.440 Y128.506 E42.42176
G1 X188.267 Y127.334 E42.50518
G1 E40.50518 F2400.000
G92 E0
G1 X190.253 Y120.517 F4800.000
G1 E2.00000 F2400.000
G1 F1800.000
G1 X181.564 Y111.829 E2.61824
G1 X181.564 Y112.318 E2.64284
G1 X189.465 Y120.219 E3.20503
G1 X188.976 Y120.219 E3.22964
G1 X181.564 Y112.807 E3.75703
G1 X181.564 Y113.296 E3.78164
G1 X188.545 Y120.276 E4.27836
G1 X188.142 Y120.362 E4.29911
G1 X181.564 Y113.785 E4.76713
G1 X181.564 Y114.274 E4.79173
G1 X187.790 Y120.499 E5.23472
G1 X187.451 Y120.650 E5.25336
G1 X181.564 Y114.763 E5.67226
G1 X181.564 Y115.252 E5.69687
G1 X187.151 Y120.839 E6.09442
G1 X186.868 Y121.045 E6.11204
G1 X181.564 Y115.741 E6.48944
G1 X181.564 Y116.230 E6.51404
G1 X186.609 Y121.275 E6.87303
G1 X186.378 Y121.532 E6.89046
G1 X181.564 Y116.719 E7.23296
G1 X181.564 Y117.208 E7.25756
G1 X186.158 Y121.802 E7.58445
G1 X185.979 Y122.112 E7.60246
G1 X181.564 Y117.697 E7.91661
G1 X181.564 Y118.186 E7.94122
G1 X185.804 Y122.426 E8.24289
G1 X185.684 Y122.795 E8.26242
G1 X181.564 Y118.675 E8.55556
G1 X181.564 Y119.164 E8.58016
G1 X185.568 Y123.168 E8.86508
G1 X185.522 Y123.611 E8.88747
G1 X181.564 Y119.653 E9.16908
G1 X181.564 Y120.142 E9.19369
G1 X185.508 Y124.086 E9.47432
G1 X185.566 Y124.632 E9.50196
G1 X181.564 Y120.631 E9.78668
G1 X181.564 Y120.843 E9.79733
G1 X181.597 Y121.153 E9.81301
G1 X185.783 Y125.339 E10.11090
G1 X185.811 Y125.425 E10.11547
G1 X186.200 Y126.098 E10.15456
G1 X186.720 Y126.676 E10.19364
G1 X187.348 Y127.132 E10.23273
G1 X187.760 Y127.315 E10.25540
G1 X188.950 Y128.506 E10.34014
G1 X188.461 Y128.506 E10.36475
G1 X181.654 Y121.699 E10.84913
G1 X181.712 Y122.246 E10.87678
G1 X187.855 Y128.389 E11.31391
G1 X187.234 Y128.257 E11.34585
G1 X181.864 Y122.887 E11.72797
G1 X182.099 Y123.611 E11.76629
G1 X186.515 Y128.027 E12.08048
G1 X185.633 Y127.634 E12.12903
G1 X182.100 Y124.101 E12.38047
G1 E10.38047 F2400.000
G92 E0
G1 X126.994 Y166.119 F4800.000
G1 E2.00000 F2400.000
;TYPE:Perimeter
;WIDTH:0.42
G1 F1800.000
G1 X127.235 Y166.537 E2.02419
G1 X127.384 Y166.995 E2.04838
G1 X127.434 Y167.475 E2.07258
G1 X127.384 Y167.954 E2.09677
G1 X127.235 Y168.412 E2.12096
G1 X126.994 Y168.830 E2.14515
G1 X126.671 Y169.188 E2.16934
G1 X126.281 Y169.472 E2.19354
G1 X125.841 Y169.668 E2.21773
G1 X125.369 Y169.768 E2.24192
G1 X124.887 Y169.768 E2.26611
G1 X124.456 Y169.676 E2.28823
G1 X123.983 Y169.477 E2.31400
G1 X123.585 Y169.188 E2.33866
G1 X123.263 Y168.830 E2.36285
G1 X123.022 Y168.412 E2.38704
G1 X122.873 Y167.954 E2.41124
G1 X122.822 Y167.475 E2.43543
G1 X122.873 Y166.995 E2.45962
G1 X123.022 Y166.537 E2.48381
G1 X123.263 Y166.119 E2.50801
G1 X123.585 Y165.761 E2.53220
G1 X123.975 Y165.478 E2.55639
G1 X124.416 Y165.282 E2.58058
G1 X124.887 Y165.181 E2.60477
G1 X125.369 Y165.181 E2.62897
G1 X125.800 Y165.273 E2.65108
G1 X126.273 Y165.472 E2.67685
G1 X126.671 Y165.761 E2.70151
G1 X126.953 Y166.075 E2.72269
G1 X126.697 Y166.305 F4800.000
G1 F1800.000
G1 X126.918 Y166.678 E2.74441
G1 X127.044 Y167.067 E2.76497
G1 X127.087 Y167.475 E2.78552
G1 X127.044 Y167.882 E2.80608
G1 X126.918 Y168.271 E2.82663
G1 X126.713 Y168.626 E2.84718
G1 X126.439 Y168.930 E2.86774
G1 X126.108 Y169.171 E2.88829
G1 X125.733 Y169.338 E2.90885
G1 X125.333 Y169.423 E2.92940
G1 X124.923 Y169.423 E2.94995
G1 X124.560 Y169.346 E2.96861
G1 X124.153 Y169.175 E2.99074
G1 X123.817 Y168.930 E3.01158
G1 X123.543 Y168.626 E3.03214
G1 X123.338 Y168.271 E3.05269
G1 X123.212 Y167.882 E3.07324
G1 X123.169 Y167.475 E3.09380
G1 X123.212 Y167.067 E3.11435
G1 X123.338 Y166.678 E3.13491
G1 X123.543 Y166.323 E3.15546
G1 X123.817 Y166.019 E3.17601
G1 X124.149 Y165.778 E3.19657
G1 X124.523 Y165.611 E3.21712
G1 X124.923 Y165.526 E3.23767
G1 X125.333 Y165.526 E3.25823
G1 X125.697 Y165.604 E3.27689
G1 X126.103 Y165.775 E3.29902
G1 X126.439 Y166.019 E3.31986
G1 X126.657 Y166.261 E3.33621
G1 X126.432 Y166.527 F4800.000
;TYPE:External perimeter
G1 F1800.000
G1 X126.601 Y166.819 E3.35312
G1 X126.705 Y167.139 E3.37004
G1 X126.740 Y167.475 E3.38695
G1 X126.705 Y167.810 E3.40387
G1 X126.601 Y168.130 E3.42079
G1 X126.432 Y168.422 E3.43770
G1 X126.207 Y168.673 E3.45462
G1 X125.934 Y168.871 E3.47153
G1 X125.626 Y169.008 E3.48845
G1 X125.297 Y169.078 E3.50536
G1 X124.960 Y169.078 E3.52228
G1 X124.663 Y169.015 E3.53748
