;FLAVOR:Marlin
;TIME:3759
;Filament used: 2.67215m
;Layer height: 0.15
;MINX:78.45
;MINY:73.2
;MINZ:0.2
;MAXX:171.55
;MAXY:136.8
;MAXZ:3.95
;Generated with Cura_SteamEngine 4.4.0
M82 ;absolute extrusion mode
G21 ; set units to millimeters
G90 ; use absolute positioning
M82 ; absolute extrusion mode
M104 S210 ; set extruder temp
M140 S60 ; set bed temp
M190 S60 ; wait for bed temp
M109 S210 ; wait for extruder temp
G28 W ; home all without mesh bed level
G80 ; mesh bed leveling
G92 E0.0 ; reset extruder distance position
G1 Y-3.0 F1000.0 ; go outside print area
G1 X60.0 E9.0 F1000.0 ; intro line
G1 X100.0 E21.5 F1000.0 ; intro line
G92 E0.0 ; reset extruder distance position
G92 E0
G92 E0
G1 F2100 E-0.8
;LAYER_COUNT:26
;LAYER:0
M107
G0 F3600 X81.545 Y77.034 Z0.2
;TYPE:SKIRT
G1 F2100 E0
G1 F1800 X82.23 Y76.345 E0.03231
G1 X82.969 Y75.714 E0.06463
G1 X83.757 Y75.147 E0.09692
G1 X84.589 Y74.646 E0.12923
G1 X85.46 Y74.216 E0.16153
G1 X86.364 Y73.858 E0.19387
G1 X87.293 Y73.576 E0.22616
G1 X88.243 Y73.372 E0.25848
G1 X89.206 Y73.246 E0.29078
G1 X90.25 Y73.2 E0.32554
G1 X159.75 Y73.2 E2.63712
G1 X160.721 Y73.24 E2.66944
G1 X161.685 Y73.36 E2.70175
G1 X162.635 Y73.558 E2.73403
G1 X163.567 Y73.834 E2.76636
G1 X164.472 Y74.186 E2.79866
G1 X165.346 Y74.611 E2.83098
G1 X166.181 Y75.107 E2.86328
G1 X166.973 Y75.669 E2.89558
G1 X167.716 Y76.295 E2.9279
G1 X168.405 Y76.98 E2.96021
G1 X169.036 Y77.719 E2.99253
G1 X169.603 Y78.507 E3.02482
G1 X170.104 Y79.339 E3.05712
G1 X170.534 Y80.21 E3.08943
G1 X170.892 Y81.114 E3.12177
G1 X171.174 Y82.043 E3.15406
G1 X171.378 Y82.993 E3.18638
G1 X171.504 Y83.956 E3.21868
G1 X171.55 Y85 E3.25344
G1 X171.55 Y125 E4.58384
G1 X171.51 Y125.971 E4.61616
G1 X171.39 Y126.935 E4.64847
G1 X171.192 Y127.885 E4.68075
G1 X170.916 Y128.817 E4.71308
G1 X170.564 Y129.722 E4.74538
G1 X170.139 Y130.596 E4.7777
G1 X169.643 Y131.431 E4.81
G1 X169.081 Y132.223 E4.8423
G1 X168.455 Y132.966 E4.87462
G1 X167.77 Y133.655 E4.90693
G1 X167.031 Y134.286 E4.93925
G1 X166.243 Y134.853 E4.97154
G1 X165.411 Y135.354 E5.00384
G1 X164.54 Y135.784 E5.03615
G1 X163.636 Y136.142 E5.06849
G1 X162.707 Y136.424 E5.10078
G1 X161.757 Y136.628 E5.1331
G1 X160.794 Y136.754 E5.1654
G1 X159.75 Y136.8 E5.20016
G1 X90.25 Y136.8 E7.51174
G1 X89.279 Y136.76 E7.54406
G1 X88.315 Y136.64 E7.57637
G1 X87.365 Y136.442 E7.60865
G1 X86.433 Y136.166 E7.64098
G1 X85.528 Y135.814 E7.67327
G1 X84.654 Y135.389 E7.7056
G1 X83.819 Y134.893 E7.7379
G1 X83.027 Y134.331 E7.7702
G1 X82.284 Y133.705 E7.80251
G1 X81.595 Y133.02 E7.83483
G1 X80.964 Y132.281 E7.86715
G1 X80.397 Y131.493 E7.89944
G1 X79.896 Y130.661 E7.93174
G1 X79.466 Y129.79 E7.96405
G1 X79.108 Y128.886 E7.99639
G1 X78.826 Y127.957 E8.02868
G1 X78.622 Y127.007 E8.06099
G1 X78.496 Y126.044 E8.0933
G1 X78.45 Y125 E8.12805
G1 X78.45 Y85 E9.45846
G1 X78.49 Y84.029 E9.49078
G1 X78.61 Y83.065 E9.52309
G1 X78.808 Y82.115 E9.55537
G1 X79.084 Y81.183 E9.5877
G1 X79.436 Y80.278 E9.61999
G1 X79.861 Y79.404 E9.65232
G1 X80.357 Y78.569 E9.68462
G1 X80.919 Y77.777 E9.71692
G1 X81.545 Y77.034 E9.74924
G0 F3600 X81.94 Y77.196
G1 F1800 X82.622 Y76.528 E9.78099
G1 X83.358 Y75.919 E9.81276
G1 X84.142 Y75.375 E9.8445
G1 X84.969 Y74.897 E9.87627
G1 X85.832 Y74.491 E9.90799
G1 X86.727 Y74.158 E9.93975
G1 X87.647 Y73.901 E9.97152
G1 X88.585 Y73.722 E10.00328
G1 X89.534 Y73.622 E10.03502
G1 X90.25 Y73.6 E10.05885
G1 X159.75 Y73.6 E12.37043
G1 X160.704 Y73.64 E12.40219
G1 X161.651 Y73.76 E12.43393
G1 X162.585 Y73.958 E12.46569
G1 X163.499 Y74.234 E12.49745
G1 X164.387 Y74.586 E12.52922
G1 X165.242 Y75.01 E12.56096
G1 X166.059 Y75.505 E12.59273
G1 X166.831 Y76.066 E12.62447
G1 X167.554 Y76.69 E12.65624
G1 X168.222 Y77.372 E12.68799
G1 X168.831 Y78.108 E12.71976
G1 X169.375 Y78.892 E12.7515
G1 X169.853 Y79.719 E12.78327
G1 X170.259 Y80.582 E12.81499
G1 X170.592 Y81.477 E12.84675
G1 X170.849 Y82.397 E12.87852
G1 X171.028 Y83.335 E12.91028
G1 X171.128 Y84.284 E12.94202
G1 X171.15 Y85 E12.96585
G1 X171.15 Y125 E14.29625
G1 X171.11 Y125.954 E14.32801
G1 X170.99 Y126.901 E14.35976
G1 X170.792 Y127.835 E14.39152
G1 X170.516 Y128.749 E14.42327
G1 X170.164 Y129.637 E14.45504
G1 X169.74 Y130.492 E14.48678
G1 X169.245 Y131.309 E14.51856
G1 X168.684 Y132.081 E14.5503
G1 X168.06 Y132.804 E14.58206
G1 X167.378 Y133.472 E14.61381
G1 X166.642 Y134.081 E14.64559
G1 X165.858 Y134.625 E14.67732
G1 X165.031 Y135.103 E14.70909
G1 X164.168 Y135.509 E14.74082
G1 X163.273 Y135.842 E14.77258
G1 X162.353 Y136.099 E14.80435
G1 X161.415 Y136.278 E14.83611
G1 X160.466 Y136.378 E14.86785
G1 X159.75 Y136.4 E14.89167
G1 X90.25 Y136.4 E17.20325
G1 X89.296 Y136.36 E17.23501
G1 X88.349 Y136.24 E17.26676
G1 X87.415 Y136.042 E17.29852
G1 X86.501 Y135.766 E17.33027
G1 X85.613 Y135.414 E17.36204
G1 X84.758 Y134.99 E17.39378
G1 X83.941 Y134.495 E17.42556
G1 X83.169 Y133.934 E17.4573
G1 X82.446 Y133.31 E17.48906
G1 X81.778 Y132.628 E17.52081
G1 X81.169 Y131.892 E17.55259
G1 X80.625 Y131.108 E17.58432
G1 X80.147 Y130.281 E17.61609
G1 X79.741 Y129.418 E17.64782
G1 X79.408 Y128.523 E17.67958
G1 X79.151 Y127.603 E17.71135
G1 X78.972 Y126.665 E17.74311
G1 X78.872 Y125.716 E17.77485
G1 X78.85 Y125 E17.79867
G1 X78.85 Y85 E19.12908
G1 X78.89 Y84.046 E19.16084
G1 X79.01 Y83.099 E19.19259
G1 X79.208 Y82.165 E19.22434
G1 X79.484 Y81.251 E19.2561
G1 X79.836 Y80.363 E19.28787
G1 X80.26 Y79.508 E19.31961
G1 X80.755 Y78.691 E19.35138
G1 X81.316 Y77.919 E19.38312
G1 X81.94 Y77.196 E19.41489
G0 F3600 X82.334 Y77.362
G1 F1800 X83.014 Y76.715 E19.4461
G1 X83.746 Y76.129 E19.47729
G1 X84.525 Y75.607 E19.50848
G1 X85.346 Y75.154 E19.53967
G1 X86.203 Y74.772 E19.57088
G1 X87.089 Y74.464 E19.60207
G1 X87.998 Y74.233 E19.63327
G1 X88.923 Y74.08 E19.66445
G1 X90.25 Y74 E19.70867
G1 X159.75 Y74 E22.02025
G1 X160.687 Y74.04 E22.05144
G1 X161.617 Y74.16 E22.08263
G1 X162.534 Y74.358 E22.11383
G1 X163.43 Y74.634 E22.14501
G1 X164.3 Y74.985 E22.17622
G1 X165.136 Y75.409 E22.20739
G1 X165.934 Y75.903 E22.23861
G1 X166.686 Y76.463 E22.26979
G1 X167.388 Y77.084 E22.30097
G1 X168.035 Y77.764 E22.33219
G1 X168.621 Y78.496 E22.36337
G1 X169.143 Y79.275 E22.39456
G1 X169.596 Y80.096 E22.42575
G1 X169.978 Y80.953 E22.45696
G1 X170.286 Y81.839 E22.48816
G1 X170.517 Y82.748 E22.51935
G1 X170.67 Y83.673 E22.55053
G1 X170.75 Y85 E22.59475
G1 X170.75 Y125 E23.92516
G1 X170.71 Y125.937 E23.95635
G1 X170.59 Y126.867 E23.98754
G1 X170.392 Y127.784 E24.01874
G1 X170.116 Y128.68 E24.04992
G1 X169.765 Y129.55 E24.08112
G1 X169.341 Y130.386 E24.1123
G1 X168.847 Y131.184 E24.14352
G1 X168.287 Y131.936 E24.1747
G1 X167.666 Y132.638 E24.20588
G1 X166.986 Y133.285 E24.23709
G1 X166.254 Y133.871 E24.26828
G1 X165.475 Y134.393 E24.29947
G1 X164.654 Y134.846 E24.33066
G1 X163.797 Y135.228 E24.36186
G1 X162.911 Y135.536 E24.39306
G1 X162.002 Y135.767 E24.42426
G1 X161.077 Y135.92 E24.45544
G1 X159.75 Y136 E24.49966
G1 X90.25 Y136 E26.81124
G1 X89.313 Y135.96 E26.84243
G1 X88.383 Y135.84 E26.87362
G1 X87.466 Y135.642 E26.90482
G1 X86.57 Y135.366 E26.936
G1 X85.7 Y135.015 E26.96721
G1 X84.864 Y134.591 E26.99838
G1 X84.066 Y134.097 E27.0296
G1 X83.314 Y133.537 E27.06078
G1 X82.612 Y132.916 E27.09196
G1 X81.965 Y132.236 E27.12318
G1 X81.379 Y131.504 E27.15436
G1 X80.857 Y130.725 E27.18555
G1 X80.404 Y129.904 E27.21674
G1 X80.022 Y129.047 E27.24795
G1 X79.714 Y128.161 E27.27914
G1 X79.483 Y127.252 E27.31034
G1 X79.33 Y126.327 E27.34152
G1 X79.25 Y125 E27.38574
G1 X79.25 Y85 E28.71614
G1 X79.29 Y84.063 E28.74734
G1 X79.41 Y83.133 E28.77853
G1 X79.608 Y82.216 E28.80973
G1 X79.884 Y81.32 E28.84091
G1 X80.235 Y80.45 E28.87211
G1 X80.659 Y79.614 E28.90329
G1 X81.153 Y78.816 E28.93451
G1 X81.713 Y78.064 E28.96569
G1 X82.334 Y77.362 E28.99686
G0 F3600 X82.729 Y77.531
G1 F1800 X83.405 Y76.906 E29.02749
G1 X84.133 Y76.343 E29.0581
G1 X84.908 Y75.845 E29.08873
G1 X85.722 Y75.416 E29.11934
G1 X86.571 Y75.059 E29.14997
G1 X87.447 Y74.777 E29.18058
G1 X88.345 Y74.573 E29.21121
G1 X89.257 Y74.447 E29.24183
G1 X90.25 Y74.4 E29.27489
G1 X159.75 Y74.4 E31.58647
G1 X160.67 Y74.44 E31.6171
G1 X161.583 Y74.56 E31.64773
G1 X162.482 Y74.758 E31.67835
G1 X163.36 Y75.034 E31.70896
G1 X164.211 Y75.385 E31.73958
G1 X165.029 Y75.808 E31.7702
G1 X165.806 Y76.301 E31.80081
G1 X166.538 Y76.859 E31.83142
G1 X167.219 Y77.479 E31.86206
G1 X167.844 Y78.155 E31.89268
G1 X168.407 Y78.883 E31.92329
G1 X168.905 Y79.658 E31.95393
G1 X169.334 Y80.472 E31.98453
G1 X169.691 Y81.321 E32.01516
G1 X169.973 Y82.197 E32.04577
G1 X170.177 Y83.095 E32.0764
G1 X170.303 Y84.007 E32.10702
G1 X170.35 Y85 E32.14008
G1 X170.35 Y125 E33.47049
G1 X170.31 Y125.92 E33.50112
G1 X170.19 Y126.833 E33.53175
G1 X169.992 Y127.732 E33.56236
G1 X169.716 Y128.61 E33.59297
G1 X169.365 Y129.461 E33.62359
G1 X168.942 Y130.279 E33.65422
G1 X168.449 Y131.056 E33.68483
G1 X167.891 Y131.788 E33.71544
G1 X167.271 Y132.469 E33.74607
G1 X166.595 Y133.094 E33.77669
G1 X165.867 Y133.657 E33.8073
G1 X165.092 Y134.155 E33.83794
G1 X164.278 Y134.584 E33.86855
G1 X163.429 Y134.941 E33.89918
G1 X162.553 Y135.223 E33.92979
G1 X161.655 Y135.427 E33.96042
G1 X160.743 Y135.553 E33.99104
G1 X159.75 Y135.6 E34.0241
G1 X90.25 Y135.6 E36.33568
G1 X89.33 Y135.56 E36.36631
G1 X88.417 Y135.44 E36.39694
G1 X87.518 Y135.242 E36.42755
G1 X86.64 Y134.966 E36.45816
G1 X85.789 Y134.615 E36.48878
G1 X84.971 Y134.192 E36.51941
G1 X84.194 Y133.699 E36.55002
G1 X83.462 Y133.141 E36.58063
G1 X82.781 Y132.521 E36.61126
G1 X82.156 Y131.845 E36.64188
G1 X81.593 Y131.117 E36.67249
G1 X81.095 Y130.342 E36.70313
G1 X80.666 Y129.528 E36.73374
G1 X80.309 Y128.679 E36.76437
G1 X80.027 Y127.803 E36.79498
G1 X79.823 Y126.905 E36.82561
G1 X79.697 Y125.993 E36.85623
G1 X79.65 Y125 E36.88929
G1 X79.65 Y85 E38.2197
G1 X79.69 Y84.08 E38.25032
G1 X79.81 Y83.167 E38.28095
G1 X80.008 Y82.268 E38.31157
G1 X80.284 Y81.39 E38.34218
G1 X80.635 Y80.539 E38.3728
G1 X81.058 Y79.721 E38.40343
G1 X81.551 Y78.944 E38.43403
G1 X82.109 Y78.212 E38.46465
G1 X82.729 Y77.531 E38.49528
G0 F3600 X82.505 Y78.363
G1 F1800 X83.123 Y77.703 E38.52535
G1 X83.796 Y77.102 E38.55536
G1 X84.52 Y76.562 E38.5854
G1 X85.289 Y76.088 E38.61545
G1 X86.096 Y75.684 E38.64546
G1 X86.937 Y75.353 E38.67552
G1 X87.803 Y75.098 E38.70555
G1 X88.688 Y74.92 E38.73558
G1 X89.586 Y74.822 E38.76562
G1 X90.25 Y74.8 E38.78772
G1 X159.75 Y74.8 E41.0993
G1 X160.652 Y74.84 E41.12933
G1 X161.547 Y74.96 E41.15936
G1 X162.428 Y75.158 E41.18939
G1 X163.288 Y75.433 E41.21942
G1 X164.121 Y75.784 E41.24949
G1 X164.919 Y76.207 E41.27953
G1 X165.676 Y76.698 E41.30954
G1 X166.387 Y77.255 E41.33958
G1 X167.047 Y77.873 E41.36965
G1 X167.648 Y78.546 E41.39966
G1 X168.188 Y79.27 E41.4297
G1 X168.662 Y80.039 E41.45975
G1 X169.066 Y80.846 E41.48977
G1 X169.397 Y81.687 E41.51983
G1 X169.652 Y82.553 E41.54985
G1 X169.83 Y83.438 E41.57988
G1 X169.928 Y84.336 E41.60992
G1 X169.95 Y85 E41.63202
G1 X169.95 Y125 E42.96242
G1 X169.91 Y125.902 E42.99245
G1 X169.79 Y126.797 E43.02249
G1 X169.592 Y127.678 E43.05252
G1 X169.317 Y128.538 E43.08255
G1 X168.966 Y129.371 E43.11262
G1 X168.543 Y130.169 E43.14266
G1 X168.052 Y130.926 E43.17267
G1 X167.495 Y131.637 E43.20271
G1 X166.877 Y132.297 E43.23278
G1 X166.204 Y132.898 E43.26279
G1 X165.48 Y133.438 E43.29283
G1 X164.711 Y133.912 E43.32288
G1 X163.904 Y134.316 E43.35289
G1 X163.063 Y134.647 E43.38295
G1 X162.197 Y134.902 E43.41298
G1 X161.312 Y135.08 E43.443
G1 X160.414 Y135.178 E43.47305
G1 X159.75 Y135.2 E43.49515
G1 X90.25 Y135.2 E45.80673
G1 X89.348 Y135.16 E45.83676
G1 X88.453 Y135.04 E45.86679
G1 X87.572 Y134.842 E45.89682
G1 X86.712 Y134.567 E45.92685
G1 X85.879 Y134.216 E45.95692
G1 X85.081 Y133.793 E45.98696
G1 X84.324 Y133.302 E46.01697
G1 X83.613 Y132.745 E46.04701
G1 X82.953 Y132.127 E46.07708
G1 X82.352 Y131.454 E46.10709
G1 X81.812 Y130.73 E46.13713
G1 X81.338 Y129.961 E46.16718
G1 X80.934 Y129.154 E46.19719
G1 X80.603 Y128.313 E46.22726
G1 X80.348 Y127.447 E46.25728
G1 X80.17 Y126.562 E46.28731
G1 X80.072 Y125.664 E46.31735
G1 X80.05 Y125 E46.33945
G1 X80.05 Y85 E47.66985
G1 X80.09 Y84.098 E47.69988
G1 X80.21 Y83.203 E47.72992
G1 X80.408 Y82.322 E47.75995
G1 X80.683 Y81.462 E47.78998
G1 X81.034 Y80.629 E47.82005
G1 X81.457 Y79.831 E47.85009
G1 X81.948 Y79.074 E47.8801
G1 X82.505 Y78.363 E47.91014
G0 F3600 X82.901 Y78.517
G1 F1800 X83.516 Y77.88 E47.93959
G1 X84.186 Y77.302 E47.96902
G1 X84.905 Y76.786 E47.99845
G1 X85.668 Y76.337 E48.0279
G1 X86.469 Y75.959 E48.05736
G1 X87.3 Y75.655 E48.08679
G1 X88.155 Y75.427 E48.11622
G1 X89.028 Y75.277 E48.14568
G1 X90.25 Y75.2 E48.1864
G1 X159.75 Y75.2 E50.49798
G1 X160.634 Y75.24 E50.52742
G1 X161.511 Y75.36 E50.55686
G1 X162.374 Y75.558 E50.58631
G1 X163.215 Y75.833 E50.61574
G1 X164.028 Y76.183 E50.64517
G1 X164.807 Y76.605 E50.67464
G1 X165.543 Y77.096 E50.70407
G1 X166.233 Y77.651 E50.73352
G1 X166.87 Y78.266 E50.76297
G1 X167.448 Y78.936 E50.7924
G1 X167.964 Y79.655 E50.82184
G1 X168.413 Y80.418 E50.85128
G1 X168.791 Y81.219 E50.88074
G1 X169.095 Y82.05 E50.91017
G1 X169.323 Y82.905 E50.9396
G1 X169.473 Y83.778 E50.96906
G1 X169.55 Y85 E51.00979
G1 X169.55 Y125 E52.34019
G1 X169.51 Y125.884 E52.36963
G1 X169.39 Y126.761 E52.39907
G1 X169.192 Y127.624 E52.42852
G1 X168.917 Y128.465 E52.45795
G1 X168.567 Y129.278 E52.48739
G1 X168.145 Y130.057 E52.51685
G1 X167.654 Y130.793 E52.54628
G1 X167.099 Y131.483 E52.57573
G1 X166.484 Y132.12 E52.60518
G1 X165.814 Y132.698 E52.63461
G1 X165.095 Y133.214 E52.66405
G1 X164.332 Y133.663 E52.69349
G1 X163.531 Y134.041 E52.72295
G1 X162.7 Y134.345 E52.75238
G1 X161.845 Y134.573 E52.78181
G1 X160.972 Y134.723 E52.81127
G1 X159.75 Y134.8 E52.852
G1 X90.25 Y134.8 E55.16358
G1 X89.366 Y134.76 E55.19301
G1 X88.489 Y134.64 E55.22245
G1 X87.626 Y134.442 E55.2519
G1 X86.785 Y134.167 E55.28133
G1 X85.972 Y133.817 E55.31077
G1 X85.193 Y133.395 E55.34024
G1 X84.457 Y132.904 E55.36966
G1 X83.767 Y132.349 E55.39912
G1 X83.13 Y131.734 E55.42857
G1 X82.552 Y131.064 E55.458
G1 X82.036 Y130.345 E55.48743
G1 X81.587 Y129.582 E55.51688
G1 X81.209 Y128.781 E55.54634
G1 X80.905 Y127.95 E55.57577
G1 X80.677 Y127.095 E55.6052
G1 X80.527 Y126.222 E55.63466
G1 X80.45 Y125 E55.67538
G1 X80.45 Y85 E57.00579
G1 X80.49 Y84.116 E57.03522
G1 X80.61 Y83.239 E57.06466
G1 X80.808 Y82.376 E57.09411
G1 X81.083 Y81.535 E57.12354
G1 X81.433 Y80.722 E57.15298
G1 X81.855 Y79.943 E57.18245
G1 X82.346 Y79.207 E57.21187
G1 X82.901 Y78.517 E57.24133
G0 F3600 X83.296 Y78.675
G1 F1800 X83.909 Y78.061 E57.27018
G1 X84.575 Y77.506 E57.29902
G1 X85.289 Y77.016 E57.32782
G1 X86.046 Y76.592 E57.35668
G1 X86.839 Y76.241 E57.38552
G1 X87.66 Y75.964 E57.41434
G1 X88.504 Y75.764 E57.44319
G1 X89.362 Y75.642 E57.47201
G1 X90.25 Y75.6 E57.50158
G1 X159.75 Y75.6 E59.81316
G1 X160.616 Y75.64 E59.84199
G1 X161.475 Y75.76 E59.87084
G1 X162.319 Y75.958 E59.89968
G1 X163.141 Y76.233 E59.92851
G1 X163.934 Y76.583 E59.95734
G1 X164.692 Y77.004 E59.98617
G1 X165.407 Y77.493 E60.01499
G1 X166.075 Y78.046 E60.04383
G1 X166.689 Y78.659 E60.07269
G1 X167.244 Y79.325 E60.10152
G1 X167.734 Y80.039 E60.13032
G1 X168.158 Y80.796 E60.15918
G1 X168.509 Y81.589 E60.18802
G1 X168.786 Y82.41 E60.21684
G1 X168.986 Y83.254 E60.24569
G1 X169.108 Y84.112 E60.27452
G1 X169.15 Y85 E60.30408
G1 X169.15 Y125 E61.63449
G1 X169.11 Y125.866 E61.66332
G1 X168.99 Y126.725 E61.69217
G1 X168.792 Y127.569 E61.72101
G1 X168.517 Y128.391 E61.74983
G1 X168.167 Y129.184 E61.77866
G1 X167.746 Y129.942 E61.8075
G1 X167.257 Y130.657 E61.83631
G1 X166.704 Y131.325 E61.86516
G1 X166.091 Y131.939 E61.89401
G1 X165.425 Y132.494 E61.92285
G1 X164.711 Y132.984 E61.95165
G1 X163.954 Y133.408 E61.98051
G1 X163.161 Y133.759 E62.00935
G1 X162.34 Y134.036 E62.03817
G1 X161.496 Y134.236 E62.06702
G1 X160.638 Y134.358 E62.09584
G1 X159.75 Y134.4 E62.12541
G1 X90.25 Y134.4 E64.43699
G1 X89.384 Y134.36 E64.46583
G1 X88.525 Y134.24 E64.49467
G1 X87.681 Y134.042 E64.52351
G1 X86.859 Y133.767 E64.55234
G1 X86.066 Y133.417 E64.58117
G1 X85.308 Y132.996 E64.61001
G1 X84.593 Y132.507 E64.63882
G1 X83.925 Y131.954 E64.66766
G1 X83.311 Y131.341 E64.69652
