;FLAVOR:Marlin
;TIME:3550
;Filament used: 4.528m
;Layer height: 0.3
;MINX:99.983
;MINY:25.376
;MINZ:0.2
;MAXX:142.583
;MAXY:117.976
;MAXZ:13.7
;Generated with Cura_SteamEngine 4.4.0
M82 ;absolute extrusion mode
G21 ; set units to millimeters
G90 ; use absolute positioning
M82 ; absolute extrusion mode
M104 S215 ; set extruder temp
M140 S65 ; set bed temp
M190 S65 ; wait for bed temp
M109 S215 ; wait for extruder temp
G28 W ; home all without mesh bed level
G80 ; mesh bed leveling
G92 E0.0 ; reset extruder distance position
G1 Y-3.0 F1000.0 ; go outside print area
G1 X60.0 E9.0 F1000.0 ; intro line
G1 X100.0 E21.5 F1000.0 ; intro line
G92 E0.0 ; reset extruder distance position
G92 E0
G92 E0
G1 F2100 E-0.8
;LAYER_COUNT:46
;LAYER:0
M107
;MESH:iverntech_slider_xshuttle_connect.stl
G0 F3600 X109.75 Y39.193 Z0.2
;TYPE:WALL-OUTER
G1 F2100 E0
G1 F1800 X111.814 Y38.828 E0.06971
G1 X113.136 Y37.254 E0.13808
G1 X113.162 Y35.168 E0.20747
G1 X111.841 Y33.554 E0.27684
G1 X109.752 Y33.159 E0.34755
G1 X107.937 Y34.207 E0.41726
G1 X107.234 Y36.14 E0.48567
G1 X107.922 Y38.108 E0.55501
G1 X109.75 Y39.193 E0.62571
G0 F3600 X109.946 Y39.159
G0 X109.997 Y39.454
G0 X104.582 Y51.096
G0 X104.096 Y53.124
G0 X104.534 Y55.163
G0 X105.818 Y56.809
G0 X107.658 Y57.787
G0 X107.791 Y57.519
G1 F1800 X109.775 Y57.519 E0.6917
G1 X111.561 Y56.659 E0.75763
G1 X112.765 Y55.149 E0.82186
G1 X113.226 Y53.226 E0.88763
G1 X112.81 Y51.293 E0.9534
G1 X111.594 Y49.733 E1.01919
G1 X109.776 Y48.833 E1.08666
G1 X107.792 Y48.833 E1.15264
G1 X106.006 Y49.693 E1.21857
G1 X104.801 Y51.203 E1.28283
G1 X104.34 Y53.126 E1.3486
G1 X104.756 Y55.059 E1.41436
G1 X105.973 Y56.619 E1.48017
G1 X107.791 Y57.519 E1.54764
G0 F3600 X107.991 Y57.519
G0 X107.991 Y57.819
G0 X109.83 Y57.757
G0 X118.747 Y56.758
G0 X120.811 Y56.945
G0 X120.776 Y57.243
G1 F1800 X118.776 Y57.001 E1.61465
G1 X116.894 Y57.714 E1.68158
G1 X115.579 Y59.199 E1.74756
G1 X115.085 Y61.147 E1.8144
G1 X115.551 Y63.101 E1.88121
G1 X116.874 Y64.615 E1.94809
G1 X118.775 Y65.352 E2.0159
G1 X120.775 Y65.109 E2.08291
G1 X122.431 Y63.965 E2.14985
G1 X123.353 Y62.209 E2.21582
G1 X123.367 Y60.2 E2.28264
G1 X122.446 Y58.415 E2.34944
G1 X120.776 Y57.243 E2.4173
G0 F3600 X120.578 Y57.219
G0 X120.613 Y56.921
G0 X122.631 Y58.254
G0 X123.605 Y60.142
G0 X126.848 Y70.059
G0 X126.848 Y72.316
G0 X126.616 Y72.146
G1 F1800 X126.616 Y70.227 E2.48113
G1 X124.776 Y69.609 E2.54569
G1 X123.648 Y71.161 E2.6095
G1 X124.761 Y72.727 E2.6734
G1 X126.616 Y72.146 E2.73805
G0 F3600 X126.616 Y71.946
G0 X126.916 Y71.946
G0 X120.811 Y76.945
G0 X120.776 Y77.243
G1 F1800 X118.776 Y77.001 E2.80506
G1 X116.894 Y77.714 E2.872
G1 X115.579 Y79.199 E2.93797
G1 X115.085 Y81.147 E3.00481
G1 X115.551 Y83.101 E3.07162
G1 X116.874 Y84.615 E3.1385
G1 X118.775 Y85.352 E3.20631
G1 X120.775 Y85.109 E3.27332
G1 X122.431 Y83.965 E3.34026
G1 X123.353 Y82.209 E3.40623
G1 X123.367 Y80.2 E3.47305
G1 X122.446 Y78.415 E3.53986
G1 X120.776 Y77.243 E3.60771
G0 F3600 X120.578 Y77.219
G0 X120.613 Y76.921
G0 X122.631 Y78.254
G0 X123.605 Y80.142
G0 X123.591 Y82.268
G0 X122.712 Y83.942
G0 X115.583 Y93.176
G0 X115.583 Y93.476
G1 F1800 X115.583 Y117.976 E4.42259
G1 X99.983 Y117.976 E4.94145
G1 X99.983 Y25.376 E8.02133
G1 X115.583 Y25.376 E8.54019
G1 X115.583 Y48.876 E9.32181
G1 X142.583 Y48.876 E10.21983
G1 X142.583 Y58.158 E10.52855
G1 X142.583 Y58.403 E10.5367
G1 X142.583 Y58.677 E10.54581
G1 X142.439 Y58.403 E10.54837
G1 X142.238 Y58.263 E10.5542
G1 X140.776 Y57.243 E10.61349
G1 X138.776 Y57.001 E10.6805
G1 X136.894 Y57.714 E10.74744
G1 X135.578 Y59.199 E10.81343
G1 X135.085 Y61.147 E10.88027
G1 X135.55 Y63.101 E10.94707
G1 X136.874 Y64.615 E11.01397
G1 X138.775 Y65.352 E11.08178
G1 X140.775 Y65.109 E11.14879
G1 X142.231 Y64.103 E11.20765
G1 X142.431 Y63.965 E11.21573
G1 X142.575 Y63.69 E11.22606
G1 X142.575 Y63.964 E11.22744
G1 X142.575 Y64.207 E11.23323
G1 X142.582 Y78.156 E11.69718
G1 X142.582 Y78.402 E11.70536
G1 X142.583 Y78.677 E11.71451
G1 X142.439 Y78.403 E11.71704
G1 X142.238 Y78.263 E11.72286
G1 X140.776 Y77.243 E11.78215
G1 X138.776 Y77.001 E11.84915
G1 X136.894 Y77.714 E11.91609
G1 X135.578 Y79.199 E11.98209
G1 X135.085 Y81.147 E12.04892
G1 X135.55 Y83.101 E12.11573
G1 X136.874 Y84.615 E12.18262
G1 X138.775 Y85.352 E12.25043
G1 X140.775 Y85.109 E12.31744
G1 X142.232 Y84.102 E12.37635
G1 X142.431 Y83.965 E12.38439
G1 X142.576 Y83.689 E12.39476
G1 X142.576 Y83.964 E12.39616
G1 X142.576 Y84.206 E12.40194
G1 X142.583 Y93.276 E12.7036
G1 X142.583 Y93.476 E12.71026
G1 X142.383 Y93.476 E12.71456
G1 X115.583 Y93.476 E13.60594
G0 F3600 X115.583 Y93.676
G0 X115.283 Y93.676
G0 X107.658 Y90.787
G0 X107.791 Y90.519
G1 F1800 X109.775 Y90.519 E13.67192
G1 X111.561 Y89.659 E13.73785
G1 X112.765 Y88.149 E13.80209
G1 X113.226 Y86.226 E13.86786
G1 X112.81 Y84.293 E13.93362
G1 X111.594 Y82.733 E13.99941
G1 X109.776 Y81.833 E14.06688
G1 X107.792 Y81.833 E14.13287
G1 X106.006 Y82.693 E14.1988
G1 X104.801 Y84.203 E14.26305
G1 X104.34 Y86.126 E14.32882
G1 X104.756 Y88.059 E14.39459
G1 X105.973 Y89.619 E14.4604
G1 X107.791 Y90.519 E14.52787
G0 F3600 X107.991 Y90.519
G0 X107.991 Y90.819
G0 X106.982 Y106.138
G0 X107.728 Y108.269
G0 X109.801 Y109.488
G0 X109.75 Y109.193
G1 F1800 X111.814 Y108.828 E14.59758
G1 X113.136 Y107.254 E14.66595
G1 X113.162 Y105.168 E14.73533
G1 X111.841 Y103.554 E14.8047
G1 X109.752 Y103.159 E14.87541
G1 X107.937 Y104.207 E14.94512
G1 X107.234 Y106.14 E15.01353
G1 X107.922 Y108.108 E15.08287
G1 X109.75 Y109.193 E15.15358
G0 F3600 X109.946 Y109.159
G0 X109.997 Y109.454
G0 X111.94 Y109.046
G0 X113.372 Y107.342
G0 X115.355 Y93.248
G0 X138.704 Y72.432
G0 X138.616 Y72.146
G1 F1800 X138.616 Y70.227 E15.2174
G1 X136.776 Y69.609 E15.28196
G1 X135.648 Y71.161 E15.34578
G1 X136.761 Y72.727 E15.40968
G1 X138.616 Y72.146 E15.47433
G0 F3600 X138.616 Y71.946
G0 X139.016 Y72.44
;TYPE:WALL-INNER
G1 F1800 X139.016 Y69.939 E15.55751
G1 X136.625 Y69.136 E15.6414
G1 X135.155 Y71.158 E15.72455
G1 X136.603 Y73.196 E15.8077
G1 X139.016 Y72.44 E15.8918
G0 F3600 X136.67 Y72.998
G0 X127.016 Y72.44
G1 F1800 X127.016 Y69.939 E15.97499
G1 X124.625 Y69.136 E16.05888
G1 X123.155 Y71.158 E16.14202
G1 X124.603 Y73.196 E16.22517
G1 X127.016 Y72.44 E16.30928
G0 F3600 X120.924 Y76.858
G1 F1800 X118.726 Y76.592 E16.38292
G1 X116.66 Y77.375 E16.4564
G1 X115.215 Y79.007 E16.5289
G1 X114.673 Y81.144 E16.60223
G1 X115.185 Y83.29 E16.67561
G1 X116.638 Y84.952 E16.74903
G1 X118.724 Y85.761 E16.82345
G1 X120.921 Y85.494 E16.89706
G1 X122.739 Y84.238 E16.97055
G1 X123.752 Y82.309 E17.04302
G1 X123.768 Y80.104 E17.11636
G1 X122.756 Y78.144 E17.18973
G1 X120.924 Y76.858 E17.26417
G0 F3600 X122.631 Y78.254
G0 X123.605 Y80.142
G0 X123.591 Y82.268
G0 X122.614 Y84.128
G0 X115.183 Y93.076
G1 F1800 X115.183 Y117.576 E18.07905
G1 X100.383 Y117.576 E18.5713
G1 X100.383 Y25.776 E21.62458
G1 X115.183 Y25.776 E22.11683
G1 X115.183 Y49.276 E22.89844
G1 X142.183 Y49.276 E23.79647
G1 X142.183 Y57.354 E24.06514
G1 X142.183 Y57.355 E24.06517
G1 X142.183 Y57.737 E24.07788
G1 X141.869 Y57.518 E24.08496
G1 X140.923 Y56.858 E24.12333
G1 X138.726 Y56.592 E24.19693
G1 X136.66 Y57.375 E24.27042
G1 X135.214 Y59.007 E24.34294
G1 X134.673 Y61.144 E24.41626
G1 X135.184 Y63.29 E24.48963
G1 X136.638 Y64.952 E24.56308
G1 X138.724 Y65.761 E24.63749
G1 X140.921 Y65.494 E24.7111
G1 X141.864 Y64.843 E24.74922
G1 X142.176 Y64.628 E24.76182
G1 X142.176 Y65.006 E24.76882
G1 X142.176 Y65.008 E24.76889
G1 X142.182 Y77.354 E25.17952
G1 X142.182 Y77.355 E25.17955
G1 X142.182 Y77.737 E25.19225
G1 X141.868 Y77.518 E25.19934
G1 X140.923 Y76.858 E25.23768
G1 X138.726 Y76.592 E25.31128
G1 X136.66 Y77.375 E25.38477
G1 X135.214 Y79.007 E25.45729
G1 X134.673 Y81.144 E25.53061
G1 X135.184 Y83.29 E25.60398
G1 X136.638 Y84.952 E25.67743
G1 X138.724 Y85.761 E25.75184
G1 X140.921 Y85.494 E25.82545
G1 X141.865 Y84.842 E25.86361
G1 X142.177 Y84.626 E25.87623
G1 X142.177 Y85.005 E25.88326
G1 X142.177 Y85.006 E25.88329
G1 X142.183 Y92.876 E26.14505
G1 X142.183 Y93.076 E26.1517
G1 X141.983 Y93.076 E26.15601
G1 X115.183 Y93.076 E27.04738
G0 F3600 X107.697 Y90.919
G1 F1800 X109.866 Y90.919 E27.11952
G1 X111.817 Y89.98 E27.19154
G1 X113.133 Y88.329 E27.26176
G1 X113.636 Y86.231 E27.33352
G1 X113.182 Y84.119 E27.40537
G1 X111.853 Y82.415 E27.47724
G1 X109.87 Y81.433 E27.55084
G1 X107.701 Y81.433 E27.62298
G1 X105.75 Y82.372 E27.695
G1 X104.433 Y84.023 E27.76524
G1 X103.93 Y86.121 E27.837
G1 X104.384 Y88.233 E27.90885
G1 X105.714 Y89.937 E27.98074
G1 X107.697 Y90.919 E28.05434
G0 F3600 X106.982 Y106.138
G0 X107.728 Y108.269
G0 X109.673 Y109.613
G1 F1800 X112.027 Y109.197 E28.13385
G1 X113.534 Y107.402 E28.2118
G1 X113.564 Y105.027 E28.2908
G1 X112.058 Y103.188 E28.36986
G1 X109.681 Y102.738 E28.45032
G1 X107.611 Y103.933 E28.52982
G1 X106.809 Y106.137 E28.60783
G1 X107.593 Y108.378 E28.68679
G1 X109.673 Y109.613 E28.76725
G0 F3600 X107.728 Y108.269
G0 X106.982 Y106.138
G0 X104.096 Y86.124
G0 X107.697 Y57.919
G1 F1800 X109.866 Y57.919 E28.83939
G1 X111.817 Y56.98 E28.91141
G1 X113.133 Y55.329 E28.98163
G1 X113.636 Y53.231 E29.05339
G1 X113.182 Y51.119 E29.12524
G1 X111.853 Y49.415 E29.19711
G1 X109.87 Y48.433 E29.27071
G1 X107.701 Y48.433 E29.34285
G1 X105.75 Y49.372 E29.41487
G1 X104.433 Y51.023 E29.48511
G1 X103.93 Y53.121 E29.55687
G1 X104.384 Y55.233 E29.62872
G1 X105.714 Y56.937 E29.70061
G1 X107.697 Y57.919 E29.77421
G0 F3600 X118.281 Y56.949
G0 X120.924 Y56.858
G1 F1800 X118.726 Y56.592 E29.84785
G1 X116.66 Y57.375 E29.92133
G1 X115.215 Y59.007 E29.99383
G1 X114.673 Y61.144 E30.06716
G1 X115.185 Y63.29 E30.14054
G1 X116.638 Y64.952 E30.21397
G1 X118.724 Y65.761 E30.28838
G1 X120.921 Y65.494 E30.36199
G1 X122.739 Y64.238 E30.43549
G1 X123.752 Y62.309 E30.50795
G1 X123.768 Y60.104 E30.58129
G1 X122.756 Y58.144 E30.65466
G1 X120.924 Y56.858 E30.72911
G0 F3600 X115.355 Y49.104
G0 X109.673 Y39.613
G1 F1800 X112.027 Y39.197 E30.80861
G1 X113.534 Y37.402 E30.88657
G1 X113.564 Y35.027 E30.96557
G1 X112.058 Y33.188 E31.04462
G1 X109.681 Y32.738 E31.12509
G1 X107.611 Y33.933 E31.20459
G1 X106.809 Y36.137 E31.28259
G1 X107.593 Y38.378 E31.36156
G1 X109.673 Y39.613 E31.44202
G0 F3600 X109.599 Y40.022
;TYPE:SKIN
G1 F1800 X112.234 Y39.556 E31.53102
G1 X113.922 Y37.546 E31.61832
G1 X113.956 Y34.89 E31.70666
G1 X112.27 Y32.831 E31.79517
G1 X109.611 Y32.328 E31.88518
G1 X107.293 Y33.666 E31.9742
G1 X106.395 Y36.135 E32.06158
G1 X107.271 Y38.641 E32.14988
G1 X109.599 Y40.022 E32.23991
G0 F3600 X109.961 Y48.043
G1 F1800 X107.612 Y48.043 E32.31803
G1 X105.501 Y49.06 E32.39597
G1 X104.074 Y50.848 E32.47206
G1 X103.53 Y53.117 E32.54966
G1 X104.021 Y55.403 E32.62743
G1 X105.461 Y57.247 E32.70525
G1 X107.606 Y58.309 E32.78486
G1 X109.955 Y58.309 E32.86298
G1 X112.067 Y57.292 E32.94095
G1 X113.492 Y55.504 E33.01699
G1 X114.036 Y53.235 E33.0946
G1 X113.545 Y50.95 E33.17233
G1 X112.106 Y49.105 E33.25016
G1 X109.961 Y48.043 E33.32977
G0 F3600 X114.793 Y49.666
G1 F1800 X141.793 Y49.666 E34.22779
G1 X141.793 Y56.989 E34.47135
G1 X141.067 Y56.482 E34.5008
G1 X138.677 Y56.194 E34.58087
G1 X136.432 Y57.044 E34.66071
G1 X134.859 Y58.82 E34.73962
G1 X134.271 Y61.142 E34.81929
G1 X134.827 Y63.474 E34.89903
G1 X136.408 Y65.281 E34.97888
G1 X138.674 Y66.16 E35.05972
G1 X141.063 Y65.87 E35.13976
G1 X141.786 Y65.371 E35.16898
G1 X141.792 Y76.988 E35.55537
G1 X141.067 Y76.482 E35.58477
G1 X138.677 Y76.194 E35.66484
G1 X136.432 Y77.044 E35.74468
G1 X134.859 Y78.82 E35.82359
G1 X134.271 Y81.142 E35.90326
G1 X134.827 Y83.474 E35.98299
G1 X136.408 Y85.281 E36.06285
G1 X138.674 Y86.16 E36.14369
G1 X141.063 Y85.87 E36.22373
G1 X141.787 Y85.37 E36.253
G1 X141.793 Y92.686 E36.49633
G1 X114.793 Y92.686 E37.39435
G1 X114.793 Y117.186 E38.20922
G1 X100.773 Y117.186 E38.67553
G1 X100.773 Y26.166 E41.70287
G1 X114.793 Y26.166 E42.16918
G1 X114.793 Y49.666 E42.95079
G0 F3600 X116.432 Y57.044
G1 F1800 X114.86 Y58.82 E43.02967
G1 X114.271 Y61.142 E43.10935
G1 X114.828 Y63.474 E43.1891
G1 X116.408 Y65.281 E43.26893
G1 X118.674 Y66.16 E43.34977
G1 X121.063 Y65.87 E43.42981
G1 X123.039 Y64.505 E43.50969
G1 X124.142 Y62.406 E43.58856
G1 X124.158 Y60.01 E43.66825
G1 X123.058 Y57.88 E43.74798
G1 X121.068 Y56.482 E43.82887
G1 X118.677 Y56.194 E43.90897
G1 X116.432 Y57.044 E43.98881
G0 F3600 X118.747 Y56.758
G0 X120.865 Y57.013
G0 X122.631 Y58.254
G0 X123.605 Y60.142
G0 X124.478 Y68.676
G1 F1800 X122.675 Y71.156 E44.09079
G1 X124.449 Y73.653 E44.19267
G1 X127.406 Y72.727 E44.29573
G1 X127.406 Y69.658 E44.3978
G1 X124.478 Y68.676 E44.50052
G0 F3600 X118.677 Y76.194
G1 F1800 X116.432 Y77.044 E44.58036
G1 X114.86 Y78.82 E44.65925
G1 X114.271 Y81.142 E44.73892
G1 X114.828 Y83.474 E44.81867
G1 X116.408 Y85.281 E44.8985
G1 X118.674 Y86.16 E44.97934
G1 X121.063 Y85.87 E45.05938
G1 X123.039 Y84.505 E45.13926
G1 X124.142 Y82.406 E45.21813
G1 X124.158 Y80.01 E45.29782
G1 X123.058 Y77.88 E45.37755
G1 X121.068 Y76.482 E45.45844
G1 X118.677 Y76.194 E45.53854
G0 F3600 X109.961 Y81.043
G1 F1800 X107.612 Y81.043 E45.61667
G1 X105.501 Y82.06 E45.69461
G1 X104.074 Y83.848 E45.77069
G1 X103.53 Y86.117 E45.8483
G1 X104.021 Y88.403 E45.92607
G1 X105.461 Y90.247 E46.00388
G1 X107.606 Y91.309 E46.08349
G1 X109.955 Y91.309 E46.16162
G1 X112.067 Y90.292 E46.23958
G1 X113.492 Y88.504 E46.31563
G1 X114.036 Y86.235 E46.39324
G1 X113.545 Y83.95 E46.47097
G1 X112.106 Y82.105 E46.54879
G1 X109.961 Y81.043 E46.6284
G0 F3600 X111.749 Y82.544
G0 X113.032 Y84.189
G0 X113.47 Y86.228
G0 X109.611 Y102.328
G1 F1800 X107.293 Y103.666 E46.71742
G1 X106.395 Y106.135 E46.8048
G1 X107.271 Y108.641 E46.8931
G1 X109.599 Y110.022 E46.98313
G1 X112.234 Y109.556 E47.07213
G1 X113.922 Y107.546 E47.15943
G1 X113.956 Y104.89 E47.24777
G1 X112.27 Y102.831 E47.33629
G1 X109.611 Y102.328 E47.42629
G0 F3600 X115.355 Y93.248
G0 X136.478 Y68.676
G1 F1800 X134.675 Y71.156 E47.52827
G1 X136.449 Y73.653 E47.63015
G1 X139.406 Y72.727 E47.73321
G1 X139.406 Y69.658 E47.83528
G1 X136.478 Y68.676 E47.938
G0 F3600 X134.839 Y61.146
G0 X135.361 Y59.084
G0 X141.612 Y49.971
G1 F1800 X141.487 Y49.846 E47.94388
G0 F3600 X140.921 Y49.846
G1 F1800 X141.612 Y50.536 E47.97636
G0 F3600 X141.612 Y51.102
G1 F1800 X140.355 Y49.846 E48.03546
G0 F3600 X139.79 Y49.846
G1 F1800 X141.612 Y51.668 E48.12116
G0 F3600 X141.612 Y52.233
G1 F1800 X139.224 Y49.846 E48.23346
G0 F3600 X138.658 Y49.846
G1 F1800 X141.612 Y52.799 E48.37239
G0 F3600 X141.612 Y53.365
G1 F1800 X138.093 Y49.846 E48.53791
G0 F3600 X137.527 Y49.846
G1 F1800 X141.612 Y53.931 E48.73006
G0 F3600 X141.612 Y54.496
G1 F1800 X136.961 Y49.846 E48.9488
G0 F3600 X136.395 Y49.846
G1 F1800 X141.612 Y55.062 E49.19417
G0 F3600 X141.612 Y55.628
G1 F1800 X135.83 Y49.846 E49.46614
G0 F3600 X135.264 Y49.846
G1 F1800 X141.612 Y56.193 E49.7647
G0 F3600 X141.224 Y56.371
G1 F1800 X134.698 Y49.846 E50.07164
G0 F3600 X134.133 Y49.846
G1 F1800 X140.521 Y56.234 E50.37212
G0 F3600 X139.878 Y56.157
G1 F1800 X133.567 Y49.846 E50.66897
G0 F3600 X133.001 Y49.846
G1 F1800 X139.235 Y56.079 E50.96217
G0 F3600 X138.614 Y56.024
G1 F1800 X132.436 Y49.846 E51.25276
G0 F3600 X131.87 Y49.846
G1 F1800 X138.204 Y56.18 E51.5507
G0 F3600 X137.793 Y56.335
G1 F1800 X131.304 Y49.846 E51.85592
G0 F3600 X130.739 Y49.846
G1 F1800 X137.383 Y56.49 E52.16843
G0 F3600 X136.972 Y56.645
G1 F1800 X130.173 Y49.846 E52.48824
G0 F3600 X129.607 Y49.846
G1 F1800 X136.562 Y56.801 E52.81538
G0 F3600 X136.214 Y57.018
G1 F1800 X129.042 Y49.846 E53.15273
G0 F3600 X128.476 Y49.846
G1 F1800 X135.948 Y57.318 E53.50419
G0 F3600 X135.682 Y57.617
G1 F1800 X127.91 Y49.846 E53.86973
G0 F3600 X127.344 Y49.846
G1 F1800 X135.417 Y57.918 E54.24944
G0 F3600 X135.151 Y58.218
G1 F1800 X126.779 Y49.846 E54.64323
G0 F3600 X126.213 Y49.846
G1 F1800 X134.885 Y58.518 E55.05114
G0 F3600 X134.662 Y58.86
G1 F1800 X125.647 Y49.846 E55.47515
G0 F3600 X125.082 Y49.846
G1 F1800 X134.548 Y59.312 E55.9204
G0 F3600 X134.433 Y59.763
G1 F1800 X124.516 Y49.846 E56.38687
G0 F3600 X123.95 Y49.846
G1 F1800 X134.319 Y60.214 E56.87457
G0 F3600 X134.205 Y60.666
G1 F1800 X123.385 Y49.846 E57.38351
G0 F3600 X122.819 Y49.846
