;FLAVOR:Marlin
;TIME:17657
;Filament used: 13.2013m
;Layer height: 0.15
;MINX:60.65
;MINY:8.15
;MINZ:0.2
;MAXX:189.35
;MAXY:201.85
;MAXZ:2.9
;Generated with Cura_SteamEngine 4.4.0
M82 ;absolute extrusion mode
G21 ; set units to millimeters
G90 ; use absolute positioning
M82 ; absolute extrusion mode
M104 S210 ; set extruder temp
M140 S60 ; set bed temp
M190 S60 ; wait for bed temp
M109 S210 ; wait for extruder temp
G28 W ; home all without mesh bed level
G80 ; mesh bed leveling
G92 E0.0 ; reset extruder distance position
G1 Y-3.0 F1000.0 ; go outside print area
G1 X60.0 E9.0 F1000.0 ; intro line
G1 X100.0 E21.5 F1000.0 ; intro line
G92 E0.0 ; reset extruder distance position
G92 E0
G92 E0
G1 F2100 E-0.8
;LAYER_COUNT:19
;LAYER:0
M107
G0 F3600 X61.211 Y18.061 Z0.2
;TYPE:SKIRT
G1 F2100 E0
G1 F1800 X61.545 Y17.099 E0.03387
G1 X61.731 Y16.63 E0.05065
G1 X62.126 Y15.742 E0.08298
G1 X62.593 Y14.89 E0.11529
G1 X63.169 Y14.023 E0.14991
G1 X63.461 Y13.623 E0.16638
G1 X64.066 Y12.862 E0.19872
G1 X64.731 Y12.154 E0.23103
G1 X65.475 Y11.484 E0.26433
G1 X65.861 Y11.165 E0.28098
G1 X66.635 Y10.578 E0.31329
G1 X67.454 Y10.056 E0.34559
G1 X68.367 Y9.578 E0.37987
G1 X68.819 Y9.366 E0.39647
G1 X69.715 Y8.99 E0.42879
G1 X70.639 Y8.689 E0.46112
G1 X71.61 Y8.46 E0.4943
G1 X72.106 Y8.365 E0.51109
G1 X73.067 Y8.221 E0.54341
G1 X74.326 Y8.154 E0.58535
G1 X170.494 Y8.15 E3.78391
G1 X175.549 Y8.15 E3.95204
G1 X176.519 Y8.19 E3.98433
G1 X177.033 Y8.244 E4.00152
G1 X177.53 Y8.307 E4.01818
G1 X178.488 Y8.468 E4.05049
G1 X179.429 Y8.708 E4.08279
G1 X180.356 Y9.028 E4.11541
G1 X180.825 Y9.212 E4.13216
G1 X181.714 Y9.604 E4.16448
G1 X182.567 Y10.067 E4.19676
G1 X183.462 Y10.659 E4.23245
G1 X183.867 Y10.954 E4.24912
G1 X184.628 Y11.558 E4.28143
G1 X185.337 Y12.222 E4.31374
G1 X186.016 Y12.975 E4.34746
G1 X186.335 Y13.361 E4.36412
G1 X186.922 Y14.135 E4.39643
G1 X187.444 Y14.954 E4.42873
G1 X187.922 Y15.867 E4.463
G1 X188.134 Y16.319 E4.47961
G1 X188.51 Y17.215 E4.51193
G1 X188.811 Y18.139 E4.54425
G1 X189.04 Y19.11 E4.57743
G1 X189.135 Y19.606 E4.59423
G1 X189.279 Y20.567 E4.62655
G1 X189.346 Y21.82 E4.66828
G1 X189.35 Y30.249 E4.94863
G1 X189.35 Y188.049 E10.19708
G1 X189.31 Y189.02 E10.22941
G1 X189.259 Y189.513 E10.24589
G1 X189.197 Y190.009 E10.26252
G1 X189.037 Y190.967 E10.29482
G1 X188.798 Y191.908 E10.32711
G1 X188.468 Y192.867 E10.36084
G1 X188.283 Y193.337 E10.37764
G1 X187.89 Y194.225 E10.40994
G1 X187.426 Y195.079 E10.44227
G1 X186.841 Y195.962 E10.4775
G1 X186.546 Y196.367 E10.49416
G1 X185.942 Y197.128 E10.52648
G1 X185.278 Y197.837 E10.55878
G1 X184.525 Y198.516 E10.59251
G1 X184.139 Y198.835 E10.60916
G1 X183.365 Y199.422 E10.64147
G1 X182.546 Y199.944 E10.67377
G1 X181.633 Y200.422 E10.70805
G1 X181.181 Y200.634 E10.72466
G1 X180.285 Y201.01 E10.75697
G1 X179.361 Y201.311 E10.7893
G1 X178.39 Y201.54 E10.82248
G1 X177.894 Y201.635 E10.83928
G1 X176.933 Y201.779 E10.8716
G1 X175.674 Y201.846 E10.91353
G1 X79.506 Y201.85 E14.11209
G1 X74.451 Y201.85 E14.28022
G1 X73.481 Y201.81 E14.31251
G1 X72.967 Y201.756 E14.3297
G1 X72.47 Y201.693 E14.34636
G1 X71.512 Y201.532 E14.37867
G1 X70.571 Y201.292 E14.41097
G1 X69.644 Y200.972 E14.44359
G1 X69.175 Y200.788 E14.46035
G1 X68.286 Y200.396 E14.49266
G1 X67.433 Y199.933 E14.52494
G1 X66.538 Y199.341 E14.56063
G1 X66.133 Y199.046 E14.5773
G1 X65.372 Y198.442 E14.60961
G1 X64.663 Y197.778 E14.64192
G1 X63.984 Y197.025 E14.67564
G1 X63.665 Y196.639 E14.6923
G1 X63.078 Y195.865 E14.72461
G1 X62.556 Y195.046 E14.75691
G1 X62.078 Y194.133 E14.79119
G1 X61.866 Y193.681 E14.80779
G1 X61.49 Y192.785 E14.84011
G1 X61.189 Y191.861 E14.87243
G1 X60.96 Y190.89 E14.90561
G1 X60.865 Y190.394 E14.92241
G1 X60.721 Y189.433 E14.95473
G1 X60.654 Y188.18 E14.99646
G1 X60.65 Y179.751 E15.27681
G1 X60.65 Y21.952 E20.52523
G1 X60.69 Y20.981 E20.55755
G1 X60.744 Y20.463 E20.57488
G1 X60.808 Y19.96 E20.59174
G1 X60.971 Y19.002 E20.62406
G1 X61.211 Y18.061 E20.65636
G0 F3600 X61.604 Y18.144
G1 F1800 X61.917 Y17.246 E20.68799
G1 X62.103 Y16.777 E20.70477
G1 X62.492 Y15.905 E20.73653
G1 X62.952 Y15.069 E20.76827
G1 X63.492 Y14.258 E20.80067
G1 X63.784 Y13.858 E20.81715
G1 X64.379 Y13.112 E20.84888
G1 X65.034 Y12.417 E20.88065
G1 X65.73 Y11.792 E20.91176
G1 X66.116 Y11.473 E20.92841
G1 X66.877 Y10.897 E20.96016
G1 X67.683 Y10.385 E20.99192
G1 X68.537 Y9.94 E21.02395
G1 X68.989 Y9.728 E21.04055
G1 X69.87 Y9.359 E21.07232
G1 X70.778 Y9.065 E21.10406
G1 X71.686 Y8.853 E21.13508
G1 X72.182 Y8.758 E21.15187
G1 X73.126 Y8.617 E21.18362
G1 X74.326 Y8.554 E21.22359
G1 X170.494 Y8.55 E24.42215
G1 X175.549 Y8.55 E24.59028
G1 X176.502 Y8.59 E24.622
G1 X176.983 Y8.64 E24.63809
G1 X177.48 Y8.703 E24.65475
G1 X178.421 Y8.863 E24.6865
G1 X179.346 Y9.101 E24.71826
G1 X180.21 Y9.401 E24.74868
G1 X180.679 Y9.585 E24.76544
G1 X181.552 Y9.97 E24.79717
G1 X182.39 Y10.427 E24.82892
G1 X183.227 Y10.982 E24.86232
G1 X183.632 Y11.277 E24.87899
G1 X184.379 Y11.871 E24.91073
G1 X185.075 Y12.526 E24.94252
G1 X185.708 Y13.23 E24.97401
G1 X186.027 Y13.616 E24.99066
G1 X186.603 Y14.377 E25.02241
G1 X187.115 Y15.183 E25.05417
G1 X187.56 Y16.037 E25.0862
G1 X187.772 Y16.489 E25.1028
G1 X188.141 Y17.37 E25.13457
G1 X188.435 Y18.278 E25.16631
G1 X188.647 Y19.186 E25.19733
G1 X188.742 Y19.682 E25.21412
G1 X188.883 Y20.626 E25.24587
G1 X188.946 Y21.821 E25.28567
G1 X188.95 Y30.25 E25.56602
G1 X188.95 Y188.049 E30.81443
G1 X188.862 Y189.463 E30.86156
G1 X188.8 Y189.959 E30.87818
G1 X188.642 Y190.901 E30.90995
G1 X188.406 Y191.826 E30.9417
G1 X188.096 Y192.72 E30.97317
G1 X187.911 Y193.19 E30.98997
G1 X187.524 Y194.063 E31.02173
G1 X187.066 Y194.901 E31.0535
G1 X186.518 Y195.727 E31.08647
G1 X186.223 Y196.132 E31.10313
G1 X185.629 Y196.879 E31.13487
G1 X184.974 Y197.575 E31.16666
G1 X184.27 Y198.208 E31.19815
G1 X183.884 Y198.527 E31.21481
G1 X183.123 Y199.103 E31.24655
G1 X182.317 Y199.615 E31.27831
G1 X181.463 Y200.06 E31.31034
G1 X181.011 Y200.272 E31.32694
G1 X180.13 Y200.641 E31.35871
G1 X179.222 Y200.935 E31.39045
G1 X178.314 Y201.147 E31.42147
G1 X177.818 Y201.242 E31.43826
G1 X176.874 Y201.383 E31.47001
G1 X175.674 Y201.446 E31.50998
G1 X79.506 Y201.45 E34.70854
G1 X74.451 Y201.45 E34.87667
G1 X73.498 Y201.41 E34.90839
G1 X73.017 Y201.36 E34.92448
G1 X72.52 Y201.297 E34.94114
G1 X71.579 Y201.137 E34.97289
G1 X70.654 Y200.899 E35.00465
G1 X69.79 Y200.599 E35.03507
G1 X69.321 Y200.415 E35.05183
G1 X68.448 Y200.03 E35.08356
G1 X67.61 Y199.573 E35.11531
G1 X66.773 Y199.018 E35.14871
G1 X66.368 Y198.723 E35.16538
G1 X65.621 Y198.129 E35.19712
G1 X64.925 Y197.474 E35.22891
G1 X64.292 Y196.77 E35.2604
G1 X63.973 Y196.384 E35.27705
G1 X63.397 Y195.623 E35.3088
G1 X62.885 Y194.817 E35.34056
G1 X62.44 Y193.963 E35.37259
G1 X62.228 Y193.511 E35.38919
G1 X61.859 Y192.63 E35.42096
G1 X61.565 Y191.722 E35.4527
G1 X61.353 Y190.814 E35.48372
G1 X61.258 Y190.318 E35.50051
G1 X61.117 Y189.374 E35.53226
G1 X61.054 Y188.179 E35.57206
G1 X61.05 Y179.75 E35.85241
G1 X61.05 Y21.952 E41.10079
G1 X61.09 Y20.998 E41.13255
G1 X61.141 Y20.513 E41.14877
G1 X61.205 Y20.01 E41.16564
G1 X61.365 Y19.069 E41.19738
G1 X61.604 Y18.144 E41.22916
G0 F3600 X61.996 Y18.228
G1 F1800 X62.289 Y17.394 E41.25856
G1 X62.475 Y16.925 E41.27534
G1 X62.857 Y16.069 E41.30652
G1 X63.312 Y15.248 E41.33774
G1 X63.815 Y14.494 E41.36788
G1 X64.107 Y14.094 E41.38436
G1 X64.692 Y13.361 E41.41555
G1 X65.337 Y12.68 E41.44674
G1 X65.985 Y12.101 E41.47565
G1 X66.371 Y11.782 E41.4923
G1 X67.118 Y11.216 E41.52347
G1 X67.912 Y10.715 E41.5547
G1 X68.707 Y10.302 E41.5845
G1 X69.159 Y10.09 E41.6011
G1 X70.024 Y9.728 E41.63229
G1 X70.917 Y9.442 E41.66348
G1 X71.761 Y9.245 E41.6923
G1 X72.257 Y9.15 E41.7091
G1 X73.185 Y9.013 E41.7403
G1 X74.326 Y8.954 E41.7783
G1 X170.494 Y8.95 E44.97686
G1 X175.549 Y8.95 E45.14499
G1 X176.932 Y9.037 E45.19108
G1 X177.429 Y9.1 E45.20774
G1 X178.354 Y9.258 E45.23895
G1 X179.262 Y9.494 E45.27016
G1 X180.063 Y9.773 E45.29837
G1 X180.532 Y9.957 E45.31513
G1 X181.39 Y10.336 E45.34632
G1 X182.212 Y10.787 E45.37751
G1 X182.991 Y11.306 E45.40864
G1 X183.396 Y11.601 E45.42531
G1 X184.13 Y12.185 E45.4565
G1 X184.812 Y12.829 E45.4877
G1 X185.399 Y13.485 E45.51698
G1 X185.718 Y13.871 E45.53364
G1 X186.284 Y14.618 E45.56481
G1 X186.785 Y15.412 E45.59603
G1 X187.198 Y16.207 E45.62583
G1 X187.41 Y16.659 E45.64244
G1 X187.772 Y17.524 E45.67362
G1 X188.058 Y18.417 E45.70481
G1 X188.255 Y19.261 E45.73364
G1 X188.35 Y19.757 E45.75043
G1 X188.487 Y20.685 E45.78163
G1 X188.546 Y21.821 E45.81947
G1 X188.55 Y30.25 E46.09982
G1 X188.55 Y188.049 E51.34823
G1 X188.465 Y189.413 E51.39369
G1 X188.403 Y189.909 E51.41031
G1 X188.247 Y190.834 E51.44151
G1 X188.013 Y191.742 E51.4727
G1 X187.724 Y192.574 E51.502
G1 X187.539 Y193.044 E51.5188
G1 X187.158 Y193.901 E51.54999
G1 X186.706 Y194.723 E51.58119
G1 X186.194 Y195.491 E51.61189
G1 X185.899 Y195.896 E51.62855
G1 X185.315 Y196.63 E51.65975
G1 X184.671 Y197.312 E51.69095
G1 X184.015 Y197.899 E51.72023
G1 X183.629 Y198.218 E51.73688
G1 X182.882 Y198.784 E51.76806
G1 X182.088 Y199.285 E51.79928
G1 X181.293 Y199.698 E51.82908
G1 X180.841 Y199.91 E51.84568
G1 X179.976 Y200.272 E51.87687
G1 X179.083 Y200.558 E51.90806
G1 X178.239 Y200.755 E51.93689
G1 X177.743 Y200.85 E51.95368
G1 X176.815 Y200.987 E51.98488
G1 X175.674 Y201.046 E52.02288
G1 X79.506 Y201.05 E55.22144
G1 X74.451 Y201.05 E55.38957
G1 X73.068 Y200.963 E55.43566
G1 X72.571 Y200.9 E55.45233
G1 X71.646 Y200.742 E55.48354
G1 X70.738 Y200.506 E55.51474
G1 X69.937 Y200.227 E55.54295
G1 X69.468 Y200.043 E55.55971
G1 X68.61 Y199.664 E55.59091
G1 X67.788 Y199.213 E55.62209
G1 X67.009 Y198.694 E55.65322
G1 X66.604 Y198.399 E55.66989
G1 X65.87 Y197.815 E55.70109
G1 X65.188 Y197.171 E55.73228
G1 X64.601 Y196.515 E55.76156
G1 X64.282 Y196.129 E55.77822
G1 X63.716 Y195.382 E55.80939
G1 X63.215 Y194.588 E55.84062
G1 X62.802 Y193.793 E55.87041
G1 X62.59 Y193.341 E55.88702
G1 X62.228 Y192.476 E55.91821
G1 X61.942 Y191.583 E55.94939
G1 X61.745 Y190.739 E55.97822
G1 X61.65 Y190.243 E55.99502
G1 X61.513 Y189.315 E56.02622
G1 X61.454 Y188.179 E56.06405
G1 X61.45 Y179.75 E56.3444
G1 X61.45 Y21.952 E61.59278
G1 X61.538 Y20.564 E61.63904
G1 X61.602 Y20.061 E61.65591
G1 X61.76 Y19.136 E61.68712
G1 X61.996 Y18.228 E61.71832
G0 F3600 X62.388 Y18.313
G1 F1800 X62.661 Y17.541 E61.74556
G1 X62.847 Y17.072 E61.76234
G1 X63.223 Y16.232 E61.79295
G1 X63.671 Y15.428 E61.82356
G1 X64.139 Y14.73 E61.85151
G1 X64.431 Y14.33 E61.86798
G1 X65.005 Y13.611 E61.89858
G1 X65.64 Y12.944 E61.92921
G1 X66.239 Y12.409 E61.95592
G1 X66.625 Y12.09 E61.97258
G1 X67.36 Y11.535 E62.00321
G1 X68.14 Y11.046 E62.03383
G1 X68.877 Y10.664 E62.06144
G1 X69.329 Y10.452 E62.07805
G1 X70.179 Y10.098 E62.10867
G1 X71.056 Y9.818 E62.13929
G1 X71.836 Y9.638 E62.16592
G1 X72.332 Y9.543 E62.18271
G1 X73.243 Y9.409 E62.21334
G1 X74.326 Y9.354 E62.24941
G1 X170.494 Y9.35 E65.44797
G1 X175.549 Y9.35 E65.6161
G1 X176.882 Y9.434 E65.66052
G1 X177.379 Y9.497 E65.67718
G1 X178.286 Y9.652 E65.70779
G1 X179.177 Y9.886 E65.73843
G1 X179.917 Y10.145 E65.7645
G1 X180.386 Y10.329 E65.78126
G1 X181.228 Y10.702 E65.81189
G1 X182.034 Y11.147 E65.84251
G1 X182.756 Y11.629 E65.87138
G1 X183.161 Y11.924 E65.88805
G1 X183.881 Y12.498 E65.91868
G1 X184.548 Y13.132 E65.94928
G1 X185.091 Y13.739 E65.97637
G1 X185.41 Y14.125 E65.99303
G1 X185.965 Y14.86 E66.02366
G1 X186.454 Y15.64 E66.05428
G1 X186.836 Y16.377 E66.08189
G1 X187.048 Y16.829 E66.09849
G1 X187.402 Y17.679 E66.12912
G1 X187.682 Y18.556 E66.15974
G1 X187.862 Y19.336 E66.18636
G1 X187.957 Y19.832 E66.20316
G1 X188.091 Y20.743 E66.23379
G1 X188.146 Y21.821 E66.26969
G1 X188.15 Y30.25 E66.55004
G1 X188.15 Y188.049 E71.79845
G1 X188.068 Y189.364 E71.84227
G1 X188.006 Y189.86 E71.8589
G1 X187.852 Y190.767 E71.8895
G1 X187.62 Y191.658 E71.92012
G1 X187.351 Y192.427 E71.94722
G1 X187.166 Y192.897 E71.96402
G1 X186.792 Y193.739 E71.99466
G1 X186.347 Y194.544 E72.02525
G1 X185.871 Y195.256 E72.05374
G1 X185.576 Y195.661 E72.07041
G1 X185.002 Y196.381 E72.10103
G1 X184.368 Y197.048 E72.13164
G1 X183.761 Y197.591 E72.15873
G1 X183.375 Y197.91 E72.17538
G1 X182.64 Y198.465 E72.20601
G1 X181.86 Y198.954 E72.23663
G1 X181.123 Y199.336 E72.26424
G1 X180.671 Y199.548 E72.28085
G1 X179.821 Y199.902 E72.31147
G1 X178.944 Y200.182 E72.34209
G1 X178.164 Y200.362 E72.36872
G1 X177.668 Y200.457 E72.38552
G1 X176.757 Y200.591 E72.41614
G1 X175.674 Y200.646 E72.45221
G1 X79.506 Y200.65 E75.65077
G1 X74.451 Y200.65 E75.8189
G1 X73.118 Y200.566 E75.86332
G1 X72.621 Y200.503 E75.87999
G1 X71.714 Y200.348 E75.91059
G1 X70.823 Y200.114 E75.94123
G1 X70.083 Y199.855 E75.96731
G1 X69.614 Y199.671 E75.98406
G1 X68.772 Y199.298 E76.01469
G1 X67.966 Y198.853 E76.04531
G1 X67.244 Y198.371 E76.07419
G1 X66.839 Y198.076 E76.09085
G1 X66.119 Y197.502 E76.12148
G1 X65.452 Y196.868 E76.15209
G1 X64.909 Y196.261 E76.17917
G1 X64.59 Y195.875 E76.19583
G1 X64.035 Y195.14 E76.22646
G1 X63.546 Y194.36 E76.25708
G1 X63.164 Y193.623 E76.28469
G1 X62.952 Y193.171 E76.3013
G1 X62.598 Y192.321 E76.33192
G1 X62.318 Y191.444 E76.36254
G1 X62.138 Y190.664 E76.38917
G1 X62.043 Y190.168 E76.40596
G1 X61.909 Y189.257 E76.43659
G1 X61.854 Y188.179 E76.47249
G1 X61.85 Y179.75 E76.75284
G1 X61.85 Y21.952 E82.00122
G1 X61.935 Y20.614 E82.04581
G1 X61.999 Y20.111 E82.06268
G1 X62.155 Y19.204 E82.09329
G1 X62.388 Y18.313 E82.12392
G0 F3600 X62.781 Y18.399
G1 F1800 X63.032 Y17.689 E82.14897
G1 X63.218 Y17.22 E82.16575
G1 X63.588 Y16.396 E82.19579
G1 X64.029 Y15.608 E82.22582
G1 X64.462 Y14.966 E82.25158
G1 X64.754 Y14.566 E82.26805
G1 X65.318 Y13.861 E82.29808
G1 X65.942 Y13.208 E82.32812
G1 X66.494 Y12.717 E82.35269
G1 X66.88 Y12.398 E82.36935
G1 X67.601 Y11.855 E82.39937
G1 X68.367 Y11.377 E82.4294
G1 X69.047 Y11.026 E82.45485
G1 X69.499 Y10.814 E82.47146
G1 X70.332 Y10.467 E82.50147
G1 X71.194 Y10.196 E82.53152
G1 X71.911 Y10.031 E82.556
G1 X72.407 Y9.936 E82.57279
G1 X73.301 Y9.806 E82.60284
G1 X74.326 Y9.754 E82.63697
G1 X170.494 Y9.75 E85.83554
G1 X175.549 Y9.75 E86.00367
G1 X176.832 Y9.831 E86.04642
G1 X177.329 Y9.894 E86.06309
G1 X178.219 Y10.047 E86.09312
G1 X179.092 Y10.278 E86.12316
G1 X179.771 Y10.518 E86.14711
G1 X180.24 Y10.702 E86.16387
G1 X181.066 Y11.068 E86.19392
G1 X181.855 Y11.507 E86.22395
G1 X182.52 Y11.952 E86.25056
G1 X182.925 Y12.247 E86.26722
G1 X183.631 Y12.811 E86.29728
G1 X184.284 Y13.435 E86.32732
G1 X184.783 Y13.994 E86.35224
G1 X185.102 Y14.38 E86.3689
G1 X185.645 Y15.101 E86.39892
G1 X186.123 Y15.867 E86.42895
G1 X186.474 Y16.547 E86.4544
G1 X186.686 Y16.999 E86.47101
G1 X187.033 Y17.832 E86.50102
G1 X187.304 Y18.694 E86.53107
G1 X187.469 Y19.411 E86.55554
G1 X187.564 Y19.907 E86.57234
G1 X187.694 Y20.801 E86.60239
G1 X187.746 Y21.821 E86.63636
G1 X187.75 Y30.25 E86.91671
G1 X187.75 Y188.049 E92.16512
G1 X187.671 Y189.314 E92.20728
G1 X187.609 Y189.81 E92.2239
G1 X187.458 Y190.7 E92.25393
G1 X187.228 Y191.574 E92.28399
G1 X186.979 Y192.281 E92.30892
G1 X186.794 Y192.751 E92.32572
G1 X186.427 Y193.576 E92.35575
G1 X185.987 Y194.365 E92.3858
G1 X185.548 Y195.02 E92.41202
G1 X185.253 Y195.425 E92.42869
G1 X184.689 Y196.131 E92.45874
G1 X184.065 Y196.784 E92.48878
G1 X183.506 Y197.283 E92.51371
G1 X183.12 Y197.602 E92.53036
G1 X182.399 Y198.145 E92.56038
G1 X181.633 Y198.623 E92.59041
G1 X180.953 Y198.974 E92.61587
G1 X180.501 Y199.186 E92.63247
G1 X179.668 Y199.533 E92.66248
G1 X178.806 Y199.804 E92.69254
G1 X178.089 Y199.969 E92.71701
G1 X177.593 Y200.064 E92.73381
G1 X176.699 Y200.194 E92.76385
G1 X175.674 Y200.246 E92.79799
G1 X79.506 Y200.25 E95.99655
G1 X74.451 Y200.25 E96.16468
G1 X73.168 Y200.169 E96.20744
G1 X72.671 Y200.106 E96.2241
G1 X71.781 Y199.953 E96.25414
G1 X70.908 Y199.722 E96.28417
G1 X70.229 Y199.482 E96.30812
G1 X69.76 Y199.298 E96.32488
G1 X68.934 Y198.932 E96.35493
G1 X68.145 Y198.493 E96.38496
G1 X67.48 Y198.048 E96.41157
G1 X67.075 Y197.753 E96.42824
G1 X66.369 Y197.189 E96.45829
G1 X65.716 Y196.565 E96.48833
G1 X65.217 Y196.006 E96.51326
G1 X64.898 Y195.62 E96.52991
G1 X64.355 Y194.899 E96.55993
