;FLAVOR:Marlin
;TIME:4530
;Filament used: 5.61354m
;Layer height: 0.3
;MINX:65.905
;MINY:20.523
;MINZ:0.2
;MAXX:182.505
;MAXY:152.623
;MAXZ:6.8
;Generated with Cura_SteamEngine 4.4.0
M82 ;absolute extrusion mode
G21 ; set units to millimeters
G90 ; use absolute positioning
M82 ; absolute extrusion mode
M104 S215 ; set extruder temp
M140 S65 ; set bed temp
M190 S65 ; wait for bed temp
M109 S215 ; wait for extruder temp
G28 W ; home all without mesh bed level
G80 ; mesh bed leveling
G92 E0.0 ; reset extruder distance position
G1 Y-3.0 F1000.0 ; go outside print area
G1 X60.0 E9.0 F1000.0 ; intro line
G1 X100.0 E21.5 F1000.0 ; intro line
G92 E0.0 ; reset extruder distance position
G92 E0
G92 E0
G1 F2100 E-0.8
;LAYER_COUNT:23
;LAYER:0
M107
G0 F3600 X66.891 Y27.601 Z0.2
;TYPE:SKIRT
G1 F2100 E0
G1 F1800 X67.316 Y26.727 E0.03232
G1 X67.812 Y25.892 E0.06463
G1 X68.374 Y25.1 E0.09693
G1 X69 Y24.357 E0.12924
G1 X69.685 Y23.668 E0.16156
G1 X70.424 Y23.037 E0.19388
G1 X71.212 Y22.47 E0.22616
G1 X72.044 Y21.969 E0.25847
G1 X72.915 Y21.539 E0.29077
G1 X73.819 Y21.181 E0.32311
G1 X74.748 Y20.899 E0.3554
G1 X75.698 Y20.695 E0.38772
G1 X76.661 Y20.569 E0.42002
G1 X77.705 Y20.523 E0.45478
G1 X170.705 Y20.523 E3.54797
G1 X171.676 Y20.563 E3.5803
G1 X172.64 Y20.683 E3.61261
G1 X173.59 Y20.881 E3.64488
G1 X174.522 Y21.157 E3.67721
G1 X175.427 Y21.509 E3.70951
G1 X176.301 Y21.934 E3.74183
G1 X177.136 Y22.43 E3.77414
G1 X177.928 Y22.992 E3.80644
G1 X178.671 Y23.618 E3.83875
G1 X179.36 Y24.303 E3.87106
G1 X179.991 Y25.042 E3.90338
G1 X180.558 Y25.83 E3.93567
G1 X181.059 Y26.662 E3.96798
G1 X181.489 Y27.533 E4.00028
G1 X181.847 Y28.437 E4.03262
G1 X182.129 Y29.366 E4.06491
G1 X182.333 Y30.316 E4.09723
G1 X182.459 Y31.279 E4.12953
G1 X182.505 Y32.323 E4.16429
G1 X182.505 Y140.823 E7.77301
G1 X182.465 Y141.794 E7.80534
G1 X182.345 Y142.758 E7.83765
G1 X182.147 Y143.708 E7.86992
G1 X181.871 Y144.64 E7.90225
G1 X181.519 Y145.545 E7.93455
G1 X181.094 Y146.419 E7.96687
G1 X180.598 Y147.254 E7.99918
G1 X180.036 Y148.046 E8.03148
G1 X179.41 Y148.789 E8.06379
G1 X178.725 Y149.478 E8.09611
G1 X177.986 Y150.109 E8.12843
G1 X177.198 Y150.676 E8.16071
G1 X176.366 Y151.177 E8.19302
G1 X175.495 Y151.607 E8.22532
G1 X174.591 Y151.965 E8.25766
G1 X173.662 Y152.247 E8.28995
G1 X172.712 Y152.451 E8.32227
G1 X171.749 Y152.577 E8.35457
G1 X170.705 Y152.623 E8.38933
G1 X77.705 Y152.623 E11.48252
G1 X76.734 Y152.583 E11.51485
G1 X75.77 Y152.463 E11.54716
G1 X74.82 Y152.265 E11.57943
G1 X73.888 Y151.989 E11.61176
G1 X72.983 Y151.637 E11.64406
G1 X72.109 Y151.212 E11.67638
G1 X71.274 Y150.716 E11.70869
G1 X70.482 Y150.154 E11.74099
G1 X69.739 Y149.528 E11.7733
G1 X69.05 Y148.843 E11.80561
G1 X68.419 Y148.104 E11.83793
G1 X67.852 Y147.316 E11.87022
G1 X67.351 Y146.484 E11.90253
G1 X66.921 Y145.613 E11.93483
G1 X66.563 Y144.709 E11.96717
G1 X66.281 Y143.78 E11.99946
G1 X66.077 Y142.83 E12.03178
G1 X65.951 Y141.867 E12.06408
G1 X65.905 Y140.823 E12.09884
G1 X65.905 Y32.323 E15.70757
G1 X65.945 Y31.352 E15.73989
G1 X66.065 Y30.388 E15.7722
G1 X66.263 Y29.438 E15.80447
G1 X66.539 Y28.506 E15.8368
G1 X66.891 Y27.601 E15.8691
G0 F3600 X67.291 Y27.686
G1 F1800 X67.715 Y26.831 E15.90084
G1 X68.21 Y26.014 E15.93261
G1 X68.771 Y25.242 E15.96436
G1 X69.395 Y24.519 E15.99612
G1 X70.077 Y23.851 E16.02787
G1 X70.813 Y23.242 E16.05964
G1 X71.597 Y22.698 E16.09138
G1 X72.424 Y22.22 E16.12315
G1 X73.287 Y21.814 E16.15487
G1 X74.182 Y21.481 E16.18664
G1 X75.102 Y21.224 E16.21841
G1 X76.04 Y21.045 E16.25017
G1 X76.989 Y20.945 E16.28191
G1 X77.705 Y20.923 E16.30573
G1 X170.705 Y20.923 E19.39892
G1 X171.659 Y20.963 E19.43068
G1 X172.606 Y21.083 E19.46243
G1 X173.54 Y21.281 E19.49419
G1 X174.454 Y21.557 E19.52594
G1 X175.342 Y21.909 E19.55771
G1 X176.197 Y22.333 E19.58946
G1 X177.014 Y22.828 E19.62123
G1 X177.786 Y23.389 E19.65297
G1 X178.509 Y24.013 E19.68473
G1 X179.177 Y24.695 E19.71648
G1 X179.786 Y25.431 E19.74826
G1 X180.33 Y26.215 E19.78
G1 X180.808 Y27.042 E19.81177
G1 X181.214 Y27.905 E19.84349
G1 X181.547 Y28.8 E19.87525
G1 X181.804 Y29.72 E19.90702
G1 X181.983 Y30.658 E19.93878
G1 X182.083 Y31.607 E19.97052
G1 X182.105 Y32.323 E19.99434
G1 X182.105 Y140.823 E23.60307
G1 X182.065 Y141.777 E23.63483
G1 X181.945 Y142.724 E23.66658
G1 X181.747 Y143.658 E23.69833
G1 X181.471 Y144.572 E23.73009
G1 X181.119 Y145.46 E23.76186
G1 X180.695 Y146.315 E23.7936
G1 X180.2 Y147.132 E23.82537
G1 X179.639 Y147.904 E23.85711
G1 X179.015 Y148.627 E23.88888
G1 X178.333 Y149.295 E23.92063
G1 X177.597 Y149.904 E23.9524
G1 X176.813 Y150.448 E23.98414
G1 X175.986 Y150.926 E24.01591
G1 X175.123 Y151.332 E24.04763
G1 X174.228 Y151.665 E24.07939
G1 X173.308 Y151.922 E24.11116
G1 X172.37 Y152.101 E24.14293
G1 X171.421 Y152.201 E24.17466
G1 X170.705 Y152.223 E24.19849
G1 X77.705 Y152.223 E27.29168
G1 X76.751 Y152.183 E27.32344
G1 X75.804 Y152.063 E27.35519
G1 X74.87 Y151.865 E27.38694
G1 X73.956 Y151.589 E27.4187
G1 X73.068 Y151.237 E27.45047
G1 X72.213 Y150.813 E27.48221
G1 X71.396 Y150.318 E27.51399
G1 X70.624 Y149.757 E27.54573
G1 X69.901 Y149.133 E27.57749
G1 X69.233 Y148.451 E27.60924
G1 X68.624 Y147.715 E27.64102
G1 X68.08 Y146.931 E27.67275
G1 X67.602 Y146.104 E27.70452
G1 X67.196 Y145.241 E27.73624
G1 X66.863 Y144.346 E27.76801
G1 X66.606 Y143.426 E27.79978
G1 X66.427 Y142.488 E27.83154
G1 X66.327 Y141.539 E27.86328
G1 X66.305 Y140.823 E27.8871
G1 X66.305 Y32.323 E31.49583
G1 X66.345 Y31.369 E31.52759
G1 X66.465 Y30.422 E31.55933
G1 X66.663 Y29.488 E31.59109
G1 X66.939 Y28.574 E31.62285
G1 X67.291 Y27.686 E31.65462
G0 F3600 X67.69 Y27.773
G1 F1800 X68.114 Y26.937 E31.68579
G1 X68.608 Y26.139 E31.71701
G1 X69.168 Y25.387 E31.74819
G1 X69.789 Y24.685 E31.77937
G1 X70.469 Y24.038 E31.81059
G1 X71.201 Y23.452 E31.84177
G1 X71.98 Y22.93 E31.87296
G1 X72.801 Y22.477 E31.90415
G1 X73.658 Y22.095 E31.93536
G1 X74.544 Y21.787 E31.96655
G1 X75.453 Y21.556 E31.99775
G1 X76.378 Y21.403 E32.02893
G1 X77.705 Y21.323 E32.07315
G1 X170.705 Y21.323 E35.16634
G1 X171.642 Y21.363 E35.19753
G1 X172.572 Y21.483 E35.22872
G1 X173.489 Y21.681 E35.25993
G1 X174.385 Y21.957 E35.29111
G1 X175.255 Y22.308 E35.32231
G1 X176.091 Y22.732 E35.35349
G1 X176.889 Y23.226 E35.3847
G1 X177.641 Y23.786 E35.41589
G1 X178.343 Y24.407 E35.44706
G1 X178.99 Y25.087 E35.47828
G1 X179.576 Y25.819 E35.50947
G1 X180.098 Y26.598 E35.54066
G1 X180.551 Y27.419 E35.57184
G1 X180.933 Y28.276 E35.60305
G1 X181.241 Y29.162 E35.63425
G1 X181.472 Y30.071 E35.66544
G1 X181.625 Y30.996 E35.69663
G1 X181.705 Y32.323 E35.74084
G1 X181.705 Y140.823 E39.34957
G1 X181.665 Y141.76 E39.38076
G1 X181.545 Y142.69 E39.41195
G1 X181.347 Y143.607 E39.44315
G1 X181.071 Y144.503 E39.47434
G1 X180.72 Y145.373 E39.50554
G1 X180.296 Y146.209 E39.53671
G1 X179.802 Y147.007 E39.56793
G1 X179.242 Y147.759 E39.59912
G1 X178.621 Y148.461 E39.63029
G1 X177.941 Y149.108 E39.66151
G1 X177.209 Y149.694 E39.69269
G1 X176.43 Y150.216 E39.72388
G1 X175.609 Y150.669 E39.75507
G1 X174.752 Y151.051 E39.78628
G1 X173.866 Y151.359 E39.81748
G1 X172.957 Y151.59 E39.84867
G1 X172.032 Y151.743 E39.87985
G1 X170.705 Y151.823 E39.92407
G1 X77.705 Y151.823 E43.01726
G1 X76.768 Y151.783 E43.04846
G1 X75.838 Y151.663 E43.07964
G1 X74.921 Y151.465 E43.11085
G1 X74.025 Y151.189 E43.14203
G1 X73.155 Y150.838 E43.17323
G1 X72.319 Y150.414 E43.20441
G1 X71.521 Y149.92 E43.23563
G1 X70.769 Y149.36 E43.26681
G1 X70.067 Y148.739 E43.29798
G1 X69.42 Y148.059 E43.3292
G1 X68.834 Y147.327 E43.36039
G1 X68.312 Y146.548 E43.39158
G1 X67.859 Y145.727 E43.42277
G1 X67.477 Y144.87 E43.45397
G1 X67.169 Y143.984 E43.48517
G1 X66.938 Y143.075 E43.51637
G1 X66.785 Y142.15 E43.54755
G1 X66.705 Y140.823 E43.59177
G1 X66.705 Y32.323 E47.20049
G1 X66.745 Y31.386 E47.23168
G1 X66.865 Y30.456 E47.26287
G1 X67.063 Y29.539 E47.29407
G1 X67.339 Y28.643 E47.32526
G1 X67.69 Y27.773 E47.35646
G0 F3600 X68.09 Y27.862
G1 F1800 X68.513 Y27.044 E47.38709
G1 X69.006 Y26.267 E47.41769
G1 X69.564 Y25.535 E47.44831
G1 X70.184 Y24.854 E47.47894
G1 X70.86 Y24.229 E47.50956
G1 X71.588 Y23.666 E47.54017
G1 X72.363 Y23.168 E47.57081
G1 X73.177 Y22.739 E47.60141
G1 X74.026 Y22.382 E47.63205
G1 X74.902 Y22.1 E47.66265
G1 X75.8 Y21.896 E47.69328
G1 X76.712 Y21.77 E47.7239
G1 X77.705 Y21.723 E47.75697
G1 X170.705 Y21.723 E50.85016
G1 X171.625 Y21.763 E50.88079
G1 X172.538 Y21.883 E50.91142
G1 X173.437 Y22.081 E50.94203
G1 X174.315 Y22.357 E50.97265
G1 X175.166 Y22.708 E51.00326
G1 X175.984 Y23.131 E51.03389
G1 X176.761 Y23.624 E51.0645
G1 X177.493 Y24.182 E51.09511
G1 X178.174 Y24.802 E51.12574
G1 X178.799 Y25.478 E51.15636
G1 X179.362 Y26.206 E51.18697
G1 X179.86 Y26.981 E51.21761
G1 X180.289 Y27.795 E51.24822
G1 X180.646 Y28.644 E51.27885
G1 X180.928 Y29.52 E51.30946
G1 X181.132 Y30.418 E51.34009
G1 X181.258 Y31.33 E51.37071
G1 X181.305 Y32.323 E51.40377
G1 X181.305 Y140.823 E55.0125
G1 X181.265 Y141.743 E55.04312
G1 X181.145 Y142.656 E55.07375
G1 X180.947 Y143.555 E55.10437
G1 X180.671 Y144.433 E55.13498
G1 X180.32 Y145.284 E55.1656
G1 X179.897 Y146.102 E55.19623
G1 X179.404 Y146.879 E55.22683
G1 X178.846 Y147.611 E55.25745
G1 X178.226 Y148.292 E55.28808
G1 X177.55 Y148.917 E55.3187
G1 X176.822 Y149.48 E55.34931
G1 X176.047 Y149.978 E55.37995
G1 X175.233 Y150.407 E55.41055
G1 X174.384 Y150.764 E55.44119
G1 X173.508 Y151.046 E55.47179
G1 X172.61 Y151.25 E55.50242
G1 X171.698 Y151.376 E55.53304
G1 X170.705 Y151.423 E55.56611
G1 X77.705 Y151.423 E58.6593
G1 X76.785 Y151.383 E58.68993
G1 X75.872 Y151.263 E58.72056
G1 X74.973 Y151.065 E58.75117
G1 X74.095 Y150.789 E58.78178
G1 X73.244 Y150.438 E58.8124
G1 X72.426 Y150.015 E58.84303
G1 X71.649 Y149.522 E58.87364
G1 X70.917 Y148.964 E58.90425
G1 X70.236 Y148.344 E58.93488
G1 X69.611 Y147.668 E58.9655
G1 X69.048 Y146.94 E58.99611
G1 X68.55 Y146.165 E59.02675
G1 X68.121 Y145.351 E59.05736
G1 X67.764 Y144.502 E59.08799
G1 X67.482 Y143.626 E59.1186
G1 X67.278 Y142.728 E59.14923
G1 X67.152 Y141.816 E59.17985
G1 X67.105 Y140.823 E59.21291
G1 X67.105 Y32.323 E62.82164
G1 X67.145 Y31.403 E62.85226
G1 X67.265 Y30.49 E62.88289
G1 X67.463 Y29.591 E62.91351
G1 X67.739 Y28.713 E62.94412
G1 X68.09 Y27.862 E62.97474
G0 F3600 X68.489 Y27.952
G1 F1800 X68.912 Y27.154 E63.00478
G1 X69.403 Y26.397 E63.03479
G1 X69.96 Y25.686 E63.06483
G1 X70.578 Y25.026 E63.0949
G1 X71.251 Y24.425 E63.12491
G1 X71.975 Y23.885 E63.15495
G1 X72.744 Y23.411 E63.185
G1 X73.551 Y23.007 E63.21501
G1 X74.392 Y22.676 E63.24507
G1 X75.258 Y22.421 E63.2751
G1 X76.143 Y22.243 E63.30513
G1 X77.041 Y22.145 E63.33517
G1 X77.705 Y22.123 E63.35727
G1 X170.705 Y22.123 E66.45046
G1 X171.607 Y22.163 E66.48049
G1 X172.502 Y22.283 E66.51052
G1 X173.383 Y22.481 E66.54056
G1 X174.243 Y22.756 E66.57059
G1 X175.076 Y23.107 E66.60065
G1 X175.874 Y23.53 E66.63069
G1 X176.631 Y24.021 E66.6607
G1 X177.342 Y24.578 E66.69074
G1 X178.002 Y25.196 E66.72082
G1 X178.603 Y25.869 E66.75083
G1 X179.143 Y26.593 E66.78087
G1 X179.617 Y27.362 E66.81091
G1 X180.021 Y28.169 E66.84093
G1 X180.352 Y29.01 E66.87099
G1 X180.607 Y29.876 E66.90102
G1 X180.785 Y30.761 E66.93104
G1 X180.883 Y31.659 E66.96109
G1 X180.905 Y32.323 E66.98318
G1 X180.905 Y140.823 E70.59191
G1 X180.865 Y141.725 E70.62194
G1 X180.745 Y142.62 E70.65197
G1 X180.547 Y143.501 E70.682
G1 X180.272 Y144.361 E70.71203
G1 X179.921 Y145.194 E70.7421
G1 X179.498 Y145.992 E70.77214
G1 X179.007 Y146.749 E70.80215
G1 X178.45 Y147.46 E70.83219
G1 X177.832 Y148.12 E70.86226
G1 X177.159 Y148.721 E70.89227
G1 X176.435 Y149.261 E70.92231
G1 X175.666 Y149.735 E70.95236
G1 X174.859 Y150.139 E70.98238
G1 X174.018 Y150.47 E71.01244
G1 X173.152 Y150.725 E71.04246
G1 X172.267 Y150.903 E71.07249
G1 X171.369 Y151.001 E71.10253
G1 X170.705 Y151.023 E71.12463
G1 X77.705 Y151.023 E74.21782
G1 X76.803 Y150.983 E74.24785
G1 X75.908 Y150.863 E74.27789
G1 X75.027 Y150.665 E74.30792
G1 X74.167 Y150.39 E74.33795
G1 X73.334 Y150.039 E74.36801
G1 X72.536 Y149.616 E74.39805
G1 X71.779 Y149.125 E74.42806
G1 X71.068 Y148.568 E74.4581
G1 X70.408 Y147.95 E74.48818
G1 X69.807 Y147.277 E74.51819
G1 X69.267 Y146.553 E74.54823
G1 X68.793 Y145.784 E74.57827
G1 X68.389 Y144.977 E74.60829
G1 X68.058 Y144.136 E74.63835
G1 X67.803 Y143.27 E74.66838
G1 X67.625 Y142.385 E74.6984
G1 X67.527 Y141.487 E74.72845
G1 X67.505 Y140.823 E74.75054
G1 X67.505 Y32.323 E78.35927
G1 X67.545 Y31.421 E78.3893
G1 X67.665 Y30.526 E78.41933
G1 X67.863 Y29.645 E78.44937
G1 X68.138 Y28.785 E78.4794
G1 X68.489 Y27.952 E78.50946
G0 F3600 X68.888 Y28.045
G1 F1800 X69.31 Y27.266 E78.53893
G1 X69.801 Y26.53 E78.56835
G1 X70.356 Y25.84 E78.59781
G1 X70.971 Y25.203 E78.62726
G1 X71.641 Y24.625 E78.65669
G1 X72.36 Y24.109 E78.68612
G1 X73.123 Y23.66 E78.71557
G1 X73.924 Y23.282 E78.74503
G1 X74.755 Y22.978 E78.77446
G1 X75.61 Y22.75 E78.80389
G1 X76.483 Y22.6 E78.83335
G1 X77.705 Y22.523 E78.87407
G1 X170.705 Y22.523 E81.96727
G1 X171.589 Y22.563 E81.9967
G1 X172.466 Y22.683 E82.02614
G1 X173.329 Y22.881 E82.05559
G1 X174.17 Y23.156 E82.08502
G1 X174.983 Y23.506 E82.11446
G1 X175.762 Y23.928 E82.14393
G1 X176.498 Y24.419 E82.17335
G1 X177.188 Y24.974 E82.2028
G1 X177.825 Y25.589 E82.23225
G1 X178.403 Y26.259 E82.26168
G1 X178.919 Y26.978 E82.29112
G1 X179.368 Y27.741 E82.32057
G1 X179.746 Y28.542 E82.35002
G1 X180.05 Y29.373 E82.37945
G1 X180.278 Y30.228 E82.40889
G1 X180.428 Y31.101 E82.43835
G1 X180.505 Y32.323 E82.47907
G1 X180.505 Y140.823 E86.0878
G1 X180.465 Y141.707 E86.11723
G1 X180.345 Y142.584 E86.14667
G1 X180.147 Y143.447 E86.17612
G1 X179.872 Y144.288 E86.20555
G1 X179.522 Y145.101 E86.23499
G1 X179.1 Y145.88 E86.26446
G1 X178.609 Y146.616 E86.29388
G1 X178.054 Y147.306 E86.32333
G1 X177.439 Y147.943 E86.35278
G1 X176.769 Y148.521 E86.38221
G1 X176.05 Y149.037 E86.41165
G1 X175.287 Y149.486 E86.44109
G1 X174.486 Y149.864 E86.47055
G1 X173.655 Y150.168 E86.49998
G1 X172.8 Y150.396 E86.52942
G1 X171.927 Y150.546 E86.55888
G1 X170.705 Y150.623 E86.5996
G1 X77.705 Y150.623 E89.69279
G1 X76.821 Y150.583 E89.72223
G1 X75.944 Y150.463 E89.75167
G1 X75.081 Y150.265 E89.78112
G1 X74.24 Y149.99 E89.81055
G1 X73.427 Y149.64 E89.83999
G1 X72.648 Y149.218 E89.86945
G1 X71.912 Y148.727 E89.89888
G1 X71.222 Y148.172 E89.92833
G1 X70.585 Y147.557 E89.95778
G1 X70.007 Y146.887 E89.98721
G1 X69.491 Y146.168 E90.01665
G1 X69.042 Y145.405 E90.04609
G1 X68.664 Y144.604 E90.07555
G1 X68.36 Y143.773 E90.10498
G1 X68.132 Y142.918 E90.13441
G1 X67.982 Y142.045 E90.16387
G1 X67.905 Y140.823 E90.2046
G1 X67.905 Y32.323 E93.81332
G1 X67.945 Y31.439 E93.84276
G1 X68.065 Y30.562 E93.8722
G1 X68.263 Y29.699 E93.90165
G1 X68.538 Y28.858 E93.93108
G1 X68.888 Y28.045 E93.96051
G0 F3600 X68.938 Y28.932
G1 F1800 X69.288 Y28.139 E93.98935
G1 X69.709 Y27.381 E94.01818
G1 X70.198 Y26.666 E94.04699
G1 X70.751 Y25.998 E94.07584
G1 X71.364 Y25.384 E94.10469
G1 X72.03 Y24.829 E94.13353
G1 X72.744 Y24.339 E94.16233
G1 X73.501 Y23.915 E94.19119
G1 X74.294 Y23.564 E94.22003
G1 X75.115 Y23.287 E94.24885
G1 X75.959 Y23.087 E94.2777
G1 X76.817 Y22.965 E94.30653
G1 X77.705 Y22.923 E94.33609
G1 X170.705 Y22.923 E97.42929
G1 X171.571 Y22.963 E97.45812
G1 X172.43 Y23.083 E97.48697
G1 X173.274 Y23.281 E97.5158
G1 X174.096 Y23.556 E97.54463
G1 X174.889 Y23.906 E97.57346
G1 X175.647 Y24.327 E97.6023
G1 X176.362 Y24.816 E97.63111
G1 X177.03 Y25.369 E97.65995
G1 X177.644 Y25.982 E97.68881
G1 X178.199 Y26.648 E97.71764
G1 X178.689 Y27.362 E97.74645
G1 X179.113 Y28.119 E97.77531
G1 X179.464 Y28.912 E97.80415
G1 X179.741 Y29.733 E97.83297
G1 X179.941 Y30.577 E97.86182
G1 X180.063 Y31.435 E97.89064
G1 X180.105 Y32.323 E97.92021
G1 X180.105 Y140.823 E101.52893
G1 X180.065 Y141.689 E101.55777
G1 X179.945 Y142.548 E101.58662
G1 X179.747 Y143.392 E101.61545
G1 X179.472 Y144.214 E101.64428
G1 X179.122 Y145.007 E101.67311
G1 X178.701 Y145.765 E101.70195
G1 X178.212 Y146.48 E101.73076
G1 X177.659 Y147.148 E101.7596
G1 X177.046 Y147.762 E101.78846
G1 X176.38 Y148.317 E101.81729
G1 X175.666 Y148.807 E101.84609
G1 X174.909 Y149.231 E101.87495
G1 X174.116 Y149.582 E101.9038
G1 X173.295 Y149.859 E101.93262
