;FLAVOR:Marlin
;TIME:368
;Filament used: 0.240407m
;Layer height: 0.15
;MINX:41.159
;MINY:33.404
;MINZ:0.2
;MAXX:65.759
;MAXY:46.004
;MAXZ:2
;Generated with Cura_SteamEngine 4.4.0
M82 ;absolute extrusion mode
G21 ; set units to millimeters
G90 ; use absolute positioning
M82 ; absolute extrusion mode
M104 S210 ; set extruder temp
M140 S60 ; set bed temp
M190 S60 ; wait for bed temp
M109 S210 ; wait for extruder temp
G28 W ; home all without mesh bed level
G80 ; mesh bed leveling
G92 E0.0 ; reset extruder distance position
G1 Y-3.0 F1000.0 ; go outside print area
G1 X60.0 E9.0 F1000.0 ; intro line
G1 X100.0 E21.5 F1000.0 ; intro line
G92 E0.0 ; reset extruder distance position
G92 E0
G92 E0
G1 F2100 E-0.8
;LAYER_COUNT:13
;LAYER:0
M107
;MESH:gripper_mount_cover.stl
G0 F3600 X44.307 Y34.384 Z0.2
;TYPE:WALL-OUTER
G1 F2100 E0
G1 F1800 X43.939 Y34.659 E0.01528
G1 X43.648 Y34.987 E0.02986
G1 X43.433 Y35.37 E0.04447
G1 X43.302 Y35.789 E0.05907
G1 X43.26 Y36.226 E0.07368
G1 X43.311 Y36.662 E0.08828
G1 X43.451 Y37.077 E0.10284
G1 X43.673 Y37.454 E0.11739
G1 X43.953 Y37.765 E0.13131
G1 X44.308 Y38.023 E0.14591
G1 X44.71 Y38.202 E0.16054
G1 X45.14 Y38.293 E0.17516
G1 X45.579 Y38.293 E0.18976
G1 X46.008 Y38.202 E0.20435
G1 X46.41 Y38.023 E0.21899
G1 X46.78 Y37.749 E0.2343
G1 X47.07 Y37.419 E0.24891
G1 X47.285 Y37.037 E0.26349
G1 X47.417 Y36.619 E0.27807
G1 X47.458 Y36.182 E0.29267
G1 X47.408 Y35.746 E0.30727
G1 X47.268 Y35.33 E0.32186
G1 X47.045 Y34.953 E0.33643
G1 X46.766 Y34.643 E0.3503
G1 X46.409 Y34.384 E0.36497
G1 X46.008 Y34.206 E0.37957
G1 X45.579 Y34.114 E0.39416
G1 X45.14 Y34.114 E0.40876
G1 X44.71 Y34.206 E0.42339
G1 X44.307 Y34.384 E0.43804
G0 F3600 X44.147 Y34.503
G0 X43.967 Y34.262
G0 X43.214 Y35.272
G0 X41.429 Y45.734
G0 X41.159 Y46.004
G1 F1800 X41.159 Y33.404 E0.85712
G1 X65.759 Y33.404 E1.67532
G1 X65.759 Y46.004 E2.09439
G1 X41.159 Y46.004 E2.91259
G0 F3600 X41.159 Y45.804
G0 X41.429 Y45.734
G0 X61.187 Y34.109
G0 X61.307 Y34.384
G1 F1800 X60.939 Y34.659 E2.92787
G1 X60.648 Y34.987 E2.94246
G1 X60.433 Y35.37 E2.95707
G1 X60.302 Y35.789 E2.97167
G1 X60.26 Y36.226 E2.98627
G1 X60.311 Y36.662 E3.00087
G1 X60.451 Y37.077 E3.01544
G1 X60.673 Y37.454 E3.02999
G1 X60.953 Y37.765 E3.04391
G1 X61.308 Y38.023 E3.0585
G1 X61.71 Y38.202 E3.07314
G1 X62.14 Y38.293 E3.08776
G1 X62.557 Y38.293 E3.10163
G1 X63.007 Y38.203 E3.11689
G1 X63.41 Y38.023 E3.13157
G1 X63.78 Y37.749 E3.14688
G1 X64.07 Y37.419 E3.1615
G1 X64.285 Y37.037 E3.17607
G1 X64.417 Y36.619 E3.19065
G1 X64.458 Y36.182 E3.20525
G1 X64.408 Y35.746 E3.21985
G1 X64.268 Y35.33 E3.23445
G1 X64.045 Y34.953 E3.24902
G1 X63.766 Y34.643 E3.26289
G1 X63.409 Y34.384 E3.27756
G1 X63.008 Y34.206 E3.29215
G1 X62.579 Y34.114 E3.30674
G1 X62.14 Y34.114 E3.32134
G1 X61.71 Y34.206 E3.33597
G1 X61.307 Y34.384 E3.35062
G0 F3600 X61.147 Y34.503
G0 X60.967 Y34.262
G0 X45.079 Y33.895
G0 X44.104 Y34.036
;TYPE:WALL-INNER
G1 F1800 X43.902 Y34.187 E3.35901
G1 X43.667 Y34.363 E3.36878
G1 X43.32 Y34.754 E3.38616
G1 X43.064 Y35.211 E3.40359
G1 X42.908 Y35.709 E3.42094
G1 X42.858 Y36.23 E3.43835
G1 X42.919 Y36.75 E3.45576
G1 X43.085 Y37.244 E3.4731
G1 X43.349 Y37.692 E3.49039
G1 X43.684 Y38.064 E3.50704
G1 X44.107 Y38.371 E3.52443
G1 X44.586 Y38.585 E3.54188
G1 X45.098 Y38.693 E3.55928
G1 X45.621 Y38.693 E3.57668
G1 X46.132 Y38.585 E3.59405
G1 X46.613 Y38.371 E3.61156
G1 X47.052 Y38.045 E3.62974
G1 X47.398 Y37.652 E3.64716
G1 X47.654 Y37.197 E3.66452
G1 X47.811 Y36.699 E3.68189
G1 X47.86 Y36.178 E3.6993
G1 X47.801 Y35.658 E3.7167
G1 X47.634 Y35.163 E3.73408
G1 X47.369 Y34.715 E3.75139
G1 X47.035 Y34.344 E3.76799
G1 X46.819 Y34.187 E3.77687
G1 X46.61 Y34.035 E3.78547
G1 X46.132 Y33.824 E3.80285
G1 X46.039 Y33.804 E3.80601
G1 X46.132 Y33.804 E3.80607
G1 X46.61 Y33.804 E3.8108
G1 X46.869 Y33.804 E3.81768
G1 X60.852 Y33.804 E4.28276
G1 X61.104 Y33.804 E4.29114
G1 X61.586 Y33.804 E4.30717
G1 X61.675 Y33.804 E4.31013
G1 X61.586 Y33.823 E4.31026
G1 X61.104 Y34.036 E4.3165
G1 X60.902 Y34.187 E4.32321
G1 X60.667 Y34.363 E4.33298
G1 X60.32 Y34.754 E4.35037
G1 X60.064 Y35.211 E4.36779
G1 X59.908 Y35.709 E4.38515
G1 X59.858 Y36.23 E4.40256
G1 X59.919 Y36.75 E4.41997
G1 X60.085 Y37.244 E4.4373
G1 X60.349 Y37.692 E4.4546
G1 X60.684 Y38.064 E4.47125
G1 X61.107 Y38.371 E4.48863
G1 X61.586 Y38.585 E4.50608
G1 X62.098 Y38.693 E4.52349
G1 X62.597 Y38.693 E4.54008
G1 X63.129 Y38.586 E4.55813
G1 X63.613 Y38.37 E4.57576
G1 X64.052 Y38.045 E4.59393
G1 X64.398 Y37.652 E4.61134
G1 X64.654 Y37.197 E4.62871
G1 X64.811 Y36.699 E4.64607
G1 X64.86 Y36.178 E4.66348
G1 X64.801 Y35.658 E4.68088
G1 X64.634 Y35.163 E4.69826
G1 X64.369 Y34.715 E4.71557
G1 X64.035 Y34.344 E4.73217
G1 X63.819 Y34.187 E4.74106
G1 X63.61 Y34.035 E4.74965
G1 X63.132 Y33.824 E4.76703
G1 X63.039 Y33.804 E4.77019
G1 X63.132 Y33.804 E4.77026
G1 X63.61 Y33.804 E4.77498
G1 X63.869 Y33.804 E4.78187
G1 X65.359 Y33.804 E4.83142
G1 X65.359 Y45.604 E5.22389
G1 X41.559 Y45.604 E6.01549
G1 X41.559 Y33.804 E6.40795
G1 X43.852 Y33.804 E6.48422
G1 X44.104 Y33.804 E6.49093
G1 X44.586 Y33.804 E6.50696
G1 X44.675 Y33.804 E6.50992
G1 X44.586 Y33.823 E6.51004
G1 X44.104 Y34.036 E6.51629
G0 F3600 X43.295 Y34.194
;TYPE:SKIN
G1 F1800 X43 Y34.526 E6.53106
G1 X42.704 Y35.055 E6.55122
G1 X42.524 Y35.631 E6.57129
G1 X42.466 Y36.234 E6.59144
G1 X42.537 Y36.836 E6.6116
G1 X42.728 Y37.407 E6.63163
G1 X43.033 Y37.924 E6.65159
G1 X43.421 Y38.355 E6.67088
G1 X43.91 Y38.71 E6.69098
G1 X44.465 Y38.958 E6.7112
G1 X45.057 Y39.083 E6.73132
G1 X45.662 Y39.083 E6.75144
G1 X46.253 Y38.958 E6.77154
G1 X46.81 Y38.71 E6.79181
G1 X47.317 Y38.334 E6.81281
G1 X47.718 Y37.879 E6.83298
G1 X48.013 Y37.353 E6.85304
G1 X48.195 Y36.777 E6.87313
G1 X48.252 Y36.174 E6.89328
G1 X48.184 Y35.572 E6.91343
G1 X47.991 Y34.999 E6.93354
G1 X47.685 Y34.483 E6.95349
G1 X47.425 Y34.194 E6.96642
G1 X60.295 Y34.194 E7.39448
G1 X60 Y34.526 E7.40925
G1 X59.704 Y35.055 E7.42941
G1 X59.524 Y35.631 E7.44948
G1 X59.466 Y36.234 E7.46963
G1 X59.537 Y36.836 E7.48979
G1 X59.728 Y37.407 E7.50982
G1 X60.033 Y37.924 E7.52978
G1 X60.421 Y38.355 E7.54907
G1 X60.91 Y38.71 E7.56917
G1 X61.465 Y38.958 E7.58939
G1 X62.057 Y39.083 E7.60951
G1 X62.636 Y39.083 E7.62877
G1 X63.248 Y38.96 E7.64953
G1 X63.81 Y38.709 E7.67
G1 X64.317 Y38.334 E7.69098
G1 X64.718 Y37.879 E7.71115
G1 X64.969 Y37.431 E7.72823
G1 X64.969 Y45.214 E7.98709
G1 X41.949 Y45.214 E8.75274
G1 X41.949 Y34.194 E9.11927
G1 X43.295 Y34.194 E9.16403
G0 F3600 X45.079 Y33.895
G0 X62.641 Y33.896
G0 X64.425 Y34.194
G1 F1800 X64.969 Y34.194 E9.18213
G1 X64.969 Y34.962 E9.20767
G1 X64.685 Y34.483 E9.22619
G1 X64.425 Y34.194 E9.23912
G0 F3600 X64.671 Y35.98
G0 X64.726 Y38.139
G1 F1800 X64.787 Y38.2 E9.24199
G0 F3600 X64.461 Y38.44
G1 F1800 X64.787 Y38.766 E9.25733
G0 F3600 X64.787 Y39.332
G1 F1800 X64.142 Y38.686 E9.28769
G0 F3600 X63.8 Y38.91
G1 F1800 X64.787 Y39.897 E9.33411
G0 F3600 X64.787 Y40.463
G1 F1800 X63.409 Y39.085 E9.39893
G0 F3600 X62.96 Y39.201
G1 F1800 X64.787 Y41.029 E9.48489
G0 F3600 X64.787 Y41.594
G1 F1800 X62.456 Y39.263 E9.59453
G0 F3600 X61.851 Y39.223
G1 F1800 X64.787 Y42.16 E9.73266
G0 F3600 X64.787 Y42.726
G1 F1800 X61.016 Y38.955 E9.91003
G1 X60.946 Y38.885
G0 F3600 X59.59 Y37.528
G1 F1800 X56.435 Y34.373 E10.05844
G0 F3600 X55.869 Y34.373
G1 F1800 X64.787 Y43.291 E10.47791
G0 F3600 X64.787 Y43.857
G1 F1800 X55.304 Y34.373 E10.92399
G0 F3600 X54.738 Y34.373
G1 F1800 X64.787 Y44.423 E11.39668
G0 F3600 X64.787 Y44.988
G1 F1800 X54.172 Y34.373 E11.89598
G0 F3600 X53.607 Y34.373
G1 F1800 X64.266 Y45.033 E12.39737
G0 F3600 X63.701 Y45.033
G1 F1800 X53.041 Y34.373 E12.89878
G0 F3600 X52.475 Y34.373
G1 F1800 X63.135 Y45.033 E13.4002
G0 F3600 X62.569 Y45.033
G1 F1800 X51.91 Y34.373 E13.90159
G0 F3600 X51.344 Y34.373
G1 F1800 X62.004 Y45.033 E14.403
G0 F3600 X61.438 Y45.033
G1 F1800 X50.778 Y34.373 E14.90442
G0 F3600 X50.213 Y34.373
G1 F1800 X60.872 Y45.033 E15.40581
G0 F3600 X60.307 Y45.033
G1 F1800 X49.647 Y34.373 E15.90722
G0 F3600 X49.081 Y34.373
G1 F1800 X59.741 Y45.033 E16.40863
G0 F3600 X59.175 Y45.033
G1 F1800 X48.516 Y34.373 E16.91002
G0 F3600 X47.95 Y34.373
G1 F1800 X58.609 Y45.033 E17.41141
G0 F3600 X58.044 Y45.033
G1 F1800 X48.267 Y35.256 E17.87129
G0 F3600 X48.408 Y35.963
G1 F1800 X57.478 Y45.033 E18.29792
G0 F3600 X56.912 Y45.033
G1 F1800 X48.398 Y36.519 E18.69839
G0 F3600 X48.312 Y36.998
G1 F1800 X56.347 Y45.033 E19.07633
G0 F3600 X55.781 Y45.033
G1 F1800 X48.175 Y37.427 E19.4341
G0 F3600 X47.972 Y37.79
G1 F1800 X55.215 Y45.033 E19.77478
G0 F3600 X54.65 Y45.033
G1 F1800 X47.741 Y38.124 E20.09976
G0 F3600 X47.475 Y38.424
G1 F1800 X54.084 Y45.033 E20.41063
G0 F3600 X53.518 Y45.033
G1 F1800 X47.159 Y38.674 E20.70974
G0 F3600 X46.821 Y38.902
G1 F1800 X52.953 Y45.033 E20.99814
G0 F3600 X52.387 Y45.033
G1 F1800 X46.43 Y39.076 E21.27834
G0 F3600 X45.986 Y39.198
G1 F1800 X51.821 Y45.033 E21.5528
G0 F3600 X51.256 Y45.033
G1 F1800 X45.486 Y39.263 E21.82421
G0 F3600 X44.888 Y39.231
G1 F1800 X50.69 Y45.033 E22.09712
G0 F3600 X50.124 Y45.033
G1 F1800 X44.069 Y38.978 E22.38192
G1 X43.999 Y38.908
G0 F3600 X42.128 Y38.733
G1 F1800 X48.427 Y45.033 E22.67823
G0 F3600 X47.861 Y45.033
G1 F1800 X42.128 Y39.299 E22.94792
G0 F3600 X42.128 Y39.865
G1 F1800 X47.296 Y45.033 E23.19101
G0 F3600 X46.73 Y45.033
G1 F1800 X42.128 Y40.43 E23.40749
G0 F3600 X42.128 Y40.996
G1 F1800 X46.164 Y45.033 E23.59736
G0 F3600 X45.599 Y45.033
G1 F1800 X42.128 Y41.562 E23.76062
G0 F3600 X42.128 Y42.128
G1 F1800 X45.033 Y45.033 E23.89727
G0 F3600 X44.467 Y45.033
G1 F1800 X42.128 Y42.693 E24.00731
G0 F3600 X42.128 Y43.259
G1 F1800 X43.902 Y45.033 E24.09075
G0 F3600 X43.336 Y45.033
G1 F1800 X42.128 Y43.825 E24.14757
G0 F3600 X42.128 Y44.39
G1 F1800 X42.77 Y45.033 E24.17779
G0 F3600 X42.205 Y45.033
G1 F1800 X42.128 Y44.956 E24.18142
G0 F3600 X42.128 Y38.168
G1 F1800 X48.993 Y45.033 E24.50433
G0 F3600 X49.558 Y45.033
G1 F1800 X42.128 Y37.602 E24.85383
G0 F3600 X42.557 Y37.466
G1 F1800 X42.128 Y37.036 E24.87404
G0 F3600 X42.337 Y36.68
G1 F1800 X42.128 Y36.471 E24.88387
G0 F3600 X42.299 Y36.077
G1 F1800 X42.128 Y35.905 E24.89193
G0 F3600 X42.354 Y35.566
G1 F1800 X42.128 Y35.339 E24.90259
G0 F3600 X42.489 Y35.135
G1 F1800 X42.128 Y34.774 E24.91957
G0 F3600 X42.294 Y34.374
G1 F1800 X42.668 Y34.748 E24.93716
G0 F3600 X44.637 Y33.976
G0 X57.001 Y34.373
G1 F1800 X59.341 Y36.713 E25.04723
G0 F3600 X59.297 Y36.104
G1 F1800 X57.566 Y34.373 E25.12865
G0 F3600 X58.132 Y34.373
G1 F1800 X59.347 Y35.588 E25.1858
G0 F3600 X59.482 Y35.158
G1 F1800 X58.698 Y34.373 E25.2227
G0 F3600 X59.264 Y34.373
G1 F1800 X59.657 Y34.767 E25.24121
G0 F3600 X61.637 Y33.976
G0 X62.641 Y33.896
G0 X63.442 Y34.138
G0 X64.886 Y35.188
;TYPE:SKIN
G1 F1800 X65.178 Y35.479 E25.24806
G0 F3600 X64.947 Y35.532
G1 F1800 X65.178 Y35.762 E25.25348
G0 F3600 X65.005 Y35.872
G1 F1800 X65.178 Y36.045 E25.25755
G0 F3600 X65.038 Y36.188
G1 F1800 X65.178 Y36.328 E25.26084
G0 F3600 X65.014 Y36.447
G1 F1800 X65.178 Y36.611 E25.2647
G0 F3600 X64.989 Y36.705
G1 F1800 X65.178 Y36.894 E25.26915
G0 F3600 X64.927 Y36.925
G1 F1800 X65.178 Y37.176 E25.27505
G0 F3600 X64.939 Y37.221
G1 F1800 X64.859 Y37.14 E25.27694
G0 F3600 X65.178 Y35.196
M104 S210
G1 F1800 X65.107 Y35.126 E25.2786
;MESH:NONMESH
G0 F600 X65.107 Y35.126 Z0.35
G0 F3600 X64.507 Y37.129
G0 X63.126 Y38.588
;TIME_ELAPSED:35.386920
;LAYER:1
M140 S60
M106 S255
;TYPE:WALL-INNER
;MESH:gripper_mount_cover.stl
G1 F3300 X63.618 Y38.368 E25.29204
G1 X64.083 Y38.012 E25.30665
G1 X64.421 Y37.613 E25.3197
G1 X64.67 Y37.155 E25.3327
G1 X64.818 Y36.653 E25.34576
G1 X64.856 Y36.132 E25.35879
G1 X64.787 Y35.615 E25.3718
G1 X64.612 Y35.123 E25.38482
G1 X64.343 Y34.685 E25.39765
G1 X64.035 Y34.344 E25.40911
G1 X63.819 Y34.187 E25.41577
G1 X63.61 Y34.035 E25.42222
G1 X63.132 Y33.824 E25.43525
G1 X63.039 Y33.804 E25.43762
G1 X63.132 Y33.804 E25.43767
G1 X63.61 Y33.804 E25.44121
G1 X63.869 Y33.804 E25.44638
G1 X65.359 Y33.804 E25.48355
G1 X65.359 Y45.604 E25.7779
G1 X41.559 Y45.604 E26.37159
G1 X41.559 Y33.804 E26.66594
G1 X43.858 Y33.804 E26.72329
G1 X44.1 Y33.804 E26.72933
G1 X44.586 Y33.804 E26.74145
G1 X44.679 Y33.804 E26.74377
G1 X44.586 Y33.824 E26.74387
G1 X44.1 Y34.039 E26.74866
G1 X43.908 Y34.186 E26.75351
G1 X43.635 Y34.396 E26.76211
G1 X43.297 Y34.794 E26.77513
G1 X43.049 Y35.253 E26.78815
G1 X42.901 Y35.755 E26.8012
G1 X42.862 Y36.276 E26.81423
G1 X42.932 Y36.794 E26.82727
G1 X43.107 Y37.284 E26.84025
G1 X43.376 Y37.721 E26.85305
G1 X43.684 Y38.064 E26.86455
G1 X44.107 Y38.371 E26.87759
G1 X44.586 Y38.585 E26.89068
G1 X45.098 Y38.693 E26.90373
G1 X45.621 Y38.693 E26.91678
G1 X46.132 Y38.585 E26.9298
G1 X46.618 Y38.368 E26.94308
G1 X47.083 Y38.012 E26.95769
G1 X47.421 Y37.613 E26.97073
G1 X47.67 Y37.155 E26.98374
G1 X47.818 Y36.653 E26.99679
G1 X47.856 Y36.132 E27.00982
G1 X47.787 Y35.615 E27.02284
G1 X47.612 Y35.123 E27.03586
G1 X47.343 Y34.685 E27.04868
G1 X47.035 Y34.344 E27.06015
G1 X46.819 Y34.187 E27.06681
G1 X46.61 Y34.035 E27.07325
G1 X46.132 Y33.824 E27.08629
G1 X46.039 Y33.804 E27.08866
G1 X46.132 Y33.804 E27.08871
G1 X46.61 Y33.804 E27.09225
G1 X46.869 Y33.804 E27.09741
G1 X60.858 Y33.804 E27.44637
G1 X61.1 Y33.804 E27.45241
G1 X61.586 Y33.804 E27.46453
G1 X61.679 Y33.804 E27.46685
G1 X61.586 Y33.824 E27.46695
G1 X61.1 Y34.039 E27.47174
G1 X60.908 Y34.186 E27.47659
G1 X60.635 Y34.396 E27.48518
G1 X60.297 Y34.794 E27.49821
G1 X60.049 Y35.253 E27.51122
G1 X59.901 Y35.755 E27.52428
G1 X59.862 Y36.276 E27.53731
G1 X59.932 Y36.794 E27.55035
G1 X60.107 Y37.284 E27.56333
G1 X60.376 Y37.721 E27.57613
G1 X60.684 Y38.064 E27.58763
G1 X61.107 Y38.371 E27.60067
G1 X61.586 Y38.585 E27.61376
G1 X62.098 Y38.693 E27.62681
G1 X62.557 Y38.693 E27.63826
G1 X63.126 Y38.588 E27.65269
G0 F5400 X62.113 Y38.532
G0 X61.189 Y38.232
G0 X60.506 Y37.625
G0 X60.089 Y36.752
G0 X60.06 Y35.785
G0 X60.43 Y34.886
G0 X61.186 Y34.111
G0 X61.306 Y34.385
;TYPE:WALL-OUTER
G1 F2100 X60.912 Y34.687 E27.66508
G1 X60.629 Y35.021 E27.676
G1 X60.421 Y35.406 E27.68691
G1 X60.297 Y35.827 E27.69786
G1 X60.264 Y36.264 E27.70879
G1 X60.323 Y36.699 E27.71974
G1 X60.47 Y37.11 E27.73063
G1 X60.698 Y37.481 E27.74149
G1 X60.953 Y37.765 E27.75101
G1 X61.308 Y38.023 E27.76196
G1 X61.71 Y38.202 E27.77294
G1 X62.14 Y38.293 E27.7839
G1 X62.52 Y38.293 E27.79338
G1 X63.006 Y38.203 E27.80571
G1 X63.412 Y38.022 E27.8168
G1 X63.806 Y37.721 E27.82917
G1 X64.089 Y37.386 E27.84011
G1 X64.298 Y37.001 E27.85103
G1 X64.422 Y36.581 E27.86196
G1 X64.454 Y36.144 E27.87289
G1 X64.396 Y35.71 E27.88381
G1 X64.249 Y35.297 E27.89475
G1 X64.021 Y34.926 E27.90561
G1 X63.766 Y34.643 E27.91511
G1 X63.409 Y34.384 E27.92611
G1 X63.008 Y34.206 E27.93706
G1 X62.579 Y34.114 E27.948
G1 X62.14 Y34.114 E27.95895
G1 X61.71 Y34.206 E27.96992
G1 X61.306 Y34.385 E27.98095
G0 F5400 X61.148 Y34.506
G0 X60.967 Y34.268
G0 X45.641 Y33.896
G0 X44.186 Y34.111
G0 X44.306 Y34.385
G1 F2100 X43.912 Y34.687 E27.99333
G1 X43.629 Y35.021 E28.00425
G1 X43.421 Y35.406 E28.01517
G1 X43.297 Y35.827 E28.02611
G1 X43.264 Y36.264 E28.03705
G1 X43.323 Y36.699 E28.048
G1 X43.47 Y37.11 E28.05888
G1 X43.698 Y37.481 E28.06975
G1 X43.953 Y37.765 E28.07927
G1 X44.308 Y38.023 E28.09022
G1 X44.71 Y38.202 E28.10119
G1 X45.14 Y38.293 E28.11216
G1 X45.579 Y38.293 E28.12311
G1 X46.008 Y38.202 E28.13405
G1 X46.412 Y38.022 E28.14508
G1 X46.806 Y37.721 E28.15745
G1 X47.089 Y37.386 E28.16839
G1 X47.298 Y37.001 E28.17931
G1 X47.422 Y36.581 E28.19024
G1 X47.454 Y36.144 E28.20117
G1 X47.396 Y35.71 E28.21209
G1 X47.249 Y35.297 E28.22303
G1 X47.021 Y34.926 E28.23389
G1 X46.766 Y34.643 E28.24339
G1 X46.409 Y34.384 E28.25439
G1 X46.008 Y34.206 E28.26534
G1 X45.579 Y34.114 E28.27628
G1 X45.14 Y34.114 E28.28723
G1 X44.71 Y34.206 E28.2982
G1 X44.306 Y34.385 E28.30923
G0 F5400 X44.148 Y34.506
G0 X43.967 Y34.268
G0 X43.43 Y34.886
G0 X41.429 Y45.734
G0 X41.159 Y46.004
G1 F2100 X41.159 Y33.404 E28.62353
G1 X65.759 Y33.404 E29.23718
G1 X65.759 Y46.004 E29.55149
G1 X41.159 Y46.004 E30.16514
G0 F5400 X41.159 Y45.804
G0 X41.949 Y45.214
;TYPE:SKIN
G1 F1800 X41.949 Y34.194 E30.44004
G1 X43.294 Y34.194 E30.47359
