;FLAVOR:Marlin
;TIME:2228
;Filament used: 1.59637m
;Layer height: 0.15
;MINX:41.749
;MINY:24.852
;MINZ:0.2
;MAXX:94.149
;MAXY:78.452
;MAXZ:24.5
;Generated with Cura_SteamEngine 4.4.0
M82 ;absolute extrusion mode
G21 ; set units to millimeters
G90 ; use absolute positioning
M82 ; absolute extrusion mode
M104 S210 ; set extruder temp
M140 S60 ; set bed temp
M190 S60 ; wait for bed temp
M109 S210 ; wait for extruder temp
G28 W ; home all without mesh bed level
G80 ; mesh bed leveling
G92 E0.0 ; reset extruder distance position
G1 Y-3.0 F1000.0 ; go outside print area
G1 X60.0 E9.0 F1000.0 ; intro line
G1 X100.0 E21.5 F1000.0 ; intro line
G92 E0.0 ; reset extruder distance position
G92 E0
G92 E0
G1 F2100 E-0.8
;LAYER_COUNT:163
;LAYER:0
M107
G0 F3600 X43.656 Y30.221 Z0.2
;TYPE:SKIRT
G1 F2100 E0
G1 F1800 X44.218 Y29.429 E0.0323
G1 X44.844 Y28.686 E0.06461
G1 X45.529 Y27.997 E0.09693
G1 X46.268 Y27.366 E0.12925
G1 X47.056 Y26.799 E0.16154
G1 X47.888 Y26.298 E0.19384
G1 X48.759 Y25.868 E0.22615
G1 X49.663 Y25.51 E0.25849
G1 X50.592 Y25.228 E0.29078
G1 X51.542 Y25.024 E0.32309
G1 X52.505 Y24.898 E0.3554
G1 X53.549 Y24.852 E0.39015
G1 X62.549 Y24.852 E0.6895
G1 X63.52 Y24.892 E0.72182
G1 X64.484 Y25.012 E0.75413
G1 X65.434 Y25.21 E0.78641
G1 X66.366 Y25.486 E0.81873
G1 X67.271 Y25.838 E0.85103
G1 X68.145 Y26.263 E0.88336
G1 X68.98 Y26.759 E0.91566
G1 X69.772 Y27.321 E0.94796
G1 X70.515 Y27.947 E0.98027
G1 X71.204 Y28.632 E1.01259
G1 X71.835 Y29.371 E1.04491
G1 X72.402 Y30.159 E1.0772
G1 X72.903 Y30.991 E1.1095
G1 X73.333 Y31.862 E1.14181
G1 X73.691 Y32.766 E1.17414
G1 X73.973 Y33.695 E1.20644
G1 X74.177 Y34.645 E1.23875
G1 X74.204 Y34.852 E1.2457
G1 X82.349 Y34.852 E1.5166
G1 X83.32 Y34.892 E1.54892
G1 X84.284 Y35.012 E1.58123
G1 X85.234 Y35.21 E1.61351
G1 X86.166 Y35.486 E1.64584
G1 X87.071 Y35.838 E1.67814
G1 X87.945 Y36.263 E1.71046
G1 X88.78 Y36.759 E1.74276
G1 X89.572 Y37.321 E1.77506
G1 X90.315 Y37.947 E1.80738
G1 X91.004 Y38.632 E1.83969
G1 X91.635 Y39.371 E1.87201
G1 X92.202 Y40.159 E1.9043
G1 X92.703 Y40.991 E1.9366
G1 X93.133 Y41.862 E1.96891
G1 X93.491 Y42.766 E2.00125
G1 X93.773 Y43.695 E2.03354
G1 X93.977 Y44.645 E2.06586
G1 X94.103 Y45.608 E2.09816
G1 X94.149 Y46.652 E2.13292
G1 X94.149 Y66.652 E2.79812
G1 X94.109 Y67.623 E2.83044
G1 X93.989 Y68.587 E2.86275
G1 X93.791 Y69.537 E2.89503
G1 X93.515 Y70.469 E2.92736
G1 X93.163 Y71.374 E2.95965
G1 X92.738 Y72.248 E2.99198
G1 X92.242 Y73.083 E3.02428
G1 X91.68 Y73.875 E3.05658
G1 X91.054 Y74.618 E3.0889
G1 X90.369 Y75.307 E3.12121
G1 X89.63 Y75.938 E3.15353
G1 X88.842 Y76.505 E3.18582
G1 X88.01 Y77.006 E3.21812
G1 X87.139 Y77.436 E3.25043
G1 X86.235 Y77.794 E3.28277
G1 X85.306 Y78.076 E3.31506
G1 X84.356 Y78.28 E3.34738
G1 X83.393 Y78.406 E3.37968
G1 X82.349 Y78.452 E3.41444
G1 X53.549 Y78.452 E4.37233
G1 X52.578 Y78.412 E4.40465
G1 X51.614 Y78.292 E4.43696
G1 X50.664 Y78.094 E4.46924
G1 X49.732 Y77.818 E4.50157
G1 X48.827 Y77.466 E4.53386
G1 X47.953 Y77.041 E4.56619
G1 X47.118 Y76.545 E4.59849
G1 X46.326 Y75.983 E4.63079
G1 X45.583 Y75.357 E4.6631
G1 X44.894 Y74.672 E4.69542
G1 X44.263 Y73.933 E4.72774
G1 X43.696 Y73.145 E4.76003
G1 X43.195 Y72.313 E4.79233
G1 X42.765 Y71.442 E4.82464
G1 X42.407 Y70.538 E4.85698
G1 X42.125 Y69.609 E4.88927
G1 X41.921 Y68.659 E4.92158
G1 X41.795 Y67.696 E4.95389
G1 X41.749 Y66.652 E4.98864
G1 X41.749 Y36.652 E5.98645
G1 X41.789 Y35.681 E6.01877
G1 X41.909 Y34.717 E6.05108
G1 X42.107 Y33.767 E6.08336
G1 X42.383 Y32.835 E6.11569
G1 X42.735 Y31.93 E6.14798
G1 X43.16 Y31.056 E6.18031
G1 X43.656 Y30.221 E6.21261
G0 F3600 X44.054 Y30.343
G1 F1800 X44.615 Y29.571 E6.24435
G1 X45.239 Y28.848 E6.27612
G1 X45.921 Y28.18 E6.30787
G1 X46.657 Y27.571 E6.33964
G1 X47.441 Y27.027 E6.37138
G1 X48.268 Y26.549 E6.40315
G1 X49.131 Y26.143 E6.43487
G1 X50.026 Y25.81 E6.46663
G1 X50.946 Y25.553 E6.4984
G1 X51.884 Y25.374 E6.53016
G1 X52.833 Y25.274 E6.5619
G1 X53.549 Y25.252 E6.58573
G1 X62.549 Y25.252 E6.88507
G1 X63.503 Y25.292 E6.91683
G1 X64.45 Y25.412 E6.94858
G1 X65.384 Y25.61 E6.98033
G1 X66.298 Y25.886 E7.01209
G1 X67.186 Y26.238 E7.04386
G1 X68.041 Y26.662 E7.0756
G1 X68.858 Y27.157 E7.10737
G1 X69.63 Y27.718 E7.13911
G1 X70.353 Y28.342 E7.17088
G1 X71.021 Y29.024 E7.20263
G1 X71.63 Y29.76 E7.2344
G1 X72.174 Y30.544 E7.26614
G1 X72.652 Y31.371 E7.29791
G1 X73.058 Y32.234 E7.32963
G1 X73.391 Y33.129 E7.36139
G1 X73.648 Y34.049 E7.39316
G1 X73.827 Y34.987 E7.42492
G1 X73.855 Y35.252 E7.43379
G1 X82.349 Y35.252 E7.7163
G1 X83.303 Y35.292 E7.74806
G1 X84.25 Y35.412 E7.77981
G1 X85.184 Y35.61 E7.81156
G1 X86.098 Y35.886 E7.84332
G1 X86.986 Y36.238 E7.87509
G1 X87.841 Y36.662 E7.90683
G1 X88.658 Y37.157 E7.9386
G1 X89.43 Y37.718 E7.97034
G1 X90.153 Y38.342 E8.00211
G1 X90.821 Y39.024 E8.03386
G1 X91.43 Y39.76 E8.06563
G1 X91.974 Y40.544 E8.09737
G1 X92.452 Y41.371 E8.12914
G1 X92.858 Y42.234 E8.16086
G1 X93.191 Y43.129 E8.19262
G1 X93.448 Y44.049 E8.22439
G1 X93.627 Y44.987 E8.25616
G1 X93.727 Y45.936 E8.28789
G1 X93.749 Y46.652 E8.31172
G1 X93.749 Y66.652 E8.97692
G1 X93.709 Y67.606 E9.00868
G1 X93.589 Y68.553 E9.04043
G1 X93.391 Y69.487 E9.07218
G1 X93.115 Y70.401 E9.10394
G1 X92.763 Y71.289 E9.13571
G1 X92.339 Y72.144 E9.16745
G1 X91.844 Y72.961 E9.19922
G1 X91.283 Y73.733 E9.23097
G1 X90.659 Y74.456 E9.26273
G1 X89.977 Y75.124 E9.29448
G1 X89.241 Y75.733 E9.32625
G1 X88.457 Y76.277 E9.35799
G1 X87.63 Y76.755 E9.38976
G1 X86.767 Y77.161 E9.42148
G1 X85.872 Y77.494 E9.45325
G1 X84.952 Y77.751 E9.48502
G1 X84.014 Y77.93 E9.51678
G1 X83.065 Y78.03 E9.54852
G1 X82.349 Y78.052 E9.57234
G1 X53.549 Y78.052 E10.53023
G1 X52.595 Y78.012 E10.56199
G1 X51.648 Y77.892 E10.59374
G1 X50.714 Y77.694 E10.6255
G1 X49.8 Y77.418 E10.65725
G1 X48.912 Y77.066 E10.68902
G1 X48.057 Y76.642 E10.72077
G1 X47.24 Y76.147 E10.75254
G1 X46.468 Y75.586 E10.78428
G1 X45.745 Y74.962 E10.81604
G1 X45.077 Y74.28 E10.84779
G1 X44.468 Y73.544 E10.87957
G1 X43.924 Y72.76 E10.91131
G1 X43.446 Y71.933 E10.94308
G1 X43.04 Y71.07 E10.9748
G1 X42.707 Y70.175 E11.00656
G1 X42.45 Y69.255 E11.03833
G1 X42.271 Y68.317 E11.07009
G1 X42.171 Y67.368 E11.10183
G1 X42.149 Y66.652 E11.12565
G1 X42.149 Y36.652 E12.12346
G1 X42.189 Y35.698 E12.15522
G1 X42.309 Y34.751 E12.18697
G1 X42.507 Y33.817 E12.21872
G1 X42.783 Y32.903 E12.25048
G1 X43.135 Y32.015 E12.28225
G1 X43.559 Y31.16 E12.31399
G1 X44.054 Y30.343 E12.34576
G0 F3600 X44.452 Y30.468
G1 F1800 X45.012 Y29.716 E12.37695
G1 X45.633 Y29.014 E12.40812
G1 X46.313 Y28.367 E12.43934
G1 X47.045 Y27.781 E12.47052
G1 X47.824 Y27.259 E12.50171
G1 X48.645 Y26.806 E12.5329
G1 X49.502 Y26.424 E12.56411
G1 X50.388 Y26.116 E12.59531
G1 X51.297 Y25.885 E12.6265
G1 X52.222 Y25.732 E12.65768
G1 X53.549 Y25.652 E12.7019
G1 X62.549 Y25.652 E13.00124
G1 X63.486 Y25.692 E13.03244
G1 X64.416 Y25.812 E13.06362
G1 X65.333 Y26.01 E13.09483
G1 X66.229 Y26.286 E13.12601
G1 X67.099 Y26.637 E13.15721
G1 X67.935 Y27.061 E13.18839
G1 X68.733 Y27.555 E13.2196
G1 X69.485 Y28.115 E13.25079
G1 X70.187 Y28.736 E13.28196
G1 X70.834 Y29.416 E13.31318
G1 X71.42 Y30.148 E13.34437
G1 X71.942 Y30.927 E13.37556
G1 X72.395 Y31.748 E13.40674
G1 X72.777 Y32.605 E13.43795
G1 X73.085 Y33.491 E13.46915
G1 X73.316 Y34.4 E13.50034
G1 X73.469 Y35.325 E13.53153
G1 X73.489 Y35.652 E13.54242
G1 X82.349 Y35.652 E13.83711
G1 X83.286 Y35.692 E13.8683
G1 X84.216 Y35.812 E13.89949
G1 X85.133 Y36.01 E13.93069
G1 X86.029 Y36.286 E13.96188
G1 X86.899 Y36.637 E13.99308
G1 X87.735 Y37.061 E14.02426
G1 X88.533 Y37.555 E14.05547
G1 X89.285 Y38.115 E14.08666
G1 X89.987 Y38.736 E14.11783
G1 X90.634 Y39.416 E14.14905
G1 X91.22 Y40.148 E14.18024
G1 X91.742 Y40.927 E14.21142
G1 X92.195 Y41.748 E14.24261
G1 X92.577 Y42.605 E14.27382
G1 X92.885 Y43.491 E14.30502
G1 X93.116 Y44.4 E14.33621
G1 X93.269 Y45.325 E14.3674
G1 X93.349 Y46.652 E14.41161
G1 X93.349 Y66.652 E15.07681
G1 X93.309 Y67.589 E15.10801
G1 X93.189 Y68.519 E15.1392
G1 X92.991 Y69.436 E15.1704
G1 X92.715 Y70.332 E15.20158
G1 X92.364 Y71.202 E15.23278
G1 X91.94 Y72.038 E15.26396
G1 X91.446 Y72.836 E15.29518
G1 X90.886 Y73.588 E15.32636
G1 X90.265 Y74.29 E15.35753
G1 X89.585 Y74.937 E15.38875
G1 X88.853 Y75.523 E15.41994
G1 X88.074 Y76.045 E15.45113
G1 X87.253 Y76.498 E15.48232
G1 X86.396 Y76.88 E15.51352
G1 X85.51 Y77.188 E15.54472
G1 X84.601 Y77.419 E15.57592
G1 X83.676 Y77.572 E15.6071
G1 X82.349 Y77.652 E15.65132
G1 X53.549 Y77.652 E16.60921
G1 X52.612 Y77.612 E16.6404
G1 X51.682 Y77.492 E16.67159
G1 X50.765 Y77.294 E16.70279
G1 X49.869 Y77.018 E16.73398
G1 X48.999 Y76.667 E16.76518
G1 X48.163 Y76.243 E16.79636
G1 X47.365 Y75.749 E16.82757
G1 X46.613 Y75.189 E16.85876
G1 X45.911 Y74.568 E16.88993
G1 X45.264 Y73.888 E16.92115
G1 X44.678 Y73.156 E16.95233
G1 X44.156 Y72.377 E16.98352
G1 X43.703 Y71.556 E17.01471
G1 X43.321 Y70.699 E17.04592
G1 X43.013 Y69.813 E17.07712
G1 X42.782 Y68.904 E17.10831
G1 X42.629 Y67.979 E17.13949
G1 X42.549 Y66.652 E17.18371
G1 X42.549 Y36.652 E18.18152
G1 X42.589 Y35.715 E18.21271
G1 X42.709 Y34.785 E18.2439
G1 X42.907 Y33.868 E18.2751
G1 X43.183 Y32.972 E18.30628
G1 X43.534 Y32.102 E18.33748
G1 X43.958 Y31.266 E18.36866
G1 X44.452 Y30.468 E18.39988
G0 F3600 X44.85 Y30.596
G1 F1800 X45.408 Y29.864 E18.43049
G1 X46.028 Y29.183 E18.46112
G1 X46.704 Y28.558 E18.49174
G1 X47.432 Y27.995 E18.52235
G1 X48.207 Y27.497 E18.55299
G1 X49.021 Y27.068 E18.5836
G1 X49.87 Y26.711 E18.61423
G1 X50.746 Y26.429 E18.64484
G1 X51.644 Y26.225 E18.67547
G1 X52.556 Y26.099 E18.70609
G1 X53.549 Y26.052 E18.73915
G1 X62.549 Y26.052 E19.03849
G1 X63.469 Y26.092 E19.06912
G1 X64.382 Y26.212 E19.09975
G1 X65.281 Y26.41 E19.13037
G1 X66.159 Y26.686 E19.16098
G1 X67.01 Y27.037 E19.19159
G1 X67.828 Y27.46 E19.22222
G1 X68.605 Y27.953 E19.25283
G1 X69.337 Y28.511 E19.28344
G1 X70.018 Y29.131 E19.31407
G1 X70.643 Y29.807 E19.3447
G1 X71.206 Y30.535 E19.3753
G1 X71.704 Y31.31 E19.40594
G1 X72.133 Y32.124 E19.43655
G1 X72.49 Y32.973 E19.46718
G1 X72.772 Y33.849 E19.49779
G1 X72.976 Y34.747 E19.52842
G1 X73.102 Y35.659 E19.55904
G1 X73.121 Y36.052 E19.57213
G1 X82.349 Y36.052 E19.87905
G1 X83.269 Y36.092 E19.90968
G1 X84.182 Y36.212 E19.94031
G1 X85.081 Y36.41 E19.97092
G1 X85.959 Y36.686 E20.00153
G1 X86.81 Y37.037 E20.03215
G1 X87.628 Y37.46 E20.06278
G1 X88.405 Y37.953 E20.09339
G1 X89.137 Y38.511 E20.124
G1 X89.818 Y39.131 E20.15463
G1 X90.443 Y39.807 E20.18525
G1 X91.006 Y40.535 E20.21586
G1 X91.504 Y41.31 E20.2465
G1 X91.933 Y42.124 E20.27711
G1 X92.29 Y42.973 E20.30774
G1 X92.572 Y43.849 E20.33835
G1 X92.776 Y44.747 E20.36898
G1 X92.902 Y45.659 E20.3996
G1 X92.949 Y46.652 E20.43266
G1 X92.949 Y66.652 E21.09786
G1 X92.909 Y67.572 E21.12849
G1 X92.789 Y68.485 E21.15912
G1 X92.591 Y69.384 E21.18974
G1 X92.315 Y70.262 E21.22035
G1 X91.964 Y71.113 E21.25097
G1 X91.541 Y71.931 E21.28159
G1 X91.048 Y72.708 E21.3122
G1 X90.49 Y73.44 E21.34281
G1 X89.87 Y74.121 E21.37345
G1 X89.194 Y74.746 E21.40407
G1 X88.466 Y75.309 E21.43468
G1 X87.691 Y75.807 E21.46532
G1 X86.877 Y76.236 E21.49592
G1 X86.028 Y76.593 E21.52655
G1 X85.152 Y76.875 E21.55716
G1 X84.254 Y77.079 E21.58779
G1 X83.342 Y77.205 E21.61841
G1 X82.349 Y77.252 E21.65147
G1 X53.549 Y77.252 E22.60937
G1 X52.629 Y77.212 E22.63999
G1 X51.716 Y77.092 E22.67062
G1 X50.817 Y76.894 E22.70124
G1 X49.939 Y76.618 E22.73185
G1 X49.088 Y76.267 E22.76247
G1 X48.27 Y75.844 E22.7931
G1 X47.493 Y75.351 E22.8237
G1 X46.761 Y74.793 E22.85432
G1 X46.08 Y74.173 E22.88495
G1 X45.455 Y73.497 E22.91557
G1 X44.892 Y72.769 E22.94618
G1 X44.394 Y71.994 E22.97682
G1 X43.965 Y71.18 E23.00742
G1 X43.608 Y70.331 E23.03806
G1 X43.326 Y69.455 E23.06866
G1 X43.122 Y68.557 E23.09929
G1 X42.996 Y67.645 E23.12991
G1 X42.949 Y66.652 E23.16298
G1 X42.949 Y36.652 E24.16078
G1 X42.989 Y35.732 E24.19141
G1 X43.109 Y34.819 E24.22204
G1 X43.307 Y33.92 E24.25266
G1 X43.583 Y33.042 E24.28327
G1 X43.934 Y32.191 E24.31388
G1 X44.357 Y31.373 E24.34451
G1 X44.85 Y30.596 E24.37512
G0 F3600 X45.247 Y30.726
G1 F1800 X45.804 Y30.015 E24.40516
G1 X46.422 Y29.355 E24.43523
G1 X47.095 Y28.754 E24.46524
G1 X47.819 Y28.214 E24.49528
G1 X48.588 Y27.74 E24.52533
G1 X49.395 Y27.336 E24.55535
G1 X50.236 Y27.005 E24.58541
G1 X51.102 Y26.75 E24.61543
G1 X51.987 Y26.572 E24.64546
G1 X52.885 Y26.474 E24.6755
G1 X53.549 Y26.452 E24.6976
G1 X62.549 Y26.452 E24.99694
G1 X63.451 Y26.492 E25.02697
G1 X64.346 Y26.612 E25.057
G1 X65.227 Y26.81 E25.08704
G1 X66.087 Y27.085 E25.11707
G1 X66.92 Y27.436 E25.14713
G1 X67.718 Y27.859 E25.17717
G1 X68.475 Y28.35 E25.20718
G1 X69.186 Y28.907 E25.23722
G1 X69.846 Y29.525 E25.2673
G1 X70.447 Y30.198 E25.29731
G1 X70.987 Y30.922 E25.32735
G1 X71.461 Y31.691 E25.35739
G1 X71.865 Y32.498 E25.38741
G1 X72.196 Y33.339 E25.41747
G1 X72.451 Y34.205 E25.4475
G1 X72.629 Y35.09 E25.47752
G1 X72.727 Y35.988 E25.50756
G1 X72.742 Y36.452 E25.52301
G1 X82.349 Y36.452 E25.84254
G1 X83.251 Y36.492 E25.87257
G1 X84.146 Y36.612 E25.9026
G1 X85.027 Y36.81 E25.93263
G1 X85.887 Y37.085 E25.96266
G1 X86.72 Y37.436 E25.99273
G1 X87.518 Y37.859 E26.02277
G1 X88.275 Y38.35 E26.05278
G1 X88.986 Y38.907 E26.08282
G1 X89.646 Y39.525 E26.11289
G1 X90.247 Y40.198 E26.1429
G1 X90.787 Y40.922 E26.17294
G1 X91.261 Y41.691 E26.20299
G1 X91.665 Y42.498 E26.233
G1 X91.996 Y43.339 E26.26307
G1 X92.251 Y44.205 E26.29309
G1 X92.429 Y45.09 E26.32312
G1 X92.527 Y45.988 E26.35316
G1 X92.549 Y46.652 E26.37526
G1 X92.549 Y66.652 E27.04046
G1 X92.509 Y67.554 E27.07049
G1 X92.389 Y68.449 E27.10052
G1 X92.191 Y69.33 E27.13056
G1 X91.916 Y70.19 E27.16059
G1 X91.565 Y71.023 E27.19065
G1 X91.142 Y71.821 E27.22069
G1 X90.651 Y72.578 E27.2507
G1 X90.094 Y73.289 E27.28074
G1 X89.476 Y73.949 E27.31082
G1 X88.803 Y74.55 E27.34083
G1 X88.079 Y75.09 E27.37087
G1 X87.31 Y75.564 E27.40091
G1 X86.503 Y75.968 E27.43093
G1 X85.662 Y76.299 E27.46099
G1 X84.796 Y76.554 E27.49102
G1 X83.911 Y76.732 E27.52104
G1 X83.013 Y76.83 E27.55109
G1 X82.349 Y76.852 E27.57318
G1 X53.549 Y76.852 E28.53107
G1 X52.647 Y76.812 E28.5611
G1 X51.752 Y76.692 E28.59114
G1 X50.871 Y76.494 E28.62117
G1 X50.011 Y76.219 E28.6512
G1 X49.178 Y75.868 E28.68127
G1 X48.38 Y75.445 E28.71131
G1 X47.623 Y74.954 E28.74132
G1 X46.912 Y74.397 E28.77136
G1 X46.252 Y73.779 E28.80143
G1 X45.651 Y73.106 E28.83144
G1 X45.111 Y72.382 E28.86148
G1 X44.637 Y71.613 E28.89153
G1 X44.233 Y70.806 E28.92154
G1 X43.902 Y69.965 E28.9516
G1 X43.647 Y69.099 E28.98163
G1 X43.469 Y68.214 E29.01165
G1 X43.371 Y67.316 E29.0417
G1 X43.349 Y66.652 E29.0638
G1 X43.349 Y36.652 E30.0616
G1 X43.389 Y35.75 E30.09163
G1 X43.509 Y34.855 E30.12166
G1 X43.707 Y33.974 E30.1517
G1 X43.982 Y33.114 E30.18173
G1 X44.333 Y32.281 E30.21179
G1 X44.756 Y31.483 E30.24183
G1 X45.247 Y30.726 E30.27184
G0 F3600 X45.154 Y31.595
G1 F1800 X45.645 Y30.859 E30.30127
G1 X46.2 Y30.169 E30.33072
G1 X46.815 Y29.532 E30.36017
G1 X47.485 Y28.954 E30.3896
G1 X48.204 Y28.438 E30.41904
G1 X48.967 Y27.989 E30.44848
G1 X49.768 Y27.611 E30.47794
G1 X50.599 Y27.307 E30.50737
G1 X51.454 Y27.079 E30.5368
G1 X52.327 Y26.929 E30.56627
G1 X53.549 Y26.852 E30.60699
G1 X62.549 Y26.852 E30.90633
G1 X63.433 Y26.892 E30.93576
G1 X64.31 Y27.012 E30.9652
G1 X65.173 Y27.21 E30.99465
G1 X66.014 Y27.485 E31.02408
G1 X66.827 Y27.835 E31.05352
G1 X67.606 Y28.257 E31.08299
G1 X68.342 Y28.748 E31.11242
G1 X69.032 Y29.303 E31.14187
G1 X69.669 Y29.918 E31.17132
G1 X70.247 Y30.588 E31.20075
G1 X70.763 Y31.307 E31.23018
G1 X71.212 Y32.07 E31.25963
G1 X71.59 Y32.871 E31.28909
G1 X71.894 Y33.702 E31.31852
G1 X72.122 Y34.557 E31.34795
G1 X72.272 Y35.43 E31.37741
G1 X72.349 Y36.652 E31.41814
G1 X72.349 Y36.852 E31.42479
G1 X82.349 Y36.852 E31.75739
G1 X83.233 Y36.892 E31.78682
G1 X84.11 Y37.012 E31.81626
G1 X84.973 Y37.21 E31.84571
G1 X85.814 Y37.485 E31.87514
G1 X86.627 Y37.835 E31.90458
G1 X87.406 Y38.257 E31.93405
G1 X88.142 Y38.748 E31.96347
G1 X88.832 Y39.303 E31.99293
G1 X89.469 Y39.918 E32.02238
G1 X90.047 Y40.588 E32.05181
G1 X90.563 Y41.307 E32.08124
G1 X91.012 Y42.07 E32.11069
G1 X91.39 Y42.871 E32.14015
G1 X91.694 Y43.702 E32.16958
G1 X91.922 Y44.557 E32.19901
