;FLAVOR:Marlin
;TIME:6294
;Filament used: 8.60546m
;Layer height: 0.3
;MINX:66.853
;MINY:26.095
;MINZ:0.2
;MAXX:166.653
;MAXY:126.925
;MAXZ:14
;Generated with Cura_SteamEngine 4.4.0
M82 ;absolute extrusion mode
G21 ; set units to millimeters
G90 ; use absolute positioning
M82 ; absolute extrusion mode
M104 S215 ; set extruder temp
M140 S65 ; set bed temp
M190 S65 ; wait for bed temp
M109 S215 ; wait for extruder temp
G28 W ; home all without mesh bed level
G80 ; mesh bed leveling
G92 E0.0 ; reset extruder distance position
G1 Y-3.0 F1000.0 ; go outside print area
G1 X60.0 E9.0 F1000.0 ; intro line
G1 X100.0 E21.5 F1000.0 ; intro line
G92 E0.0 ; reset extruder distance position
G92 E0
G92 E0
G1 F2100 E-0.8
;LAYER_COUNT:47
;LAYER:0
M107
;MESH:multichannel_cameramount_tslot_part.stl
G0 F3600 X110.959 Y34.33 Z0.2
;TYPE:WALL-OUTER
G1 F2100 E0
G1 F1800 X110.642 Y34.436 E0.01112
G1 X110.355 Y34.604 E0.02218
G1 X110.11 Y34.823 E0.03311
G1 X109.913 Y35.094 E0.04425
G1 X109.777 Y35.4 E0.05539
G1 X109.707 Y35.727 E0.06651
G1 X109.707 Y36.055 E0.07742
G1 X109.777 Y36.389 E0.08877
G1 X109.913 Y36.696 E0.09994
G1 X110.114 Y36.971 E0.11127
G1 X110.365 Y37.193 E0.12241
G1 X110.655 Y37.36 E0.13354
G1 X110.973 Y37.462 E0.14465
G1 X111.306 Y37.495 E0.15578
G1 X111.64 Y37.459 E0.16695
G1 X111.957 Y37.354 E0.17806
G1 X112.244 Y37.185 E0.18914
G1 X112.489 Y36.967 E0.20005
G1 X112.686 Y36.695 E0.21122
G1 X112.822 Y36.389 E0.22235
G1 X112.892 Y36.062 E0.23348
G1 X112.892 Y35.727 E0.24462
G1 X112.822 Y35.4 E0.25574
G1 X112.686 Y35.094 E0.26688
G1 X112.485 Y34.819 E0.27821
G1 X112.234 Y34.596 E0.28938
G1 X111.944 Y34.43 E0.30049
G1 X111.626 Y34.327 E0.31161
G1 X111.292 Y34.295 E0.32277
G1 X110.959 Y34.33 E0.3339
G0 F3600 X110.77 Y34.393
G0 X110.613 Y33.92
G0 X123.907 Y33.833
G0 X123.959 Y34.33
G1 F1800 X123.642 Y34.436 E0.34502
G1 X123.355 Y34.604 E0.35608
G1 X123.11 Y34.823 E0.36701
G1 X122.913 Y35.094 E0.37815
G1 X122.777 Y35.4 E0.38929
G1 X122.707 Y35.727 E0.40041
G1 X122.707 Y36.055 E0.41132
G1 X122.777 Y36.389 E0.42267
G1 X122.913 Y36.696 E0.43384
G1 X123.114 Y36.971 E0.44517
G1 X123.365 Y37.193 E0.45632
G1 X123.655 Y37.36 E0.46745
G1 X123.973 Y37.462 E0.47855
G1 X124.306 Y37.495 E0.48968
G1 X124.64 Y37.459 E0.50086
G1 X124.957 Y37.354 E0.51196
G1 X125.244 Y37.185 E0.52304
G1 X125.489 Y36.967 E0.53395
G1 X125.686 Y36.695 E0.54512
G1 X125.822 Y36.389 E0.55626
G1 X125.892 Y36.062 E0.56738
G1 X125.892 Y35.727 E0.57852
G1 X125.822 Y35.4 E0.58964
G1 X125.686 Y35.094 E0.60078
G1 X125.485 Y34.819 E0.61211
G1 X125.234 Y34.596 E0.62328
G1 X124.944 Y34.43 E0.63439
G1 X124.626 Y34.327 E0.64551
G1 X124.292 Y34.295 E0.65667
G1 X123.959 Y34.33 E0.66781
G0 F3600 X123.77 Y34.393
G0 X123.613 Y33.92
G0 X122.783 Y34.527
G0 X117.053 Y49.957
G0 X117.163 Y50.445
G1 F1800 X116.825 Y50.591 E0.68005
G1 X116.518 Y50.793 E0.69227
G1 X116.255 Y51.046 E0.70441
G1 X116.039 Y51.343 E0.71663
G1 X115.879 Y51.674 E0.72885
G1 X115.781 Y52.028 E0.74107
G1 X115.748 Y52.395 E0.75333
G1 X115.781 Y52.761 E0.76555
G1 X115.879 Y53.115 E0.77777
G1 X116.039 Y53.447 E0.79002
G1 X116.258 Y53.747 E0.80238
G1 X116.524 Y54 E0.81459
G1 X116.831 Y54.202 E0.82681
G1 X117.169 Y54.346 E0.83903
G1 X117.527 Y54.427 E0.85124
G1 X117.891 Y54.444 E0.86336
G1 X118.259 Y54.393 E0.87572
G1 X118.609 Y54.279 E0.88796
G1 X118.933 Y54.105 E0.90019
G1 X119.217 Y53.877 E0.9123
G1 X119.459 Y53.6 E0.92454
G1 X119.647 Y53.284 E0.93677
G1 X119.777 Y52.941 E0.94897
G1 X119.842 Y52.579 E0.9612
G1 X119.842 Y52.211 E0.97344
G1 X119.777 Y51.85 E0.98564
G1 X119.647 Y51.505 E0.9979
G1 X119.458 Y51.189 E1.01015
G1 X119.214 Y50.911 E1.02245
G1 X118.926 Y50.681 E1.03471
G1 X118.602 Y50.508 E1.04693
G1 X118.252 Y50.395 E1.05916
G1 X117.887 Y50.346 E1.07141
G1 X117.521 Y50.364 E1.0836
G1 X117.163 Y50.445 E1.0958
G0 F3600 X116.98 Y50.524
G0 X116.783 Y50.065
G0 X115.922 Y50.756
G0 X112.743 Y59.618
G0 X112.277 Y59.441
G1 F1800 X112.342 Y59.079 E1.10804
G1 X112.342 Y58.711 E1.12028
G1 X112.277 Y58.35 E1.13248
G1 X112.147 Y58.005 E1.14474
G1 X111.958 Y57.689 E1.15699
G1 X111.714 Y57.411 E1.16929
G1 X111.426 Y57.181 E1.18155
G1 X111.102 Y57.008 E1.19376
G1 X110.752 Y56.895 E1.206
G1 X110.388 Y56.846 E1.21821
G1 X110.021 Y56.863 E1.23043
G1 X109.662 Y56.945 E1.24268
G1 X109.325 Y57.091 E1.25489
G1 X109.018 Y57.293 E1.26712
G1 X108.755 Y57.546 E1.27926
G1 X108.539 Y57.843 E1.29147
G1 X108.379 Y58.174 E1.3037
G1 X108.281 Y58.528 E1.31591
G1 X108.248 Y58.895 E1.32817
G1 X108.281 Y59.261 E1.34039
G1 X108.379 Y59.615 E1.35261
G1 X108.539 Y59.947 E1.36487
G1 X108.758 Y60.247 E1.37722
G1 X109.024 Y60.5 E1.38943
G1 X109.331 Y60.702 E1.40165
G1 X109.669 Y60.846 E1.41387
G1 X110.027 Y60.927 E1.42608
G1 X110.391 Y60.944 E1.4382
G1 X110.759 Y60.893 E1.45056
G1 X111.109 Y60.779 E1.4628
G1 X111.433 Y60.605 E1.47503
G1 X111.717 Y60.377 E1.48715
G1 X111.959 Y60.1 E1.49938
G1 X112.147 Y59.784 E1.51161
G1 X112.277 Y59.441 E1.52381
G0 F3600 X112.312 Y59.244
G0 X112.803 Y59.332
G0 X112.316 Y60.359
G0 X105.599 Y65.595
G0 X105.099 Y65.595
G1 F1800 X105.099 Y26.095 E2.83759
G1 X129.699 Y26.095 E3.65579
G1 X129.699 Y65.595 E4.96956
G1 X153.199 Y65.595 E5.75117
G1 X153.199 Y98.195 E6.83545
G1 X81.599 Y98.195 E9.21688
G1 X81.599 Y65.595 E10.30116
G1 X105.099 Y65.595 E11.08277
G0 F3600 X105.099 Y65.395
G0 X105.599 Y65.395
G0 X125.371 Y61.443
G0 X125.394 Y60.944
G1 F1800 X125.759 Y60.893 E11.09503
G1 X126.109 Y60.779 E11.10727
G1 X126.433 Y60.605 E11.11951
G1 X126.717 Y60.377 E11.13162
G1 X126.959 Y60.1 E11.14385
G1 X127.147 Y59.784 E11.15608
G1 X127.277 Y59.441 E11.16828
G1 X127.342 Y59.079 E11.18052
G1 X127.342 Y58.711 E11.19276
G1 X127.277 Y58.35 E11.20496
G1 X127.147 Y58.005 E11.21722
G1 X126.958 Y57.689 E11.22946
G1 X126.714 Y57.411 E11.24177
G1 X126.426 Y57.181 E11.25403
G1 X126.102 Y57.008 E11.26624
G1 X125.752 Y56.895 E11.27847
G1 X125.388 Y56.846 E11.29069
G1 X125.021 Y56.863 E11.30291
G1 X124.662 Y56.945 E11.31516
G1 X124.325 Y57.091 E11.32737
G1 X124.018 Y57.293 E11.3396
G1 X123.755 Y57.546 E11.35173
G1 X123.539 Y57.843 E11.36395
G1 X123.379 Y58.174 E11.37618
G1 X123.281 Y58.528 E11.38839
G1 X123.248 Y58.895 E11.40065
G1 X123.281 Y59.261 E11.41287
G1 X123.379 Y59.615 E11.42509
G1 X123.539 Y59.947 E11.43735
G1 X123.755 Y60.244 E11.44956
G1 X124.024 Y60.5 E11.46191
G1 X124.331 Y60.702 E11.47413
G1 X124.669 Y60.846 E11.48635
G1 X125.027 Y60.927 E11.49856
G1 X125.394 Y60.944 E11.51078
G0 F3600 X125.592 Y60.917
G0 X125.66 Y61.412
G0 X134.499 Y86.411
G0 X135.854 Y90.089
G0 X136.258 Y89.797
G1 F1800 X136.753 Y90.478 E11.53878
G1 X137.369 Y91.07 E11.5672
G1 X138.072 Y91.534 E11.59522
G1 X138.847 Y91.866 E11.62326
G1 X139.668 Y92.053 E11.65126
G1 X140.51 Y92.091 E11.6793
G1 X141.346 Y91.978 E11.70736
G1 X142.147 Y91.718 E11.73536
G1 X142.889 Y91.318 E11.7634
G1 X143.548 Y90.792 E11.79145
G1 X144.095 Y90.166 E11.8191
G1 X144.529 Y89.443 E11.84714
G1 X144.826 Y88.656 E11.87512
G1 X144.978 Y87.826 E11.90319
G1 X144.981 Y86.984 E11.93119
G1 X144.834 Y86.155 E11.95919
G1 X144.539 Y85.365 E11.98724
G1 X144.109 Y84.641 E12.01525
G1 X143.555 Y84.005 E12.0433
G1 X142.889 Y83.472 E12.07167
G1 X142.147 Y83.072 E12.09971
G1 X141.346 Y82.812 E12.12772
G1 X140.51 Y82.698 E12.15578
G1 X139.668 Y82.736 E12.18382
G1 X138.847 Y82.924 E12.21183
G1 X138.072 Y83.255 E12.23986
G1 X137.369 Y83.72 E12.26789
G1 X136.76 Y84.302 E12.29591
G1 X136.271 Y84.975 E12.32358
G1 X135.903 Y85.734 E12.35163
G1 X135.677 Y86.545 E12.37964
G1 X135.6 Y87.384 E12.40766
G1 X135.672 Y88.223 E12.43567
G1 X135.895 Y89.036 E12.46371
G1 X136.258 Y89.797 E12.49175
G0 F3600 X136.375 Y89.958
G0 X135.971 Y90.25
G0 X95.529 Y92.531
G0 X94.609 Y92.49
G0 X93.711 Y92.286
G0 X92.864 Y91.923
G0 X92.094 Y91.415
G0 X90.854 Y90.089
G0 X91.258 Y89.797
G1 F1800 X91.753 Y90.478 E12.51975
G1 X92.369 Y91.07 E12.54817
G1 X93.072 Y91.534 E12.57618
G1 X93.847 Y91.866 E12.60422
G1 X94.668 Y92.053 E12.63223
G1 X95.51 Y92.091 E12.66026
G1 X96.346 Y91.978 E12.68832
G1 X97.147 Y91.718 E12.71633
G1 X97.889 Y91.318 E12.74437
G1 X98.548 Y90.792 E12.77241
G1 X99.095 Y90.166 E12.80006
G1 X99.529 Y89.443 E12.82811
G1 X99.826 Y88.656 E12.85609
G1 X99.978 Y87.826 E12.88415
G1 X99.981 Y86.984 E12.91216
G1 X99.834 Y86.155 E12.94016
G1 X99.539 Y85.365 E12.96821
G1 X99.109 Y84.641 E12.99621
G1 X98.555 Y84.005 E13.02427
G1 X97.889 Y83.472 E13.05264
G1 X97.147 Y83.072 E13.08068
G1 X96.346 Y82.812 E13.10869
G1 X95.51 Y82.698 E13.13675
G1 X94.668 Y82.736 E13.16478
G1 X93.847 Y82.924 E13.1928
G1 X93.072 Y83.255 E13.22082
G1 X92.369 Y83.72 E13.24886
G1 X91.76 Y84.302 E13.27688
G1 X91.271 Y84.975 E13.30455
G1 X90.903 Y85.734 E13.3326
G1 X90.677 Y86.545 E13.3606
G1 X90.6 Y87.384 E13.38862
G1 X90.672 Y88.223 E13.41663
G1 X90.895 Y89.036 E13.44467
G1 X91.258 Y89.797 E13.47271
G0 F3600 X91.375 Y89.958
G0 X90.913 Y90.002
;TYPE:WALL-INNER
G1 F1800 X91.45 Y90.742 E13.50313
G1 X92.118 Y91.384 E13.53394
G1 X92.882 Y91.888 E13.56438
G1 X93.723 Y92.248 E13.59481
G1 X94.614 Y92.451 E13.6252
G1 X95.528 Y92.492 E13.65563
G1 X96.435 Y92.37 E13.68607
G1 X97.305 Y92.087 E13.7165
G1 X98.11 Y91.653 E13.74692
G1 X98.826 Y91.082 E13.77738
G1 X99.42 Y90.402 E13.80741
G1 X99.891 Y89.618 E13.83783
G1 X100.213 Y88.764 E13.86818
G1 X100.378 Y87.863 E13.89865
G1 X100.381 Y86.95 E13.92902
G1 X100.221 Y86.049 E13.95945
G1 X99.901 Y85.192 E13.98988
G1 X99.434 Y84.406 E14.02029
G1 X98.833 Y83.715 E14.05075
G1 X98.111 Y83.137 E14.08151
G1 X97.305 Y82.703 E14.11196
G1 X96.435 Y82.42 E14.14238
G1 X95.528 Y82.297 E14.17283
G1 X94.614 Y82.338 E14.20326
G1 X93.723 Y82.542 E14.23366
G1 X92.882 Y82.901 E14.26407
G1 X92.118 Y83.406 E14.29453
G1 X91.458 Y84.038 E14.32493
G1 X90.927 Y84.769 E14.35498
G1 X90.527 Y85.592 E14.38541
G1 X90.282 Y86.472 E14.41579
G1 X90.198 Y87.383 E14.44622
G1 X90.277 Y88.294 E14.47664
G1 X90.519 Y89.176 E14.50706
G1 X90.913 Y90.002 E14.53749
G0 F3600 X90.828 Y90.053
G0 X90.482 Y89.189
G0 X90.238 Y88.301
G0 X90.158 Y87.383
G0 X90.243 Y86.465
G0 X90.49 Y85.578
G0 X90.893 Y84.749
G0 X105.569 Y66.065
G0 X105.499 Y65.995
G1 F1800 X105.499 Y26.495 E15.85127
G1 X129.299 Y26.495 E16.64286
G1 X129.299 Y65.995 E17.95664
G1 X152.799 Y65.995 E18.73825
G1 X152.799 Y97.795 E19.79592
G1 X81.999 Y97.795 E22.15074
G1 X81.999 Y65.995 E23.20841
G1 X105.499 Y65.995 E23.99002
G0 F3600 X105.569 Y66.065
G0 X107.966 Y58.018
G0 X108.422 Y57.256
G0 X109.525 Y56.525
G0 X110.407 Y56.406
G0 X111.702 Y56.762
G0 X111.647 Y56.845
G1 F1800 X111.259 Y56.638 E24.00465
G1 X110.841 Y56.503 E24.01926
G1 X110.406 Y56.445 E24.03386
G1 X109.967 Y56.465 E24.04847
G1 X109.537 Y56.563 E24.06314
G1 X109.134 Y56.738 E24.07776
G1 X108.767 Y56.979 E24.09236
G1 X108.452 Y57.282 E24.1069
G1 X108.194 Y57.637 E24.12149
G1 X108.003 Y58.032 E24.13608
G1 X107.886 Y58.456 E24.15071
G1 X107.846 Y58.895 E24.16538
G1 X107.886 Y59.333 E24.18
G1 X108.003 Y59.756 E24.1946
G1 X108.194 Y60.153 E24.20925
G1 X108.456 Y60.512 E24.22404
G1 X108.774 Y60.814 E24.23862
G1 X109.141 Y61.056 E24.25324
G1 X109.545 Y61.228 E24.26785
G1 X109.973 Y61.325 E24.28244
G1 X110.409 Y61.345 E24.29696
G1 X110.849 Y61.284 E24.31174
G1 X111.267 Y61.148 E24.32636
G1 X111.655 Y60.94 E24.341
G1 X111.995 Y60.667 E24.3555
G1 X112.284 Y60.336 E24.37012
G1 X112.509 Y59.958 E24.38475
G1 X112.664 Y59.548 E24.39933
G1 X112.742 Y59.115 E24.41396
G1 X112.742 Y58.675 E24.42859
G1 X112.664 Y58.243 E24.44319
G1 X112.509 Y57.83 E24.45787
G1 X112.283 Y57.452 E24.47251
G1 X111.991 Y57.121 E24.48719
G1 X111.647 Y56.845 E24.50186
G0 F3600 X111.702 Y56.762
G0 X115.922 Y50.756
G0 X117.007 Y49.968
G0 X117.038 Y50.063
G1 F1800 X116.634 Y50.238 E24.51651
G1 X116.267 Y50.479 E24.53111
G1 X115.952 Y50.782 E24.54565
G1 X115.694 Y51.137 E24.56024
G1 X115.503 Y51.532 E24.57484
G1 X115.386 Y51.956 E24.58947
G1 X115.346 Y52.395 E24.60413
G1 X115.386 Y52.833 E24.61876
G1 X115.503 Y53.256 E24.63335
G1 X115.694 Y53.653 E24.64801
G1 X115.956 Y54.012 E24.66279
G1 X116.274 Y54.314 E24.67738
G1 X116.641 Y54.556 E24.692
G1 X117.045 Y54.728 E24.7066
G1 X117.473 Y54.825 E24.7212
G1 X117.909 Y54.845 E24.73571
G1 X118.349 Y54.784 E24.75049
G1 X118.767 Y54.648 E24.76511
G1 X119.155 Y54.44 E24.77975
G1 X119.495 Y54.167 E24.79425
G1 X119.784 Y53.836 E24.80887
G1 X120.009 Y53.458 E24.8235
G1 X120.164 Y53.048 E24.83808
G1 X120.242 Y52.615 E24.85271
G1 X120.242 Y52.175 E24.86735
G1 X120.164 Y51.743 E24.88195
G1 X120.009 Y51.33 E24.89662
G1 X119.783 Y50.952 E24.91127
G1 X119.491 Y50.621 E24.92595
G1 X119.147 Y50.345 E24.94062
G1 X118.759 Y50.138 E24.95524
G1 X118.341 Y50.003 E24.96985
G1 X117.904 Y49.945 E24.98451
G1 X117.467 Y49.966 E24.99907
G1 X117.038 Y50.063 E25.01369
G0 F3600 X117.007 Y49.968
G0 X117.905 Y49.906
G0 X118.774 Y50.102
G0 X126.702 Y56.762
G0 X126.647 Y56.845
G1 F1800 X126.259 Y56.638 E25.02832
G1 X125.841 Y56.503 E25.04293
G1 X125.406 Y56.445 E25.05753
G1 X124.967 Y56.465 E25.07214
G1 X124.537 Y56.563 E25.08681
G1 X124.134 Y56.738 E25.10143
G1 X123.767 Y56.979 E25.11603
G1 X123.452 Y57.282 E25.13057
G1 X123.194 Y57.637 E25.14516
G1 X123.003 Y58.032 E25.15975
G1 X122.886 Y58.456 E25.17438
G1 X122.846 Y58.895 E25.18905
G1 X122.886 Y59.333 E25.20367
G1 X123.003 Y59.756 E25.21827
G1 X123.194 Y60.153 E25.23292
G1 X123.453 Y60.509 E25.24757
G1 X123.774 Y60.814 E25.26229
G1 X124.141 Y61.056 E25.27692
G1 X124.545 Y61.228 E25.29152
G1 X124.973 Y61.325 E25.30612
G1 X125.413 Y61.345 E25.32077
G1 X125.849 Y61.284 E25.33541
G1 X126.267 Y61.148 E25.35003
G1 X126.655 Y60.94 E25.36467
G1 X126.995 Y60.667 E25.37917
G1 X127.284 Y60.336 E25.39379
G1 X127.509 Y59.958 E25.40842
G1 X127.664 Y59.548 E25.423
G1 X127.742 Y59.115 E25.43763
G1 X127.742 Y58.675 E25.45227
G1 X127.664 Y58.243 E25.46687
G1 X127.509 Y57.83 E25.48154
G1 X127.283 Y57.452 E25.49619
G1 X126.991 Y57.121 E25.51087
G1 X126.647 Y56.845 E25.52554
G0 F3600 X126.702 Y56.762
G0 X126.331 Y35.681
G0 X126.068 Y34.873
G0 X124.728 Y33.836
G0 X124.708 Y33.933
G1 F1800 X124.29 Y33.893 E25.5395
G1 X123.874 Y33.937 E25.55342
G1 X123.476 Y34.07 E25.56737
G1 X123.118 Y34.279 E25.58116
G1 X122.812 Y34.553 E25.59482
G1 X122.565 Y34.893 E25.6088
G1 X122.395 Y35.276 E25.62274
G1 X122.307 Y35.685 E25.63665
G1 X122.307 Y36.096 E25.65032
G1 X122.394 Y36.512 E25.66446
G1 X122.565 Y36.897 E25.67847
G1 X122.817 Y37.242 E25.69268
G1 X123.13 Y37.519 E25.70658
G1 X123.492 Y37.728 E25.72048
G1 X123.891 Y37.856 E25.73442
G1 X124.308 Y37.897 E25.74836
G1 X124.725 Y37.852 E25.76231
G1 X125.123 Y37.72 E25.77625
G1 X125.481 Y37.51 E25.79006
G1 X125.787 Y37.237 E25.8037
G1 X126.035 Y36.896 E25.81772
G1 X126.204 Y36.513 E25.83164
G1 X126.292 Y36.104 E25.84556
G1 X126.292 Y35.685 E25.8595
G1 X126.204 Y35.276 E25.87341
G1 X126.034 Y34.892 E25.88738
G1 X125.783 Y34.548 E25.90154
G1 X125.469 Y34.269 E25.91551
G1 X125.107 Y34.062 E25.92938
G1 X124.708 Y33.933 E25.94333
G0 F3600 X124.728 Y33.836
G0 X111.728 Y33.836
G0 X111.708 Y33.933
G1 F1800 X111.29 Y33.893 E25.95729
G1 X110.874 Y33.937 E25.97121
G1 X110.476 Y34.07 E25.98516
G1 X110.118 Y34.279 E25.99895
G1 X109.812 Y34.553 E26.01261
G1 X109.565 Y34.893 E26.02659
G1 X109.395 Y35.276 E26.04053
G1 X109.307 Y35.685 E26.05444
G1 X109.307 Y36.096 E26.06811
G1 X109.394 Y36.512 E26.08225
G1 X109.565 Y36.897 E26.09626
G1 X109.817 Y37.242 E26.11047
G1 X110.13 Y37.519 E26.12437
G1 X110.492 Y37.728 E26.13827
G1 X110.891 Y37.856 E26.15221
G1 X111.308 Y37.897 E26.16615
G1 X111.725 Y37.852 E26.1801
G1 X112.123 Y37.72 E26.19404
G1 X112.481 Y37.51 E26.20785
G1 X112.787 Y37.237 E26.22149
G1 X113.035 Y36.896 E26.23551
G1 X113.204 Y36.513 E26.24944
G1 X113.292 Y36.104 E26.26335
G1 X113.292 Y35.685 E26.27729
G1 X113.204 Y35.276 E26.2912
G1 X113.034 Y34.892 E26.30517
G1 X112.783 Y34.548 E26.31933
G1 X112.469 Y34.269 E26.3333
G1 X112.107 Y34.062 E26.34717
G1 X111.708 Y33.933 E26.36112
G0 F3600 X111.728 Y33.836
G0 X112.492 Y34.237
G0 X113.068 Y34.873
G0 X120.202 Y51.733
G0 X120.281 Y52.618
G0 X135.828 Y90.053
G0 X135.913 Y90.002
G1 F1800 X136.45 Y90.742 E26.39153
G1 X137.118 Y91.384 E26.42235
G1 X137.882 Y91.888 E26.45279
G1 X138.723 Y92.248 E26.48321
G1 X139.614 Y92.451 E26.51361
G1 X140.528 Y92.492 E26.54404
