;FLAVOR:Marlin
;TIME:204
;Filament used: 0.221132m
;Layer height: 0.3
;MINX:100.201
;MINY:98.238
;MINZ:0.2
;MAXX:131.799
;MAXY:117.762
;MAXZ:2.3
;Generated with Cura_SteamEngine 4.4.0
M82 ;absolute extrusion mode
G21 ; set units to millimeters
G90 ; use absolute positioning
M82 ; absolute extrusion mode
M104 S215 ; set extruder temp
M140 S65 ; set bed temp
M190 S65 ; wait for bed temp
M109 S215 ; wait for extruder temp
G28 W ; home all without mesh bed level
G80 ; mesh bed leveling
G92 E0.0 ; reset extruder distance position
G1 Y-3.0 F1000.0 ; go outside print area
G1 X60.0 E9.0 F1000.0 ; intro line
G1 X100.0 E21.5 F1000.0 ; intro line
G92 E0.0 ; reset extruder distance position
G92 E0
G92 E0
G1 F2100 E-0.8
;LAYER_COUNT:8
;LAYER:0
M107
;MESH:backspacer.stl(1)
G0 F3600 X104.67 Y109.961 Z0.2
;TYPE:WALL-OUTER
G1 F2100 E0
G1 F1800 X104.504 Y110.469 E0.01778
G1 X104.449 Y111 E0.03553
G1 X104.504 Y111.531 E0.05329
G1 X104.669 Y112.038 E0.07102
G1 X104.937 Y112.5 E0.08878
G1 X105.311 Y112.909 E0.10722
G1 X105.744 Y113.218 E0.12491
G1 X106.232 Y113.431 E0.14262
G1 X106.755 Y113.537 E0.16037
G1 X107.288 Y113.533 E0.1781
G1 X107.808 Y113.418 E0.19581
G1 X108.292 Y113.197 E0.21351
G1 X108.707 Y112.895 E0.23058
G1 X109.064 Y112.499 E0.24831
G1 X109.331 Y112.038 E0.26603
G1 X109.496 Y111.531 E0.28376
G1 X109.551 Y111 E0.30152
G1 X109.496 Y110.469 E0.31927
G1 X109.331 Y109.962 E0.33701
G1 X109.063 Y109.5 E0.35477
G1 X108.689 Y109.091 E0.37321
G1 X108.256 Y108.782 E0.3909
G1 X107.768 Y108.569 E0.40861
G1 X107.245 Y108.463 E0.42636
G1 X106.712 Y108.467 E0.44408
G1 X106.192 Y108.582 E0.4618
G1 X105.708 Y108.803 E0.47949
G1 X105.294 Y109.105 E0.49654
G1 X104.951 Y109.484 E0.51354
G1 X104.67 Y109.961 E0.53195
G0 F3600 X104.608 Y110.151
G0 X104.133 Y109.997
G0 X104.595 Y109.223
G0 X110.145 Y105.545
G0 X110.398 Y105.112
G1 F1800 X111.549 Y105.948 E0.57927
G1 X112.464 Y106.964 E0.62474
G1 X113.181 Y108.181 E0.67172
G1 X113.631 Y109.531 E0.71905
G1 X113.792 Y110.945 E0.76639
G1 X113.657 Y112.355 E0.8135
G1 X113.229 Y113.71 E0.86076
G1 X112.53 Y114.945 E0.90796
G1 X111.587 Y116.01 E0.95527
G1 X110.398 Y116.888 E1.00443
G1 X109.102 Y117.465 E1.05162
G1 X107.709 Y117.762 E1.09899
G1 X106.291 Y117.762 E1.14615
G1 X104.898 Y117.465 E1.19353
G1 X103.602 Y116.888 E1.24071
G1 X102.451 Y116.052 E1.28802
G1 X101.536 Y115.036 E1.3335
G1 X100.819 Y113.819 E1.38048
G1 X100.369 Y112.469 E1.42781
G1 X100.208 Y111.055 E1.47514
G1 X100.343 Y109.645 E1.52226
G1 X100.771 Y108.29 E1.56952
G1 X101.47 Y107.055 E1.61672
G1 X102.413 Y105.99 E1.66403
G1 X103.602 Y105.112 E1.71319
G1 X104.898 Y104.535 E1.76037
G1 X106.291 Y104.238 E1.80775
G1 X107.709 Y104.238 E1.85491
G1 X109.102 Y104.535 E1.90228
G1 X110.398 Y105.112 E1.94947
G0 F3600 X110.559 Y105.229
G0 X110.195 Y105.459
;TYPE:WALL-INNER
G1 F1800 X111.281 Y106.248 E1.99411
G1 X112.139 Y107.201 E2.03676
G1 X112.817 Y108.351 E2.08117
G1 X113.239 Y109.617 E2.12555
G1 X113.39 Y110.945 E2.17
G1 X113.263 Y112.277 E2.21451
G1 X112.863 Y113.544 E2.2587
G1 X112.202 Y114.713 E2.30337
G1 X111.319 Y115.71 E2.34766
G1 X110.193 Y116.542 E2.39423
G1 X108.978 Y117.083 E2.43846
G1 X107.668 Y117.362 E2.48301
G1 X106.332 Y117.362 E2.52745
G1 X105.022 Y117.083 E2.57199
G1 X103.805 Y116.541 E2.6163
G1 X102.719 Y115.752 E2.66095
G1 X101.861 Y114.799 E2.7036
G1 X101.183 Y113.649 E2.748
G1 X100.761 Y112.383 E2.79239
G1 X100.61 Y111.053 E2.83691
G1 X100.737 Y109.723 E2.88135
G1 X101.139 Y108.452 E2.92568
G1 X101.798 Y107.287 E2.9702
G1 X102.681 Y106.29 E3.0145
G1 X103.807 Y105.458 E3.06106
G1 X105.022 Y104.917 E3.1053
G1 X106.332 Y104.638 E3.14985
G1 X107.668 Y104.638 E3.19428
G1 X108.978 Y104.917 E3.23883
G1 X110.195 Y105.459 E3.28314
G0 F3600 X110.145 Y105.545
G0 X105.485 Y108.422
G0 X104.212 Y109.754
G0 X104.303 Y109.795
G1 F1800 X104.111 Y110.385 E3.30378
G1 X104.047 Y111 E3.32434
G1 X104.111 Y111.614 E3.34487
G1 X104.302 Y112.202 E3.36544
G1 X104.613 Y112.738 E3.38605
G1 X105.044 Y113.21 E3.40731
G1 X105.546 Y113.568 E3.42782
G1 X106.111 Y113.815 E3.44832
G1 X106.716 Y113.937 E3.46885
G1 X107.333 Y113.933 E3.48937
G1 X107.936 Y113.799 E3.50992
G1 X108.495 Y113.544 E3.53035
G1 X108.976 Y113.194 E3.55014
G1 X109.389 Y112.736 E3.57065
G1 X109.698 Y112.202 E3.59117
G1 X109.889 Y111.614 E3.61173
G1 X109.953 Y111 E3.63227
G1 X109.889 Y110.386 E3.6528
G1 X109.698 Y109.798 E3.67336
G1 X109.387 Y109.262 E3.69397
G1 X108.956 Y108.79 E3.71523
G1 X108.454 Y108.432 E3.73574
G1 X107.889 Y108.185 E3.75625
G1 X107.284 Y108.063 E3.77678
G1 X106.667 Y108.067 E3.7973
G1 X106.064 Y108.201 E3.81784
G1 X105.505 Y108.456 E3.83828
G1 X105.025 Y108.806 E3.85804
G1 X104.627 Y109.246 E3.87777
G1 X104.303 Y109.795 E3.89897
G0 F3600 X103.946 Y109.633
;TYPE:SKIN
G1 F1800 X103.727 Y110.303 E3.92242
G1 X103.655 Y111 E3.94572
G1 X103.727 Y111.696 E3.969
G1 X103.944 Y112.362 E3.99229
G1 X104.297 Y112.97 E4.01568
G1 X104.784 Y113.504 E4.03971
G1 X105.353 Y113.909 E4.06294
G1 X105.993 Y114.189 E4.08618
G1 X106.679 Y114.327 E4.10945
G1 X107.377 Y114.323 E4.13267
G1 X108.061 Y114.171 E4.15597
G1 X108.692 Y113.883 E4.17904
G1 X109.239 Y113.485 E4.20154
G1 X109.706 Y112.966 E4.22476
G1 X110.056 Y112.362 E4.24798
G1 X110.273 Y111.696 E4.27128
G1 X110.345 Y111 E4.29455
G1 X110.273 Y110.304 E4.31782
G1 X110.056 Y109.638 E4.34112
G1 X109.703 Y109.03 E4.36451
G1 X109.216 Y108.496 E4.38854
G1 X108.647 Y108.091 E4.41177
G1 X108.007 Y107.811 E4.43501
G1 X107.321 Y107.673 E4.45828
G1 X106.623 Y107.677 E4.4815
G1 X105.939 Y107.829 E4.5048
G1 X105.308 Y108.117 E4.52787
G1 X104.763 Y108.515 E4.55032
G1 X104.311 Y109.014 E4.57271
G1 X103.946 Y109.633 E4.59661
G0 F3600 X101.499 Y108.607
G1 F1800 X102.116 Y107.518 E4.63824
G1 X102.946 Y106.58 E4.6799
G1 X104.005 Y105.798 E4.72368
G1 X105.142 Y105.291 E4.76509
G1 X106.376 Y105.028 E4.80705
G1 X107.624 Y105.028 E4.84856
G1 X108.858 Y105.291 E4.89053
G1 X109.997 Y105.798 E4.932
G1 X111.02 Y106.542 E4.97407
G1 X111.823 Y107.434 E5.01399
G1 X112.46 Y108.513 E5.05566
G1 X112.855 Y109.699 E5.09724
G1 X112.998 Y110.953 E5.13922
G1 X112.879 Y112.198 E5.18081
G1 X112.503 Y113.389 E5.22235
G1 X111.884 Y114.482 E5.26413
G1 X111.054 Y115.42 E5.30579
G1 X109.995 Y116.202 E5.34957
G1 X108.858 Y116.709 E5.39098
G1 X107.624 Y116.972 E5.43295
G1 X106.376 Y116.972 E5.47445
G1 X105.142 Y116.709 E5.51642
G1 X104.003 Y116.202 E5.55789
G1 X102.98 Y115.458 E5.59996
G1 X102.177 Y114.566 E5.63988
G1 X101.54 Y113.487 E5.68155
G1 X101.145 Y112.301 E5.72313
G1 X101.002 Y111.046 E5.76514
G1 X101.121 Y109.802 E5.8067
G1 X101.499 Y108.607 E5.84839
G0 F3600 X104.219 Y116.099
G1 F1800 X101.953 Y113.832 E5.955
G1 X101.883 Y113.762
G0 F3600 X101.508 Y112.822
G1 F1800 X105.227 Y116.541 E6.12993
G0 F3600 X105.946 Y116.694
G1 F1800 X101.297 Y112.045 E6.34861
G0 F3600 X101.224 Y111.406
G1 F1800 X106.609 Y116.791 E6.6019
G0 F3600 X107.174 Y116.791
G1 F1800 X101.203 Y110.819 E6.88278
G0 F3600 X101.252 Y110.303
G1 F1800 X107.715 Y116.766 E7.18678
G0 F3600 X108.182 Y116.667
G1 F1800 X105.827 Y114.312 E7.29755
G0 F3600 X106.567 Y114.486
G1 F1800 X108.648 Y116.567 E7.39544
G0 F3600 X109.064 Y116.418
G1 F1800 X107.15 Y114.503 E7.48549
G0 F3600 X107.657 Y114.445
G1 F1800 X109.455 Y116.243 E7.57006
G0 F3600 X109.846 Y116.069
G1 F1800 X108.119 Y114.341 E7.65132
G0 F3600 X108.508 Y114.165
G1 F1800 X110.181 Y115.838 E7.73001
G0 F3600 X110.507 Y115.598
G1 F1800 X108.878 Y113.97 E7.80661
G0 F3600 X109.206 Y113.731
G1 F1800 X110.832 Y115.358 E7.88312
G0 F3600 X111.116 Y115.076
G1 F1800 X109.501 Y113.46 E7.9591
G0 F3600 X109.769 Y113.163
G1 F1800 X111.382 Y114.776 E8.03497
G0 F3600 X111.647 Y114.476
G1 F1800 X109.995 Y112.823 E8.1127
G0 F3600 X110.203 Y112.466
G1 F1800 X111.872 Y114.135 E8.19121
G0 F3600 X112.077 Y113.774
G1 F1800 X110.348 Y112.045 E8.27253
G0 F3600 X110.464 Y111.595
G1 F1800 X112.281 Y113.412 E8.358
G0 F3600 X112.435 Y113.001
G1 F1800 X110.517 Y111.082 E8.44824
G0 F3600 X110.47 Y110.47
G1 F1800 X112.572 Y112.572 E8.54711
G0 F3600 X112.704 Y112.138
G1 F1800 X110.264 Y109.699 E8.66186
G1 X110.194 Y109.629
G0 F3600 X112.45 Y109.056
G1 F1800 X108.902 Y105.508 E8.82875
G0 F3600 X108.154 Y105.325
G1 F1800 X112.691 Y109.863 E9.04218
G0 F3600 X112.765 Y110.502
G1 F1800 X107.471 Y105.208 E9.29119
G0 F3600 X106.905 Y105.208
G1 F1800 X112.802 Y111.105 E9.56857
G0 F3600 X112.753 Y111.622
G1 F1800 X106.35 Y105.218 E9.86977
G0 F3600 X105.883 Y105.317
G1 F1800 X108.315 Y107.749 E9.98416
G1 X108.385 Y107.819
G0 F3600 X107.532 Y107.532
G1 F1800 X105.416 Y105.416 E10.08369
G0 F3600 X104.989 Y105.555
G1 F1800 X106.928 Y107.494 E10.1749
G0 F3600 X106.408 Y107.539
G1 F1800 X104.599 Y105.73 E10.25999
G0 F3600 X104.208 Y105.905
G1 F1800 X105.945 Y107.642 E10.34169
G0 F3600 X105.545 Y107.808
G1 F1800 X103.864 Y106.126 E10.42078
G0 F3600 X103.538 Y106.367
G1 F1800 X105.166 Y107.995 E10.49736
G0 F3600 X104.84 Y108.234
G1 F1800 X103.212 Y106.606 E10.57393
G0 F3600 X102.92 Y106.879
G1 F1800 X104.537 Y108.497 E10.65002
G0 F3600 X104.267 Y108.793
G1 F1800 X102.654 Y107.18 E10.72589
G0 F3600 X102.389 Y107.48
G1 F1800 X104.035 Y109.126 E10.80331
G0 F3600 X103.825 Y109.482
G1 F1800 X102.155 Y107.812 E10.88186
G0 F3600 X101.951 Y108.173
G1 F1800 X103.671 Y109.893 E10.96276
G0 F3600 X103.543 Y110.331
G1 F1800 X101.747 Y108.535 E11.04724
G0 F3600 X101.583 Y108.937
G1 F1800 X103.49 Y110.844 E11.13694
G0 F3600 X103.519 Y111.439
G1 F1800 X101.447 Y109.366 E11.23443
G0 F3600 X101.311 Y109.796
G1 F1800 X103.695 Y112.181 E11.34659
G1 X103.765 Y112.251
G0 F3600 X104.072 Y110.377
G0 X104.595 Y109.223
G0 X105.274 Y108.577
G0 X109.941 Y105.981
G1 F1800 X111.928 Y107.968 E11.44005
G1 X111.998 Y108.038
G1 F2100 E10.64005
;MESH:backspacer.stl
G0 F3600 X112.799 Y108.359
G0 X114.015 Y107.952
G0 X117.563 Y106.786
G0 X118.78 Y106.379
G0 X122.195 Y103.807
G0 X122.67 Y103.961
;TYPE:WALL-OUTER
G1 F2100 E11.44005
G1 F1800 X122.504 Y104.469 E11.45782
G1 X122.449 Y105 E11.47558
G1 X122.504 Y105.531 E11.49333
G1 X122.669 Y106.038 E11.51107
G1 X122.937 Y106.5 E11.52883
G1 X123.311 Y106.909 E11.54727
G1 X123.744 Y107.218 E11.56496
G1 X124.232 Y107.431 E11.58267
G1 X124.755 Y107.537 E11.60042
G1 X125.288 Y107.533 E11.61815
G1 X125.808 Y107.418 E11.63586
G1 X126.292 Y107.197 E11.65356
G1 X126.707 Y106.895 E11.67063
G1 X127.064 Y106.499 E11.68836
G1 X127.331 Y106.038 E11.70608
G1 X127.496 Y105.531 E11.72381
G1 X127.551 Y105 E11.74157
G1 X127.496 Y104.469 E11.75932
G1 X127.331 Y103.962 E11.77706
G1 X127.063 Y103.5 E11.79482
G1 X126.689 Y103.091 E11.81325
G1 X126.256 Y102.782 E11.83095
G1 X125.768 Y102.569 E11.84866
G1 X125.245 Y102.463 E11.8664
G1 X124.712 Y102.467 E11.88413
G1 X124.192 Y102.582 E11.90185
G1 X123.708 Y102.803 E11.91954
G1 X123.294 Y103.105 E11.93659
G1 X122.951 Y103.484 E11.95359
G1 X122.67 Y103.961 E11.972
G0 F3600 X122.608 Y104.151
G0 X122.133 Y103.997
G0 X122.595 Y103.223
G0 X128.145 Y99.545
G0 X128.398 Y99.112
G1 F1800 X129.549 Y99.948 E12.01932
G1 X130.464 Y100.964 E12.06479
G1 X131.181 Y102.181 E12.11177
G1 X131.631 Y103.531 E12.1591
G1 X131.792 Y104.945 E12.20644
G1 X131.657 Y106.355 E12.25355
G1 X131.229 Y107.71 E12.30081
G1 X130.53 Y108.945 E12.34801
G1 X129.587 Y110.01 E12.39532
G1 X128.398 Y110.888 E12.44448
G1 X127.102 Y111.465 E12.49167
G1 X125.709 Y111.762 E12.53904
G1 X124.291 Y111.762 E12.5862
G1 X122.898 Y111.465 E12.63357
G1 X121.602 Y110.888 E12.68076
G1 X120.451 Y110.052 E12.72807
G1 X119.536 Y109.036 E12.77355
G1 X118.819 Y107.819 E12.82053
G1 X118.369 Y106.469 E12.86786
G1 X118.208 Y105.055 E12.91519
G1 X118.343 Y103.645 E12.9623
G1 X118.771 Y102.29 E13.00957
G1 X119.47 Y101.055 E13.05677
G1 X120.413 Y99.99 E13.10408
G1 X121.602 Y99.112 E13.15324
G1 X122.898 Y98.535 E13.20042
G1 X124.291 Y98.238 E13.24779
G1 X125.709 Y98.238 E13.29496
G1 X127.102 Y98.535 E13.34233
G1 X128.398 Y99.112 E13.38951
G0 F3600 X128.559 Y99.229
G0 X128.195 Y99.459
;TYPE:WALL-INNER
G1 F1800 X129.281 Y100.248 E13.43416
G1 X130.139 Y101.201 E13.47681
G1 X130.817 Y102.351 E13.52121
G1 X131.239 Y103.617 E13.5656
G1 X131.39 Y104.945 E13.61005
G1 X131.263 Y106.277 E13.65456
G1 X130.863 Y107.544 E13.69875
G1 X130.202 Y108.713 E13.74341
G1 X129.319 Y109.71 E13.78771
G1 X128.193 Y110.542 E13.83427
G1 X126.978 Y111.083 E13.87851
G1 X125.668 Y111.362 E13.92306
G1 X124.332 Y111.362 E13.96749
G1 X123.022 Y111.083 E14.01204
G1 X121.805 Y110.541 E14.05635
G1 X120.719 Y109.752 E14.101
G1 X119.861 Y108.799 E14.14365
G1 X119.183 Y107.649 E14.18805
G1 X118.761 Y106.383 E14.23244
G1 X118.61 Y105.053 E14.27696
G1 X118.737 Y103.723 E14.32139
G1 X119.139 Y102.452 E14.36573
G1 X119.798 Y101.287 E14.41025
G1 X120.681 Y100.29 E14.45455
G1 X121.807 Y99.458 E14.50111
G1 X123.022 Y98.917 E14.54535
G1 X124.332 Y98.638 E14.5899
G1 X125.668 Y98.638 E14.63433
G1 X126.978 Y98.917 E14.67888
G1 X128.195 Y99.459 E14.72319
G0 F3600 X128.145 Y99.545
G0 X123.485 Y102.422
G0 X122.212 Y103.754
G0 X122.303 Y103.795
G1 F1800 X122.111 Y104.385 E14.74383
G1 X122.047 Y105 E14.76439
G1 X122.111 Y105.614 E14.78492
G1 X122.302 Y106.202 E14.80549
G1 X122.613 Y106.738 E14.8261
G1 X123.044 Y107.21 E14.84736
G1 X123.546 Y107.568 E14.86786
G1 X124.111 Y107.815 E14.88837
G1 X124.716 Y107.937 E14.9089
G1 X125.333 Y107.933 E14.92942
G1 X125.936 Y107.799 E14.94997
G1 X126.495 Y107.544 E14.9704
G1 X126.976 Y107.194 E14.99019
G1 X127.389 Y106.736 E15.0107
G1 X127.698 Y106.202 E15.03122
G1 X127.889 Y105.614 E15.05178
G1 X127.953 Y105 E15.07232
G1 X127.889 Y104.386 E15.09285
G1 X127.698 Y103.798 E15.11341
G1 X127.387 Y103.262 E15.13402
G1 X126.956 Y102.79 E15.15528
G1 X126.454 Y102.432 E15.17579
G1 X125.889 Y102.185 E15.1963
G1 X125.284 Y102.063 E15.21682
G1 X124.667 Y102.067 E15.23735
G1 X124.064 Y102.201 E15.25789
G1 X123.505 Y102.456 E15.27833
G1 X123.025 Y102.806 E15.29809
G1 X122.627 Y103.246 E15.31782
G1 X122.303 Y103.795 E15.33902
G0 F3600 X121.946 Y103.633
;TYPE:SKIN
G1 F1800 X121.727 Y104.303 E15.36247
G1 X121.655 Y105 E15.38577
G1 X121.727 Y105.696 E15.40904
G1 X121.944 Y106.362 E15.43234
G1 X122.297 Y106.97 E15.45572
G1 X122.784 Y107.504 E15.47976
G1 X123.353 Y107.909 E15.50299
G1 X123.993 Y108.189 E15.52623
G1 X124.679 Y108.327 E15.5495
G1 X125.377 Y108.323 E15.57272
G1 X126.061 Y108.171 E15.59602
G1 X126.692 Y107.883 E15.61909
G1 X127.239 Y107.485 E15.64159
G1 X127.706 Y106.966 E15.66481
G1 X128.056 Y106.362 E15.68803
G1 X128.273 Y105.696 E15.71133
G1 X128.345 Y105 E15.7346
G1 X128.273 Y104.304 E15.75787
G1 X128.056 Y103.638 E15.78117
G1 X127.703 Y103.03 E15.80455
G1 X127.216 Y102.496 E15.82859
G1 X126.647 Y102.091 E15.85182
G1 X126.007 Y101.811 E15.87506
G1 X125.321 Y101.673 E15.89833
G1 X124.623 Y101.677 E15.92154
G1 X123.939 Y101.829 E15.94485
G1 X123.308 Y102.117 E15.96792
G1 X122.763 Y102.515 E15.99037
G1 X122.311 Y103.014 E16.01276
G1 X121.946 Y103.633 E16.03666
G0 F3600 X119.499 Y102.607
G1 F1800 X120.116 Y101.518 E16.07829
G1 X120.946 Y100.58 E16.11995
G1 X122.005 Y99.798 E16.16373
G1 X123.142 Y99.291 E16.20514
G1 X124.376 Y99.028 E16.2471
G1 X125.624 Y99.028 E16.28861
G1 X126.858 Y99.291 E16.33058
G1 X127.997 Y99.798 E16.37204
G1 X129.02 Y100.542 E16.41412
G1 X129.823 Y101.434 E16.45403
G1 X130.46 Y102.513 E16.49571
G1 X130.855 Y103.699 E16.53729
G1 X130.998 Y104.953 E16.57926
G1 X130.879 Y106.198 E16.62086
G1 X130.503 Y107.389 E16.6624
G1 X129.884 Y108.482 E16.70418
G1 X129.054 Y109.42 E16.74584
G1 X127.995 Y110.202 E16.78962
G1 X126.858 Y110.709 E16.83103
G1 X125.624 Y110.972 E16.87299
G1 X124.376 Y110.972 E16.9145
G1 X123.142 Y110.709 E16.95647
G1 X122.003 Y110.202 E16.99793
G1 X120.98 Y109.458 E17.04001
G1 X120.177 Y108.566 E17.07993
G1 X119.54 Y107.487 E17.1216
G1 X119.145 Y106.301 E17.16318
G1 X119.002 Y105.046 E17.20519
G1 X119.121 Y103.802 E17.24675
G1 X119.499 Y102.607 E17.28844
G0 F3600 X121.47 Y109.59
G1 F1800 X120.298 Y108.419 E17.34354
G1 X120.228 Y108.349
G0 F3600 X119.627 Y107.182
G1 F1800 X122.808 Y110.363 E17.49317
G1 X122.878 Y110.433
G0 F3600 X123.641 Y110.631
G1 F1800 X119.344 Y106.334 E17.69529
G0 F3600 X119.254 Y105.677
G1 F1800 X124.36 Y110.783 E17.93546
G0 F3600 X124.933 Y110.791
G1 F1800 X119.182 Y105.04 E18.20597
