;FLAVOR:Marlin
;TIME:8081
;Filament used: 5.71274m
;Layer height: 0.15
;MINX:93.2
;MINY:14.45
;MINZ:0.2
;MAXX:156.8
;MAXY:195.55
;MAXZ:2.9
;Generated with Cura_SteamEngine 4.4.0
M82 ;absolute extrusion mode
G21 ; set units to millimeters
G90 ; use absolute positioning
M82 ; absolute extrusion mode
M104 S210 ; set extruder temp
M140 S60 ; set bed temp
M190 S60 ; wait for bed temp
M109 S210 ; wait for extruder temp
G28 W ; home all without mesh bed level
G80 ; mesh bed leveling
G92 E0.0 ; reset extruder distance position
G1 Y-3.0 F1000.0 ; go outside print area
G1 X60.0 E9.0 F1000.0 ; intro line
G1 X100.0 E21.5 F1000.0 ; intro line
G92 E0.0 ; reset extruder distance position
G92 E0
G92 E0
G1 F2100 E-0.8
;LAYER_COUNT:19
;LAYER:0
M107
G0 F3600 X93.558 Y23.365 Z0.2
;TYPE:SKIRT
G1 F2100 E0
G1 F1800 X93.834 Y22.433 E0.03233
G1 X94.186 Y21.528 E0.06463
G1 X94.611 Y20.654 E0.09695
G1 X95.107 Y19.819 E0.12925
G1 X95.669 Y19.027 E0.16155
G1 X96.295 Y18.284 E0.19387
G1 X96.98 Y17.595 E0.22618
G1 X97.719 Y16.964 E0.2585
G1 X98.507 Y16.397 E0.29079
G1 X99.339 Y15.896 E0.32309
G1 X100.21 Y15.466 E0.3554
G1 X101.114 Y15.108 E0.38774
G1 X102.043 Y14.826 E0.42003
G1 X102.993 Y14.622 E0.45235
G1 X103.956 Y14.496 E0.48465
G1 X105 Y14.45 E0.51941
G1 X145 Y14.45 E1.84981
G1 X145.971 Y14.49 E1.88214
G1 X146.935 Y14.61 E1.91445
G1 X147.885 Y14.808 E1.94672
G1 X148.817 Y15.084 E1.97905
G1 X149.722 Y15.436 E2.01135
G1 X150.596 Y15.861 E2.04367
G1 X151.431 Y16.357 E2.07597
G1 X152.223 Y16.919 E2.10827
G1 X152.966 Y17.545 E2.14059
G1 X153.655 Y18.23 E2.1729
G1 X154.286 Y18.969 E2.20522
G1 X154.853 Y19.757 E2.23751
G1 X155.354 Y20.589 E2.26981
G1 X155.784 Y21.46 E2.30212
G1 X156.142 Y22.364 E2.33446
G1 X156.424 Y23.293 E2.36675
G1 X156.628 Y24.243 E2.39907
G1 X156.754 Y25.206 E2.43137
G1 X156.8 Y26.25 E2.46613
G1 X156.8 Y183.75 E7.7046
G1 X156.76 Y184.721 E7.73692
G1 X156.64 Y185.685 E7.76923
G1 X156.442 Y186.635 E7.80151
G1 X156.166 Y187.567 E7.83384
G1 X155.814 Y188.472 E7.86614
G1 X155.389 Y189.346 E7.89846
G1 X154.893 Y190.181 E7.93076
G1 X154.331 Y190.973 E7.96306
G1 X153.705 Y191.716 E7.99538
G1 X153.02 Y192.405 E8.02769
G1 X152.281 Y193.036 E8.06001
G1 X151.493 Y193.603 E8.0923
G1 X150.661 Y194.104 E8.1246
G1 X149.79 Y194.534 E8.15691
G1 X148.886 Y194.892 E8.18925
G1 X147.957 Y195.174 E8.22154
G1 X147.007 Y195.378 E8.25386
G1 X146.044 Y195.504 E8.28616
G1 X145 Y195.55 E8.32092
G1 X105 Y195.55 E9.65132
G1 X104.029 Y195.51 E9.68365
G1 X103.065 Y195.39 E9.71596
G1 X102.115 Y195.192 E9.74823
G1 X101.183 Y194.916 E9.78056
G1 X100.278 Y194.564 E9.81286
G1 X99.404 Y194.139 E9.84518
G1 X98.569 Y193.643 E9.87748
G1 X97.777 Y193.081 E9.90978
G1 X97.034 Y192.455 E9.9421
G1 X96.345 Y191.77 E9.97441
G1 X95.714 Y191.031 E10.00673
G1 X95.147 Y190.243 E10.03902
G1 X94.646 Y189.411 E10.07132
G1 X94.216 Y188.54 E10.10363
G1 X93.858 Y187.636 E10.13597
G1 X93.576 Y186.707 E10.16826
G1 X93.372 Y185.757 E10.20058
G1 X93.246 Y184.794 E10.23288
G1 X93.2 Y183.75 E10.26764
G1 X93.2 Y26.25 E15.50611
G1 X93.24 Y25.279 E15.53843
G1 X93.36 Y24.315 E15.57074
G1 X93.558 Y23.365 E15.60302
G0 F3600 X93.958 Y23.415
G1 F1800 X94.234 Y22.501 E15.63478
G1 X94.586 Y21.613 E15.66655
G1 X95.01 Y20.758 E15.69829
G1 X95.505 Y19.941 E15.73006
G1 X96.066 Y19.169 E15.7618
G1 X96.69 Y18.446 E15.79357
G1 X97.372 Y17.778 E15.82532
G1 X98.108 Y17.169 E15.85709
G1 X98.892 Y16.625 E15.88883
G1 X99.719 Y16.147 E15.9206
G1 X100.582 Y15.741 E15.95232
G1 X101.477 Y15.408 E15.98408
G1 X102.397 Y15.151 E16.01585
G1 X103.335 Y14.972 E16.04761
G1 X104.284 Y14.872 E16.07935
G1 X105 Y14.85 E16.10318
G1 X145 Y14.85 E17.43358
G1 X145.954 Y14.89 E17.46534
G1 X146.901 Y15.01 E17.49709
G1 X147.835 Y15.208 E17.52885
G1 X148.749 Y15.484 E17.5606
G1 X149.637 Y15.836 E17.59237
G1 X150.492 Y16.26 E17.62411
G1 X151.309 Y16.755 E17.65589
G1 X152.081 Y17.316 E17.68763
G1 X152.804 Y17.94 E17.71939
G1 X153.472 Y18.622 E17.75114
G1 X154.081 Y19.358 E17.78292
G1 X154.625 Y20.142 E17.81465
G1 X155.103 Y20.969 E17.84642
G1 X155.509 Y21.832 E17.87815
G1 X155.842 Y22.727 E17.90991
G1 X156.099 Y23.647 E17.94168
G1 X156.278 Y24.585 E17.97344
G1 X156.378 Y25.534 E18.00518
G1 X156.4 Y26.25 E18.029
G1 X156.4 Y183.75 E23.26747
G1 X156.36 Y184.704 E23.29923
G1 X156.24 Y185.651 E23.33098
G1 X156.042 Y186.585 E23.36274
G1 X155.766 Y187.499 E23.39449
G1 X155.414 Y188.387 E23.42626
G1 X154.99 Y189.242 E23.45801
G1 X154.495 Y190.059 E23.48978
G1 X153.934 Y190.831 E23.52152
G1 X153.31 Y191.554 E23.55328
G1 X152.628 Y192.222 E23.58503
G1 X151.892 Y192.831 E23.61681
G1 X151.108 Y193.375 E23.64855
G1 X150.281 Y193.853 E23.68032
G1 X149.418 Y194.259 E23.71204
G1 X148.523 Y194.592 E23.7438
G1 X147.603 Y194.849 E23.77557
G1 X146.665 Y195.028 E23.80733
G1 X145.716 Y195.128 E23.83907
G1 X145 Y195.15 E23.86289
G1 X105 Y195.15 E25.1933
G1 X104.046 Y195.11 E25.22506
G1 X103.099 Y194.99 E25.25681
G1 X102.165 Y194.792 E25.28856
G1 X101.251 Y194.516 E25.32032
G1 X100.363 Y194.164 E25.35209
G1 X99.508 Y193.74 E25.38383
G1 X98.691 Y193.245 E25.4156
G1 X97.919 Y192.684 E25.44734
G1 X97.196 Y192.06 E25.47911
G1 X96.528 Y191.378 E25.51086
G1 X95.919 Y190.642 E25.54263
G1 X95.375 Y189.858 E25.57437
G1 X94.897 Y189.031 E25.60614
G1 X94.491 Y188.168 E25.63786
G1 X94.158 Y187.273 E25.66962
G1 X93.901 Y186.353 E25.70139
G1 X93.722 Y185.415 E25.73316
G1 X93.622 Y184.466 E25.76489
G1 X93.6 Y183.75 E25.78872
G1 X93.6 Y26.25 E31.02719
G1 X93.64 Y25.296 E31.05895
G1 X93.76 Y24.349 E31.0907
G1 X93.958 Y23.415 E31.12245
G0 F3600 X94.358 Y23.466
G1 F1800 X94.634 Y22.57 E31.15364
G1 X94.985 Y21.7 E31.18484
G1 X95.409 Y20.864 E31.21602
G1 X95.903 Y20.066 E31.24723
G1 X96.463 Y19.314 E31.27842
G1 X97.084 Y18.612 E31.30959
G1 X97.764 Y17.965 E31.34081
G1 X98.496 Y17.379 E31.372
G1 X99.275 Y16.857 E31.40318
G1 X100.096 Y16.404 E31.43437
G1 X100.953 Y16.022 E31.46558
G1 X101.839 Y15.714 E31.49678
G1 X102.748 Y15.483 E31.52797
G1 X103.673 Y15.33 E31.55916
G1 X105 Y15.25 E31.60337
G1 X145 Y15.25 E32.93378
G1 X145.937 Y15.29 E32.96497
G1 X146.867 Y15.41 E32.99616
G1 X147.784 Y15.608 E33.02736
G1 X148.68 Y15.884 E33.05854
G1 X149.55 Y16.235 E33.08975
G1 X150.386 Y16.659 E33.12092
G1 X151.184 Y17.153 E33.15214
G1 X151.936 Y17.713 E33.18332
G1 X152.638 Y18.334 E33.2145
G1 X153.285 Y19.014 E33.24572
G1 X153.871 Y19.746 E33.2769
G1 X154.393 Y20.525 E33.30809
G1 X154.846 Y21.346 E33.33928
G1 X155.228 Y22.203 E33.37049
G1 X155.536 Y23.089 E33.40169
G1 X155.767 Y23.998 E33.43288
G1 X155.92 Y24.923 E33.46406
G1 X156 Y26.25 E33.50828
G1 X156 Y183.75 E38.74675
G1 X155.96 Y184.687 E38.77794
G1 X155.84 Y185.617 E38.80913
G1 X155.642 Y186.534 E38.84034
G1 X155.366 Y187.43 E38.87152
G1 X155.015 Y188.3 E38.90272
G1 X154.591 Y189.136 E38.9339
G1 X154.097 Y189.934 E38.96511
G1 X153.537 Y190.686 E38.9963
G1 X152.916 Y191.388 E39.02747
G1 X152.236 Y192.035 E39.05869
G1 X151.504 Y192.621 E39.08988
G1 X150.725 Y193.143 E39.12107
G1 X149.904 Y193.596 E39.15225
G1 X149.047 Y193.978 E39.18346
G1 X148.161 Y194.286 E39.21466
G1 X147.252 Y194.517 E39.24585
G1 X146.327 Y194.67 E39.27704
G1 X145 Y194.75 E39.32125
G1 X105 Y194.75 E40.65166
G1 X104.063 Y194.71 E40.68285
G1 X103.133 Y194.59 E40.71404
G1 X102.216 Y194.392 E40.74524
G1 X101.32 Y194.116 E40.77643
G1 X100.45 Y193.765 E40.80763
G1 X99.614 Y193.341 E40.83881
G1 X98.816 Y192.847 E40.87002
G1 X98.064 Y192.287 E40.90121
G1 X97.362 Y191.666 E40.93238
G1 X96.715 Y190.986 E40.9636
G1 X96.129 Y190.254 E40.99478
G1 X95.607 Y189.475 E41.02597
G1 X95.154 Y188.654 E41.05716
G1 X94.772 Y187.797 E41.08837
G1 X94.464 Y186.911 E41.11957
G1 X94.233 Y186.002 E41.15076
G1 X94.08 Y185.077 E41.18194
G1 X94 Y183.75 E41.22616
G1 X94 Y26.25 E46.46463
G1 X94.04 Y25.313 E46.49583
G1 X94.16 Y24.383 E46.52701
G1 X94.358 Y23.466 E46.55822
G0 F3600 X94.758 Y23.518
G1 F1800 X95.034 Y22.64 E46.58883
G1 X95.385 Y21.789 E46.61944
G1 X95.808 Y20.971 E46.65007
G1 X96.301 Y20.194 E46.68068
G1 X96.859 Y19.462 E46.71129
G1 X97.479 Y18.781 E46.74193
G1 X98.155 Y18.156 E46.77255
G1 X98.883 Y17.593 E46.80316
G1 X99.658 Y17.095 E46.83379
G1 X100.472 Y16.666 E46.8644
G1 X101.321 Y16.309 E46.89503
G1 X102.197 Y16.027 E46.92564
G1 X103.095 Y15.823 E46.95627
G1 X104.007 Y15.697 E46.98689
G1 X105 Y15.65 E47.01995
G1 X145 Y15.65 E48.35036
G1 X145.92 Y15.69 E48.38099
G1 X146.833 Y15.81 E48.41162
G1 X147.732 Y16.008 E48.44223
G1 X148.61 Y16.284 E48.47284
G1 X149.461 Y16.635 E48.50346
G1 X150.279 Y17.058 E48.53409
G1 X151.056 Y17.551 E48.5647
G1 X151.788 Y18.109 E48.59531
G1 X152.469 Y18.729 E48.62594
G1 X153.094 Y19.405 E48.65656
G1 X153.657 Y20.133 E48.68717
G1 X154.155 Y20.908 E48.71781
G1 X154.584 Y21.722 E48.74841
G1 X154.941 Y22.571 E48.77905
G1 X155.223 Y23.447 E48.80966
G1 X155.427 Y24.345 E48.84028
G1 X155.553 Y25.257 E48.87091
G1 X155.6 Y26.25 E48.90397
G1 X155.6 Y183.75 E54.14244
G1 X155.56 Y184.67 E54.17307
G1 X155.44 Y185.583 E54.2037
G1 X155.242 Y186.482 E54.23432
G1 X154.966 Y187.36 E54.26493
G1 X154.615 Y188.211 E54.29554
G1 X154.192 Y189.029 E54.32617
G1 X153.699 Y189.806 E54.35678
G1 X153.141 Y190.538 E54.38739
G1 X152.521 Y191.219 E54.41802
G1 X151.845 Y191.844 E54.44864
G1 X151.117 Y192.407 E54.47925
G1 X150.342 Y192.905 E54.50989
G1 X149.528 Y193.334 E54.5405
G1 X148.679 Y193.691 E54.57113
G1 X147.803 Y193.973 E54.60174
G1 X146.905 Y194.177 E54.63237
G1 X145.993 Y194.303 E54.66299
G1 X145 Y194.35 E54.69605
G1 X105 Y194.35 E56.02646
G1 X104.08 Y194.31 E56.05709
G1 X103.167 Y194.19 E56.08771
G1 X102.268 Y193.992 E56.11833
G1 X101.39 Y193.716 E56.14894
G1 X100.539 Y193.365 E56.17956
G1 X99.721 Y192.942 E56.21019
G1 X98.944 Y192.449 E56.2408
G1 X98.212 Y191.891 E56.27141
G1 X97.531 Y191.271 E56.30204
G1 X96.906 Y190.595 E56.33266
G1 X96.343 Y189.867 E56.36327
G1 X95.845 Y189.092 E56.39391
G1 X95.416 Y188.278 E56.42451
G1 X95.059 Y187.429 E56.45515
G1 X94.777 Y186.553 E56.48575
G1 X94.573 Y185.655 E56.51638
G1 X94.447 Y184.743 E56.547
G1 X94.4 Y183.75 E56.58007
G1 X94.4 Y26.25 E61.81854
G1 X94.44 Y25.33 E61.84917
G1 X94.56 Y24.417 E61.8798
G1 X94.758 Y23.518 E61.91041
G0 F3600 X95.158 Y23.572
G1 F1800 X95.433 Y22.712 E61.94044
G1 X95.784 Y21.879 E61.97051
G1 X96.207 Y21.081 E62.00055
G1 X96.698 Y20.324 E62.03056
G1 X97.255 Y19.613 E62.0606
G1 X97.873 Y18.953 E62.09067
G1 X98.546 Y18.352 E62.12068
G1 X99.27 Y17.812 E62.15072
G1 X100.039 Y17.338 E62.18077
G1 X100.846 Y16.934 E62.21079
G1 X101.687 Y16.603 E62.24085
G1 X102.553 Y16.348 E62.27087
G1 X103.438 Y16.17 E62.3009
G1 X104.336 Y16.072 E62.33094
G1 X105 Y16.05 E62.35304
G1 X145 Y16.05 E63.68344
G1 X145.902 Y16.09 E63.71347
G1 X146.797 Y16.21 E63.74351
G1 X147.678 Y16.408 E63.77354
G1 X148.538 Y16.683 E63.80357
G1 X149.371 Y17.034 E63.83364
G1 X150.169 Y17.457 E63.86368
G1 X150.926 Y17.948 E63.89369
G1 X151.637 Y18.505 E63.92373
G1 X152.297 Y19.123 E63.9538
G1 X152.898 Y19.796 E63.98381
G1 X153.438 Y20.52 E64.01385
G1 X153.912 Y21.289 E64.0439
G1 X154.316 Y22.096 E64.07391
G1 X154.647 Y22.937 E64.10397
G1 X154.902 Y23.803 E64.134
G1 X155.08 Y24.688 E64.16402
G1 X155.178 Y25.586 E64.19407
G1 X155.2 Y26.25 E64.21617
G1 X155.2 Y183.75 E69.45464
G1 X155.16 Y184.652 E69.48467
G1 X155.04 Y185.547 E69.5147
G1 X154.842 Y186.428 E69.54473
G1 X154.567 Y187.288 E69.57477
G1 X154.216 Y188.121 E69.60483
G1 X153.793 Y188.919 E69.63487
G1 X153.302 Y189.676 E69.66488
G1 X152.745 Y190.387 E69.69492
G1 X152.127 Y191.047 E69.72499
G1 X151.454 Y191.648 E69.755
G1 X150.73 Y192.188 E69.78504
G1 X149.961 Y192.662 E69.81509
G1 X149.154 Y193.066 E69.84511
G1 X148.313 Y193.397 E69.87517
G1 X147.447 Y193.652 E69.90519
G1 X146.562 Y193.83 E69.93522
G1 X145.664 Y193.928 E69.96526
G1 X145 Y193.95 E69.98736
G1 X105 Y193.95 E71.31776
G1 X104.098 Y193.91 E71.34779
G1 X103.203 Y193.79 E71.37783
G1 X102.322 Y193.592 E71.40786
G1 X101.462 Y193.317 E71.43789
G1 X100.629 Y192.966 E71.46796
G1 X99.831 Y192.543 E71.498
G1 X99.074 Y192.052 E71.52801
G1 X98.363 Y191.495 E71.55805
G1 X97.703 Y190.877 E71.58812
G1 X97.102 Y190.204 E71.61813
G1 X96.562 Y189.48 E71.64817
G1 X96.088 Y188.711 E71.67822
G1 X95.684 Y187.904 E71.70823
G1 X95.353 Y187.063 E71.73829
G1 X95.098 Y186.197 E71.76832
G1 X94.92 Y185.312 E71.79835
G1 X94.822 Y184.414 E71.82839
G1 X94.8 Y183.75 E71.85049
G1 X94.8 Y26.25 E77.08896
G1 X94.84 Y25.348 E77.11899
G1 X94.96 Y24.453 E77.14902
G1 X95.158 Y23.572 E77.17906
G0 F3600 X95.558 Y23.626
G1 F1800 X95.833 Y22.785 E77.20848
G1 X96.183 Y21.972 E77.23792
G1 X96.605 Y21.193 E77.26739
G1 X97.096 Y20.457 E77.29682
G1 X97.651 Y19.767 E77.32627
G1 X98.266 Y19.13 E77.35572
G1 X98.936 Y18.552 E77.38515
G1 X99.655 Y18.036 E77.41459
G1 X100.418 Y17.587 E77.44403
G1 X101.219 Y17.209 E77.47349
G1 X102.05 Y16.905 E77.50292
G1 X102.905 Y16.677 E77.53235
G1 X103.778 Y16.527 E77.56181
G1 X105 Y16.45 E77.60254
G1 X145 Y16.45 E78.93294
G1 X145.884 Y16.49 E78.96238
G1 X146.761 Y16.61 E78.99182
G1 X147.624 Y16.808 E79.02127
G1 X148.465 Y17.083 E79.0507
G1 X149.278 Y17.433 E79.08013
G1 X150.057 Y17.855 E79.1096
G1 X150.793 Y18.346 E79.13903
G1 X151.483 Y18.901 E79.16848
G1 X152.12 Y19.516 E79.19793
G1 X152.698 Y20.186 E79.22736
G1 X153.214 Y20.905 E79.2568
G1 X153.663 Y21.668 E79.28624
G1 X154.041 Y22.469 E79.3157
G1 X154.345 Y23.3 E79.34513
G1 X154.573 Y24.155 E79.37456
G1 X154.723 Y25.028 E79.40402
G1 X154.8 Y26.25 E79.44475
G1 X154.8 Y183.75 E84.68322
G1 X154.76 Y184.634 E84.71265
G1 X154.64 Y185.511 E84.74209
G1 X154.442 Y186.374 E84.77154
G1 X154.167 Y187.215 E84.80097
G1 X153.817 Y188.028 E84.83041
G1 X153.395 Y188.807 E84.85988
G1 X152.904 Y189.543 E84.8893
G1 X152.349 Y190.233 E84.91876
G1 X151.734 Y190.87 E84.94821
G1 X151.064 Y191.448 E84.97764
G1 X150.345 Y191.964 E85.00707
G1 X149.582 Y192.413 E85.03652
G1 X148.781 Y192.791 E85.06598
G1 X147.95 Y193.095 E85.09541
G1 X147.095 Y193.323 E85.12484
G1 X146.222 Y193.473 E85.1543
G1 X145 Y193.55 E85.19502
G1 X105 Y193.55 E86.52543
G1 X104.116 Y193.51 E86.55486
G1 X103.239 Y193.39 E86.5843
G1 X102.376 Y193.192 E86.61375
G1 X101.535 Y192.917 E86.64318
G1 X100.722 Y192.567 E86.67262
G1 X99.943 Y192.145 E86.70209
G1 X99.207 Y191.654 E86.73152
G1 X98.517 Y191.099 E86.76097
G1 X97.88 Y190.484 E86.79042
G1 X97.302 Y189.814 E86.81985
G1 X96.786 Y189.095 E86.84928
G1 X96.337 Y188.332 E86.87873
G1 X95.959 Y187.531 E86.90819
G1 X95.655 Y186.7 E86.93762
G1 X95.427 Y185.845 E86.96705
G1 X95.277 Y184.972 E86.99651
G1 X95.2 Y183.75 E87.03723
G1 X95.2 Y26.25 E92.27571
G1 X95.24 Y25.366 E92.30514
G1 X95.36 Y24.489 E92.33458
G1 X95.558 Y23.626 E92.36403
G0 F3600 X95.958 Y23.681
G1 F1800 X96.233 Y22.859 E92.39286
G1 X96.583 Y22.066 E92.42169
G1 X97.004 Y21.308 E92.45053
G1 X97.493 Y20.593 E92.47934
G1 X98.046 Y19.925 E92.50818
G1 X98.659 Y19.311 E92.53704
G1 X99.325 Y18.756 E92.56587
G1 X100.039 Y18.266 E92.59467
G1 X100.796 Y17.842 E92.62353
G1 X101.589 Y17.491 E92.65238
G1 X102.41 Y17.214 E92.68119
G1 X103.254 Y17.014 E92.71004
G1 X104.112 Y16.892 E92.73887
G1 X105 Y16.85 E92.76844
G1 X145 Y16.85 E94.09884
G1 X145.866 Y16.89 E94.12768
G1 X146.725 Y17.01 E94.15652
G1 X147.569 Y17.208 E94.18536
G1 X148.391 Y17.483 E94.21419
G1 X149.184 Y17.833 E94.24302
G1 X149.942 Y18.254 E94.27186
G1 X150.657 Y18.743 E94.30067
G1 X151.325 Y19.296 E94.32951
G1 X151.939 Y19.909 E94.35837
G1 X152.494 Y20.575 E94.3872
G1 X152.984 Y21.289 E94.416
G1 X153.408 Y22.046 E94.44486
G1 X153.759 Y22.839 E94.4737
G1 X154.036 Y23.66 E94.50252
G1 X154.236 Y24.504 E94.53137
G1 X154.358 Y25.362 E94.5602
G1 X154.4 Y26.25 E94.58976
G1 X154.4 Y183.75 E99.82824
G1 X154.36 Y184.616 E99.85707
G1 X154.24 Y185.475 E99.88592
G1 X154.042 Y186.319 E99.91475
G1 X153.767 Y187.141 E99.94358
G1 X153.417 Y187.934 E99.97241
G1 X152.996 Y188.692 E100.00125
G1 X152.507 Y189.407 E100.03006
G1 X151.954 Y190.075 E100.0589
G1 X151.341 Y190.689 E100.08776
G1 X150.675 Y191.244 E100.11659
G1 X149.961 Y191.734 E100.1454
G1 X149.204 Y192.158 E100.17426
G1 X148.411 Y192.509 E100.2031
G1 X147.59 Y192.786 E100.23192
G1 X146.746 Y192.986 E100.26077
G1 X145.888 Y193.108 E100.28959
G1 X145 Y193.15 E100.31916
G1 X105 Y193.15 E101.64956
G1 X104.134 Y193.11 E101.6784
