;FLAVOR:Marlin
;TIME:8376
;Filament used: 5.86954m
;Layer height: 0.15
;MINX:34.662
;MINY:46.689
;MINZ:0.2
;MAXX:215.762
;MAXY:110.289
;MAXZ:3.95
;Generated with Cura_SteamEngine 4.4.0
M82 ;absolute extrusion mode
G21 ; set units to millimeters
G90 ; use absolute positioning
M82 ; absolute extrusion mode
M104 S210 ; set extruder temp
M140 S60 ; set bed temp
M190 S60 ; wait for bed temp
M109 S210 ; wait for extruder temp
G28 W ; home all without mesh bed level
G80 ; mesh bed leveling
G92 E0.0 ; reset extruder distance position
G1 Y-3.0 F1000.0 ; go outside print area
G1 X60.0 E9.0 F1000.0 ; intro line
G1 X100.0 E21.5 F1000.0 ; intro line
G92 E0.0 ; reset extruder distance position
G92 E0
G92 E0
G1 F2100 E-0.8
;LAYER_COUNT:26
;LAYER:0
M107
G0 F3600 X39.181 Y49.203 Z0.2
;TYPE:SKIRT
G1 F2100 E0
G1 F1800 X39.969 Y48.636 E0.03229
G1 X40.801 Y48.135 E0.06459
G1 X41.672 Y47.705 E0.0969
G1 X42.576 Y47.347 E0.12924
G1 X43.505 Y47.065 E0.16153
G1 X44.455 Y46.861 E0.19385
G1 X45.418 Y46.735 E0.22615
G1 X46.462 Y46.689 E0.26091
G1 X203.962 Y46.689 E5.49938
G1 X204.933 Y46.729 E5.5317
G1 X205.897 Y46.849 E5.56401
G1 X206.847 Y47.047 E5.59629
G1 X207.779 Y47.323 E5.62862
G1 X208.684 Y47.675 E5.66091
G1 X209.558 Y48.1 E5.69324
G1 X210.393 Y48.596 E5.72554
G1 X211.185 Y49.158 E5.75784
G1 X211.928 Y49.784 E5.79015
G1 X212.617 Y50.469 E5.82247
G1 X213.248 Y51.208 E5.85479
G1 X213.815 Y51.996 E5.88708
G1 X214.316 Y52.828 E5.91938
G1 X214.746 Y53.699 E5.95169
G1 X215.104 Y54.603 E5.98403
G1 X215.386 Y55.532 E6.01632
G1 X215.59 Y56.482 E6.04863
G1 X215.716 Y57.445 E6.08094
G1 X215.762 Y58.489 E6.11569
G1 X215.762 Y98.489 E7.4461
G1 X215.722 Y99.46 E7.47842
G1 X215.602 Y100.424 E7.51073
G1 X215.404 Y101.374 E7.54301
G1 X215.128 Y102.306 E7.57534
G1 X214.776 Y103.211 E7.60763
G1 X214.351 Y104.085 E7.63996
G1 X213.855 Y104.92 E7.67226
G1 X213.293 Y105.712 E7.70456
G1 X212.667 Y106.455 E7.73687
G1 X211.982 Y107.144 E7.76919
G1 X211.243 Y107.775 E7.80151
G1 X210.455 Y108.342 E7.8338
G1 X209.623 Y108.843 E7.8661
G1 X208.752 Y109.273 E7.89841
G1 X207.848 Y109.631 E7.93075
G1 X206.919 Y109.913 E7.96304
G1 X205.969 Y110.117 E7.99536
G1 X205.006 Y110.243 E8.02766
G1 X203.962 Y110.289 E8.06242
G1 X46.462 Y110.289 E13.30089
G1 X45.491 Y110.249 E13.33321
G1 X44.527 Y110.129 E13.36552
G1 X43.577 Y109.931 E13.3978
G1 X42.645 Y109.655 E13.43012
G1 X41.74 Y109.303 E13.46242
G1 X40.866 Y108.878 E13.49475
G1 X40.031 Y108.382 E13.52705
G1 X39.239 Y107.82 E13.55935
G1 X38.496 Y107.194 E13.59166
G1 X37.807 Y106.509 E13.62398
G1 X37.176 Y105.77 E13.6563
G1 X36.609 Y104.982 E13.68859
G1 X36.108 Y104.15 E13.72089
G1 X35.678 Y103.279 E13.7532
G1 X35.32 Y102.375 E13.78553
G1 X35.038 Y101.446 E13.81783
G1 X34.834 Y100.496 E13.85014
G1 X34.708 Y99.533 E13.88245
G1 X34.662 Y98.489 E13.9172
G1 X34.662 Y58.489 E15.24761
G1 X34.702 Y57.518 E15.27993
G1 X34.822 Y56.554 E15.31224
G1 X35.02 Y55.604 E15.34452
G1 X35.296 Y54.672 E15.37685
G1 X35.648 Y53.767 E15.40914
G1 X36.073 Y52.893 E15.44147
G1 X36.569 Y52.058 E15.47377
G1 X37.131 Y51.266 E15.50607
G1 X37.757 Y50.523 E15.53838
G1 X38.442 Y49.834 E15.5707
G1 X39.181 Y49.203 E15.60302
G0 F3600 X39.57 Y49.408
G1 F1800 X40.354 Y48.864 E15.63476
G1 X41.181 Y48.386 E15.66653
G1 X42.044 Y47.98 E15.69825
G1 X42.939 Y47.647 E15.73001
G1 X43.859 Y47.39 E15.76178
G1 X44.797 Y47.211 E15.79354
G1 X45.746 Y47.111 E15.82528
G1 X46.462 Y47.089 E15.84911
G1 X203.962 Y47.089 E21.08758
G1 X204.916 Y47.129 E21.11934
G1 X205.863 Y47.249 E21.15109
G1 X206.797 Y47.447 E21.18284
G1 X207.711 Y47.723 E21.2146
G1 X208.599 Y48.075 E21.24637
G1 X209.454 Y48.499 E21.27811
G1 X210.271 Y48.994 E21.30988
G1 X211.043 Y49.555 E21.34162
G1 X211.766 Y50.179 E21.37339
G1 X212.434 Y50.861 E21.40514
G1 X213.043 Y51.597 E21.43691
G1 X213.587 Y52.381 E21.46865
G1 X214.065 Y53.208 E21.50042
G1 X214.471 Y54.071 E21.53214
G1 X214.804 Y54.966 E21.5639
G1 X215.061 Y55.886 E21.59567
G1 X215.24 Y56.824 E21.62743
G1 X215.34 Y57.773 E21.65917
G1 X215.362 Y58.489 E21.683
G1 X215.362 Y98.489 E23.0134
G1 X215.322 Y99.443 E23.04516
G1 X215.202 Y100.39 E23.07691
G1 X215.004 Y101.324 E23.10867
G1 X214.728 Y102.238 E23.14042
G1 X214.376 Y103.126 E23.17219
G1 X213.952 Y103.981 E23.20393
G1 X213.457 Y104.798 E23.23571
G1 X212.896 Y105.57 E23.26745
G1 X212.272 Y106.293 E23.29921
G1 X211.59 Y106.961 E23.33096
G1 X210.854 Y107.57 E23.36274
G1 X210.07 Y108.114 E23.39448
G1 X209.243 Y108.592 E23.42625
G1 X208.38 Y108.998 E23.45797
G1 X207.485 Y109.331 E23.48973
G1 X206.565 Y109.588 E23.5215
G1 X205.627 Y109.767 E23.55326
G1 X204.678 Y109.867 E23.585
G1 X203.962 Y109.889 E23.60882
G1 X46.462 Y109.889 E28.8473
G1 X45.508 Y109.849 E28.87905
G1 X44.561 Y109.729 E28.9108
G1 X43.627 Y109.531 E28.94256
G1 X42.713 Y109.255 E28.97431
G1 X41.825 Y108.903 E29.00608
G1 X40.97 Y108.479 E29.03783
G1 X40.153 Y107.984 E29.0696
G1 X39.381 Y107.423 E29.10134
G1 X38.658 Y106.799 E29.1331
G1 X37.99 Y106.117 E29.16486
G1 X37.381 Y105.381 E29.19663
G1 X36.837 Y104.597 E29.22837
G1 X36.359 Y103.77 E29.26014
G1 X35.953 Y102.907 E29.29186
G1 X35.62 Y102.012 E29.32362
G1 X35.363 Y101.092 E29.35539
G1 X35.184 Y100.154 E29.38715
G1 X35.084 Y99.205 E29.41889
G1 X35.062 Y98.489 E29.44272
G1 X35.062 Y58.489 E30.77312
G1 X35.102 Y57.535 E30.80488
G1 X35.222 Y56.588 E30.83663
G1 X35.42 Y55.654 E30.86838
G1 X35.696 Y54.74 E30.90014
G1 X36.048 Y53.852 E30.93191
G1 X36.472 Y52.997 E30.96365
G1 X36.967 Y52.18 E30.99542
G1 X37.528 Y51.408 E31.02716
G1 X38.152 Y50.685 E31.05893
G1 X38.834 Y50.017 E31.09068
G1 X39.57 Y49.408 E31.12245
G0 F3600 X39.958 Y49.618
G1 F1800 X40.737 Y49.096 E31.15364
G1 X41.558 Y48.643 E31.18483
G1 X42.415 Y48.261 E31.21604
G1 X43.301 Y47.953 E31.24724
G1 X44.21 Y47.722 E31.27843
G1 X45.135 Y47.569 E31.30961
G1 X46.462 Y47.489 E31.35383
G1 X203.962 Y47.489 E36.5923
G1 X204.899 Y47.529 E36.62349
G1 X205.829 Y47.649 E36.65468
G1 X206.746 Y47.847 E36.68589
G1 X207.642 Y48.123 E36.71707
G1 X208.512 Y48.474 E36.74827
G1 X209.348 Y48.898 E36.77945
G1 X210.146 Y49.392 E36.81066
G1 X210.898 Y49.952 E36.84185
G1 X211.6 Y50.573 E36.87302
G1 X212.247 Y51.253 E36.90424
G1 X212.833 Y51.985 E36.93543
G1 X213.355 Y52.764 E36.96662
G1 X213.808 Y53.585 E36.9978
G1 X214.19 Y54.442 E37.02901
G1 X214.498 Y55.328 E37.06021
G1 X214.729 Y56.237 E37.0914
G1 X214.882 Y57.162 E37.12259
G1 X214.962 Y58.489 E37.1668
G1 X214.962 Y98.489 E38.49721
G1 X214.922 Y99.426 E38.5284
G1 X214.802 Y100.356 E38.55959
G1 X214.604 Y101.273 E38.59079
G1 X214.328 Y102.169 E38.62198
G1 X213.977 Y103.039 E38.65318
G1 X213.553 Y103.875 E38.68436
G1 X213.059 Y104.673 E38.71557
G1 X212.499 Y105.425 E38.74676
G1 X211.878 Y106.127 E38.77793
G1 X211.198 Y106.774 E38.80915
G1 X210.466 Y107.36 E38.84034
G1 X209.687 Y107.882 E38.87152
G1 X208.866 Y108.335 E38.90271
G1 X208.009 Y108.717 E38.93392
G1 X207.123 Y109.025 E38.96512
G1 X206.214 Y109.256 E38.99631
G1 X205.289 Y109.409 E39.0275
G1 X203.962 Y109.489 E39.07171
G1 X46.462 Y109.489 E44.31018
G1 X45.525 Y109.449 E44.34138
G1 X44.595 Y109.329 E44.37256
G1 X43.678 Y109.131 E44.40377
G1 X42.782 Y108.855 E44.43495
G1 X41.912 Y108.504 E44.46615
G1 X41.076 Y108.08 E44.49733
G1 X40.278 Y107.586 E44.52854
G1 X39.526 Y107.026 E44.55973
G1 X38.824 Y106.405 E44.5909
G1 X38.177 Y105.725 E44.62212
G1 X37.591 Y104.993 E44.65331
G1 X37.069 Y104.214 E44.6845
G1 X36.616 Y103.393 E44.71568
G1 X36.234 Y102.536 E44.74689
G1 X35.926 Y101.65 E44.77809
G1 X35.695 Y100.741 E44.80928
G1 X35.542 Y99.816 E44.84047
G1 X35.462 Y98.489 E44.88468
G1 X35.462 Y58.489 E46.21509
G1 X35.502 Y57.552 E46.24628
G1 X35.622 Y56.622 E46.27747
G1 X35.82 Y55.705 E46.30867
G1 X36.096 Y54.809 E46.33986
G1 X36.447 Y53.939 E46.37106
G1 X36.871 Y53.103 E46.40224
G1 X37.365 Y52.305 E46.43345
G1 X37.925 Y51.553 E46.46464
G1 X38.546 Y50.851 E46.49581
G1 X39.226 Y50.204 E46.52703
G1 X39.958 Y49.618 E46.55822
G0 F3600 X39.617 Y50.395
G1 F1800 X40.345 Y49.832 E46.58883
G1 X41.12 Y49.334 E46.61947
G1 X41.934 Y48.905 E46.65007
G1 X42.783 Y48.548 E46.6807
G1 X43.659 Y48.266 E46.71131
G1 X44.557 Y48.062 E46.74194
G1 X45.469 Y47.936 E46.77256
G1 X46.462 Y47.889 E46.80562
G1 X203.962 Y47.889 E52.0441
G1 X204.882 Y47.929 E52.07472
G1 X205.795 Y48.049 E52.10535
G1 X206.694 Y48.247 E52.13597
G1 X207.572 Y48.523 E52.16658
G1 X208.423 Y48.874 E52.1972
G1 X209.241 Y49.297 E52.22783
G1 X210.018 Y49.79 E52.25843
G1 X210.75 Y50.348 E52.28905
G1 X211.431 Y50.968 E52.31968
G1 X212.056 Y51.644 E52.3503
G1 X212.619 Y52.372 E52.38091
G1 X213.117 Y53.147 E52.41155
G1 X213.546 Y53.961 E52.44215
G1 X213.903 Y54.81 E52.47278
G1 X214.185 Y55.686 E52.50339
G1 X214.389 Y56.584 E52.53402
G1 X214.515 Y57.496 E52.56464
G1 X214.562 Y58.489 E52.59771
G1 X214.562 Y98.489 E53.92811
G1 X214.522 Y99.409 E53.95874
G1 X214.402 Y100.322 E53.98937
G1 X214.204 Y101.221 E54.01999
G1 X213.928 Y102.099 E54.0506
G1 X213.577 Y102.95 E54.08121
G1 X213.154 Y103.768 E54.11184
G1 X212.661 Y104.545 E54.14245
G1 X212.103 Y105.277 E54.17306
G1 X211.483 Y105.958 E54.20369
G1 X210.807 Y106.583 E54.23432
G1 X210.079 Y107.146 E54.26492
G1 X209.304 Y107.644 E54.29556
G1 X208.49 Y108.073 E54.32617
G1 X207.641 Y108.43 E54.3568
G1 X206.765 Y108.712 E54.38741
G1 X205.867 Y108.916 E54.41804
G1 X204.955 Y109.042 E54.44866
G1 X203.962 Y109.089 E54.48172
G1 X46.462 Y109.089 E59.72019
G1 X45.542 Y109.049 E59.75082
G1 X44.629 Y108.929 E59.78145
G1 X43.73 Y108.731 E59.81207
G1 X42.852 Y108.455 E59.84268
G1 X42.001 Y108.104 E59.8733
G1 X41.183 Y107.681 E59.90393
G1 X40.406 Y107.188 E59.93453
G1 X39.674 Y106.63 E59.96515
G1 X38.993 Y106.01 E59.99578
G1 X38.368 Y105.334 E60.0264
G1 X37.805 Y104.606 E60.05701
G1 X37.307 Y103.831 E60.08765
G1 X36.878 Y103.017 E60.11825
G1 X36.521 Y102.168 E60.14888
G1 X36.239 Y101.292 E60.17949
G1 X36.035 Y100.394 E60.21012
G1 X35.909 Y99.482 E60.24074
G1 X35.862 Y98.489 E60.27381
G1 X35.862 Y58.489 E61.60421
G1 X35.902 Y57.569 E61.63484
G1 X36.022 Y56.656 E61.66547
G1 X36.22 Y55.757 E61.69608
G1 X36.496 Y54.879 E61.7267
G1 X36.847 Y54.028 E61.75731
G1 X37.27 Y53.21 E61.78794
G1 X37.763 Y52.433 E61.81855
G1 X38.321 Y51.701 E61.84916
G1 X38.941 Y51.02 E61.87979
G1 X39.617 Y50.395 E61.91041
G0 F3600 X40.008 Y50.591
G1 F1800 X40.732 Y50.051 E61.94045
G1 X41.501 Y49.577 E61.9705
G1 X42.308 Y49.173 E62.00052
G1 X43.149 Y48.842 E62.03058
G1 X44.015 Y48.587 E62.0606
G1 X44.9 Y48.409 E62.09063
G1 X45.798 Y48.311 E62.12067
G1 X46.462 Y48.289 E62.14277
G1 X203.962 Y48.289 E67.38124
G1 X204.864 Y48.329 E67.41127
G1 X205.759 Y48.449 E67.4413
G1 X206.64 Y48.647 E67.47134
G1 X207.5 Y48.922 E67.50137
G1 X208.333 Y49.273 E67.53143
G1 X209.131 Y49.696 E67.56147
G1 X209.888 Y50.187 E67.59148
G1 X210.599 Y50.744 E67.62152
G1 X211.259 Y51.362 E67.6516
G1 X211.86 Y52.035 E67.68161
G1 X212.4 Y52.759 E67.71165
G1 X212.874 Y53.528 E67.74169
G1 X213.278 Y54.335 E67.77171
G1 X213.609 Y55.176 E67.80177
G1 X213.864 Y56.042 E67.8318
G1 X214.042 Y56.927 E67.86182
G1 X214.14 Y57.825 E67.89187
G1 X214.162 Y58.489 E67.91396
G1 X214.162 Y98.489 E69.24437
G1 X214.122 Y99.391 E69.2744
G1 X214.002 Y100.286 E69.30443
G1 X213.804 Y101.167 E69.33447
G1 X213.529 Y102.027 E69.3645
G1 X213.178 Y102.86 E69.39456
G1 X212.755 Y103.658 E69.4246
G1 X212.264 Y104.415 E69.45461
G1 X211.707 Y105.126 E69.48465
G1 X211.089 Y105.786 E69.51472
G1 X210.416 Y106.387 E69.54473
G1 X209.692 Y106.927 E69.57478
G1 X208.923 Y107.401 E69.60482
G1 X208.116 Y107.805 E69.63484
G1 X207.275 Y108.136 E69.6649
G1 X206.409 Y108.391 E69.69492
G1 X205.524 Y108.569 E69.72495
G1 X204.626 Y108.667 E69.75499
G1 X203.962 Y108.689 E69.77709
G1 X46.462 Y108.689 E75.01556
G1 X45.56 Y108.649 E75.04559
G1 X44.665 Y108.529 E75.07563
G1 X43.784 Y108.331 E75.10566
G1 X42.924 Y108.056 E75.13569
G1 X42.091 Y107.705 E75.16575
G1 X41.293 Y107.282 E75.19579
G1 X40.536 Y106.791 E75.2258
G1 X39.825 Y106.234 E75.25584
G1 X39.165 Y105.616 E75.28592
G1 X38.564 Y104.943 E75.31593
G1 X38.024 Y104.219 E75.34597
G1 X37.55 Y103.45 E75.37601
G1 X37.146 Y102.643 E75.40603
G1 X36.815 Y101.802 E75.43609
G1 X36.56 Y100.936 E75.46612
G1 X36.382 Y100.051 E75.49614
G1 X36.284 Y99.153 E75.52619
G1 X36.262 Y98.489 E75.54828
G1 X36.262 Y58.489 E76.87869
G1 X36.302 Y57.587 E76.90872
G1 X36.422 Y56.692 E76.93875
G1 X36.62 Y55.811 E76.96879
G1 X36.895 Y54.951 E76.99882
G1 X37.246 Y54.118 E77.02888
G1 X37.669 Y53.32 E77.05892
G1 X38.16 Y52.563 E77.08893
G1 X38.717 Y51.852 E77.11897
G1 X39.335 Y51.192 E77.14905
G1 X40.008 Y50.591 E77.17906
G0 F3600 X40.398 Y50.791
G1 F1800 X41.117 Y50.275 E77.20849
G1 X41.88 Y49.826 E77.23794
G1 X42.681 Y49.448 E77.26739
G1 X43.512 Y49.144 E77.29683
G1 X44.367 Y48.916 E77.32626
G1 X45.24 Y48.766 E77.35572
G1 X46.462 Y48.689 E77.39644
G1 X203.962 Y48.689 E82.63491
G1 X204.846 Y48.729 E82.66435
G1 X205.723 Y48.849 E82.69379
G1 X206.586 Y49.047 E82.72324
G1 X207.427 Y49.322 E82.75267
G1 X208.24 Y49.672 E82.78211
G1 X209.019 Y50.094 E82.81157
G1 X209.755 Y50.585 E82.841
G1 X210.445 Y51.14 E82.87045
G1 X211.082 Y51.755 E82.8999
G1 X211.66 Y52.425 E82.92933
G1 X212.176 Y53.144 E82.95877
G1 X212.625 Y53.907 E82.98821
G1 X213.003 Y54.708 E83.01767
G1 X213.307 Y55.539 E83.0471
G1 X213.535 Y56.394 E83.07653
G1 X213.685 Y57.267 E83.10599
G1 X213.762 Y58.489 E83.14672
G1 X213.762 Y98.489 E84.47712
G1 X213.722 Y99.373 E84.50656
G1 X213.602 Y100.25 E84.536
G1 X213.404 Y101.113 E84.56545
G1 X213.129 Y101.954 E84.59488
G1 X212.779 Y102.767 E84.62432
G1 X212.357 Y103.546 E84.65378
G1 X211.866 Y104.282 E84.68321
G1 X211.311 Y104.972 E84.71266
G1 X210.696 Y105.609 E84.74211
G1 X210.026 Y106.187 E84.77154
G1 X209.307 Y106.703 E84.80098
G1 X208.544 Y107.152 E84.83042
G1 X207.743 Y107.53 E84.85988
G1 X206.912 Y107.834 E84.88931
G1 X206.057 Y108.062 E84.91874
G1 X205.184 Y108.212 E84.9482
G1 X203.962 Y108.289 E84.98893
G1 X46.462 Y108.289 E90.2274
G1 X45.578 Y108.249 E90.25683
G1 X44.701 Y108.129 E90.28627
G1 X43.838 Y107.931 E90.31572
G1 X42.997 Y107.656 E90.34515
G1 X42.184 Y107.306 E90.37459
G1 X41.405 Y106.884 E90.40406
G1 X40.669 Y106.393 E90.43349
G1 X39.979 Y105.838 E90.46294
G1 X39.342 Y105.223 E90.49239
G1 X38.764 Y104.553 E90.52182
G1 X38.248 Y103.834 E90.55125
G1 X37.799 Y103.071 E90.5807
G1 X37.421 Y102.27 E90.61016
G1 X37.117 Y101.439 E90.63959
G1 X36.889 Y100.584 E90.66902
G1 X36.739 Y99.711 E90.69848
G1 X36.662 Y98.489 E90.73921
G1 X36.662 Y58.489 E92.06961
G1 X36.702 Y57.605 E92.09904
G1 X36.822 Y56.728 E92.12848
G1 X37.02 Y55.865 E92.15793
G1 X37.295 Y55.024 E92.18736
G1 X37.645 Y54.211 E92.2168
G1 X38.067 Y53.432 E92.24627
G1 X38.558 Y52.696 E92.2757
G1 X39.113 Y52.006 E92.30515
G1 X39.728 Y51.369 E92.3346
G1 X40.398 Y50.791 E92.36403
G0 F3600 X40.787 Y50.995
G1 F1800 X41.501 Y50.505 E92.39283
G1 X42.258 Y50.081 E92.42169
G1 X43.051 Y49.73 E92.45053
G1 X43.872 Y49.453 E92.47935
G1 X44.716 Y49.253 E92.5082
G1 X45.574 Y49.131 E92.53702
G1 X46.462 Y49.089 E92.56659
G1 X203.962 Y49.089 E97.80506
G1 X204.828 Y49.129 E97.8339
G1 X205.687 Y49.249 E97.86275
G1 X206.531 Y49.447 E97.89158
G1 X207.353 Y49.722 E97.92041
G1 X208.146 Y50.072 E97.94924
G1 X208.904 Y50.493 E97.97808
G1 X209.619 Y50.982 E98.00689
G1 X210.287 Y51.535 E98.03573
G1 X210.901 Y52.148 E98.06459
G1 X211.456 Y52.814 E98.09342
G1 X211.946 Y53.528 E98.12223
G1 X212.37 Y54.285 E98.15108
G1 X212.721 Y55.078 E98.17993
G1 X212.998 Y55.899 E98.20875
G1 X213.198 Y56.743 E98.23759
G1 X213.32 Y57.601 E98.26642
G1 X213.362 Y58.489 E98.29599
G1 X213.362 Y98.489 E99.62639
G1 X213.322 Y99.355 E99.65523
G1 X213.202 Y100.214 E99.68407
G1 X213.004 Y101.058 E99.71291
G1 X212.729 Y101.88 E99.74174
G1 X212.379 Y102.673 E99.77057
G1 X211.958 Y103.431 E99.79941
G1 X211.469 Y104.146 E99.82822
G1 X210.916 Y104.814 E99.85706
G1 X210.303 Y105.428 E99.88592
G1 X209.637 Y105.983 E99.91475
G1 X208.923 Y106.473 E99.94355
G1 X208.166 Y106.897 E99.97241
G1 X207.373 Y107.248 E100.00126
G1 X206.552 Y107.525 E100.03007
G1 X205.708 Y107.725 E100.05892
G1 X204.85 Y107.847 E100.08775
G1 X203.962 Y107.889 E100.11732
G1 X46.462 Y107.889 E105.35579
G1 X45.596 Y107.849 E105.38462
G1 X44.737 Y107.729 E105.41347
