;FLAVOR:Marlin
;TIME:9607
;Filament used: 7.31655m
;Layer height: 0.15
;MINX:39.707
;MINY:16.654
;MINZ:0.2
;MAXX:154.147
;MAXY:189.754
;MAXZ:3.5
;Generated with Cura_SteamEngine 4.4.0
M82 ;absolute extrusion mode
G21 ; set units to millimeters
G90 ; use absolute positioning
M82 ; absolute extrusion mode
M104 S210 ; set extruder temp
M140 S60 ; set bed temp
M190 S60 ; wait for bed temp
M109 S210 ; wait for extruder temp
G28 W ; home all without mesh bed level
G80 ; mesh bed leveling
G92 E0.0 ; reset extruder distance position
G1 Y-3.0 F1000.0 ; go outside print area
G1 X60.0 E9.0 F1000.0 ; intro line
G1 X100.0 E21.5 F1000.0 ; intro line
G92 E0.0 ; reset extruder distance position
G92 E0
G92 E0
G1 F2100 E-0.8
;LAYER_COUNT:23
;LAYER:0
M107
G0 F3600 X41.118 Y22.858 Z0.2
;TYPE:SKIRT
G1 F2100 E0
G1 F1800 X41.614 Y22.023 E0.0323
G1 X42.176 Y21.231 E0.0646
G1 X42.802 Y20.488 E0.09692
G1 X43.487 Y19.799 E0.12923
G1 X44.226 Y19.168 E0.16155
G1 X45.014 Y18.601 E0.19384
G1 X45.846 Y18.1 E0.22614
G1 X46.717 Y17.67 E0.25845
G1 X47.621 Y17.312 E0.29079
G1 X48.55 Y17.03 E0.32308
G1 X49.5 Y16.826 E0.3554
G1 X50.463 Y16.7 E0.3877
G1 X51.507 Y16.654 E0.42246
G1 X91.507 Y16.654 E1.75286
G1 X92.478 Y16.694 E1.78519
G1 X93.442 Y16.814 E1.8175
G1 X94.392 Y17.012 E1.84977
G1 X95.324 Y17.288 E1.8821
G1 X96.229 Y17.64 E1.9144
G1 X97.103 Y18.065 E1.94672
G1 X97.938 Y18.561 E1.97902
G1 X98.73 Y19.123 E2.01132
G1 X99.473 Y19.749 E2.04364
G1 X100.162 Y20.434 E2.07595
G1 X100.793 Y21.173 E2.10827
G1 X101.36 Y21.961 E2.14056
G1 X101.861 Y22.793 E2.17286
G1 X102.291 Y23.664 E2.20517
G1 X102.649 Y24.568 E2.23751
G1 X102.931 Y25.497 E2.2698
G1 X103.135 Y26.447 E2.30212
G1 X103.261 Y27.41 E2.33442
G1 X103.307 Y28.454 E2.36918
G1 X103.307 Y51.291 E3.12874
G1 X142.347 Y51.291 E4.42722
G1 X143.318 Y51.331 E4.45954
G1 X144.282 Y51.451 E4.49185
G1 X145.232 Y51.649 E4.52413
G1 X146.164 Y51.925 E4.55645
G1 X147.069 Y52.277 E4.58875
G1 X147.943 Y52.702 E4.62108
G1 X148.778 Y53.198 E4.65338
G1 X149.57 Y53.76 E4.68568
G1 X150.313 Y54.386 E4.71799
G1 X151.002 Y55.071 E4.75031
G1 X151.633 Y55.81 E4.78263
G1 X152.2 Y56.598 E4.81492
G1 X152.701 Y57.43 E4.84722
G1 X153.131 Y58.301 E4.87953
G1 X153.489 Y59.205 E4.91186
G1 X153.771 Y60.134 E4.94416
G1 X153.975 Y61.084 E4.97647
G1 X154.101 Y62.047 E5.00878
G1 X154.147 Y63.091 E5.04353
G1 X154.147 Y140.591 E7.62119
G1 X154.107 Y141.562 E7.65352
G1 X153.987 Y142.526 E7.68583
G1 X153.789 Y143.476 E7.7181
G1 X153.513 Y144.408 E7.75043
G1 X153.161 Y145.313 E7.78273
G1 X152.736 Y146.187 E7.81505
G1 X152.24 Y147.022 E7.84736
G1 X151.678 Y147.814 E7.87966
G1 X151.052 Y148.557 E7.91197
G1 X150.367 Y149.246 E7.94428
G1 X149.628 Y149.877 E7.9766
G1 X148.84 Y150.444 E8.00889
G1 X148.008 Y150.945 E8.0412
G1 X147.137 Y151.375 E8.0735
G1 X146.233 Y151.733 E8.10584
G1 X145.304 Y152.015 E8.13813
G1 X144.354 Y152.219 E8.17045
G1 X143.391 Y152.345 E8.20275
G1 X142.347 Y152.391 E8.23751
G1 X103.307 Y152.391 E9.53599
G1 X103.307 Y177.954 E10.38621
G1 X103.267 Y178.925 E10.41854
G1 X103.147 Y179.889 E10.45085
G1 X102.949 Y180.839 E10.48312
G1 X102.673 Y181.771 E10.51545
G1 X102.321 Y182.676 E10.54775
G1 X101.896 Y183.55 E10.58007
G1 X101.4 Y184.385 E10.61238
G1 X100.838 Y185.177 E10.64468
G1 X100.212 Y185.92 E10.67699
G1 X99.527 Y186.609 E10.70931
G1 X98.788 Y187.24 E10.74163
G1 X98 Y187.807 E10.77391
G1 X97.168 Y188.308 E10.80622
G1 X96.297 Y188.738 E10.83852
G1 X95.393 Y189.096 E10.87086
G1 X94.464 Y189.378 E10.90315
G1 X93.514 Y189.582 E10.93547
G1 X92.551 Y189.708 E10.96777
G1 X91.507 Y189.754 E11.00253
G1 X51.507 Y189.754 E12.33294
G1 X50.536 Y189.714 E12.36526
G1 X49.572 Y189.594 E12.39757
G1 X48.622 Y189.396 E12.42985
G1 X47.69 Y189.12 E12.46217
G1 X46.785 Y188.768 E12.49447
G1 X45.911 Y188.343 E12.5268
G1 X45.076 Y187.847 E12.5591
G1 X44.284 Y187.285 E12.5914
G1 X43.541 Y186.659 E12.62371
G1 X42.852 Y185.974 E12.65603
G1 X42.221 Y185.235 E12.68835
G1 X41.654 Y184.447 E12.72064
G1 X41.153 Y183.615 E12.75294
G1 X40.723 Y182.744 E12.78525
G1 X40.365 Y181.84 E12.81758
G1 X40.083 Y180.911 E12.84988
G1 X39.879 Y179.961 E12.88219
G1 X39.753 Y178.998 E12.9145
G1 X39.707 Y177.954 E12.94925
G1 X39.707 Y28.454 E17.92164
G1 X39.747 Y27.483 E17.95397
G1 X39.867 Y26.519 E17.98628
G1 X40.065 Y25.569 E18.01855
G1 X40.341 Y24.637 E18.05088
G1 X40.693 Y23.732 E18.08318
G1 X41.118 Y22.858 E18.1155
G0 F3600 X41.517 Y22.962
G1 F1800 X42.012 Y22.145 E18.14727
G1 X42.573 Y21.373 E18.17901
G1 X43.197 Y20.65 E18.21078
G1 X43.879 Y19.982 E18.24253
G1 X44.615 Y19.373 E18.2743
G1 X45.399 Y18.829 E18.30604
G1 X46.226 Y18.351 E18.33781
G1 X47.089 Y17.945 E18.36953
G1 X47.984 Y17.612 E18.4013
G1 X48.904 Y17.355 E18.43307
G1 X49.842 Y17.176 E18.46483
G1 X50.791 Y17.076 E18.49657
G1 X51.507 Y17.054 E18.52039
G1 X91.507 Y17.054 E19.8508
G1 X92.461 Y17.094 E19.88256
G1 X93.408 Y17.214 E19.9143
G1 X94.342 Y17.412 E19.94606
G1 X95.256 Y17.688 E19.97782
G1 X96.144 Y18.04 E20.00959
G1 X96.999 Y18.464 E20.04133
G1 X97.816 Y18.959 E20.0731
G1 X98.588 Y19.52 E20.10484
G1 X99.311 Y20.144 E20.13661
G1 X99.979 Y20.826 E20.16836
G1 X100.588 Y21.562 E20.20013
G1 X101.132 Y22.346 E20.23187
G1 X101.61 Y23.173 E20.26364
G1 X102.016 Y24.036 E20.29536
G1 X102.349 Y24.931 E20.32712
G1 X102.606 Y25.851 E20.35889
G1 X102.785 Y26.789 E20.39065
G1 X102.885 Y27.738 E20.42239
G1 X102.907 Y28.454 E20.44622
G1 X102.907 Y51.691 E21.21908
G1 X142.347 Y51.691 E22.53086
G1 X143.301 Y51.731 E22.56262
G1 X144.248 Y51.851 E22.59437
G1 X145.182 Y52.049 E22.62613
G1 X146.096 Y52.325 E22.65788
G1 X146.984 Y52.677 E22.68965
G1 X147.839 Y53.101 E22.72139
G1 X148.656 Y53.596 E22.75317
G1 X149.428 Y54.157 E22.78491
G1 X150.151 Y54.781 E22.81667
G1 X150.819 Y55.463 E22.84842
G1 X151.428 Y56.199 E22.8802
G1 X151.972 Y56.983 E22.91193
G1 X152.45 Y57.81 E22.9437
G1 X152.856 Y58.673 E22.97543
G1 X153.189 Y59.568 E23.00719
G1 X153.446 Y60.488 E23.03896
G1 X153.625 Y61.426 E23.07072
G1 X153.725 Y62.375 E23.10246
G1 X153.747 Y63.091 E23.12628
G1 X153.747 Y140.591 E25.70394
G1 X153.707 Y141.545 E25.7357
G1 X153.587 Y142.492 E25.76745
G1 X153.389 Y143.426 E25.79921
G1 X153.113 Y144.34 E25.83096
G1 X152.761 Y145.228 E25.86273
G1 X152.337 Y146.083 E25.89447
G1 X151.842 Y146.9 E25.92625
G1 X151.281 Y147.672 E25.95799
G1 X150.657 Y148.395 E25.98975
G1 X149.975 Y149.063 E26.0215
G1 X149.239 Y149.672 E26.05328
G1 X148.455 Y150.216 E26.08502
G1 X147.628 Y150.694 E26.11679
G1 X146.765 Y151.1 E26.14851
G1 X145.87 Y151.433 E26.18027
G1 X144.95 Y151.69 E26.21204
G1 X144.012 Y151.869 E26.2438
G1 X143.063 Y151.969 E26.27554
G1 X142.347 Y151.991 E26.29936
G1 X102.907 Y151.991 E27.61114
G1 X102.907 Y177.954 E28.47468
G1 X102.867 Y178.908 E28.50643
G1 X102.747 Y179.855 E28.53818
G1 X102.549 Y180.789 E28.56994
G1 X102.273 Y181.703 E28.60169
G1 X101.921 Y182.591 E28.63347
G1 X101.497 Y183.446 E28.66521
G1 X101.002 Y184.263 E28.69698
G1 X100.441 Y185.035 E28.72872
G1 X99.817 Y185.758 E28.76048
G1 X99.135 Y186.426 E28.79224
G1 X98.399 Y187.035 E28.82401
G1 X97.615 Y187.579 E28.85575
G1 X96.788 Y188.057 E28.88752
G1 X95.925 Y188.463 E28.91924
G1 X95.03 Y188.796 E28.951
G1 X94.11 Y189.053 E28.98277
G1 X93.172 Y189.232 E29.01453
G1 X92.223 Y189.332 E29.04627
G1 X91.507 Y189.354 E29.0701
G1 X51.507 Y189.354 E30.4005
G1 X50.553 Y189.314 E30.43226
G1 X49.606 Y189.194 E30.46401
G1 X48.672 Y188.996 E30.49576
G1 X47.758 Y188.72 E30.52752
G1 X46.87 Y188.368 E30.55929
G1 X46.015 Y187.944 E30.59103
G1 X45.198 Y187.449 E30.62281
G1 X44.426 Y186.888 E30.65455
G1 X43.703 Y186.264 E30.68631
G1 X43.035 Y185.582 E30.71806
G1 X42.426 Y184.846 E30.74984
G1 X41.882 Y184.062 E30.78157
G1 X41.404 Y183.235 E30.81334
G1 X40.998 Y182.372 E30.84506
G1 X40.665 Y181.477 E30.87683
G1 X40.408 Y180.557 E30.9086
G1 X40.229 Y179.619 E30.94036
G1 X40.129 Y178.67 E30.9721
G1 X40.107 Y177.954 E30.99592
G1 X40.107 Y28.454 E35.96831
G1 X40.147 Y27.5 E36.00007
G1 X40.267 Y26.553 E36.03182
G1 X40.465 Y25.619 E36.06358
G1 X40.741 Y24.705 E36.09533
G1 X41.093 Y23.817 E36.1271
G1 X41.517 Y22.962 E36.15884
G0 F3600 X41.916 Y23.068
G1 F1800 X42.41 Y22.27 E36.19006
G1 X42.97 Y21.518 E36.22124
G1 X43.591 Y20.816 E36.25242
G1 X44.271 Y20.169 E36.28364
G1 X45.003 Y19.583 E36.31482
G1 X45.782 Y19.061 E36.34601
G1 X46.603 Y18.608 E36.3772
G1 X47.46 Y18.226 E36.40841
G1 X48.346 Y17.918 E36.4396
G1 X49.255 Y17.687 E36.4708
G1 X50.18 Y17.534 E36.50198
G1 X51.507 Y17.454 E36.5462
G1 X91.507 Y17.454 E37.8766
G1 X92.444 Y17.494 E37.9078
G1 X93.374 Y17.614 E37.93899
G1 X94.291 Y17.812 E37.97019
G1 X95.187 Y18.088 E38.00137
G1 X96.057 Y18.439 E38.03257
G1 X96.893 Y18.863 E38.06375
G1 X97.691 Y19.357 E38.09497
G1 X98.443 Y19.917 E38.12615
G1 X99.145 Y20.538 E38.15733
G1 X99.792 Y21.218 E38.18854
G1 X100.378 Y21.95 E38.21973
G1 X100.9 Y22.729 E38.25092
G1 X101.353 Y23.55 E38.28211
G1 X101.735 Y24.407 E38.31331
G1 X102.043 Y25.293 E38.34451
G1 X102.274 Y26.202 E38.37571
G1 X102.427 Y27.127 E38.40689
G1 X102.507 Y28.454 E38.45111
G1 X102.507 Y52.091 E39.23728
G1 X142.347 Y52.091 E40.56236
G1 X143.284 Y52.131 E40.59355
G1 X144.214 Y52.251 E40.62474
G1 X145.131 Y52.449 E40.65594
G1 X146.027 Y52.725 E40.68713
G1 X146.897 Y53.076 E40.71833
G1 X147.733 Y53.5 E40.74951
G1 X148.531 Y53.994 E40.78072
G1 X149.283 Y54.554 E40.81191
G1 X149.985 Y55.175 E40.84308
G1 X150.632 Y55.855 E40.8743
G1 X151.218 Y56.587 E40.90549
G1 X151.74 Y57.366 E40.93668
G1 X152.193 Y58.187 E40.96786
G1 X152.575 Y59.044 E40.99907
G1 X152.883 Y59.93 E41.03027
G1 X153.114 Y60.839 E41.06146
G1 X153.267 Y61.764 E41.09265
G1 X153.347 Y63.091 E41.13686
G1 X153.347 Y140.591 E43.71452
G1 X153.307 Y141.528 E43.74572
G1 X153.187 Y142.458 E43.7769
G1 X152.989 Y143.375 E43.80811
G1 X152.713 Y144.271 E43.83929
G1 X152.362 Y145.141 E43.87049
G1 X151.938 Y145.977 E43.90167
G1 X151.444 Y146.775 E43.93289
G1 X150.884 Y147.527 E43.96407
G1 X150.263 Y148.229 E43.99524
G1 X149.583 Y148.876 E44.02646
G1 X148.851 Y149.462 E44.05765
G1 X148.072 Y149.984 E44.08884
G1 X147.251 Y150.437 E44.12003
G1 X146.394 Y150.819 E44.15123
G1 X145.508 Y151.127 E44.18243
G1 X144.599 Y151.358 E44.21363
G1 X143.674 Y151.511 E44.24481
G1 X142.347 Y151.591 E44.28903
G1 X102.507 Y151.591 E45.61411
G1 X102.507 Y177.954 E46.49095
G1 X102.467 Y178.891 E46.52214
G1 X102.347 Y179.821 E46.55333
G1 X102.149 Y180.738 E46.58453
G1 X101.873 Y181.634 E46.61571
G1 X101.522 Y182.504 E46.64692
G1 X101.098 Y183.34 E46.67809
G1 X100.604 Y184.138 E46.70931
G1 X100.044 Y184.89 E46.74049
G1 X99.423 Y185.592 E46.77167
G1 X98.743 Y186.239 E46.80289
G1 X98.011 Y186.825 E46.83407
G1 X97.232 Y187.347 E46.86526
G1 X96.411 Y187.8 E46.89645
G1 X95.554 Y188.182 E46.92766
G1 X94.668 Y188.49 E46.95885
G1 X93.759 Y188.721 E46.99005
G1 X92.834 Y188.874 E47.02123
G1 X91.507 Y188.954 E47.06545
G1 X51.507 Y188.954 E48.39585
G1 X50.57 Y188.914 E48.42705
G1 X49.64 Y188.794 E48.45824
G1 X48.723 Y188.596 E48.48944
G1 X47.827 Y188.32 E48.52062
G1 X46.957 Y187.969 E48.55182
G1 X46.121 Y187.545 E48.583
G1 X45.323 Y187.051 E48.61422
G1 X44.571 Y186.491 E48.6454
G1 X43.869 Y185.87 E48.67657
G1 X43.222 Y185.19 E48.70779
G1 X42.636 Y184.458 E48.73898
G1 X42.114 Y183.679 E48.77017
G1 X41.661 Y182.858 E48.80136
G1 X41.279 Y182.001 E48.83256
G1 X40.971 Y181.115 E48.86376
G1 X40.74 Y180.206 E48.89496
G1 X40.587 Y179.281 E48.92614
G1 X40.507 Y177.954 E48.97036
G1 X40.507 Y28.454 E53.94275
G1 X40.547 Y27.517 E53.97394
G1 X40.667 Y26.587 E54.00513
G1 X40.865 Y25.67 E54.03633
G1 X41.141 Y24.774 E54.06751
G1 X41.492 Y23.904 E54.09872
G1 X41.916 Y23.068 E54.12989
G0 F3600 X42.315 Y23.175
G1 F1800 X42.808 Y22.398 E54.1605
G1 X43.366 Y21.666 E54.19111
G1 X43.986 Y20.985 E54.22174
G1 X44.662 Y20.36 E54.25236
G1 X45.39 Y19.797 E54.28297
G1 X46.165 Y19.299 E54.31361
G1 X46.979 Y18.87 E54.34422
G1 X47.828 Y18.513 E54.37485
G1 X48.704 Y18.231 E54.40546
G1 X49.602 Y18.027 E54.43609
G1 X50.514 Y17.901 E54.46671
G1 X51.507 Y17.854 E54.49977
G1 X91.507 Y17.854 E55.83018
G1 X92.427 Y17.894 E55.86081
G1 X93.34 Y18.014 E55.89143
G1 X94.239 Y18.212 E55.92205
G1 X95.117 Y18.488 E55.95266
G1 X95.968 Y18.839 E55.98328
G1 X96.786 Y19.262 E56.01391
G1 X97.563 Y19.755 E56.04452
G1 X98.295 Y20.313 E56.07513
G1 X98.976 Y20.933 E56.10576
G1 X99.601 Y21.609 E56.13638
G1 X100.164 Y22.337 E56.16699
G1 X100.662 Y23.112 E56.19763
G1 X101.091 Y23.926 E56.22823
G1 X101.448 Y24.775 E56.25887
G1 X101.73 Y25.651 E56.28947
G1 X101.934 Y26.549 E56.3201
G1 X102.06 Y27.461 E56.35072
G1 X102.107 Y28.454 E56.38379
G1 X102.107 Y52.502 E57.18363
G1 X102.347 Y52.491 E57.19162
G1 X142.347 Y52.491 E58.52203
G1 X143.267 Y52.531 E58.55265
G1 X144.18 Y52.651 E58.58328
G1 X145.079 Y52.849 E58.6139
G1 X145.957 Y53.125 E58.64451
G1 X146.808 Y53.476 E58.67513
G1 X147.626 Y53.899 E58.70576
G1 X148.403 Y54.392 E58.73636
G1 X149.135 Y54.95 E58.76698
G1 X149.816 Y55.57 E58.79761
G1 X150.441 Y56.246 E58.82823
G1 X151.004 Y56.974 E58.85884
G1 X151.502 Y57.749 E58.88948
G1 X151.931 Y58.563 E58.92008
G1 X152.288 Y59.412 E58.95071
G1 X152.57 Y60.288 E58.98132
G1 X152.774 Y61.186 E59.01195
G1 X152.9 Y62.098 E59.04257
G1 X152.947 Y63.091 E59.07564
G1 X152.947 Y140.591 E61.6533
G1 X152.907 Y141.511 E61.68392
G1 X152.787 Y142.424 E61.71455
G1 X152.589 Y143.323 E61.74517
G1 X152.313 Y144.201 E61.77578
G1 X151.962 Y145.052 E61.8064
G1 X151.539 Y145.87 E61.83703
G1 X151.046 Y146.647 E61.86763
G1 X150.488 Y147.379 E61.89825
G1 X149.868 Y148.06 E61.92888
G1 X149.192 Y148.685 E61.9595
G1 X148.464 Y149.248 E61.99011
G1 X147.689 Y149.746 E62.02075
G1 X146.875 Y150.175 E62.05135
G1 X146.026 Y150.532 E62.08199
G1 X145.15 Y150.814 E62.11259
G1 X144.252 Y151.018 E62.14322
G1 X143.34 Y151.144 E62.17384
G1 X142.347 Y151.191 E62.20691
G1 X102.347 Y151.191 E63.53731
G1 X102.107 Y151.181 E63.5453
G1 X102.107 Y177.954 E64.43578
G1 X102.067 Y178.874 E64.4664
G1 X101.947 Y179.787 E64.49703
G1 X101.749 Y180.686 E64.52765
G1 X101.473 Y181.564 E64.55826
G1 X101.122 Y182.415 E64.58888
G1 X100.699 Y183.233 E64.61951
G1 X100.206 Y184.01 E64.65011
G1 X99.648 Y184.742 E64.68073
G1 X99.028 Y185.423 E64.71136
G1 X98.352 Y186.048 E64.74198
G1 X97.624 Y186.611 E64.77259
G1 X96.849 Y187.109 E64.80323
G1 X96.035 Y187.538 E64.83383
G1 X95.186 Y187.895 E64.86446
G1 X94.31 Y188.177 E64.89507
G1 X93.412 Y188.381 E64.9257
G1 X92.5 Y188.507 E64.95632
G1 X91.507 Y188.554 E64.98939
G1 X51.507 Y188.554 E66.31979
G1 X50.587 Y188.514 E66.35042
G1 X49.674 Y188.394 E66.38105
G1 X48.775 Y188.196 E66.41167
G1 X47.897 Y187.92 E66.44228
G1 X47.046 Y187.569 E66.47289
G1 X46.228 Y187.146 E66.50352
G1 X45.451 Y186.653 E66.53413
G1 X44.719 Y186.095 E66.56474
G1 X44.038 Y185.475 E66.59537
G1 X43.413 Y184.799 E66.626
G1 X42.85 Y184.071 E66.6566
G1 X42.352 Y183.296 E66.68724
G1 X41.923 Y182.482 E66.71785
G1 X41.566 Y181.633 E66.74848
G1 X41.284 Y180.757 E66.77909
G1 X41.08 Y179.859 E66.80972
G1 X40.954 Y178.947 E66.84034
G1 X40.907 Y177.954 E66.8734
G1 X40.907 Y28.454 E71.84579
G1 X40.947 Y27.534 E71.87642
G1 X41.067 Y26.621 E71.90705
G1 X41.265 Y25.722 E71.93767
G1 X41.541 Y24.844 E71.96828
G1 X41.892 Y23.993 E71.9989
G1 X42.315 Y23.175 E72.02952
G0 F3600 X42.714 Y23.285
G1 F1800 X43.205 Y22.528 E72.05954
G1 X43.762 Y21.817 E72.08958
G1 X44.38 Y21.157 E72.11965
G1 X45.053 Y20.556 E72.14966
G1 X45.777 Y20.016 E72.1797
G1 X46.546 Y19.542 E72.20975
G1 X47.353 Y19.138 E72.23976
G1 X48.194 Y18.807 E72.26982
G1 X49.06 Y18.552 E72.29985
G1 X49.945 Y18.374 E72.32987
G1 X50.843 Y18.276 E72.35992
G1 X51.507 Y18.254 E72.38201
G1 X91.507 Y18.254 E73.71242
G1 X92.409 Y18.294 E73.74245
G1 X93.304 Y18.414 E73.77248
G1 X94.185 Y18.612 E73.80252
G1 X95.045 Y18.887 E73.83255
G1 X95.878 Y19.238 E73.86261
G1 X96.676 Y19.661 E73.89265
G1 X97.433 Y20.152 E73.92266
G1 X98.144 Y20.709 E73.9527
G1 X98.804 Y21.327 E73.98278
G1 X99.405 Y22 E74.01279
G1 X99.945 Y22.724 E74.04283
G1 X100.419 Y23.493 E74.07287
G1 X100.823 Y24.3 E74.10289
G1 X101.154 Y25.141 E74.13295
G1 X101.409 Y26.007 E74.16298
G1 X101.587 Y26.892 E74.193
G1 X101.685 Y27.79 E74.22305
G1 X101.707 Y28.454 E74.24514
G1 X101.707 Y52.912 E75.05862
G1 X102.347 Y52.891 E75.07992
