;FLAVOR:Marlin
;TIME:3316
;Filament used: 5.34565m
;Layer height: 0.3
;MINX:106.4
;MINY:70.4
;MINZ:0.2
;MAXX:143.6
;MAXY:139.6
;MAXZ:19.4
;Generated with Cura_SteamEngine 4.9.0
M82 ;absolute extrusion mode
G21 ; set units to millimeters
G90 ; use absolute positioning
M82 ; absolute extrusion mode
M104 S200 ; set extruder temp
M140 S60 ; set bed temp
M190 S60 ; wait for bed temp
M109 S200 ; wait for extruder temp
G28 W ; home all without mesh bed level
G80 ; mesh bed leveling
G92 E0.0 ; reset extruder distance position
G1 Y-3.0 F1000.0 ; go outside print area
G1 X60.0 E9.0 F1000.0 ; intro line
G1 X100.0 E21.5 F1000.0 ; intro line
G92 E0.0 ; reset extruder distance position
G92 E0
G92 E0
G1 F2100 E-0.8
;LAYER_COUNT:65
;LAYER:0
M107
G0 F3600 X107.058 Y71.947 Z0.2
;TYPE:SKIRT
G1 F2100 E0
G1 F1800 X107.397 Y71.531 E0.01785
G1 X107.794 Y71.171 E0.03567
G1 X108.241 Y70.873 E0.05354
G1 X108.726 Y70.645 E0.07137
G1 X109.24 Y70.492 E0.0892
G1 X109.908 Y70.41 E0.11159
G1 X110.33 Y70.4 E0.12563
G1 X139.345 Y70.4 E1.09067
G1 X140.043 Y70.41 E1.11389
G1 X140.577 Y70.458 E1.13172
G1 X141.098 Y70.584 E1.14955
G1 X141.595 Y70.787 E1.1674
G1 X142.056 Y71.061 E1.18524
G1 X142.471 Y71.4 E1.20306
G1 X142.831 Y71.798 E1.22091
G1 X143.128 Y72.244 E1.23874
G1 X143.356 Y72.73 E1.25659
G1 X143.508 Y73.244 E1.27442
G1 X143.59 Y73.909 E1.2967
G1 X143.6 Y74.33 E1.31071
G1 X143.6 Y135.309 E3.33888
G1 X143.591 Y136.036 E3.36306
G1 X143.544 Y136.57 E3.38089
G1 X143.419 Y137.091 E3.39871
G1 X143.217 Y137.588 E3.41656
G1 X142.944 Y138.05 E3.4344
G1 X142.606 Y138.466 E3.45223
G1 X142.209 Y138.827 E3.47008
G1 X141.763 Y139.125 E3.48792
G1 X141.278 Y139.353 E3.50574
G1 X140.764 Y139.507 E3.52359
G1 X140.092 Y139.59 E3.54611
G1 X139.67 Y139.6 E3.56015
G1 X110.661 Y139.6 E4.52499
G1 X109.963 Y139.591 E4.54821
G1 X109.428 Y139.544 E4.56607
G1 X108.907 Y139.418 E4.5839
G1 X108.41 Y139.216 E4.60175
G1 X107.949 Y138.943 E4.61957
G1 X107.533 Y138.604 E4.63741
G1 X107.172 Y138.208 E4.65524
G1 X106.874 Y137.762 E4.67308
G1 X106.646 Y137.276 E4.69093
G1 X106.493 Y136.762 E4.70877
G1 X106.41 Y136.088 E4.73136
G1 X106.4 Y135.658 E4.74566
G1 X106.4 Y74.625 E6.77563
G1 X106.409 Y73.96 E6.79775
G1 X106.457 Y73.426 E6.81558
G1 X106.583 Y72.905 E6.83341
G1 X106.785 Y72.408 E6.85125
G1 X107.058 Y71.947 E6.86907
G0 F3600 X107.454 Y72.082
G1 F1800 X107.789 Y71.704 E6.88587
G1 X108.18 Y71.383 E6.9027
G1 X108.617 Y71.128 E6.91952
G1 X109.088 Y70.944 E6.93634
G1 X109.582 Y70.838 E6.95315
G1 X110.24 Y70.801 E6.97507
G1 X139.339 Y70.8 E7.9429
G1 X140.037 Y70.81 E7.96612
G1 X140.54 Y70.857 E7.98292
G1 X141.03 Y70.983 E7.99975
G1 X141.494 Y71.185 E8.01658
G1 X141.92 Y71.457 E8.03339
G1 X142.298 Y71.792 E8.05019
G1 X142.618 Y72.183 E8.067
G1 X142.873 Y72.62 E8.08383
G1 X143.056 Y73.091 E8.10063
G1 X143.163 Y73.585 E8.11744
G1 X143.199 Y74.24 E8.13926
G1 X143.2 Y135.304 E10.17026
G1 X143.191 Y136.031 E10.19444
G1 X143.145 Y136.534 E10.21124
G1 X143.02 Y137.024 E10.22806
G1 X142.819 Y137.488 E10.24488
G1 X142.548 Y137.915 E10.2617
G1 X142.213 Y138.294 E10.27852
G1 X141.823 Y138.615 E10.29532
G1 X141.387 Y138.871 E10.31214
G1 X140.916 Y139.054 E10.32895
G1 X140.422 Y139.162 E10.34577
G1 X139.76 Y139.199 E10.36782
G1 X110.666 Y139.2 E11.33549
G1 X109.968 Y139.191 E11.35871
G1 X109.464 Y139.144 E11.37554
G1 X108.974 Y139.019 E11.39236
G1 X108.51 Y138.818 E11.40918
G1 X108.084 Y138.547 E11.42597
G1 X107.705 Y138.212 E11.4428
G1 X107.384 Y137.821 E11.45962
G1 X107.129 Y137.385 E11.47642
G1 X106.945 Y136.914 E11.49324
G1 X106.838 Y136.42 E11.51005
G1 X106.801 Y135.744 E11.53257
G1 X106.8 Y74.631 E13.5652
G1 X106.809 Y73.966 E13.58732
G1 X106.856 Y73.462 E13.60415
G1 X106.982 Y72.973 E13.62095
G1 X107.183 Y72.509 E13.63777
G1 X107.454 Y72.082 E13.65459
G1 F2100 E12.85459
;MESH:carriage_yaxis_wall.stl
G0 F3600 X109.335 Y74.614
G0 X110.614 Y74.614
G0 X139.33 Y135.33
G0 X139.4 Y135.4
;TYPE:WALL-INNER
G1 F2100 E13.65459
G1 F1800 X110.6 Y135.4 E14.61248
G1 X110.6 Y74.6 E16.6347
G1 X139.4 Y74.6 E17.59259
G1 X139.4 Y135.4 E19.6148
G0 F3600 X139.8 Y135.8
;TYPE:WALL-OUTER
G1 F1800 X110.2 Y135.8 E20.5993
G1 X110.2 Y74.2 E22.64813
G1 X139.8 Y74.2 E23.63263
G1 X139.8 Y135.8 E25.68145
G0 F3600 X139.6 Y135.8
G0 X139.01 Y135.01
;TYPE:SKIN
G1 F1800 X110.99 Y135.01 E26.6134
G1 X110.99 Y74.99 E28.60967
G1 X139.01 Y74.99 E29.54162
G1 X139.01 Y135.01 E31.5379
G0 F3600 X111.636 Y134.829
G1 F1800 X111.169 Y134.362 E31.55986
G0 F3600 X111.169 Y133.796
G1 F1800 X112.202 Y134.829 E31.60845
G0 F3600 X112.767 Y134.829
G1 F1800 X111.169 Y133.23 E31.68364
G0 F3600 X111.169 Y132.665
G1 F1800 X113.333 Y134.829 E31.78543
G0 F3600 X113.899 Y134.829
G1 F1800 X111.169 Y132.099 E31.91384
G0 F3600 X111.169 Y131.533
G1 F1800 X114.465 Y134.829 E32.06887
G0 F3600 X115.03 Y134.829
G1 F1800 X111.169 Y130.968 E32.25048
G0 F3600 X111.169 Y130.402
G1 F1800 X115.596 Y134.829 E32.45871
G0 F3600 X116.162 Y134.829
G1 F1800 X111.169 Y129.836 E32.69357
G0 F3600 X111.169 Y129.271
G1 F1800 X116.727 Y134.829 E32.955
G0 F3600 X117.293 Y134.829
G1 F1800 X111.169 Y128.705 E33.24306
G0 F3600 X111.169 Y128.139
G1 F1800 X117.859 Y134.829 E33.55773
G0 F3600 X118.424 Y134.829
G1 F1800 X111.169 Y127.574 E33.89899
G0 F3600 X111.169 Y127.008
G1 F1800 X118.99 Y134.829 E34.26686
G0 F3600 X119.556 Y134.829
G1 F1800 X111.169 Y126.442 E34.66136
G0 F3600 X111.169 Y125.877
G1 F1800 X120.121 Y134.829 E35.08244
G0 F3600 X120.687 Y134.829
G1 F1800 X111.169 Y125.311 E35.53013
G0 F3600 X111.169 Y124.745
G1 F1800 X121.253 Y134.829 E36.00445
G0 F3600 X121.818 Y134.829
G1 F1800 X111.169 Y124.179 E36.50537
G0 F3600 X111.169 Y123.614
G1 F1800 X122.384 Y134.829 E37.03289
G0 F3600 X122.95 Y134.829
G1 F1800 X111.169 Y123.048 E37.58703
G0 F3600 X111.169 Y122.482
G1 F1800 X123.515 Y134.829 E38.16778
G0 F3600 X124.081 Y134.829
G1 F1800 X111.169 Y121.917 E38.77512
G0 F3600 X111.169 Y121.351
G1 F1800 X124.647 Y134.829 E39.40908
G0 F3600 X125.213 Y134.829
G1 F1800 X111.169 Y120.785 E40.06967
G0 F3600 X111.169 Y120.22
G1 F1800 X125.778 Y134.829 E40.75683
G0 F3600 X126.344 Y134.829
G1 F1800 X111.169 Y119.654 E41.47062
G0 F3600 X111.169 Y119.088
G1 F1800 X126.91 Y134.829 E42.21102
G0 F3600 X127.475 Y134.829
G1 F1800 X111.169 Y118.523 E42.97801
G0 F3600 X111.169 Y117.957
G1 F1800 X128.041 Y134.829 E43.77161
G0 F3600 X128.607 Y134.829
G1 F1800 X111.169 Y117.391 E44.59185
G0 F3600 X111.169 Y116.826
G1 F1800 X129.172 Y134.829 E45.43865
G0 F3600 X129.738 Y134.829
G1 F1800 X111.169 Y116.26 E46.31208
G0 F3600 X111.169 Y115.694
G1 F1800 X130.304 Y134.829 E47.21213
G0 F3600 X130.869 Y134.829
G1 F1800 X111.169 Y115.129 E48.13876
G0 F3600 X111.169 Y114.563
G1 F1800 X131.435 Y134.829 E49.09201
G0 F3600 X132.001 Y134.829
G1 F1800 X111.169 Y113.997 E50.07188
G0 F3600 X111.169 Y113.431
G1 F1800 X132.566 Y134.829 E51.07836
G0 F3600 X133.132 Y134.829
G1 F1800 X111.169 Y112.866 E52.11143
G0 F3600 X111.169 Y112.3
G1 F1800 X133.698 Y134.829 E53.17112
G0 F3600 X134.264 Y134.829
G1 F1800 X111.169 Y111.734 E54.25744
G0 F3600 X111.169 Y111.169
G1 F1800 X134.829 Y134.829 E55.37033
G0 F3600 X135.395 Y134.829
G1 F1800 X111.169 Y110.603 E56.50985
G0 F3600 X111.169 Y110.037
G1 F1800 X135.961 Y134.829 E57.67599
G0 F3600 X136.526 Y134.829
G1 F1800 X111.169 Y109.472 E58.86871
G0 F3600 X111.169 Y108.906
G1 F1800 X137.092 Y134.829 E60.08805
G0 F3600 X137.658 Y134.829
G1 F1800 X111.169 Y108.34 E61.33401
G0 F3600 X111.169 Y107.775
G1 F1800 X138.223 Y134.829 E62.60654
G0 F3600 X138.789 Y134.829
G1 F1800 X111.169 Y107.209 E63.9057
G0 F3600 X111.169 Y106.643
G1 F1800 X138.829 Y134.303 E65.20675
G0 F3600 X138.829 Y133.737
G1 F1800 X111.169 Y106.078 E66.50776
G0 F3600 X111.169 Y105.512
G1 F1800 X138.829 Y133.172 E67.80881
G0 F3600 X138.829 Y132.606
G1 F1800 X111.169 Y104.946 E69.10985
G0 F3600 X111.169 Y104.38
G1 F1800 X138.829 Y132.04 E70.41089
G0 F3600 X138.829 Y131.475
G1 F1800 X111.169 Y103.815 E71.71193
G0 F3600 X111.169 Y103.249
G1 F1800 X138.829 Y130.909 E73.01297
G0 F3600 X138.829 Y130.343
G1 F1800 X111.169 Y102.683 E74.31401
G0 F3600 X111.169 Y102.118
G1 F1800 X138.829 Y129.778 E75.61505
G0 F3600 X138.829 Y129.212
G1 F1800 X111.169 Y101.552 E76.9161
G0 F3600 X111.169 Y100.986
G1 F1800 X138.829 Y128.646 E78.21714
G0 F3600 X138.829 Y128.081
G1 F1800 X111.169 Y100.421 E79.51818
G0 F3600 X111.169 Y99.855
G1 F1800 X138.829 Y127.515 E80.81922
G0 F3600 X138.829 Y126.949
G1 F1800 X111.169 Y99.289 E82.12026
G0 F3600 X111.169 Y98.724
G1 F1800 X138.829 Y126.384 E83.4213
G0 F3600 X138.829 Y125.818
G1 F1800 X111.169 Y98.158 E84.72235
G0 F3600 X111.169 Y97.592
G1 F1800 X138.829 Y125.252 E86.02339
G0 F3600 X138.829 Y124.686
G1 F1800 X111.169 Y97.027 E87.32441
G0 F3600 X111.169 Y96.461
G1 F1800 X138.829 Y124.121 E88.62545
G0 F3600 X138.829 Y123.555
G1 F1800 X111.169 Y95.895 E89.92649
G0 F3600 X111.169 Y95.33
G1 F1800 X138.829 Y122.989 E91.22751
G0 F3600 X138.829 Y122.424
G1 F1800 X111.169 Y94.764 E92.52855
G0 F3600 X111.169 Y94.198
G1 F1800 X138.829 Y121.858 E93.82959
G0 F3600 X138.829 Y121.292
G1 F1800 X111.169 Y93.632 E95.13063
G0 F3600 X111.169 Y93.067
G1 F1800 X138.829 Y120.727 E96.43167
G0 F3600 X138.829 Y120.161
G1 F1800 X111.169 Y92.501 E97.73272
G0 F3600 X111.169 Y91.935
G1 F1800 X138.829 Y119.595 E99.03376
G0 F3600 X138.829 Y119.03
G1 F1800 X111.169 Y91.37 E100.3348
G0 F3600 X111.169 Y90.804
G1 F1800 X138.829 Y118.464 E101.63584
G0 F3600 X138.829 Y117.898
G1 F1800 X111.169 Y90.238 E102.93688
G0 F3600 X111.169 Y89.673
G1 F1800 X138.829 Y117.333 E104.23792
G0 F3600 X138.829 Y116.767
G1 F1800 X111.169 Y89.107 E105.53896
G0 F3600 X111.169 Y88.541
G1 F1800 X138.829 Y116.201 E106.84001
G0 F3600 X138.829 Y115.636
G1 F1800 X111.169 Y87.976 E108.14105
G0 F3600 X111.169 Y87.41
G1 F1800 X138.829 Y115.07 E109.44209
G0 F3600 X138.829 Y114.504
G1 F1800 X111.169 Y86.844 E110.74313
G0 F3600 X111.169 Y86.279
G1 F1800 X138.829 Y113.938 E112.04415
G0 F3600 X138.829 Y113.373
G1 F1800 X111.169 Y85.713 E113.34519
G0 F3600 X111.169 Y85.147
G1 F1800 X138.829 Y112.807 E114.64623
G0 F3600 X138.829 Y112.241
G1 F1800 X111.169 Y84.581 E115.94727
G0 F3600 X111.169 Y84.016
G1 F1800 X138.829 Y111.676 E117.24832
G0 F3600 X138.829 Y111.11
G1 F1800 X111.169 Y83.45 E118.54936
G0 F3600 X111.169 Y82.884
G1 F1800 X138.829 Y110.544 E119.8504
G0 F3600 X138.829 Y109.979
G1 F1800 X111.169 Y82.319 E121.15144
G0 F3600 X111.169 Y81.753
G1 F1800 X138.829 Y109.413 E122.45248
G0 F3600 X138.829 Y108.847
G1 F1800 X111.169 Y81.187 E123.75352
G0 F3600 X111.169 Y80.622
G1 F1800 X138.829 Y108.282 E125.05457
G0 F3600 X138.829 Y107.716
G1 F1800 X111.169 Y80.056 E126.35561
G0 F3600 X111.169 Y79.49
G1 F1800 X138.829 Y107.15 E127.65665
G0 F3600 X138.829 Y106.585
G1 F1800 X111.169 Y78.925 E128.95769
G0 F3600 X111.169 Y78.359
G1 F1800 X138.829 Y106.019 E130.25873
G0 F3600 X138.829 Y105.453
G1 F1800 X111.169 Y77.793 E131.55977
G0 F3600 X111.169 Y77.228
G1 F1800 X138.829 Y104.887 E132.86079
G0 F3600 X138.829 Y104.322
G1 F1800 X111.169 Y76.662 E134.16183
G0 F3600 X111.169 Y76.096
G1 F1800 X138.829 Y103.756 E135.46287
G0 F3600 X138.829 Y103.19
G1 F1800 X111.169 Y75.531 E136.76389
G0 F3600 X111.374 Y75.17
G1 F1800 X138.829 Y102.625 E138.05529
G0 F3600 X138.829 Y102.059
G1 F1800 X111.939 Y75.17 E139.32009
G0 F3600 X112.505 Y75.17
G1 F1800 X138.829 Y101.493 E140.55827
G0 F3600 X138.829 Y100.928
G1 F1800 X113.071 Y75.17 E141.76985
G0 F3600 X113.637 Y75.17
G1 F1800 X138.829 Y100.362 E142.9548
G0 F3600 X138.829 Y99.796
G1 F1800 X114.202 Y75.17 E144.11315
G0 F3600 X114.768 Y75.17
G1 F1800 X138.829 Y99.231 E145.24491
G0 F3600 X138.829 Y98.665
G1 F1800 X115.334 Y75.17 E146.35004
G0 F3600 X115.899 Y75.17
G1 F1800 X138.829 Y98.099 E147.42858
G0 F3600 X138.829 Y97.534
G1 F1800 X116.465 Y75.17 E148.48051
G0 F3600 X117.031 Y75.17
G1 F1800 X138.829 Y96.968 E149.50582
G0 F3600 X138.829 Y96.402
G1 F1800 X117.596 Y75.17 E150.50453
G0 F3600 X118.162 Y75.17
G1 F1800 X138.829 Y95.837 E151.47665
G0 F3600 X138.829 Y95.271
G1 F1800 X118.728 Y75.17 E152.42213
G0 F3600 X119.293 Y75.17
G1 F1800 X138.829 Y94.705 E153.34102
G0 F3600 X138.829 Y94.139
G1 F1800 X119.859 Y75.17 E154.23329
G0 F3600 X120.425 Y75.17
G1 F1800 X138.829 Y93.574 E155.09896
G0 F3600 X138.829 Y93.008
G1 F1800 X120.99 Y75.17 E155.93803
G0 F3600 X121.556 Y75.17
G1 F1800 X138.829 Y92.442 E156.75047
G0 F3600 X138.829 Y91.877
G1 F1800 X122.122 Y75.17 E157.53632
G0 F3600 X122.687 Y75.17
G1 F1800 X138.829 Y91.311 E158.29557
G0 F3600 X138.829 Y90.745
G1 F1800 X123.253 Y75.17 E159.02819
G0 F3600 X123.819 Y75.17
G1 F1800 X138.829 Y90.18 E159.73421
G0 F3600 X138.829 Y89.614
G1 F1800 X124.385 Y75.17 E160.41362
G0 F3600 X124.95 Y75.17
G1 F1800 X138.829 Y89.048 E161.06642
G0 F3600 X138.829 Y88.483
G1 F1800 X125.516 Y75.17 E161.69262
G0 F3600 X126.082 Y75.17
G1 F1800 X138.829 Y87.917 E162.2922
G0 F3600 X138.829 Y87.351
G1 F1800 X126.647 Y75.17 E162.86518
G0 F3600 X127.213 Y75.17
G1 F1800 X138.829 Y86.786 E163.41156
G0 F3600 X138.829 Y86.22
G1 F1800 X127.779 Y75.17 E163.93132
G0 F3600 X128.344 Y75.17
G1 F1800 X138.829 Y85.654 E164.42448
G0 F3600 X138.829 Y85.088
G1 F1800 X128.91 Y75.17 E164.89101
G0 F3600 X129.476 Y75.17
G1 F1800 X138.829 Y84.523 E165.33095
G0 F3600 X138.829 Y83.957
G1 F1800 X130.041 Y75.17 E165.74429
G0 F3600 X130.607 Y75.17
G1 F1800 X138.829 Y83.391 E166.131
G0 F3600 X138.829 Y82.826
G1 F1800 X131.173 Y75.17 E166.49112
G0 F3600 X131.738 Y75.17
G1 F1800 X138.829 Y82.26 E166.82463
G0 F3600 X138.829 Y81.694
G1 F1800 X132.304 Y75.17 E167.13152
G0 F3600 X132.87 Y75.17
G1 F1800 X138.829 Y81.129 E167.41182
G0 F3600 X138.829 Y80.563
G1 F1800 X133.435 Y75.17 E167.66551
G0 F3600 X134.001 Y75.17
G1 F1800 X138.829 Y79.997 E167.89258
G0 F3600 X138.829 Y79.432
G1 F1800 X134.567 Y75.17 E168.09305
G0 F3600 X135.133 Y75.17
G1 F1800 X138.829 Y78.866 E168.2669
G0 F3600 X138.829 Y78.3
G1 F1800 X135.698 Y75.17 E168.41415
G0 F3600 X136.264 Y75.17
G1 F1800 X138.829 Y77.735 E168.5348
G0 F3600 X138.829 Y77.169
G1 F1800 X136.83 Y75.17 E168.62883
G0 F3600 X137.395 Y75.17
G1 F1800 X138.829 Y76.603 E168.69626
G0 F3600 X138.829 Y76.038
G1 F1800 X137.961 Y75.17 E168.73708
G0 F3600 X138.527 Y75.17
M104 S200
G1 F1800 X138.829 Y75.472 E168.75129
;MESH:NONMESH
G0 F600 X138.829 Y75.472 Z0.5
G0 F3600 X139.33 Y135.33
G0 X139.4 Y135.4
;TIME_ELAPSED:184.471887
;LAYER:1
;TYPE:WALL-INNER
;MESH:carriage_yaxis_wall.stl
G1 F2700 X110.6 Y135.4 E170.18813
G1 X110.6 Y74.6 E173.22145
G1 X139.4 Y74.6 E174.65829
G1 X139.4 Y135.4 E177.69161
G0 F5400 X139.8 Y135.8
;TYPE:WALL-OUTER
G1 F1800 X110.2 Y135.8 E179.16836
G1 X110.2 Y74.2 E182.2416
G1 X139.8 Y74.2 E183.71835
G1 X139.8 Y135.8 E186.79159
G0 F5400 X139.6 Y135.8
G0 X139.01 Y135.01
;TYPE:SKIN
G1 F1800 X110.99 Y135.01 E188.18951
G1 X110.99 Y74.99 E191.18392
G1 X139.01 Y74.99 E192.58184
G1 X139.01 Y135.01 E195.57625
G0 F5400 X138.396 Y134.829
G1 F1800 X138.829 Y134.396 E195.6068
G0 F5400 X138.829 Y133.831
G1 F1800 X137.83 Y134.829 E195.67725
G0 F5400 X137.264 Y134.829
G1 F1800 X138.829 Y133.265 E195.78764
G0 F5400 X138.829 Y132.699
G1 F1800 X136.699 Y134.829 E195.93792
G0 F5400 X136.133 Y134.829
G1 F1800 X138.829 Y132.134 E196.1281
G0 F5400 X138.829 Y131.568
G1 F1800 X135.567 Y134.829 E196.35822
G0 F5400 X135.002 Y134.829
G1 F1800 X138.829 Y131.002 E196.62823
G0 F5400 X138.829 Y130.437
G1 F1800 X134.436 Y134.829 E196.93815
G0 F5400 X133.87 Y134.829
G1 F1800 X138.829 Y129.871 E197.288
G0 F5400 X138.829 Y129.305
G1 F1800 X133.305 Y134.829 E197.67775
G0 F5400 X132.739 Y134.829
G1 F1800 X138.829 Y128.74 E198.10739
G0 F5400 X138.829 Y128.174
G1 F1800 X132.173 Y134.829 E198.57697
G0 F5400 X131.608 Y134.829
G1 F1800 X138.829 Y127.608 E199.08645
G0 F5400 X138.829 Y127.043
G1 F1800 X131.042 Y134.829 E199.63583
G0 F5400 X130.476 Y134.829
G1 F1800 X138.829 Y126.477 E200.22515
G0 F5400 X138.829 Y125.911
G1 F1800 X129.911 Y134.829 E200.85436
G0 F5400 X129.345 Y134.829
G1 F1800 X138.829 Y125.345 E201.52351
G0 F5400 X138.829 Y124.78
G1 F1800 X128.779 Y134.829 E202.23256
G0 F5400 X128.214 Y134.829
G1 F1800 X138.829 Y124.214 E202.9815
G0 F5400 X138.829 Y123.648
G1 F1800 X127.648 Y134.829 E203.77038
G0 F5400 X127.082 Y134.829
