;FLAVOR:Marlin
;TIME:7837
;Filament used: 10.6247m
;Layer height: 0.3
;MINX:79.111
;MINY:50.088
;MINZ:0.2
;MAXX:188.698
;MAXY:154.2
;MAXZ:29.9
;Generated with Cura_SteamEngine 4.9.0
M82 ;absolute extrusion mode
G21 ; set units to millimeters
G90 ; use absolute positioning
M82 ; absolute extrusion mode
M104 S200 ; set extruder temp
M140 S60 ; set bed temp
M190 S60 ; wait for bed temp
M109 S200 ; wait for extruder temp
G28 W ; home all without mesh bed level
G80 ; mesh bed leveling
G92 E0.0 ; reset extruder distance position
G1 Y-3.0 F1000.0 ; go outside print area
G1 X60.0 E9.0 F1000.0 ; intro line
G1 X100.0 E21.5 F1000.0 ; intro line
G92 E0.0 ; reset extruder distance position
G92 E0
G92 E0
G1 F2100 E-0.8
;LAYER_COUNT:100
;LAYER:0
M107
G0 F3600 X80.104 Y76.675 Z0.2
;TYPE:SKIRT
G1 F2100 E0
G1 F1800 X80.495 Y76.354 E0.01683
G1 X80.931 Y76.1 E0.03361
G1 X81.168 Y75.997 E0.0422
G1 X82.38 Y75.529 E0.08542
G1 X84.931 Y74.501 E0.17689
G1 X87.473 Y73.392 E0.26914
G1 X89.9 Y72.251 E0.35833
G1 X92.359 Y71.008 E0.44998
G1 X94.799 Y69.688 E0.54224
G1 X97.123 Y68.344 E0.63154
G1 X99.493 Y66.882 E0.72415
G1 X101.773 Y65.385 E0.81487
G1 X104.006 Y63.827 E0.90543
G1 X106.212 Y62.192 E0.99676
G1 X108.351 Y60.512 E1.08722
G1 X110.486 Y58.735 E1.17961
G1 X112.495 Y56.965 E1.26867
G1 X112.859 Y56.636 E1.28499
G1 X113.26 Y56.328 E1.3018
G1 X113.704 Y56.086 E1.31862
G1 X114.181 Y55.918 E1.33544
G1 X114.907 Y55.812 E1.35984
G1 X115.33 Y55.8 E1.37392
G1 X119.62 Y55.8 E1.51661
G1 X122.417 Y55.76 E1.60964
G1 X125.134 Y55.645 E1.70009
G1 X127.88 Y55.45 E1.79165
G1 X130.586 Y55.182 E1.8821
G1 X133.309 Y54.834 E1.9734
G1 X136.01 Y54.409 E2.06434
G1 X138.718 Y53.906 E2.15595
G1 X141.375 Y53.334 E2.24635
G1 X144.022 Y52.686 E2.33699
G1 X146.667 Y51.958 E2.42823
G1 X150.117 Y50.886 E2.54839
G1 X150.341 Y50.825 E2.55611
G1 X151.472 Y50.563 E2.59473
G1 X152.714 Y50.298 E2.63696
G1 X153.362 Y50.17 E2.65893
G1 X153.919 Y50.11 E2.67757
G1 X155.044 Y50.088 E2.71499
G1 X156.3 Y50.088 E2.75677
G1 X156.946 Y50.097 E2.77825
G1 X157.504 Y50.154 E2.79691
G1 X158.604 Y50.366 E2.83417
G1 X159.85 Y50.631 E2.87654
G1 X160.535 Y50.788 E2.89991
G1 X160.943 Y50.906 E2.91404
G1 X163.354 Y51.712 E2.99859
G1 X165.963 Y52.503 E3.08927
G1 X168.585 Y53.219 E3.17967
G1 X171.265 Y53.87 E3.2714
G1 X173.97 Y54.447 E3.36339
G1 X176.62 Y54.931 E3.45299
G1 X179.361 Y55.354 E3.54523
G1 X182.037 Y55.69 E3.63494
G1 X185.38 Y55.995 E3.74659
G1 X185.804 Y56.037 E3.76076
G1 X186.302 Y56.126 E3.77758
G1 X186.779 Y56.293 E3.79439
G1 X187.224 Y56.532 E3.81119
G1 X187.626 Y56.839 E3.82802
G1 X187.975 Y57.206 E3.84486
G1 X188.261 Y57.622 E3.86165
G1 X188.478 Y58.079 E3.87848
G1 X188.621 Y58.564 E3.8953
G1 X188.688 Y59.131 E3.91429
G1 X188.698 Y59.542 E3.92796
G1 X188.698 Y75.555 E4.46055
G1 X188.687 Y76.26 E4.48401
G1 X188.639 Y76.763 E4.50081
G1 X188.512 Y77.253 E4.51765
G1 X188.31 Y77.716 E4.53445
G1 X188.006 Y78.183 E4.55298
G1 X187.543 Y78.774 E4.57795
G1 X185.898 Y80.936 E4.66831
G1 X184.285 Y83.184 E4.76033
G1 X182.75 Y85.457 E4.85156
G1 X181.304 Y87.736 E4.94133
G1 X179.879 Y90.126 E5.03388
G1 X178.55 Y92.506 E5.12454
G1 X177.283 Y94.936 E5.21569
G1 X176.097 Y97.377 E5.30595
G1 X174.961 Y99.89 E5.39768
G1 X173.896 Y102.436 E5.48947
G1 X172.921 Y104.974 E5.5799
G1 X172.019 Y107.528 E5.66999
G1 X171.175 Y110.156 E5.76179
G1 X170.407 Y112.793 E5.85314
G1 X169.717 Y115.446 E5.94432
G1 X169.101 Y118.118 E6.03552
G1 X168.569 Y120.783 E6.12591
G1 X168.106 Y123.485 E6.21709
G1 X167.714 Y126.234 E6.30944
G1 X167.564 Y127.403 E6.34864
G1 X167.46 Y127.898 E6.36547
G1 X167.279 Y128.37 E6.38228
G1 X167.027 Y128.808 E6.39909
G1 X166.708 Y129.201 E6.41592
G1 X166.257 Y129.594 E6.43582
G1 X165.774 Y129.941 E6.4556
G1 X163.578 Y131.568 E6.5465
G1 X161.43 Y133.254 E6.63732
G1 X159.32 Y135.01 E6.72863
G1 X157.26 Y136.826 E6.81996
G1 X155.248 Y138.702 E6.91146
G1 X153.338 Y140.586 E7.00069
G1 X151.388 Y142.623 E7.09448
G1 X149.601 Y144.598 E7.18307
G1 X147.798 Y146.708 E7.27538
G1 X146.093 Y148.821 E7.36568
G1 X144.428 Y151.009 E7.45713
G1 X143.351 Y152.51 E7.51858
G1 X143.067 Y152.894 E7.53446
G1 X142.735 Y153.275 E7.55127
G1 X142.347 Y153.6 E7.5681
G1 X141.913 Y153.859 E7.58491
G1 X141.444 Y154.047 E7.60172
G1 X140.951 Y154.158 E7.61853
G1 X140.259 Y154.199 E7.64158
G1 X115.661 Y154.2 E8.45972
G1 X114.958 Y154.19 E8.4831
G1 X114.455 Y154.143 E8.4999
G1 X113.965 Y154.017 E8.51673
G1 X113.502 Y153.815 E8.53353
G1 X112.89 Y153.392 E8.55828
G1 X112.258 Y152.835 E8.5863
G1 X111.408 Y152.067 E8.6244
G1 X109.323 Y150.285 E8.71562
G1 X107.198 Y148.57 E8.80645
G1 X104.996 Y146.894 E8.89849
G1 X102.799 Y145.319 E8.9884
G1 X100.516 Y143.776 E9.08004
G1 X98.208 Y142.31 E9.17099
G1 X95.855 Y140.908 E9.26209
G1 X93.475 Y139.579 E9.35275
G1 X91.042 Y138.31 E9.44402
G1 X88.566 Y137.105 E9.5356
G1 X86.074 Y135.98 E9.62654
G1 X83.551 Y134.925 E9.7175
G1 X81.377 Y134.088 E9.79498
G1 X81.126 Y133.987 E9.80398
G1 X80.674 Y133.761 E9.82079
G1 X80.262 Y133.468 E9.8376
G1 X79.902 Y133.113 E9.85442
G1 X79.602 Y132.706 E9.87124
G1 X79.37 Y132.257 E9.88805
G1 X79.212 Y131.776 E9.90488
G1 X79.123 Y131.117 E9.927
G1 X79.111 Y130.695 E9.94104
G1 X79.111 Y79.627 E11.63957
G1 X79.121 Y78.936 E11.66256
G1 X79.169 Y78.432 E11.6794
G1 X79.294 Y77.943 E11.69618
G1 X79.496 Y77.479 E11.71302
G1 X79.768 Y77.053 E11.72983
G1 X80.104 Y76.675 E11.74665
G1 F2100 E10.94665
;MESH:zcarriage_bearing_single.stl
G0 F3600 X82.925 Y78.31
G0 X82.925 Y79.589
G0 X90.066 Y92.018
G0 X91.116 Y92.963
G0 X92.451 Y93.459
G0 X92.461 Y93.36
;TYPE:WALL-INNER
G1 F2100 E11.74665
G1 F1800 X93.162 Y93.36 E11.76996
G1 X93.847 Y93.213 E11.79326
G1 X94.487 Y92.929 E11.81655
G1 X95.055 Y92.517 E11.83989
G1 X95.524 Y91.995 E11.86323
G1 X95.874 Y91.39 E11.88648
G1 X96.091 Y90.723 E11.90981
G1 X96.164 Y90.025 E11.93315
G1 X96.091 Y89.327 E11.95649
G1 X95.874 Y88.66 E11.97982
G1 X95.524 Y88.055 E12.00307
G1 X95.055 Y87.533 E12.02641
G1 X94.487 Y87.121 E12.04975
G1 X93.847 Y86.837 E12.07303
G1 X93.162 Y86.69 E12.09634
G1 X92.461 Y86.69 E12.11965
G1 X91.775 Y86.837 E12.14299
G1 X91.135 Y87.121 E12.16627
G1 X90.567 Y87.533 E12.18961
G1 X90.098 Y88.055 E12.21295
G1 X89.748 Y88.66 E12.2362
G1 X89.531 Y89.327 E12.25953
G1 X89.458 Y90.025 E12.28287
G1 X89.531 Y90.723 E12.30621
G1 X89.748 Y91.39 E12.32954
G1 X90.098 Y91.995 E12.35279
G1 X90.567 Y92.517 E12.37613
G1 X91.135 Y92.929 E12.39947
G1 X91.775 Y93.213 E12.42276
G1 X92.461 Y93.36 E12.44609
G0 F3600 X92.451 Y93.459
G0 X89.492 Y107.319
G0 X89.492 Y108.731
G0 X90.066 Y110.018
G0 X91.116 Y110.963
G0 X92.451 Y111.459
G0 X92.461 Y111.36
G1 F1800 X93.162 Y111.36 E12.46941
G1 X93.847 Y111.213 E12.49271
G1 X94.487 Y110.929 E12.516
G1 X95.055 Y110.517 E12.53933
G1 X95.524 Y109.995 E12.56267
G1 X95.874 Y109.39 E12.58592
G1 X96.091 Y108.723 E12.60925
G1 X96.164 Y108.025 E12.63259
G1 X96.091 Y107.327 E12.65593
G1 X95.874 Y106.66 E12.67926
G1 X95.524 Y106.055 E12.70251
G1 X95.055 Y105.533 E12.72585
G1 X94.487 Y105.121 E12.74919
G1 X93.847 Y104.837 E12.77248
G1 X93.162 Y104.69 E12.79578
G1 X92.461 Y104.69 E12.81909
G1 X91.775 Y104.837 E12.84243
G1 X91.135 Y105.121 E12.86572
G1 X90.567 Y105.533 E12.88905
G1 X90.098 Y106.055 E12.91239
G1 X89.748 Y106.66 E12.93564
G1 X89.531 Y107.327 E12.95897
G1 X89.458 Y108.025 E12.98231
G1 X89.531 Y108.723 E13.00566
G1 X89.748 Y109.39 E13.02898
G1 X90.098 Y109.995 E13.05223
G1 X90.567 Y110.517 E13.07557
G1 X91.135 Y110.929 E13.09891
G1 X91.775 Y111.213 E13.1222
G1 X92.461 Y111.36 E13.14553
G0 F3600 X92.451 Y111.459
G0 X101.641 Y130.355
G0 X101.711 Y130.425
G1 F1800 X82.911 Y130.425 E13.77082
G1 X82.911 Y79.575 E15.4621
G1 X101.711 Y79.575 E16.08739
G1 X101.711 Y130.425 E17.77867
G0 F3600 X102.111 Y130.825
;TYPE:WALL-OUTER
G1 F1800 X82.511 Y130.825 E18.43057
G1 X82.511 Y79.175 E20.14845
G1 X102.111 Y79.175 E20.80035
G1 X102.111 Y130.825 E22.51824
G0 F3600 X101.911 Y130.825
G0 X101.641 Y130.355
G0 X92.399 Y111.448
G0 X92.503 Y110.96
G1 F1800 X93.12 Y110.96 E22.53876
G1 X93.723 Y110.831 E22.55927
G1 X94.286 Y110.581 E22.57976
G1 X94.786 Y110.218 E22.60031
G1 X95.199 Y109.759 E22.62085
G1 X95.507 Y109.226 E22.64132
G1 X95.698 Y108.639 E22.66185
G1 X95.762 Y108.025 E22.68238
G1 X95.698 Y107.411 E22.70292
G1 X95.507 Y106.824 E22.72345
G1 X95.199 Y106.291 E22.74392
G1 X94.786 Y105.832 E22.76446
G1 X94.286 Y105.469 E22.78501
G1 X93.723 Y105.219 E22.8055
G1 X93.12 Y105.09 E22.82601
G1 X92.503 Y105.09 E22.84653
G1 X91.899 Y105.219 E22.86707
G1 X91.336 Y105.469 E22.88756
G1 X90.836 Y105.832 E22.90811
G1 X90.423 Y106.291 E22.92865
G1 X90.115 Y106.824 E22.94912
G1 X89.924 Y107.411 E22.96965
G1 X89.86 Y108.025 E22.99019
G1 X89.924 Y108.639 E23.01072
G1 X90.115 Y109.226 E23.03125
G1 X90.423 Y109.759 E23.05172
G1 X90.836 Y110.218 E23.07226
G1 X91.336 Y110.581 E23.09281
G1 X91.899 Y110.831 E23.1133
G1 X92.503 Y110.96 E23.13384
G0 F3600 X92.703 Y110.96
G0 X92.703 Y111.46
G0 X91.763 Y111.251
G0 X90.541 Y110.546
G0 X89.712 Y109.406
G0 X89.418 Y108.025
G0 X92.399 Y93.448
G0 X92.503 Y92.96
G1 F1800 X93.12 Y92.96 E23.15436
G1 X93.723 Y92.831 E23.17487
G1 X94.286 Y92.581 E23.19536
G1 X94.786 Y92.218 E23.21591
G1 X95.199 Y91.759 E23.23645
G1 X95.507 Y91.226 E23.25692
G1 X95.698 Y90.639 E23.27745
G1 X95.762 Y90.025 E23.29799
G1 X95.698 Y89.411 E23.31852
G1 X95.507 Y88.824 E23.33905
G1 X95.199 Y88.291 E23.35952
G1 X94.786 Y87.832 E23.38006
G1 X94.286 Y87.469 E23.40061
G1 X93.723 Y87.219 E23.4211
G1 X93.12 Y87.09 E23.44161
G1 X92.503 Y87.09 E23.46213
G1 X91.899 Y87.219 E23.48267
G1 X91.336 Y87.469 E23.50316
G1 X90.836 Y87.832 E23.52371
G1 X90.423 Y88.291 E23.54425
G1 X90.115 Y88.824 E23.56472
G1 X89.924 Y89.411 E23.58526
G1 X89.86 Y90.025 E23.60579
G1 X89.924 Y90.639 E23.62632
G1 X90.115 Y91.226 E23.64685
G1 X90.423 Y91.759 E23.66733
G1 X90.836 Y92.218 E23.68786
G1 X91.336 Y92.581 E23.70841
G1 X91.899 Y92.831 E23.7289
G1 X92.503 Y92.96 E23.74944
G0 F3600 X92.703 Y92.96
G0 X92.42 Y93.75
;TYPE:SKIN
G1 F1800 X93.203 Y93.75 E23.77549
G1 X93.968 Y93.586 E23.80151
G1 X94.682 Y93.269 E23.82749
G1 X95.318 Y92.808 E23.85362
G1 X95.842 Y92.225 E23.87969
G1 X96.232 Y91.55 E23.90562
G1 X96.475 Y90.805 E23.93168
G1 X96.556 Y90.025 E23.95776
G1 X96.475 Y89.245 E23.98385
G1 X96.232 Y88.5 E24.00991
G1 X95.842 Y87.825 E24.03584
G1 X95.318 Y87.242 E24.06191
G1 X94.682 Y86.781 E24.08804
G1 X93.968 Y86.464 E24.11402
G1 X93.203 Y86.3 E24.14004
G1 X92.42 Y86.3 E24.16608
G1 X91.654 Y86.464 E24.19214
G1 X90.94 Y86.781 E24.21812
G1 X90.304 Y87.242 E24.24425
G1 X89.78 Y87.825 E24.27032
G1 X89.39 Y88.5 E24.29625
G1 X89.147 Y89.245 E24.32231
G1 X89.066 Y90.025 E24.3484
G1 X89.147 Y90.805 E24.37448
G1 X89.39 Y91.55 E24.40054
G1 X89.78 Y92.225 E24.42647
G1 X90.304 Y92.808 E24.45254
G1 X90.94 Y93.269 E24.47867
G1 X91.654 Y93.586 E24.50465
G1 X92.42 Y93.75 E24.53071
G0 F3600 X92.42 Y104.3
G1 F1800 X91.654 Y104.464 E24.55676
G1 X90.94 Y104.781 E24.58274
G1 X90.304 Y105.242 E24.60887
G1 X89.78 Y105.825 E24.63494
G1 X89.39 Y106.5 E24.66087
G1 X89.147 Y107.245 E24.68693
G1 X89.066 Y108.025 E24.71302
G1 X89.147 Y108.805 E24.7391
G1 X89.39 Y109.55 E24.76516
G1 X89.78 Y110.225 E24.79109
G1 X90.304 Y110.808 E24.81716
G1 X90.94 Y111.269 E24.84329
G1 X91.654 Y111.586 E24.86927
G1 X92.42 Y111.75 E24.89533
G1 X93.203 Y111.75 E24.92137
G1 X93.968 Y111.586 E24.94739
G1 X94.682 Y111.269 E24.97337
G1 X95.318 Y110.808 E24.9995
G1 X95.842 Y110.225 E25.02557
G1 X96.232 Y109.55 E25.0515
G1 X96.475 Y108.805 E25.07756
G1 X96.556 Y108.025 E25.10365
G1 X96.475 Y107.245 E25.12973
G1 X96.232 Y106.5 E25.15579
G1 X95.842 Y105.825 E25.18172
G1 X95.318 Y105.242 E25.20779
G1 X94.682 Y104.781 E25.23392
G1 X93.968 Y104.464 E25.2599
G1 X93.203 Y104.3 E25.28592
G1 X92.42 Y104.3 E25.31197
G0 F3600 X101.321 Y79.965
G1 F1800 X101.321 Y130.035 E26.9773
G1 X83.301 Y130.035 E27.57665
G1 X83.301 Y79.965 E29.24198
G1 X101.321 Y79.965 E29.84133
G0 F3600 X101.141 Y80.21
G1 F1800 X101.075 Y80.145 E29.84441
G0 F3600 X100.51 Y80.145
G1 F1800 X101.141 Y80.776 E29.87409
G0 F3600 X101.141 Y81.342
G1 F1800 X99.944 Y80.145 E29.9304
G0 F3600 X99.378 Y80.145
G1 F1800 X101.141 Y81.907 E30.0133
G0 F3600 X101.141 Y82.473
G1 F1800 X98.813 Y80.145 E30.1228
G0 F3600 X98.247 Y80.145
G1 F1800 X101.141 Y83.039 E30.25893
G0 F3600 X101.141 Y83.604
G1 F1800 X97.681 Y80.145 E30.42165
G0 F3600 X97.116 Y80.145
G1 F1800 X101.141 Y84.17 E30.61097
G0 F3600 X101.141 Y84.736
G1 F1800 X96.55 Y80.145 E30.82692
G0 F3600 X95.984 Y80.145
G1 F1800 X101.141 Y85.301 E31.06947
G0 F3600 X101.141 Y85.867
G1 F1800 X95.419 Y80.145 E31.33861
G0 F3600 X94.853 Y80.145
G1 F1800 X101.141 Y86.433 E31.63438
G0 F3600 X101.141 Y86.998
G1 F1800 X94.287 Y80.145 E31.95675
G0 F3600 X93.722 Y80.145
G1 F1800 X101.141 Y87.564 E32.30571
G0 F3600 X101.141 Y88.13
G1 F1800 X93.156 Y80.145 E32.6813
G0 F3600 X92.59 Y80.145
G1 F1800 X101.141 Y88.695 E33.08349
G0 F3600 X101.141 Y89.261
G1 F1800 X92.024 Y80.145 E33.51231
G0 F3600 X91.459 Y80.145
G1 F1800 X101.141 Y89.827 E33.96772
G0 F3600 X101.141 Y90.392
G1 F1800 X90.893 Y80.145 E34.44973
G0 F3600 X90.327 Y80.145
G1 F1800 X101.141 Y90.958 E34.95836
G0 F3600 X101.141 Y91.524
G1 F1800 X89.762 Y80.145 E35.49359
G0 F3600 X89.196 Y80.145
G1 F1800 X101.141 Y92.09 E36.05545
G0 F3600 X101.141 Y92.655
G1 F1800 X88.63 Y80.145 E36.64391
G0 F3600 X88.065 Y80.145
G1 F1800 X94.361 Y86.442 E36.94007
G1 X94.431 Y86.512
G0 F3600 X93.543 Y86.189
G1 F1800 X87.499 Y80.145 E37.22437
G0 F3600 X86.933 Y80.145
G1 F1800 X92.908 Y86.119 E37.50539
G0 F3600 X92.352 Y86.129
G1 F1800 X86.368 Y80.145 E37.78686
G0 F3600 X85.802 Y80.145
G1 F1800 X91.887 Y86.23 E38.07308
G0 F3600 X91.448 Y86.357
G1 F1800 X85.236 Y80.145 E38.36527
G0 F3600 X84.671 Y80.145
G1 F1800 X91.056 Y86.531 E38.66562
G0 F3600 X90.694 Y86.735
G1 F1800 X84.105 Y80.145 E38.97557
G0 F3600 X83.539 Y80.145
G1 F1800 X90.366 Y86.972 E39.2967
G0 F3600 X90.065 Y87.237
G1 F1800 X83.48 Y80.651 E39.60646
G0 F3600 X83.48 Y81.217
G1 F1800 X89.797 Y87.534 E39.90359
G0 F3600 X89.552 Y87.855
G1 F1800 X83.48 Y81.783 E40.1892
G0 F3600 X83.48 Y82.348
G1 F1800 X89.345 Y88.214 E40.46509
G0 F3600 X89.166 Y88.601
G1 F1800 X83.48 Y82.914 E40.73257
G0 F3600 X83.48 Y83.48
G1 F1800 X89.027 Y89.027 E40.99348
G0 F3600 X88.939 Y89.504
G1 F1800 X83.48 Y84.046 E41.25023
G0 F3600 X83.48 Y84.611
G1 F1800 X88.886 Y90.017 E41.50452
G0 F3600 X88.949 Y90.646
G1 F1800 X83.48 Y85.177 E41.76176
G0 F3600 X83.48 Y85.743
G1 F1800 X89.158 Y91.421 E42.02884
G1 X89.228 Y91.491
G0 F3600 X91.412 Y93.675
G1 F1800 X101.141 Y103.403 E42.48643
G0 F3600 X101.141 Y102.838
G1 F1800 X92.186 Y93.883 E42.90765
G0 F3600 X92.798 Y93.929
G1 F1800 X101.141 Y102.272 E43.30008
G0 F3600 X101.141 Y101.706
G1 F1800 X93.338 Y93.904 E43.66709
G0 F3600 X93.804 Y93.804
G1 F1800 X101.141 Y101.141 E44.0122
G0 F3600 X101.141 Y100.575
G1 F1800 X94.231 Y93.665 E44.33722
G0 F3600 X94.622 Y93.491
G1 F1800 X101.141 Y100.009 E44.64383
G0 F3600 X101.141 Y99.443
G1 F1800 X94.975 Y93.277 E44.93386
G0 F3600 X95.303 Y93.041
G1 F1800 X101.141 Y98.878 E45.20844
G0 F3600 X101.141 Y98.312
G1 F1800 X95.595 Y92.767 E45.46928
G0 F3600 X95.863 Y92.469
G1 F1800 X101.141 Y97.746 E45.71752
G0 F3600 X101.141 Y97.181
G1 F1800 X96.099 Y92.139 E45.95468
G0 F3600 X96.305 Y91.78
G1 F1800 X101.141 Y96.615 E46.18213
G0 F3600 X101.141 Y96.049
G1 F1800 X96.474 Y91.383 E46.40162
G0 F3600 X96.613 Y90.956
G1 F1800 X101.141 Y95.484 E46.61461
G0 F3600 X101.141 Y94.918
G1 F1800 X96.689 Y90.467 E46.82399
G0 F3600 X96.727 Y89.939
G1 F1800 X101.141 Y94.352 E47.03159
G0 F3600 X101.141 Y93.787
G1 F1800 X96.661 Y89.307 E47.24232
G1 X96.591 Y89.237
G0 F3600 X96.421 Y88.501
G1 F1800 X101.141 Y93.221 E47.46433
G1 X101.211 Y93.291
G0 F3600 X101.141 Y103.969
G1 F1800 X83.48 Y86.308 E48.29505
G0 F3600 X83.48 Y86.874
G1 F1800 X101.141 Y104.535 E49.12577
G0 F3600 X101.141 Y105.1
G1 F1800 X83.48 Y87.44 E49.95646
G0 F3600 X83.48 Y88.005
G1 F1800 X101.141 Y105.666 E50.78718
G0 F3600 X101.141 Y106.232
G1 F1800 X83.48 Y88.571 E51.6179
G0 F3600 X83.48 Y89.137
G1 F1800 X101.141 Y106.797 E52.4486
G0 F3600 X101.141 Y107.363
G1 F1800 X83.48 Y89.702 E53.27932
G0 F3600 X83.48 Y90.268
