;FLAVOR:Marlin
;TIME:5248
;Filament used: 7.3605m
;Layer height: 0.3
;MINX:85.28
;MINY:55.8
;MINZ:0.2
;MAXX:143.7
;MAXY:154.2
;MAXZ:29.3
;Generated with Cura_SteamEngine 4.9.0
M82 ;absolute extrusion mode
G21 ; set units to millimeters
G90 ; use absolute positioning
M82 ; absolute extrusion mode
M104 S200 ; set extruder temp
M140 S60 ; set bed temp
M190 S60 ; wait for bed temp
M109 S200 ; wait for extruder temp
G28 W ; home all without mesh bed level
G80 ; mesh bed leveling
G92 E0.0 ; reset extruder distance position
G1 Y-3.0 F1000.0 ; go outside print area
G1 X60.0 E9.0 F1000.0 ; intro line
G1 X100.0 E21.5 F1000.0 ; intro line
G92 E0.0 ; reset extruder distance position
G92 E0
G92 E0
G1 F2100 E-0.8
;LAYER_COUNT:98
;LAYER:0
M107
G0 F3600 X86.273 Y76.674 Z0.2
;TYPE:SKIRT
G1 F2100 E0
G1 F1800 X86.664 Y76.353 E0.01683
G1 X87.235 Y76.026 E0.03871
G1 X89.674 Y74.706 E0.13095
G1 X92.068 Y73.321 E0.22294
G1 X94.381 Y71.895 E0.31332
G1 X96.66 Y70.399 E0.40399
G1 X98.92 Y68.822 E0.49565
G1 X101.118 Y67.194 E0.58662
G1 X103.264 Y65.509 E0.67737
G1 X105.387 Y63.741 E0.76926
G1 X107.415 Y61.955 E0.85914
G1 X109.423 Y60.082 E0.95047
G1 X111.377 Y58.153 E1.0418
G1 X112.114 Y57.384 E1.07722
G1 X112.725 Y56.764 E1.10618
G1 X113.107 Y56.433 E1.12299
G1 X113.537 Y56.166 E1.13982
G1 X114.003 Y55.971 E1.15662
G1 X114.494 Y55.851 E1.17343
G1 X115.232 Y55.802 E1.19803
G1 X115.33 Y55.8 E1.20129
G1 X139.839 Y55.8 E2.01647
G1 X140.537 Y55.81 E2.03969
G1 X141.04 Y55.857 E2.05649
G1 X141.53 Y55.983 E2.07332
G1 X141.994 Y56.185 E2.09015
G1 X142.42 Y56.457 E2.10696
G1 X142.798 Y56.792 E2.12376
G1 X143.118 Y57.183 E2.14056
G1 X143.373 Y57.62 E2.15739
G1 X143.556 Y58.091 E2.1742
G1 X143.663 Y58.585 E2.19101
G1 X143.699 Y59.24 E2.21283
G1 X143.7 Y150.304 E5.24163
G1 X143.691 Y151.031 E5.26581
G1 X143.645 Y151.534 E5.28261
G1 X143.52 Y152.024 E5.29943
G1 X143.319 Y152.488 E5.31625
G1 X143.048 Y152.915 E5.33307
G1 X142.713 Y153.294 E5.34989
G1 X142.323 Y153.615 E5.36669
G1 X141.887 Y153.871 E5.38351
G1 X141.416 Y154.054 E5.40031
G1 X140.922 Y154.162 E5.41713
G1 X140.26 Y154.199 E5.43919
G1 X115.661 Y154.2 E6.25735
G1 X114.958 Y154.19 E6.28074
G1 X114.455 Y154.143 E6.29754
G1 X113.965 Y154.017 E6.31437
G1 X113.502 Y153.815 E6.33117
G1 X113.075 Y153.544 E6.34799
G1 X112.695 Y153.205 E6.36493
G1 X112.304 Y152.797 E6.38372
G1 X110.349 Y150.816 E6.47629
G1 X108.362 Y148.915 E6.56775
G1 X106.347 Y147.091 E6.65815
G1 X104.27 Y145.318 E6.74898
G1 X102.123 Y143.585 E6.84075
G1 X99.944 Y141.928 E6.9318
G1 X97.735 Y140.344 E7.02221
G1 X95.445 Y138.797 E7.11412
G1 X93.15 Y137.341 E7.20452
G1 X90.791 Y135.935 E7.29586
G1 X88.411 Y134.606 E7.38653
G1 X87.937 Y134.358 E7.40432
G1 X86.966 Y133.832 E7.44105
G1 X86.542 Y133.557 E7.45786
G1 X86.166 Y133.218 E7.4747
G1 X85.849 Y132.825 E7.49149
G1 X85.597 Y132.386 E7.50832
G1 X85.418 Y131.913 E7.52515
G1 X85.315 Y131.418 E7.54196
G1 X85.282 Y130.794 E7.56275
G1 X85.28 Y130.695 E7.56604
G1 X85.28 Y79.627 E9.26457
G1 X85.29 Y78.935 E9.28759
G1 X85.338 Y78.431 E9.30442
G1 X85.463 Y77.942 E9.32121
G1 X85.665 Y77.478 E9.33804
G1 X85.937 Y77.052 E9.35485
G1 X86.273 Y76.674 E9.37168
G1 F2100 E8.57168
;MESH:zcarriage_bearing_single.stl
G0 F3600 X89.094 Y78.31
G0 X89.094 Y79.589
G0 X96.235 Y92.018
G0 X97.285 Y92.963
G0 X98.62 Y93.459
G0 X98.63 Y93.36
;TYPE:WALL-INNER
G1 F2100 E9.37168
G1 F1800 X99.33 Y93.36 E9.39496
G1 X100.016 Y93.213 E9.41829
G1 X100.656 Y92.929 E9.44158
G1 X101.224 Y92.517 E9.46492
G1 X101.693 Y91.995 E9.48826
G1 X102.043 Y91.39 E9.51151
G1 X102.26 Y90.723 E9.53483
G1 X102.333 Y90.025 E9.55818
G1 X102.26 Y89.327 E9.58152
G1 X102.043 Y88.66 E9.60485
G1 X101.693 Y88.055 E9.6281
G1 X101.224 Y87.533 E9.65144
G1 X100.656 Y87.121 E9.67477
G1 X100.016 Y86.837 E9.69806
G1 X99.33 Y86.69 E9.7214
G1 X98.63 Y86.69 E9.74468
G1 X97.944 Y86.837 E9.76801
G1 X97.304 Y87.121 E9.7913
G1 X96.736 Y87.533 E9.81464
G1 X96.267 Y88.055 E9.83798
G1 X95.917 Y88.66 E9.86123
G1 X95.7 Y89.327 E9.88456
G1 X95.627 Y90.025 E9.9079
G1 X95.7 Y90.723 E9.93124
G1 X95.917 Y91.39 E9.95457
G1 X96.267 Y91.995 E9.97782
G1 X96.736 Y92.517 E10.00116
G1 X97.304 Y92.929 E10.02449
G1 X97.944 Y93.213 E10.04778
G1 X98.63 Y93.36 E10.07112
G0 F3600 X98.62 Y93.459
G0 X95.661 Y107.319
G0 X95.661 Y108.731
G0 X96.235 Y110.018
G0 X97.285 Y110.963
G0 X98.62 Y111.459
G0 X98.63 Y111.36
G1 F1800 X99.33 Y111.36 E10.0944
G1 X100.016 Y111.213 E10.11773
G1 X100.656 Y110.929 E10.14102
G1 X101.224 Y110.517 E10.16436
G1 X101.693 Y109.995 E10.1877
G1 X102.043 Y109.39 E10.21095
G1 X102.26 Y108.723 E10.23428
G1 X102.333 Y108.025 E10.25762
G1 X102.26 Y107.327 E10.28096
G1 X102.043 Y106.66 E10.30429
G1 X101.693 Y106.055 E10.32754
G1 X101.224 Y105.533 E10.35088
G1 X100.656 Y105.121 E10.37421
G1 X100.016 Y104.837 E10.3975
G1 X99.33 Y104.69 E10.42084
G1 X98.63 Y104.69 E10.44412
G1 X97.944 Y104.837 E10.46745
G1 X97.304 Y105.121 E10.49074
G1 X96.736 Y105.533 E10.51408
G1 X96.267 Y106.055 E10.53742
G1 X95.917 Y106.66 E10.56067
G1 X95.7 Y107.327 E10.584
G1 X95.627 Y108.025 E10.60734
G1 X95.7 Y108.723 E10.63068
G1 X95.917 Y109.39 E10.65401
G1 X96.267 Y109.995 E10.67726
G1 X96.736 Y110.517 E10.7006
G1 X97.304 Y110.929 E10.72394
G1 X97.944 Y111.213 E10.74722
G1 X98.63 Y111.36 E10.77056
G0 F3600 X98.62 Y111.459
G0 X107.81 Y130.355
G0 X107.88 Y130.425
G1 F1800 X89.08 Y130.425 E11.39585
G1 X89.08 Y79.575 E13.08713
G1 X107.88 Y79.575 E13.71242
G1 X107.88 Y130.425 E15.40369
G0 F3600 X108.28 Y130.825
;TYPE:WALL-OUTER
G1 F1800 X88.68 Y130.825 E16.05559
G1 X88.68 Y79.175 E17.77348
G1 X108.28 Y79.175 E18.42538
G1 X108.28 Y130.825 E20.14326
G0 F3600 X108.08 Y130.825
G0 X107.81 Y130.355
G0 X98.568 Y111.448
G0 X98.672 Y110.96
G1 F1800 X99.288 Y110.96 E20.16375
G1 X99.892 Y110.831 E20.18429
G1 X100.455 Y110.581 E20.20478
G1 X100.955 Y110.218 E20.22533
G1 X101.368 Y109.759 E20.24587
G1 X101.676 Y109.226 E20.26634
G1 X101.867 Y108.639 E20.28688
G1 X101.931 Y108.025 E20.30741
G1 X101.867 Y107.411 E20.32794
G1 X101.676 Y106.824 E20.34847
G1 X101.368 Y106.291 E20.36895
G1 X100.955 Y105.832 E20.38948
G1 X100.455 Y105.469 E20.41003
G1 X99.892 Y105.219 E20.43052
G1 X99.288 Y105.09 E20.45106
G1 X98.672 Y105.09 E20.47155
G1 X98.068 Y105.219 E20.4921
G1 X97.505 Y105.469 E20.51258
G1 X97.005 Y105.832 E20.53313
G1 X96.592 Y106.291 E20.55367
G1 X96.284 Y106.824 E20.57415
G1 X96.093 Y107.411 E20.59468
G1 X96.029 Y108.025 E20.61521
G1 X96.093 Y108.639 E20.63574
G1 X96.284 Y109.226 E20.65627
G1 X96.592 Y109.759 E20.67675
G1 X97.005 Y110.218 E20.69728
G1 X97.505 Y110.581 E20.71783
G1 X98.068 Y110.831 E20.73832
G1 X98.672 Y110.96 E20.75887
G0 F3600 X98.872 Y110.96
G0 X98.872 Y111.46
G0 X97.932 Y111.251
G0 X96.71 Y110.546
G0 X95.881 Y109.406
G0 X95.587 Y108.025
G0 X98.568 Y93.448
G0 X98.672 Y92.96
G1 F1800 X99.288 Y92.96 E20.77935
G1 X99.892 Y92.831 E20.7999
G1 X100.455 Y92.581 E20.82038
G1 X100.955 Y92.218 E20.84094
G1 X101.368 Y91.759 E20.86147
G1 X101.676 Y91.226 E20.88195
G1 X101.867 Y90.639 E20.90248
G1 X101.931 Y90.025 E20.92301
G1 X101.867 Y89.411 E20.94354
G1 X101.676 Y88.824 E20.96407
G1 X101.368 Y88.291 E20.98455
G1 X100.955 Y87.832 E21.00508
G1 X100.455 Y87.469 E21.02564
G1 X99.892 Y87.219 E21.04612
G1 X99.288 Y87.09 E21.06667
G1 X98.672 Y87.09 E21.08715
G1 X98.068 Y87.219 E21.1077
G1 X97.505 Y87.469 E21.12819
G1 X97.005 Y87.832 E21.14874
G1 X96.592 Y88.291 E21.16927
G1 X96.284 Y88.824 E21.18975
G1 X96.093 Y89.411 E21.21028
G1 X96.029 Y90.025 E21.23081
G1 X96.093 Y90.639 E21.25134
G1 X96.284 Y91.226 E21.27187
G1 X96.592 Y91.759 E21.29235
G1 X97.005 Y92.218 E21.31289
G1 X97.505 Y92.581 E21.33344
G1 X98.068 Y92.831 E21.35392
G1 X98.672 Y92.96 E21.37447
G0 F3600 X98.872 Y92.96
G0 X98.589 Y93.75
;TYPE:SKIN
G1 F1800 X99.371 Y93.75 E21.40048
G1 X100.137 Y93.586 E21.42653
G1 X100.851 Y93.269 E21.45251
G1 X101.487 Y92.808 E21.47864
G1 X102.011 Y92.225 E21.50471
G1 X102.401 Y91.55 E21.53064
G1 X102.644 Y90.805 E21.5567
G1 X102.725 Y90.025 E21.58279
G1 X102.644 Y89.245 E21.60887
G1 X102.401 Y88.5 E21.63493
G1 X102.011 Y87.825 E21.66086
G1 X101.487 Y87.242 E21.68693
G1 X100.851 Y86.781 E21.71306
G1 X100.137 Y86.464 E21.73904
G1 X99.371 Y86.3 E21.7651
G1 X98.589 Y86.3 E21.79111
G1 X97.823 Y86.464 E21.81716
G1 X97.109 Y86.781 E21.84314
G1 X96.473 Y87.242 E21.86927
G1 X95.949 Y87.825 E21.89534
G1 X95.559 Y88.5 E21.92127
G1 X95.316 Y89.245 E21.94733
G1 X95.235 Y90.025 E21.97342
G1 X95.316 Y90.805 E21.9995
G1 X95.559 Y91.55 E22.02556
G1 X95.949 Y92.225 E22.05149
G1 X96.473 Y92.808 E22.07756
G1 X97.109 Y93.269 E22.10369
G1 X97.823 Y93.586 E22.12967
G1 X98.589 Y93.75 E22.15573
G0 F3600 X98.589 Y104.3
G1 F1800 X97.823 Y104.464 E22.18178
G1 X97.109 Y104.781 E22.20776
G1 X96.473 Y105.242 E22.23389
G1 X95.949 Y105.825 E22.25996
G1 X95.559 Y106.5 E22.28589
G1 X95.316 Y107.245 E22.31195
G1 X95.235 Y108.025 E22.33804
G1 X95.316 Y108.805 E22.36412
G1 X95.559 Y109.55 E22.39018
G1 X95.949 Y110.225 E22.41611
G1 X96.473 Y110.808 E22.44218
G1 X97.109 Y111.269 E22.46831
G1 X97.823 Y111.586 E22.49429
G1 X98.589 Y111.75 E22.52035
G1 X99.371 Y111.75 E22.54636
G1 X100.137 Y111.586 E22.57241
G1 X100.851 Y111.269 E22.59839
G1 X101.487 Y110.808 E22.62452
G1 X102.011 Y110.225 E22.65059
G1 X102.401 Y109.55 E22.67652
G1 X102.644 Y108.805 E22.70258
G1 X102.725 Y108.025 E22.72867
G1 X102.644 Y107.245 E22.75475
G1 X102.401 Y106.5 E22.78081
G1 X102.011 Y105.825 E22.80674
G1 X101.487 Y105.242 E22.83281
G1 X100.851 Y104.781 E22.85894
G1 X100.137 Y104.464 E22.88492
G1 X99.371 Y104.3 E22.91098
G1 X98.589 Y104.3 E22.93699
G0 F3600 X107.49 Y79.965
G1 F1800 X107.49 Y130.035 E24.60232
G1 X89.47 Y130.035 E25.20167
G1 X89.47 Y79.965 E26.867
G1 X107.49 Y79.965 E27.46635
G0 F3600 X107.309 Y80.722
G1 F1800 X106.732 Y80.144 E27.49351
G0 F3600 X106.166 Y80.144
G1 F1800 X107.309 Y81.288 E27.5473
G0 F3600 X107.309 Y81.853
G1 F1800 X105.6 Y80.144 E27.62769
G0 F3600 X105.035 Y80.144
G1 F1800 X107.309 Y82.419 E27.73467
G0 F3600 X107.309 Y82.985
G1 F1800 X104.469 Y80.144 E27.86828
G0 F3600 X103.903 Y80.144
G1 F1800 X107.309 Y83.551 E28.02851
G0 F3600 X107.309 Y84.116
G1 F1800 X103.337 Y80.144 E28.21534
G0 F3600 X102.772 Y80.144
G1 F1800 X107.309 Y84.682 E28.42877
G0 F3600 X107.309 Y85.248
G1 F1800 X102.206 Y80.144 E28.66883
G0 F3600 X101.64 Y80.144
G1 F1800 X107.309 Y85.813 E28.93548
G0 F3600 X107.309 Y86.379
G1 F1800 X101.075 Y80.144 E29.22873
G0 F3600 X100.509 Y80.144
G1 F1800 X107.309 Y86.945 E29.54861
G0 F3600 X107.309 Y87.51
G1 F1800 X99.943 Y80.144 E29.89508
G0 F3600 X99.378 Y80.144
G1 F1800 X107.309 Y88.076 E30.26815
G0 F3600 X107.309 Y88.642
G1 F1800 X98.812 Y80.144 E30.66785
G0 F3600 X98.246 Y80.144
G1 F1800 X107.309 Y89.207 E31.09414
G0 F3600 X107.309 Y89.773
G1 F1800 X97.681 Y80.144 E31.54704
G0 F3600 X97.115 Y80.144
G1 F1800 X107.309 Y90.339 E32.02656
G0 F3600 X107.309 Y90.904
G1 F1800 X96.549 Y80.144 E32.53268
G0 F3600 X95.984 Y80.144
G1 F1800 X107.309 Y91.47 E33.06539
G0 F3600 X107.309 Y92.036
G1 F1800 X95.418 Y80.144 E33.62473
G0 F3600 X94.852 Y80.144
G1 F1800 X107.309 Y92.601 E34.21067
G0 F3600 X107.309 Y93.167
G1 F1800 X102.563 Y88.42 E34.43393
G1 X102.493 Y88.35
G0 F3600 X102.823 Y89.247
G1 F1800 X107.309 Y93.733 E34.64494
G0 F3600 X107.309 Y94.299
G1 F1800 X102.889 Y89.878 E34.85287
G0 F3600 X102.864 Y90.419
G1 F1800 X107.309 Y94.864 E35.06195
G0 F3600 X107.309 Y95.43
G1 F1800 X102.796 Y90.916 E35.27425
G0 F3600 X102.657 Y91.343
G1 F1800 X107.309 Y95.996 E35.49309
G0 F3600 X107.309 Y96.561
G1 F1800 X102.494 Y91.746 E35.71957
G0 F3600 X102.287 Y92.104
G1 F1800 X107.309 Y97.127 E35.95581
G0 F3600 X107.309 Y97.693
G1 F1800 X102.058 Y92.441 E36.20283
G0 F3600 X101.79 Y92.739
G1 F1800 X107.309 Y98.258 E36.46242
G0 F3600 X107.309 Y98.824
G1 F1800 X101.503 Y93.018 E36.73552
G0 F3600 X101.175 Y93.256
G1 F1800 X107.309 Y99.39 E37.02404
G0 F3600 X107.309 Y99.955
G1 F1800 X100.829 Y93.475 E37.32884
G0 F3600 X100.437 Y93.649
G1 F1800 X107.309 Y100.521 E37.65208
G0 F3600 X107.309 Y101.087
G1 F1800 X100.017 Y93.794 E37.9951
G0 F3600 X99.552 Y93.895
G1 F1800 X107.309 Y101.652 E38.35996
G0 F3600 X107.309 Y102.218
G1 F1800 X99.021 Y93.929 E38.74983
G0 F3600 X98.424 Y93.898
G1 F1800 X107.309 Y102.784 E39.16778
G0 F3600 X107.309 Y103.35
G1 F1800 X97.678 Y93.718 E39.62081
G1 X97.608 Y93.648
G0 F3600 X95.301 Y91.341
G1 F1800 X89.649 Y85.69 E39.88664
G0 F3600 X89.649 Y86.255
G1 F1800 X107.309 Y103.915 E40.71731
G0 F3600 X107.309 Y104.481
G1 F1800 X89.649 Y86.821 E41.54799
G0 F3600 X89.649 Y87.387
G1 F1800 X107.309 Y105.047 E42.37866
G0 F3600 X107.309 Y105.612
G1 F1800 X89.649 Y87.952 E43.20933
G0 F3600 X89.649 Y88.518
G1 F1800 X107.309 Y106.178 E44.04
G0 F3600 X107.309 Y106.744
G1 F1800 X89.649 Y89.084 E44.87067
G0 F3600 X89.649 Y89.649
G1 F1800 X107.309 Y107.309 E45.70135
G0 F3600 X107.309 Y107.875
G1 F1800 X89.649 Y90.215 E46.53202
G0 F3600 X89.649 Y90.781
G1 F1800 X107.309 Y108.441 E47.36269
G0 F3600 X107.309 Y109.006
G1 F1800 X89.649 Y91.346 E48.19336
G0 F3600 X89.649 Y91.912
G1 F1800 X107.309 Y109.572 E49.02404
G0 F3600 X107.309 Y110.138
G1 F1800 X89.649 Y92.478 E49.85471
G0 F3600 X89.649 Y93.043
G1 F1800 X107.309 Y110.703 E50.68538
G0 F3600 X107.309 Y111.269
G1 F1800 X102.615 Y106.575 E50.90617
G1 X102.545 Y106.505
G0 F3600 X102.837 Y107.362
G1 F1800 X107.309 Y111.835 E51.11654
G0 F3600 X107.309 Y112.4
G1 F1800 X102.902 Y107.993 E51.32384
G0 F3600 X102.855 Y108.511
G1 F1800 X107.309 Y112.966 E51.53336
G0 F3600 X107.309 Y113.532
G1 F1800 X102.771 Y108.994 E51.74682
G0 F3600 X102.632 Y109.42
G1 F1800 X107.309 Y114.098 E51.96683
G0 F3600 X107.309 Y114.663
G1 F1800 X102.457 Y109.811 E52.19505
G0 F3600 X102.25 Y110.17
G1 F1800 X107.309 Y115.229 E52.43301
G0 F3600 X107.309 Y115.795
G1 F1800 X102.009 Y110.494 E52.68233
G0 F3600 X101.742 Y110.793
G1 F1800 X107.309 Y116.36 E52.94419
G0 F3600 X107.309 Y116.926
G1 F1800 X101.444 Y111.061 E53.22006
G0 F3600 X101.116 Y111.298
G1 F1800 X107.309 Y117.492 E53.51138
G0 F3600 X107.309 Y118.057
G1 F1800 X100.758 Y111.506 E53.81952
G0 F3600 X100.366 Y111.68
G1 F1800 X107.309 Y118.623 E54.1461
G0 F3600 X107.309 Y119.189
G1 F1800 X99.933 Y111.812 E54.49307
G0 F3600 X99.467 Y111.912
G1 F1800 X107.309 Y119.754 E54.86193
G0 F3600 X107.309 Y120.32
G1 F1800 X98.918 Y111.929 E55.25662
G0 F3600 X98.293 Y111.869
G1 F1800 X107.309 Y120.886 E55.68073
G0 F3600 X107.309 Y121.451
G1 F1800 X97.493 Y111.635 E56.14244
G1 X97.423 Y111.565
G0 F3600 X95.351 Y109.494
G1 F1800 X89.649 Y103.791 E56.41067
G0 F3600 X89.649 Y103.226
G1 F1800 X95.124 Y108.7 E56.66817
G0 F3600 X95.058 Y108.069
G1 F1800 X89.649 Y102.66 E56.9226
G0 F3600 X89.649 Y102.094
G1 F1800 X95.103 Y107.548 E57.17914
G0 F3600 X95.185 Y107.064
G1 F1800 X89.649 Y101.529 E57.43951
G0 F3600 X89.649 Y100.963
G1 F1800 X95.324 Y106.638 E57.70644
G0 F3600 X95.496 Y106.244
G1 F1800 X89.649 Y100.397 E57.98147
G0 F3600 X89.649 Y99.832
G1 F1800 X95.704 Y105.886 E58.26625
G0 F3600 X95.943 Y105.56
G1 F1800 X89.649 Y99.266 E58.5623
G0 F3600 X89.649 Y98.7
G1 F1800 X96.211 Y105.262 E58.87096
G0 F3600 X96.508 Y104.993
G1 F1800 X89.649 Y98.135 E59.19356
G0 F3600 X89.649 Y97.569
G1 F1800 X96.836 Y104.755 E59.53159
G0 F3600 X97.191 Y104.545
G1 F1800 X89.649 Y97.003 E59.88635
G0 F3600 X89.649 Y96.438
G1 F1800 X97.583 Y104.371 E60.25951
G0 F3600 X98.015 Y104.238
G1 F1800 X89.649 Y95.872 E60.65302
G0 F3600 X89.649 Y95.306
G1 F1800 X98.481 Y104.138 E61.06845
G0 F3600 X99.028 Y104.119
G1 F1800 X89.649 Y94.74 E61.50961
G0 F3600 X89.649 Y94.175
G1 F1800 X99.649 Y104.175 E61.97998
G1 X99.719 Y104.245
G0 F3600 X100.44 Y104.4
G1 F1800 X89.649 Y93.609 E62.48756
G1 X89.579 Y93.539
G0 F3600 X95.112 Y90.586
G1 F1800 X89.649 Y85.124 E62.7445
G0 F3600 X89.649 Y84.558
G1 F1800 X95.059 Y89.968 E62.99897
G0 F3600 X95.112 Y89.455
G1 F1800 X89.649 Y83.992 E63.25593
G0 F3600 X89.649 Y83.427
G1 F1800 X95.209 Y88.986 E63.51743
G0 F3600 X95.348 Y88.56
G1 F1800 X89.649 Y82.861 E63.7855
G0 F3600 X89.649 Y82.295
G1 F1800 X95.534 Y88.18 E64.06231
G0 F3600 X95.741 Y87.821
G1 F1800 X89.649 Y81.73 E64.34883
G0 F3600 X89.649 Y81.164
G1 F1800 X95.992 Y87.507 E64.64719
G0 F3600 X96.26 Y87.209
G1 F1800 X89.649 Y80.598 E64.95815
