; generated by Slic3r 1.3.0 on 2021-09-10 at 17:31:10

; Filament notes: 
; Affordable filament for everyday printing in premium quality manufactured in-house by Josef Prusa
; 
; Printer Config Notes: 
; Don't remove the following keywords! These keywords are used in the "compatible printer" condition of the print and filament profiles to link the particular print and filament profiles to this printer profile.
; PRINTER_VENDOR_PRUSA3D
; PRINTER_MODEL_MK3
; 
; external perimeters extrusion width = 0.45mm (2.19mm^3/s)
; perimeters extrusion width = 0.45mm (3.76mm^3/s)
; infill extrusion width = 0.45mm (12.53mm^3/s)
; solid infill extrusion width = 0.45mm (12.53mm^3/s)
; top infill extrusion width = 0.40mm (2.76mm^3/s)
; support material extrusion width = 0.35mm (2.38mm^3/s)

M107
M862.3 P "[printer_model]" ; printer model check
M862.1 P0.4 ; nozzle diameter check
M115 U3.10.0 ; tell printer latest fw version
G90 ; use absolute coordinates
M83 ; extruder relative mode
M104 S215 ; set extruder temp
M140 S60 ; set bed temp
M190 S60 ; wait for bed temp
M109 S215 ; wait for extruder temp
G28 W ; home all without mesh bed level
G80 ; mesh bed leveling
G1 Y-3.0 F1000.0 ; go outside print area
G92 E0.0
G1 X60.0 E9.0 F1000.0 ; intro line
G1 X100.0 E12.5 F1000.0 ; intro line
G92 E0.0
M221 S100{else}95{endif}

; Don't change E values below. Excessive value can damage the printer.
M907 E430 ; set extruder motor current{endif}
M907 E538 ; set extruder motor current{endif}
M900 K0.12{elsif printer_notes=~/.*PRINTER_MODEL_MINI.*/ and nozzle_diameter[0]==0.8}0.06{elsif printer_notes=~/.*PRINTER_MODEL_MINI.*/}0.2{elsif nozzle_diameter[0]==0.8}0.01{elsif nozzle_diameter[0]==0.6}0.04{else}0.05{endif} ; Filament gcode LA 1.5
;{elsif printer_notes=~/.*PRINTER_HAS_BOWDEN.*/}M900 K200{elsif nozzle_diameter[0]==0.6}M900 K18{elsif nozzle_diameter[0]==0.8};{else}M900 K30{endif} ; Filament gcode LA 1.0
G21 ; set units to millimeters
G90 ; use absolute coordinates
M83 ; use relative distances for extrusion
;BEFORE_LAYER_CHANGE  0.2
G92 E0.0
;0.2


G1 E-0.80000 F2100.00000
G1 Z0.400 F10800.000
;AFTER_LAYER_CHANGE 0.2
G1 X97.913 Y62.364 F10800.000
G1 Z0.200 F10800.000
G1 E0.80000 F2100.00000
M201 X1000 Y1000
M204 P1000 T1000
G1 F1200
G1 X98.979 Y60.705 E0.06184
G1 X99.764 Y59.946 E0.03423
G1 X103.306 Y57.842 E0.12919
G1 X104.521 Y57.508 E0.03949
G1 X124.521 Y57.508 E0.62709
G1 X125.712 Y57.828 E0.03868
G1 X128.416 Y59.394 E0.09798
G1 X128.649 Y59.549 E0.00876
G1 X149.159 Y74.905 E0.80334
G1 X149.415 Y75.127 E0.01063
G1 X150.088 Y75.870 E0.03143
G1 X150.380 Y76.272 E0.01558
G1 X150.819 Y77.032 E0.02753
G1 X151.021 Y77.486 E0.01558
G1 X151.293 Y78.321 E0.02753
G1 X151.376 Y78.663 E0.01102
G1 X153.930 Y93.887 E0.48403
G1 X153.962 Y94.280 E0.01237
G1 X153.962 Y134.280 E1.25417
G1 X153.571 Y135.587 E0.04278
G1 X152.811 Y136.317 E0.03305
G1 X126.952 Y151.871 E0.94614
G1 X126.065 Y152.187 E0.02952
G1 X124.113 Y152.468 E0.06184
G1 X123.775 Y152.492 E0.01063
G1 X101.275 Y152.492 E0.70547
G1 X100.287 Y152.277 E0.03168
G1 X98.493 Y151.458 E0.06184
G1 X97.481 Y150.581 E0.04200
G1 X96.415 Y148.922 E0.06184
G1 X96.038 Y147.637 E0.04199
G1 X96.038 Y125.107 E0.70641
G1 X97.536 Y63.591 E1.92935
G1 X97.895 Y62.421 E0.03837
G1 F8640
G1 X97.926 Y62.343 E-0.01940
G1 F8640
G1 X97.926 Y62.343 E-0.00003
G1 F8640
G1 X97.949 Y62.307 E-0.00996
G1 F8640
G1 X97.949 Y62.307 E-0.00000
G1 F8640
G1 X98.979 Y60.705 E-0.43972
G1 F8640
G1 X99.764 Y59.946 E-0.25209
G1 F8640
G1 X99.909 Y59.861 E-0.03881
G1 E-0.04000 F2100.00000
G1 Z0.600 F10800.000
G1 X125.649 Y146.401 F10800.000
G1 Z0.200 F10800.000
G1 E0.80000 F2100.00000
G1 F1200
G1 X124.180 Y148.422 E0.07835
G1 X121.803 Y147.650 E0.07835
G1 X121.803 Y145.151 E0.07835
G1 X124.180 Y144.379 E0.07835
G1 X125.613 Y146.352 E0.07647
G1 X125.182 Y146.401 F10800.000
G1 F1200
G1 X124.036 Y147.979 E0.06117
G1 X122.180 Y147.376 E0.06117
G1 X122.180 Y145.425 E0.06117
G1 X124.036 Y144.822 E0.06117
G1 X125.147 Y146.352 E0.05929
G1 X125.489 Y146.657 F10800.000
G1 F8640
G1 X124.036 Y147.979 E-0.45495
G1 F8640
G1 X122.779 Y147.571 E-0.30505
G1 E-0.04000 F2100.00000
G1 Z0.600 F10800.000
G1 X124.180 Y134.422 F10800.000
G1 Z0.200 F10800.000
G1 E0.80000 F2100.00000
G1 F1200
G1 X121.803 Y133.650 E0.07835
G1 X121.803 Y131.151 E0.07835
G1 X124.180 Y130.379 E0.07835
G1 X125.649 Y132.401 E0.07835
G1 X124.215 Y134.374 E0.07647
G1 X124.036 Y133.979 F10800.000
G1 F1200
G1 X122.180 Y133.376 E0.06117
G1 X122.180 Y131.425 E0.06117
G1 X124.036 Y130.822 E0.06117
G1 X125.182 Y132.401 E0.06117
G1 X124.071 Y133.930 E0.05929
G1 X123.953 Y134.370 F10800.000
G1 F8640
G1 X122.180 Y133.376 E-0.45495
G1 F8640
G1 X122.180 Y132.055 E-0.30505
G1 E-0.04000 F2100.00000
G1 Z0.600 F10800.000
G1 X104.649 Y132.401 F10800.000
G1 Z0.200 F10800.000
G1 E0.80000 F2100.00000
G1 F1200
G1 X103.180 Y134.422 E0.07835
G1 X100.803 Y133.650 E0.07835
G1 X100.803 Y131.151 E0.07835
G1 X103.180 Y130.379 E0.07835
G1 X104.613 Y132.352 E0.07647
G1 X104.182 Y132.401 F10800.000
G1 F1200
G1 X103.036 Y133.979 E0.06117
G1 X101.180 Y133.376 E0.06117
G1 X101.180 Y131.425 E0.06117
G1 X103.036 Y130.822 E0.06117
G1 X104.147 Y132.352 E0.05929
G1 X104.489 Y132.657 F10800.000
G1 F8640
G1 X103.036 Y133.979 E-0.45495
G1 F8640
G1 X101.779 Y133.571 E-0.30505
G1 E-0.04000 F2100.00000
G1 Z0.600 F10800.000
G1 X103.180 Y144.379 F10800.000
G1 Z0.200 F10800.000
G1 E0.80000 F2100.00000
G1 F1200
G1 X104.649 Y146.401 E0.07835
G1 X103.180 Y148.422 E0.07835
G1 X100.803 Y147.650 E0.07835
G1 X100.803 Y145.151 E0.07835
G1 X103.123 Y144.397 E0.07647
G1 X103.036 Y144.822 F10800.000
G1 F1200
G1 X104.182 Y146.401 E0.06117
G1 X103.036 Y147.979 E0.06117
G1 X101.180 Y147.376 E0.06117
G1 X101.180 Y145.425 E0.06117
G1 X102.979 Y144.841 E0.05929
G1 X103.382 Y144.622 F10800.000
G1 F8640
G1 X104.182 Y146.401 E-0.45495
G1 F8640
G1 X103.406 Y147.469 E-0.30505
G1 E-0.04000 F2100.00000
G1 Z0.600 F10800.000
G1 X99.002 Y147.464 F10800.000
G1 Z0.200 F10800.000
G1 E0.80000 F2100.00000
G1 F1200
G1 X99.002 Y125.337 E0.69379
G1 X99.882 Y123.968 E0.05102
G1 X101.403 Y123.273 E0.05243
G1 X123.733 Y123.273 E0.70015
G1 X125.473 Y123.523 E0.05511
G1 X126.703 Y124.589 E0.05102
G1 X127.186 Y126.235 E0.05378
G1 X127.186 Y146.566 E0.63747
G1 X126.703 Y148.212 E0.05378
G1 X125.473 Y149.278 E0.05102
G1 X123.733 Y149.528 E0.05511
G1 X101.403 Y149.528 E0.70015
G1 X99.882 Y148.833 E0.05243
G1 X99.034 Y147.515 E0.04914
G1 X98.625 Y147.575 F10800.000
G1 F1200
G1 X98.625 Y125.226 E0.70073
G1 X99.624 Y123.671 E0.05797
G1 X101.320 Y122.896 E0.05847
G1 X123.760 Y122.896 E0.70357
G1 X125.636 Y123.166 E0.05943
G1 X127.033 Y124.377 E0.05797
G1 X127.563 Y126.181 E0.05895
G1 X127.563 Y146.620 E0.64087
G1 X127.033 Y148.424 E0.05895
G1 X125.636 Y149.635 E0.05797
G1 X123.760 Y149.905 E0.05943
G1 X101.320 Y149.905 E0.70357
G1 X99.624 Y149.130 E0.05847
G1 X98.657 Y147.625 E0.05609
G1 X98.901 Y147.285 F10800.000
G1 F8640
G1 X98.652 Y144.334 E-0.76000
G1 E-0.04000 F2100.00000
G1 Z0.600 F10800.000
G1 X100.493 Y144.865 F10800.000
G1 Z0.200 F10800.000
G1 E0.80000 F2100.00000
G1 F1200
G1 X99.312 Y146.046 E0.05275
G1 X99.312 Y146.583 E0.01697
G1 X100.493 Y145.403 E0.05275
G1 X100.493 Y145.940 E0.01697
G1 X99.312 Y147.120 E0.05275
G1 X99.312 Y147.420 E0.00947
G1 X99.405 Y147.565 E0.00543
G1 X100.493 Y146.477 E0.04859
G1 X100.493 Y147.014 E0.01697
G1 X99.615 Y147.892 E0.03920
G1 X99.825 Y148.219 E0.01228
G1 X100.493 Y147.552 E0.02981
G1 X100.493 Y147.857 E0.00966
G1 X100.668 Y147.914 E0.00581
G1 X100.036 Y148.546 E0.02823
G1 X100.072 Y148.603 E0.00214
G1 X100.377 Y148.742 E0.01058
G1 X101.073 Y148.046 E0.03110
G1 X101.479 Y148.178 E0.01347
G1 X100.746 Y148.911 E0.03274
G1 X101.115 Y149.079 E0.01281
G1 X101.884 Y148.309 E0.03438
G1 X102.290 Y148.441 E0.01347
G1 X101.513 Y149.217 E0.03468
G1 X102.051 Y149.217 E0.01697
G1 X102.695 Y148.573 E0.02880
G1 X103.101 Y148.705 E0.01347
G1 X102.588 Y149.217 E0.02291
G1 X103.125 Y149.217 E0.01697
G1 X121.359 Y130.983 E0.81462
G1 X121.359 Y130.944 E0.00125
G1 X121.418 Y130.925 E0.00194
G1 X126.704 Y125.639 E0.23616
G1 X126.826 Y126.054 E0.01367
G1 X122.214 Y130.666 E0.20605
G1 X123.010 Y130.408 E0.02644
G1 X126.875 Y126.542 E0.17271
G1 X126.875 Y127.079 E0.01697
G1 X123.806 Y130.149 E0.13715
G1 X124.257 Y130.002 E0.01500
G1 X124.355 Y130.137 E0.00526
G1 X126.875 Y127.616 E0.11260
G1 X126.875 Y128.154 E0.01697
G1 X124.581 Y130.448 E0.10250
G1 X124.807 Y130.759 E0.01215
G1 X126.875 Y128.691 E0.09240
G1 X126.875 Y129.228 E0.01697
G1 X125.033 Y131.071 E0.08230
G1 X125.259 Y131.382 E0.01215
G1 X126.875 Y129.766 E0.07220
G1 X126.875 Y130.303 E0.01697
G1 X125.485 Y131.693 E0.06210
G1 X125.711 Y132.004 E0.01215
G1 X126.875 Y130.840 E0.05200
G1 X126.875 Y131.377 E0.01697
G1 X125.938 Y132.315 E0.04190
G1 X126.048 Y132.467 E0.00593
G1 X125.318 Y133.473 E0.03926
G1 X126.875 Y131.915 E0.06960
G1 X126.875 Y132.452 E0.01697
G1 X110.110 Y149.217 E0.74900
G1 X110.647 Y149.217 E0.01697
G1 X126.875 Y132.989 E0.72500
G1 X126.875 Y133.527 E0.01697
G1 X111.185 Y149.217 E0.70100
G1 X111.722 Y149.217 E0.01697
G1 X126.875 Y134.064 E0.67699
G1 X126.875 Y134.601 E0.01697
G1 X112.259 Y149.217 E0.65299
G1 X112.796 Y149.217 E0.01697
G1 X126.875 Y135.138 E0.62899
G1 X126.875 Y135.676 E0.01697
G1 X113.334 Y149.217 E0.60498
G1 X113.871 Y149.217 E0.01697
G1 X126.875 Y136.213 E0.58098
G1 X126.875 Y136.750 E0.01697
G1 X114.408 Y149.217 E0.55698
G1 X114.946 Y149.217 E0.01697
G1 X126.875 Y137.288 E0.53297
G1 X126.875 Y137.825 E0.01697
G1 X115.483 Y149.217 E0.50897
G1 X116.020 Y149.217 E0.01697
G1 X126.875 Y138.362 E0.48497
G1 X126.875 Y138.899 E0.01697
G1 X116.557 Y149.217 E0.46096
G1 X117.095 Y149.217 E0.01697
G1 X126.875 Y139.437 E0.43696
G1 X126.875 Y139.974 E0.01697
G1 X122.168 Y144.681 E0.21029
G1 X122.964 Y144.422 E0.02644
G1 X126.875 Y140.511 E0.17473
G1 X126.875 Y141.049 E0.01697
G1 X123.760 Y144.164 E0.13918
G1 X124.257 Y144.002 E0.01651
G1 X124.342 Y144.119 E0.00456
G1 X126.875 Y141.586 E0.11318
G1 X126.875 Y142.123 E0.01697
G1 X124.568 Y144.430 E0.10308
G1 X124.794 Y144.742 E0.01215
G1 X126.875 Y142.660 E0.09298
G1 X126.875 Y143.198 E0.01697
G1 X125.020 Y145.053 E0.08288
G1 X125.246 Y145.364 E0.01215
G1 X126.875 Y143.735 E0.07278
G1 X126.875 Y144.272 E0.01697
G1 X125.473 Y145.675 E0.06268
G1 X125.699 Y145.986 E0.01215
G1 X126.875 Y144.810 E0.05257
G1 X126.875 Y145.347 E0.01697
G1 X125.925 Y146.298 E0.04247
G1 X126.048 Y146.467 E0.00663
G1 X125.399 Y147.361 E0.03488
G1 X126.875 Y145.884 E0.06596
G1 X126.875 Y146.421 E0.01697
G1 X124.153 Y149.144 E0.12161
G1 X124.781 Y149.053 E0.02003
G1 X126.662 Y147.172 E0.08405
G1 X126.439 Y147.933 E0.02504
G1 X126.304 Y148.067 E0.00601
G1 F8640
G1 X126.439 Y147.933 E-0.04390
G1 F8640
G1 X126.662 Y147.172 E-0.18305
G1 F8640
G1 X125.030 Y148.804 E-0.53306
G1 E-0.04000 F2100.00000
G1 Z0.600 F10800.000
G1 X123.542 Y149.217 F10800.000
G1 Z0.200 F10800.000
G1 E0.80000 F2100.00000
G1 F1200
G1 X124.066 Y148.693 E0.02341
G1 X123.661 Y148.562 E0.01347
G1 X123.005 Y149.217 E0.02930
G1 X122.467 Y149.217 E0.01697
G1 X123.255 Y148.430 E0.03519
G1 X122.850 Y148.298 E0.01347
G1 X121.930 Y149.217 E0.04107
G1 X121.393 Y149.217 E0.01697
G1 X122.444 Y148.166 E0.04696
G1 X122.038 Y148.035 E0.01347
G1 X120.856 Y149.217 E0.05284
G1 X120.318 Y149.217 E0.01697
G1 X121.633 Y147.903 E0.05873
G1 X121.493 Y147.857 E0.00466
G1 X121.493 Y147.506 E0.01111
G1 X119.781 Y149.217 E0.07647
G1 X119.244 Y149.217 E0.01697
G1 X121.493 Y146.968 E0.10048
G1 X121.493 Y146.431 E0.01697
G1 X118.707 Y149.217 E0.12448
G1 X118.169 Y149.217 E0.01697
G1 X121.493 Y145.894 E0.14848
G1 X121.493 Y145.357 E0.01697
G1 X117.632 Y149.217 E0.17249
G1 X117.095 Y149.217 E0.01697
G1 F8640
G1 X117.632 Y149.217 E-0.12406
G1 F8640
G1 X119.579 Y147.270 E-0.63594
G1 E-0.04000 F2100.00000
G1 Z0.600 F10800.000
G1 X109.573 Y149.217 F10800.000
G1 Z0.200 F10800.000
G1 E0.80000 F2100.00000
G1 F1200
G1 X124.089 Y134.701 E0.64853
G1 X123.684 Y134.569 E0.01347
G1 X109.035 Y149.217 E0.65442
G1 X108.498 Y149.217 E0.01697
G1 X123.278 Y134.437 E0.66030
G1 X122.873 Y134.306 E0.01347
G1 X107.961 Y149.217 E0.66619
G1 X107.424 Y149.217 E0.01697
G1 X122.467 Y134.174 E0.67208
G1 X122.062 Y134.042 E0.01347
G1 X106.886 Y149.217 E0.67796
G1 X106.349 Y149.217 E0.01697
G1 X121.656 Y133.910 E0.68385
G1 X121.493 Y133.857 E0.00542
G1 X121.493 Y133.536 E0.01014
G1 X105.812 Y149.217 E0.70056
G1 X105.274 Y149.217 E0.01697
G1 X121.493 Y132.999 E0.72456
G1 X121.493 Y132.462 E0.01697
G1 X104.737 Y149.217 E0.74857
G1 X104.200 Y149.217 E0.01697
G1 X121.493 Y131.924 E0.77257
G1 X121.493 Y131.387 E0.01697
G1 X103.663 Y149.217 E0.79657
G1 X103.125 Y149.217 E0.01697
G1 F8640
G1 X103.663 Y149.217 E-0.12406
G1 F8640
G1 X105.610 Y147.270 E-0.63594
G1 E-0.04000 F2100.00000
G1 Z0.600 F10800.000
G1 X104.277 Y147.529 F10800.000
G1 Z0.200 F10800.000
G1 E0.80000 F2100.00000
G1 F1200
G1 X126.582 Y125.223 E0.99649
G1 X126.460 Y124.808 E0.01367
G1 X104.944 Y146.324 E0.96124
G1 X104.718 Y146.013 E0.01215
G1 X126.201 Y124.529 E0.95978
G1 X125.914 Y124.280 E0.01203
G1 X104.492 Y145.702 E0.95702
G1 X104.266 Y145.391 E0.01215
G1 X125.626 Y124.031 E0.95427
G1 X125.376 Y123.814 E0.01044
G1 X125.314 Y123.805 E0.00199
G1 X104.040 Y145.079 E0.95043
G1 X103.814 Y144.768 E0.01215
G1 X124.844 Y123.738 E0.93954
G1 X124.374 Y123.670 E0.01499
G1 X103.587 Y144.457 E0.92866
G1 X103.361 Y144.146 E0.01215
G1 X123.905 Y123.603 E0.91777
G1 X123.378 Y123.592 E0.01663
G1 X102.828 Y144.142 E0.91808
G1 X102.032 Y144.400 E0.02644
G1 X122.841 Y123.591 E0.92965
G1 X122.304 Y123.591 E0.01697
G1 X101.236 Y144.659 E0.94121
G1 X100.441 Y144.917 E0.02644
G1 X121.767 Y123.591 E0.95277
G1 X121.230 Y123.591 E0.01697
G1 X99.312 Y145.509 E0.97919
G1 X99.312 Y144.971 E0.01697
G1 X120.693 Y123.591 E0.95519
G1 X120.156 Y123.590 E0.01697
G1 X99.312 Y144.434 E0.93120
G1 X99.312 Y143.897 E0.01697
G1 X119.619 Y123.590 E0.90720
G1 X119.082 Y123.590 E0.01697
G1 X99.312 Y143.359 E0.88321
G1 X99.312 Y142.822 E0.01697
G1 X118.545 Y123.590 E0.85921
G1 X118.007 Y123.590 E0.01697
G1 X99.312 Y142.285 E0.83522
G1 X99.312 Y141.748 E0.01697
G1 X117.470 Y123.589 E0.81122
G1 X116.933 Y123.589 E0.01697
G1 X99.312 Y141.210 E0.78723
G1 X99.312 Y140.673 E0.01697
G1 X116.396 Y123.589 E0.76323
G1 X115.859 Y123.589 E0.01697
G1 X99.312 Y140.136 E0.73924
G1 X99.312 Y139.598 E0.01697
G1 X115.322 Y123.589 E0.71524
G1 X114.785 Y123.588 E0.01697
G1 X99.312 Y139.061 E0.69125
G1 X99.312 Y138.524 E0.01697
G1 X103.124 Y134.712 E0.17029
G1 X102.718 Y134.580 E0.01347
G1 X99.312 Y137.987 E0.15217
G1 X99.312 Y137.449 E0.01697
G1 X102.313 Y134.449 E0.13406
G1 X101.907 Y134.317 E0.01347
G1 X99.312 Y136.912 E0.11594
G1 X99.312 Y136.375 E0.01697
G1 X101.502 Y134.185 E0.09782
G1 X101.096 Y134.053 E0.01347
G1 X99.312 Y135.837 E0.07971
G1 X99.312 Y135.300 E0.01697
G1 X100.691 Y133.922 E0.06159
G1 X100.493 Y133.857 E0.00658
G1 X100.493 Y133.582 E0.00869
G1 X99.312 Y134.763 E0.05275
G1 X99.312 Y134.226 E0.01697
G1 X100.493 Y133.045 E0.05275
G1 X100.493 Y132.508 E0.01697
G1 X99.312 Y133.688 E0.05275
G1 X99.312 Y133.151 E0.01697
G1 X100.493 Y131.970 E0.05275
G1 X100.493 Y131.433 E0.01697
G1 X99.312 Y132.614 E0.05275
G1 X99.312 Y132.077 E0.01697
G1 X100.493 Y130.896 E0.05275
G1 F8640
G1 X99.312 Y132.077 E-0.38553
G1 F8640
G1 X99.312 Y132.614 E-0.12406
G1 F8640
G1 X100.079 Y131.847 E-0.25041
G1 E-0.04000 F2100.00000
G1 Z0.600 F10800.000
G1 X104.196 Y133.641 F10800.000
G1 Z0.200 F10800.000
G1 E0.80000 F2100.00000
G1 F1200
G1 X114.248 Y123.588 E0.44909
G1 X113.711 Y123.588 E0.01697
G1 X104.957 Y132.342 E0.39108
G1 X104.731 Y132.031 E0.01215
G1 X113.174 Y123.588 E0.37718
G1 X112.637 Y123.588 E0.01697
G1 X104.505 Y131.719 E0.36329
G1 X104.279 Y131.408 E0.01215
G1 X112.099 Y123.588 E0.34940
G1 X111.562 Y123.587 E0.01697
G1 X104.053 Y131.097 E0.33550
G1 X103.826 Y130.786 E0.01215
G1 X111.025 Y123.587 E0.32161
G1 X110.488 Y123.587 E0.01697
G1 X103.600 Y130.475 E0.30772
G1 X103.374 Y130.164 E0.01215
G1 X109.951 Y123.587 E0.29382
G1 X109.414 Y123.587 E0.01697
G1 X102.874 Y130.127 E0.29220
G1 X102.078 Y130.386 E0.02644
