;FLAVOR:Marlin
;TIME:9668
;Filament used: 12.9307m
;Layer height: 0.3
;MINX:29.136
;MINY:5.007
;MINZ:0.2
;MAXX:157.836
;MAXY:198.707
;MAXZ:2
;Generated with Cura_SteamEngine 4.4.0
M82 ;absolute extrusion mode
G21 ; set units to millimeters
G90 ; use absolute positioning
M82 ; absolute extrusion mode
M104 S210 ; set extruder temp
M140 S60 ; set bed temp
M190 S60 ; wait for bed temp
M109 S210 ; wait for extruder temp
G28 W ; home all without mesh bed level
G80 ; mesh bed leveling
G92 E0.0 ; reset extruder distance position
G1 Y-3.0 F1000.0 ; go outside print area
G1 X60.0 E9.0 F1000.0 ; intro line
G1 X100.0 E21.5 F1000.0 ; intro line
G92 E0.0 ; reset extruder distance position
G92 E0
G92 E0
G1 F2100 E-0.8
;LAYER_COUNT:7
;LAYER:0
M107
G0 F3600 X30.206 Y13.513 Z0.2
;TYPE:SKIRT
G1 F2100 E0
G1 F1800 X30.599 Y12.625 E0.0323
G1 X31.065 Y11.772 E0.06463
G1 X31.637 Y10.907 E0.09912
G1 X31.932 Y10.501 E0.11581
G1 X32.535 Y9.739 E0.14813
G1 X33.198 Y9.03 E0.18042
G1 X33.966 Y8.337 E0.21482
G1 X34.35 Y8.02 E0.23138
G1 X35.124 Y7.433 E0.26369
G1 X35.943 Y6.912 E0.29598
G1 X36.84 Y6.442 E0.32966
G1 X37.295 Y6.228 E0.34638
G1 X38.19 Y5.851 E0.37868
G1 X39.113 Y5.549 E0.41098
G1 X40.093 Y5.317 E0.44448
G1 X40.588 Y5.222 E0.46124
G1 X41.549 Y5.079 E0.49356
G1 X42.812 Y5.011 E0.53563
G1 X138.98 Y5.007 E3.73419
G1 X144.035 Y5.007 E3.90232
G1 X145.005 Y5.047 E3.93461
G1 X145.519 Y5.101 E3.9518
G1 X146.016 Y5.164 E3.96846
G1 X146.974 Y5.325 E4.00077
G1 X147.915 Y5.565 E4.03307
G1 X148.862 Y5.893 E4.0664
G1 X149.331 Y6.078 E4.08317
G1 X150.219 Y6.471 E4.11547
G1 X151.072 Y6.937 E4.1478
G1 X151.948 Y7.517 E4.18274
G1 X152.353 Y7.812 E4.19941
G1 X153.114 Y8.416 E4.23172
G1 X153.823 Y9.08 E4.26403
G1 X154.502 Y9.833 E4.29775
G1 X154.821 Y10.219 E4.31441
G1 X155.408 Y10.993 E4.34672
G1 X155.93 Y11.812 E4.37902
G1 X156.404 Y12.716 E4.41297
G1 X156.616 Y13.167 E4.42954
G1 X156.993 Y14.063 E4.46188
G1 X157.294 Y14.986 E4.49417
G1 X157.527 Y15.972 E4.52786
G1 X157.622 Y16.469 E4.54469
G1 X157.765 Y17.429 E4.57697
G1 X157.832 Y18.678 E4.61858
G1 X157.836 Y27.106 E4.89889
G1 X157.836 Y184.906 E10.14734
G1 X157.796 Y185.877 E10.17967
G1 X157.745 Y186.37 E10.19615
G1 X157.683 Y186.866 E10.21278
G1 X157.523 Y187.824 E10.24508
G1 X157.284 Y188.765 E10.27737
G1 X156.954 Y189.724 E10.3111
G1 X156.769 Y190.194 E10.3279
G1 X156.376 Y191.082 E10.3602
G1 X155.912 Y191.936 E10.39253
G1 X155.327 Y192.819 E10.42776
G1 X155.032 Y193.224 E10.44442
G1 X154.428 Y193.985 E10.47674
G1 X153.764 Y194.694 E10.50904
G1 X153.011 Y195.373 E10.54277
G1 X152.625 Y195.692 E10.55942
G1 X151.851 Y196.279 E10.59173
G1 X151.032 Y196.801 E10.62403
G1 X150.119 Y197.279 E10.65831
G1 X149.667 Y197.491 E10.67492
G1 X148.771 Y197.867 E10.70723
G1 X147.847 Y198.168 E10.73956
G1 X146.876 Y198.397 E10.77274
G1 X146.38 Y198.492 E10.78954
G1 X145.419 Y198.636 E10.82186
G1 X144.16 Y198.703 E10.86379
G1 X47.992 Y198.707 E14.06235
G1 X42.937 Y198.707 E14.23048
G1 X41.967 Y198.667 E14.26277
G1 X41.453 Y198.613 E14.27996
G1 X40.956 Y198.55 E14.29662
G1 X39.998 Y198.389 E14.32893
G1 X39.057 Y198.149 E14.36123
G1 X38.13 Y197.829 E14.39385
G1 X37.661 Y197.645 E14.41061
G1 X36.772 Y197.253 E14.44292
G1 X35.919 Y196.79 E14.4752
G1 X35.024 Y196.198 E14.51089
G1 X34.619 Y195.903 E14.52756
G1 X33.858 Y195.299 E14.55987
G1 X33.149 Y194.635 E14.59218
G1 X32.47 Y193.882 E14.6259
G1 X32.151 Y193.496 E14.64256
G1 X31.564 Y192.722 E14.67487
G1 X31.042 Y191.903 E14.70717
G1 X30.564 Y190.99 E14.74145
G1 X30.352 Y190.538 E14.75805
G1 X29.976 Y189.642 E14.79037
G1 X29.675 Y188.718 E14.82269
G1 X29.446 Y187.747 E14.85587
G1 X29.351 Y187.251 E14.87267
G1 X29.207 Y186.29 E14.90499
G1 X29.14 Y185.037 E14.94672
G1 X29.136 Y176.608 E15.22707
G1 X29.136 Y18.808 E20.47552
G1 X29.176 Y17.837 E20.50785
G1 X29.227 Y17.344 E20.52433
G1 X29.289 Y16.848 E20.54096
G1 X29.449 Y15.89 E20.57326
G1 X29.688 Y14.949 E20.60555
G1 X30.021 Y13.982 E20.63957
G1 X30.206 Y13.513 E20.65634
G0 F3600 X30.578 Y13.66
G1 F1800 X30.965 Y12.787 E20.6881
G1 X31.424 Y11.95 E20.71985
G1 X31.96 Y11.142 E20.7521
G1 X32.255 Y10.736 E20.76879
G1 X32.849 Y9.988 E20.80056
G1 X33.502 Y9.292 E20.8323
G1 X34.221 Y8.646 E20.86445
G1 X34.605 Y8.329 E20.88101
G1 X35.366 Y7.752 E20.91278
G1 X36.172 Y7.241 E20.94452
G1 X37.01 Y6.804 E20.97595
G1 X37.465 Y6.59 E20.99268
G1 X38.345 Y6.22 E21.02443
G1 X39.253 Y5.925 E21.05618
G1 X40.168 Y5.71 E21.08744
G1 X40.663 Y5.615 E21.10421
G1 X41.608 Y5.475 E21.13598
G1 X42.812 Y5.411 E21.17608
G1 X138.98 Y5.407 E24.37464
G1 X144.035 Y5.407 E24.54277
G1 X144.988 Y5.447 E24.5745
G1 X145.469 Y5.497 E24.59058
G1 X145.966 Y5.56 E24.60724
G1 X146.907 Y5.72 E24.63899
G1 X147.832 Y5.958 E24.67076
G1 X148.715 Y6.265 E24.70185
G1 X149.184 Y6.45 E24.71862
G1 X150.057 Y6.837 E24.75038
G1 X150.894 Y7.296 E24.78213
G1 X151.713 Y7.84 E24.81483
G1 X152.118 Y8.135 E24.8315
G1 X152.865 Y8.729 E24.86324
G1 X153.561 Y9.384 E24.89503
G1 X154.194 Y10.088 E24.92652
G1 X154.513 Y10.474 E24.94317
G1 X155.089 Y11.235 E24.97492
G1 X155.601 Y12.041 E25.00668
G1 X156.042 Y12.886 E25.03838
G1 X156.254 Y13.337 E25.05495
G1 X156.624 Y14.218 E25.08673
G1 X156.918 Y15.126 E25.11848
G1 X157.134 Y16.047 E25.14994
G1 X157.229 Y16.544 E25.16677
G1 X157.369 Y17.488 E25.19851
G1 X157.432 Y18.679 E25.23818
G1 X157.436 Y27.107 E25.5185
G1 X157.436 Y184.906 E30.76691
G1 X157.348 Y186.32 E30.81403
G1 X157.286 Y186.816 E30.83066
G1 X157.128 Y187.758 E30.86243
G1 X156.892 Y188.683 E30.89418
G1 X156.582 Y189.577 E30.92565
G1 X156.397 Y190.047 E30.94245
G1 X156.01 Y190.92 E30.97421
G1 X155.552 Y191.758 E31.00597
G1 X155.004 Y192.584 E31.03894
G1 X154.709 Y192.989 E31.05561
G1 X154.115 Y193.736 E31.08735
G1 X153.46 Y194.432 E31.11914
G1 X152.756 Y195.065 E31.15063
G1 X152.37 Y195.384 E31.16728
G1 X151.609 Y195.96 E31.19903
G1 X150.803 Y196.472 E31.23079
G1 X149.949 Y196.917 E31.26282
G1 X149.497 Y197.129 E31.27942
G1 X148.616 Y197.498 E31.31119
G1 X147.708 Y197.792 E31.34293
G1 X146.8 Y198.004 E31.37395
G1 X146.304 Y198.099 E31.39074
G1 X145.36 Y198.24 E31.42249
G1 X144.16 Y198.303 E31.46246
G1 X47.992 Y198.307 E34.66102
G1 X42.937 Y198.307 E34.82915
G1 X41.984 Y198.267 E34.86087
G1 X41.503 Y198.217 E34.87696
G1 X41.006 Y198.154 E34.89362
G1 X40.065 Y197.994 E34.92536
G1 X39.14 Y197.756 E34.95713
G1 X38.276 Y197.456 E34.98755
G1 X37.807 Y197.272 E35.00431
G1 X36.934 Y196.887 E35.03604
G1 X36.096 Y196.43 E35.06779
G1 X35.259 Y195.875 E35.10119
G1 X34.854 Y195.58 E35.11786
G1 X34.107 Y194.986 E35.1496
G1 X33.411 Y194.331 E35.18139
G1 X32.778 Y193.627 E35.21288
G1 X32.459 Y193.241 E35.22953
G1 X31.883 Y192.48 E35.26128
G1 X31.371 Y191.674 E35.29304
G1 X30.926 Y190.82 E35.32506
G1 X30.714 Y190.368 E35.34167
G1 X30.345 Y189.487 E35.37344
G1 X30.051 Y188.579 E35.40518
G1 X29.839 Y187.671 E35.43619
G1 X29.744 Y187.175 E35.45299
G1 X29.603 Y186.231 E35.48474
G1 X29.54 Y185.036 E35.52454
G1 X29.536 Y176.607 E35.80489
G1 X29.536 Y18.808 E41.0533
G1 X29.624 Y17.394 E41.10042
G1 X29.686 Y16.898 E41.11705
G1 X29.844 Y15.956 E41.14882
G1 X30.08 Y15.031 E41.18057
G1 X30.393 Y14.129 E41.21233
G1 X30.578 Y13.66 E41.22909
G0 F3600 X30.95 Y13.807
G1 F1800 X31.331 Y12.95 E41.26029
G1 X31.784 Y12.128 E41.29151
G1 X32.284 Y11.377 E41.32151
G1 X32.579 Y10.971 E41.3382
G1 X33.162 Y10.236 E41.36941
G1 X33.806 Y9.554 E41.40061
G1 X34.475 Y8.954 E41.43049
G1 X34.859 Y8.637 E41.44706
G1 X35.607 Y8.071 E41.47825
G1 X36.401 Y7.571 E41.50946
G1 X37.18 Y7.166 E41.53867
G1 X37.635 Y6.952 E41.55539
G1 X38.5 Y6.589 E41.58659
G1 X39.393 Y6.302 E41.61779
G1 X40.244 Y6.103 E41.64686
G1 X40.739 Y6.008 E41.66362
G1 X41.666 Y5.871 E41.69479
G1 X42.812 Y5.811 E41.73295
G1 X138.98 Y5.807 E44.93152
G1 X144.035 Y5.807 E45.09965
G1 X145.418 Y5.894 E45.14574
G1 X145.915 Y5.957 E45.1624
G1 X146.84 Y6.115 E45.19361
G1 X147.748 Y6.351 E45.22481
G1 X148.568 Y6.637 E45.2537
G1 X149.037 Y6.822 E45.27047
G1 X149.894 Y7.203 E45.30166
G1 X150.716 Y7.656 E45.33288
G1 X151.477 Y8.164 E45.36331
G1 X151.882 Y8.459 E45.37997
G1 X152.616 Y9.043 E45.41117
G1 X153.298 Y9.687 E45.44237
G1 X153.885 Y10.343 E45.47165
G1 X154.204 Y10.729 E45.4883
G1 X154.77 Y11.476 E45.51947
G1 X155.271 Y12.27 E45.5507
G1 X155.68 Y13.056 E45.58017
G1 X155.892 Y13.507 E45.59675
G1 X156.254 Y14.372 E45.62793
G1 X156.542 Y15.265 E45.65914
G1 X156.741 Y16.122 E45.6884
G1 X156.836 Y16.619 E45.70523
G1 X156.973 Y17.547 E45.73643
G1 X157.032 Y18.679 E45.77413
G1 X157.036 Y27.107 E46.05445
G1 X157.036 Y184.906 E51.30287
G1 X156.951 Y186.27 E51.34832
G1 X156.889 Y186.766 E51.36495
G1 X156.733 Y187.691 E51.39615
G1 X156.499 Y188.599 E51.42733
G1 X156.21 Y189.431 E51.45663
G1 X156.025 Y189.901 E51.47343
G1 X155.644 Y190.758 E51.50462
G1 X155.192 Y191.58 E51.53582
G1 X154.68 Y192.348 E51.56652
G1 X154.385 Y192.753 E51.58319
G1 X153.801 Y193.487 E51.61439
G1 X153.157 Y194.169 E51.64558
G1 X152.501 Y194.756 E51.67486
G1 X152.115 Y195.075 E51.69152
G1 X151.368 Y195.641 E51.72269
G1 X150.574 Y196.142 E51.75392
G1 X149.779 Y196.555 E51.78371
G1 X149.327 Y196.767 E51.80032
G1 X148.462 Y197.129 E51.8315
G1 X147.569 Y197.415 E51.86269
G1 X146.725 Y197.612 E51.89152
G1 X146.229 Y197.707 E51.90832
G1 X145.301 Y197.844 E51.93952
G1 X144.16 Y197.903 E51.97752
G1 X47.992 Y197.907 E55.17608
G1 X42.937 Y197.907 E55.34421
G1 X41.554 Y197.82 E55.3903
G1 X41.057 Y197.757 E55.40696
G1 X40.132 Y197.599 E55.43817
G1 X39.224 Y197.363 E55.46937
G1 X38.423 Y197.084 E55.49758
G1 X37.954 Y196.9 E55.51434
G1 X37.096 Y196.521 E55.54554
G1 X36.274 Y196.07 E55.57672
G1 X35.495 Y195.551 E55.60786
G1 X35.09 Y195.256 E55.62452
G1 X34.356 Y194.672 E55.65572
G1 X33.674 Y194.028 E55.68692
G1 X33.087 Y193.372 E55.7162
G1 X32.768 Y192.986 E55.73285
G1 X32.202 Y192.239 E55.76402
G1 X31.701 Y191.445 E55.79525
G1 X31.288 Y190.65 E55.82505
G1 X31.076 Y190.198 E55.84165
G1 X30.714 Y189.333 E55.87284
G1 X30.428 Y188.44 E55.90403
G1 X30.231 Y187.596 E55.93285
G1 X30.136 Y187.1 E55.94965
G1 X29.999 Y186.172 E55.98085
G1 X29.94 Y185.036 E56.01868
G1 X29.936 Y176.607 E56.29903
G1 X29.936 Y18.808 E61.54745
G1 X30.021 Y17.444 E61.5929
G1 X30.083 Y16.948 E61.60953
G1 X30.239 Y16.023 E61.64073
G1 X30.473 Y15.115 E61.67192
G1 X30.765 Y14.276 E61.70146
G1 X30.95 Y13.807 E61.71823
G0 F3600 X31.322 Y13.953
G1 F1800 X31.697 Y13.112 E61.74886
G1 X32.143 Y12.307 E61.77947
G1 X32.608 Y11.612 E61.80728
G1 X32.903 Y11.206 E61.82397
G1 X33.476 Y10.486 E61.85458
G1 X34.109 Y9.817 E61.88521
G1 X34.73 Y9.263 E61.91289
G1 X35.114 Y8.946 E61.92945
G1 X35.849 Y8.391 E61.96008
G1 X36.629 Y7.902 E61.9907
G1 X37.351 Y7.528 E62.01775
G1 X37.806 Y7.314 E62.03447
G1 X38.655 Y6.959 E62.06508
G1 X39.532 Y6.678 E62.09571
G1 X40.319 Y6.496 E62.12257
G1 X40.814 Y6.401 E62.13934
G1 X41.725 Y6.267 E62.16996
G1 X42.812 Y6.211 E62.20617
G1 X138.98 Y6.207 E65.40473
G1 X144.035 Y6.207 E65.57286
G1 X145.368 Y6.291 E65.61728
G1 X145.865 Y6.354 E65.63394
G1 X146.772 Y6.509 E65.66455
G1 X147.663 Y6.743 E65.69519
G1 X148.422 Y7.009 E65.72194
G1 X148.891 Y7.194 E65.73871
G1 X149.732 Y7.569 E65.76933
G1 X150.537 Y8.015 E65.79994
G1 X151.242 Y8.487 E65.82816
G1 X151.647 Y8.782 E65.84483
G1 X152.367 Y9.356 E65.87545
G1 X153.034 Y9.99 E65.90606
G1 X153.577 Y10.597 E65.93315
G1 X153.896 Y10.983 E65.9498
G1 X154.451 Y11.718 E65.98043
G1 X154.94 Y12.498 E66.01105
G1 X155.318 Y13.227 E66.03837
G1 X155.53 Y13.678 E66.05494
G1 X155.885 Y14.527 E66.08555
G1 X156.165 Y15.404 E66.11617
G1 X156.349 Y16.197 E66.14324
G1 X156.444 Y16.694 E66.16007
G1 X156.577 Y17.605 E66.19069
G1 X156.632 Y18.679 E66.22646
G1 X156.636 Y27.107 E66.50678
G1 X156.636 Y184.906 E71.7552
G1 X156.554 Y186.221 E71.79902
G1 X156.492 Y186.717 E71.81564
G1 X156.338 Y187.624 E71.84624
G1 X156.106 Y188.515 E71.87686
G1 X155.837 Y189.284 E71.90396
G1 X155.652 Y189.754 E71.92076
G1 X155.278 Y190.596 E71.9514
G1 X154.833 Y191.401 E71.982
G1 X154.357 Y192.113 E72.01048
G1 X154.062 Y192.518 E72.02715
G1 X153.488 Y193.238 E72.05777
G1 X152.854 Y193.905 E72.08838
G1 X152.247 Y194.448 E72.11547
G1 X151.861 Y194.767 E72.13212
G1 X151.126 Y195.322 E72.16276
G1 X150.346 Y195.811 E72.19338
G1 X149.609 Y196.193 E72.22099
G1 X149.157 Y196.405 E72.23759
G1 X148.307 Y196.759 E72.26822
G1 X147.43 Y197.039 E72.29884
G1 X146.65 Y197.219 E72.32546
G1 X146.154 Y197.314 E72.34226
G1 X145.243 Y197.448 E72.37288
G1 X144.16 Y197.503 E72.40895
G1 X47.992 Y197.507 E75.60751
G1 X42.937 Y197.507 E75.77564
G1 X41.604 Y197.423 E75.82007
G1 X41.107 Y197.36 E75.83673
G1 X40.2 Y197.205 E75.86733
G1 X39.309 Y196.971 E75.89797
G1 X38.569 Y196.712 E75.92405
G1 X38.1 Y196.528 E75.94081
G1 X37.258 Y196.155 E75.97144
G1 X36.452 Y195.71 E76.00206
G1 X35.73 Y195.228 E76.03093
G1 X35.325 Y194.933 E76.0476
G1 X34.605 Y194.359 E76.07822
G1 X33.938 Y193.725 E76.10883
G1 X33.395 Y193.118 E76.13592
G1 X33.076 Y192.732 E76.15257
G1 X32.521 Y191.997 E76.18321
G1 X32.032 Y191.217 E76.21382
G1 X31.65 Y190.48 E76.24143
G1 X31.438 Y190.028 E76.25804
G1 X31.084 Y189.178 E76.28866
G1 X30.804 Y188.301 E76.31928
G1 X30.624 Y187.521 E76.34591
G1 X30.529 Y187.025 E76.36271
G1 X30.395 Y186.114 E76.39333
G1 X30.34 Y185.036 E76.42923
G1 X30.336 Y176.607 E76.70958
G1 X30.336 Y18.808 E81.958
G1 X30.418 Y17.493 E82.00182
G1 X30.48 Y16.997 E82.01845
G1 X30.634 Y16.09 E82.04904
G1 X30.866 Y15.199 E82.07967
G1 X31.137 Y14.422 E82.10704
G1 X31.322 Y13.953 E82.12381
G0 F3600 X31.695 Y14.1
G1 F1800 X32.063 Y13.276 E82.15382
G1 X32.503 Y12.487 E82.18387
G1 X32.931 Y11.847 E82.20948
G1 X33.226 Y11.441 E82.22617
G1 X33.789 Y10.735 E82.2562
G1 X34.412 Y10.081 E82.28624
G1 X34.984 Y9.571 E82.31173
G1 X35.368 Y9.254 E82.32829
G1 X36.09 Y8.71 E82.35836
G1 X36.856 Y8.233 E82.38837
G1 X37.521 Y7.89 E82.41326
G1 X37.976 Y7.676 E82.42999
G1 X38.809 Y7.328 E82.46001
G1 X39.67 Y7.055 E82.49005
G1 X40.395 Y6.889 E82.51479
G1 X40.89 Y6.794 E82.53156
G1 X41.783 Y6.663 E82.56157
G1 X42.812 Y6.611 E82.59584
G1 X138.98 Y6.607 E85.7944
G1 X144.035 Y6.607 E85.96253
G1 X145.318 Y6.688 E86.00529
G1 X145.815 Y6.751 E86.02195
G1 X146.705 Y6.904 E86.05199
G1 X147.578 Y7.135 E86.08202
G1 X148.275 Y7.382 E86.10662
G1 X148.744 Y7.567 E86.12339
G1 X149.568 Y7.935 E86.1534
G1 X150.357 Y8.375 E86.18345
G1 X151.006 Y8.81 E86.20944
G1 X151.411 Y9.105 E86.2261
G1 X152.117 Y9.669 E86.25616
G1 X152.77 Y10.293 E86.2862
G1 X153.269 Y10.852 E86.31112
G1 X153.588 Y11.238 E86.32777
G1 X154.131 Y11.959 E86.3578
G1 X154.609 Y12.725 E86.38783
G1 X154.956 Y13.397 E86.41298
G1 X155.168 Y13.848 E86.42956
G1 X155.516 Y14.681 E86.45958
G1 X155.788 Y15.542 E86.48961
G1 X155.956 Y16.272 E86.51453
G1 X156.051 Y16.769 E86.53136
G1 X156.181 Y17.663 E86.56141
G1 X156.232 Y18.679 E86.59524
G1 X156.236 Y27.107 E86.87556
G1 X156.236 Y184.906 E92.12397
G1 X156.157 Y186.171 E92.16613
G1 X156.095 Y186.667 E92.18275
G1 X155.944 Y187.557 E92.21278
G1 X155.714 Y188.431 E92.24284
G1 X155.465 Y189.138 E92.26777
G1 X155.28 Y189.608 E92.28457
G1 X154.913 Y190.433 E92.3146
G1 X154.473 Y191.222 E92.34465
G1 X154.034 Y191.877 E92.37087
G1 X153.739 Y192.282 E92.38754
G1 X153.175 Y192.988 E92.41759
G1 X152.551 Y193.641 E92.44763
G1 X151.992 Y194.14 E92.47256
G1 X151.606 Y194.459 E92.48921
G1 X150.885 Y195.002 E92.51923
G1 X150.119 Y195.48 E92.54926
G1 X149.439 Y195.831 E92.57472
G1 X148.987 Y196.043 E92.59132
G1 X148.154 Y196.39 E92.62133
G1 X147.292 Y196.661 E92.65139
G1 X146.575 Y196.826 E92.67586
G1 X146.079 Y196.921 E92.69266
G1 X145.185 Y197.051 E92.7227
G1 X144.16 Y197.103 E92.75684
G1 X47.992 Y197.107 E95.9554
G1 X42.937 Y197.107 E96.12353
G1 X41.654 Y197.026 E96.16629
G1 X41.157 Y196.963 E96.18295
G1 X40.267 Y196.81 E96.21298
G1 X39.394 Y196.579 E96.24302
G1 X38.715 Y196.339 E96.26697
G1 X38.246 Y196.155 E96.28373
G1 X37.42 Y195.789 E96.31378
G1 X36.631 Y195.35 E96.34381
G1 X35.966 Y194.905 E96.37042
G1 X35.561 Y194.61 E96.38709
G1 X34.855 Y194.046 E96.41714
G1 X34.202 Y193.422 E96.44718
G1 X33.703 Y192.863 E96.47211
G1 X33.384 Y192.477 E96.48876
G1 X32.841 Y191.756 E96.51878
G1 X32.363 Y190.99 E96.54881
G1 X32.012 Y190.31 E96.57426
G1 X31.8 Y189.858 E96.59087
G1 X31.453 Y189.025 E96.62088
