;FLAVOR:Marlin
;TIME:2386
;Filament used: 1.77467m
;Layer height: 0.15
;MINX:22.095
;MINY:22.621
;MINZ:0.2
;MAXX:99.579
;MAXY:87.163
;MAXZ:2.9
;Generated with Cura_SteamEngine 4.4.0
M82 ;absolute extrusion mode
G21 ; set units to millimeters
G90 ; use absolute positioning
M82 ; absolute extrusion mode
M104 S210 ; set extruder temp
M140 S60 ; set bed temp
M190 S60 ; wait for bed temp
M109 S210 ; wait for extruder temp
G28 W ; home all without mesh bed level
G80 ; mesh bed leveling
G92 E0.0 ; reset extruder distance position
G1 Y-3.0 F1000.0 ; go outside print area
G1 X60.0 E9.0 F1000.0 ; intro line
G1 X100.0 E21.5 F1000.0 ; intro line
G92 E0.0 ; reset extruder distance position
G92 E0
G92 E0
G1 F2100 E-0.8
;LAYER_COUNT:19
;LAYER:0
M107
G0 F3600 X26.714 Y27.152 Z0.2
;TYPE:SKIRT
G1 F2100 E0
G1 F1800 X27.443 Y26.51 E0.03231
G1 X28.168 Y25.968 E0.06242
G1 X29.662 Y24.938 E0.12277
G1 X30.484 Y24.42 E0.15509
G1 X31.346 Y23.971 E0.18741
G1 X32.241 Y23.595 E0.2197
G1 X33.165 Y23.294 E0.25202
G1 X34.11 Y23.07 E0.28432
G1 X34.931 Y22.94 E0.31197
G1 X36.833 Y22.708 E0.3757
G1 X38.262 Y22.621 E0.42332
G1 X84.261 Y22.621 E1.95325
G1 X85.232 Y22.661 E1.98557
G1 X86.196 Y22.781 E2.01788
G1 X87.146 Y22.979 E2.05016
G1 X88.444 Y23.387 E2.09541
G1 X90.235 Y24.066 E2.15912
G1 X91.128 Y24.448 E2.19143
G1 X91.987 Y24.901 E2.22373
G1 X92.806 Y25.424 E2.25605
G1 X93.579 Y26.012 E2.28835
G1 X94.301 Y26.662 E2.32066
G1 X94.886 Y27.277 E2.34889
G1 X96.155 Y28.71 E2.41256
G1 X96.769 Y29.463 E2.44487
G1 X97.318 Y30.264 E2.47717
G1 X97.8 Y31.108 E2.5095
G1 X98.211 Y31.988 E2.5418
G1 X98.547 Y32.899 E2.57409
G1 X98.779 Y33.712 E2.60221
G1 X99.213 Y35.475 E2.6626
G1 X99.406 Y36.427 E2.69491
G1 X99.52 Y37.392 E2.72723
G1 X99.555 Y38.287 E2.75702
G1 X99.579 Y71.385 E3.85786
G1 X99.54 Y72.356 E3.89019
G1 X99.421 Y73.32 E3.92249
G1 X99.237 Y74.215 E3.95288
G1 X98.803 Y75.978 E4.01327
G1 X98.778 Y76.076 E4.01663
G1 X98.754 Y76.17 E4.01986
G1 X98.475 Y77.101 E4.05219
G1 X98.121 Y78.005 E4.08448
G1 X97.693 Y78.877 E4.11679
G1 X97.195 Y79.711 E4.14909
G1 X96.631 Y80.502 E4.18141
G1 X96.15 Y81.08 E4.20642
G1 X94.944 Y82.44 E4.26687
G1 X94.943 Y82.439 E4.26692
G1 X94.321 Y83.102 E4.29716
G1 X93.6 Y83.754 E4.32949
G1 X92.829 Y84.344 E4.36178
G1 X92.011 Y84.869 E4.39411
G1 X91.153 Y85.324 E4.42641
G1 X90.235 Y85.718 E4.45963
G1 X88.444 Y86.397 E4.52334
G1 X87.522 Y86.703 E4.55565
G1 X86.579 Y86.933 E4.58793
G1 X85.619 Y87.085 E4.62026
G1 X84.261 Y87.163 E4.6655
G1 X38.262 Y87.163 E6.19544
G1 X36.833 Y87.076 E6.24305
G1 X34.931 Y86.844 E6.30678
G1 X33.973 Y86.687 E6.33907
G1 X33.03 Y86.451 E6.3714
G1 X32.11 Y86.139 E6.40371
G1 X31.219 Y85.752 E6.43602
G1 X30.363 Y85.294 E6.46831
G1 X29.663 Y84.846 E6.49596
G1 X28.089 Y83.761 E6.55954
G1 X27.313 Y83.178 E6.59182
G1 X26.587 Y82.532 E6.62414
G1 X25.917 Y81.829 E6.65644
G1 X25.306 Y81.073 E6.68877
G1 X24.761 Y80.269 E6.72108
G1 X24.339 Y79.532 E6.74933
G1 X23.493 Y77.921 E6.80985
G1 X23.485 Y77.906 E6.81041
G1 X23.44 Y77.82 E6.81364
G1 X23.025 Y76.941 E6.84597
G1 X22.684 Y76.032 E6.87826
G1 X22.419 Y75.097 E6.91059
G1 X22.232 Y74.144 E6.94289
G1 X22.124 Y73.179 E6.97518
G1 X22.095 Y72.349 E7.00281
G1 X22.095 Y37.435 E8.16405
G1 X22.135 Y36.464 E8.19637
G1 X22.255 Y35.5 E8.22868
G1 X22.453 Y34.55 E8.26096
G1 X22.729 Y33.618 E8.29329
G1 X23.081 Y32.713 E8.32559
G1 X23.447 Y31.951 E8.3537
G1 X24.292 Y30.341 E8.41418
G1 X24.778 Y29.5 E8.44649
G1 X25.332 Y28.702 E8.4788
G1 X25.914 Y27.993 E8.5093
G1 X26.04 Y27.851 E8.51562
G1 X26.714 Y27.152 E8.54792
G0 F3600 X27.002 Y27.43
G1 F1800 X27.72 Y26.801 E8.57966
G1 X28.395 Y26.297 E8.60768
G1 X29.889 Y25.267 E8.66804
G1 X30.697 Y24.759 E8.69978
G1 X31.545 Y24.32 E8.73154
G1 X32.427 Y23.953 E8.76332
G1 X33.336 Y23.661 E8.79507
G1 X34.266 Y23.447 E8.82681
G1 X34.98 Y23.337 E8.85084
G1 X36.882 Y23.105 E8.91457
G1 X38.262 Y23.021 E8.96055
G1 X84.261 Y23.021 E10.49048
G1 X85.215 Y23.061 E10.52224
G1 X86.162 Y23.181 E10.55399
G1 X87.096 Y23.379 E10.58575
G1 X88.302 Y23.761 E10.62782
G1 X90.093 Y24.44 E10.69153
G1 X90.971 Y24.816 E10.7233
G1 X91.814 Y25.264 E10.75505
G1 X92.617 Y25.78 E10.7868
G1 X93.374 Y26.362 E10.81855
G1 X94.08 Y27.006 E10.85034
G1 X94.587 Y27.542 E10.87488
G1 X95.856 Y28.975 E10.93854
G1 X96.458 Y29.716 E10.9703
G1 X96.996 Y30.504 E11.00203
G1 X97.467 Y31.335 E11.0338
G1 X97.866 Y32.202 E11.06554
G1 X98.192 Y33.1 E11.09732
G1 X98.391 Y33.808 E11.12178
G1 X98.825 Y35.571 E11.18217
G1 X99.014 Y36.507 E11.21393
G1 X99.124 Y37.455 E11.24567
G1 X99.155 Y38.288 E11.27339
G1 X99.179 Y71.386 E12.37424
G1 X99.14 Y72.34 E12.406
G1 X99.021 Y73.287 E12.43774
G1 X98.849 Y74.119 E12.466
G1 X98.415 Y75.882 E12.52639
G1 X98.391 Y75.977 E12.52964
G1 X98.367 Y76.071 E12.53287
G1 X98.092 Y76.986 E12.56465
G1 X97.742 Y77.874 E12.5964
G1 X97.318 Y78.73 E12.62817
G1 X96.825 Y79.547 E12.65991
G1 X96.265 Y80.32 E12.69165
G1 X95.85 Y80.815 E12.71314
G1 X94.644 Y82.175 E12.77359
G1 X94.643 Y82.174 E12.77364
G1 X94.029 Y82.828 E12.80348
G1 X93.319 Y83.467 E12.83525
G1 X92.559 Y84.045 E12.86701
G1 X91.753 Y84.556 E12.89875
G1 X90.907 Y84.999 E12.93051
G1 X90.093 Y85.344 E12.95991
G1 X88.302 Y86.023 E13.02362
G1 X87.396 Y86.323 E13.05536
G1 X86.468 Y86.547 E13.08711
G1 X85.524 Y86.693 E13.11889
G1 X84.261 Y86.763 E13.16096
G1 X38.262 Y86.763 E14.69089
G1 X36.882 Y86.679 E14.73687
G1 X34.98 Y86.447 E14.8006
G1 X34.038 Y86.292 E14.83236
G1 X33.112 Y86.058 E14.86412
G1 X32.209 Y85.748 E14.89588
G1 X31.335 Y85.364 E14.92763
G1 X30.496 Y84.907 E14.95941
G1 X29.89 Y84.517 E14.98337
G1 X28.316 Y83.432 E15.04696
G1 X27.553 Y82.858 E15.07872
G1 X26.841 Y82.222 E15.11047
G1 X26.185 Y81.528 E15.14223
G1 X25.589 Y80.782 E15.17399
G1 X25.058 Y79.989 E15.20573
G1 X24.693 Y79.346 E15.23032
G1 X23.847 Y77.735 E15.29085
G1 X23.839 Y77.72 E15.29141
G1 X23.794 Y77.634 E15.29464
G1 X23.387 Y76.771 E15.32637
G1 X23.054 Y75.876 E15.35814
G1 X22.797 Y74.956 E15.38991
G1 X22.618 Y74.018 E15.42167
G1 X22.518 Y73.069 E15.45341
G1 X22.495 Y72.349 E15.47737
G1 X22.495 Y37.435 E16.63861
G1 X22.535 Y36.481 E16.67037
G1 X22.655 Y35.534 E16.70212
G1 X22.853 Y34.6 E16.73387
G1 X23.129 Y33.686 E16.76563
G1 X23.481 Y32.798 E16.7974
G1 X23.801 Y32.137 E16.82182
G1 X24.646 Y30.527 E16.8823
G1 X25.125 Y29.701 E16.91406
G1 X25.671 Y28.918 E16.94581
G1 X26.213 Y28.259 E16.97419
G1 X26.339 Y28.117 E16.9805
G1 X27.002 Y27.43 E17.01226
G0 F3600 X27.29 Y27.708
G1 F1800 X27.997 Y27.091 E17.04347
G1 X28.622 Y26.627 E17.06936
G1 X30.116 Y25.597 E17.12971
G1 X30.91 Y25.098 E17.1609
G1 X31.744 Y24.668 E17.19211
G1 X32.612 Y24.311 E17.22333
G1 X33.506 Y24.03 E17.2545
G1 X34.421 Y23.825 E17.28568
G1 X35.028 Y23.734 E17.3061
G1 X36.93 Y23.502 E17.36983
G1 X38.262 Y23.421 E17.41421
G1 X84.261 Y23.421 E18.94415
G1 X85.198 Y23.461 E18.97534
G1 X86.128 Y23.581 E19.00653
G1 X87.045 Y23.779 E19.03773
G1 X88.16 Y24.135 E19.07666
G1 X89.951 Y24.814 E19.14037
G1 X90.813 Y25.184 E19.17156
G1 X91.641 Y25.626 E19.20278
G1 X92.428 Y26.136 E19.23397
G1 X93.168 Y26.712 E19.26516
G1 X93.857 Y27.348 E19.29635
G1 X94.287 Y27.807 E19.31727
G1 X95.556 Y29.24 E19.38093
G1 X96.147 Y29.968 E19.41212
G1 X96.675 Y30.744 E19.44334
G1 X97.134 Y31.562 E19.47454
G1 X97.521 Y32.416 E19.50572
G1 X97.835 Y33.3 E19.53692
G1 X98.002 Y33.904 E19.55777
G1 X98.436 Y35.667 E19.61815
G1 X98.621 Y36.586 E19.64933
G1 X98.727 Y37.518 E19.68053
G1 X98.755 Y38.288 E19.70616
G1 X98.779 Y71.386 E20.807
G1 X98.74 Y72.323 E20.83819
G1 X98.621 Y73.253 E20.86938
G1 X98.46 Y74.023 E20.89554
G1 X98.026 Y75.786 E20.95593
G1 X98.003 Y75.878 E20.95908
G1 X97.979 Y75.972 E20.96231
G1 X97.709 Y76.87 E20.9935
G1 X97.363 Y77.742 E21.0247
G1 X96.943 Y78.581 E21.05591
G1 X96.454 Y79.381 E21.08709
G1 X95.899 Y80.137 E21.11829
G1 X95.551 Y80.549 E21.13622
G1 X94.443 Y81.798 E21.19176
G1 X94.38 Y81.871 E21.19496
G1 X94.358 Y81.895 E21.19605
G1 X94.345 Y81.909 E21.19668
G1 X93.737 Y82.554 E21.22616
G1 X93.039 Y83.18 E21.25735
G1 X92.29 Y83.744 E21.28853
G1 X91.495 Y84.243 E21.31975
G1 X90.661 Y84.672 E21.35095
G1 X89.951 Y84.97 E21.37656
G1 X88.16 Y85.649 E21.44026
G1 X87.27 Y85.943 E21.47144
G1 X86.358 Y86.161 E21.50262
G1 X85.43 Y86.301 E21.53384
G1 X84.261 Y86.363 E21.57277
G1 X38.262 Y86.363 E23.10271
G1 X36.93 Y86.282 E23.14709
G1 X35.028 Y86.05 E23.21082
G1 X34.103 Y85.897 E23.24201
G1 X33.194 Y85.666 E23.2732
G1 X32.308 Y85.358 E23.3044
G1 X31.452 Y84.975 E23.33559
G1 X30.631 Y84.521 E23.36679
G1 X30.117 Y84.188 E23.38716
G1 X28.543 Y83.103 E23.45075
G1 X27.794 Y82.538 E23.48195
G1 X27.096 Y81.912 E23.51314
G1 X26.454 Y81.228 E23.54434
G1 X25.873 Y80.492 E23.57552
G1 X25.356 Y79.709 E23.60673
G1 X25.047 Y79.16 E23.62769
G1 X24.201 Y77.549 E23.68821
G1 X24.194 Y77.535 E23.68873
G1 X24.149 Y77.449 E23.69196
G1 X23.75 Y76.6 E23.72316
G1 X23.424 Y75.72 E23.75437
G1 X23.175 Y74.816 E23.78556
G1 X23.004 Y73.894 E23.81674
G1 X22.912 Y72.961 E23.84793
G1 X22.895 Y72.349 E23.86829
G1 X22.895 Y37.435 E25.02953
G1 X22.935 Y36.498 E25.06073
G1 X23.055 Y35.568 E25.09192
G1 X23.253 Y34.651 E25.12312
G1 X23.529 Y33.755 E25.1543
G1 X23.88 Y32.885 E25.1855
G1 X24.155 Y32.323 E25.20631
G1 X25 Y30.713 E25.26679
G1 X25.471 Y29.902 E25.29798
G1 X26.009 Y29.134 E25.32917
G1 X26.512 Y28.524 E25.35547
G1 X26.638 Y28.382 E25.36178
G1 X27.29 Y27.708 E25.39297
G0 F3600 X27.578 Y27.986
G1 F1800 X28.273 Y27.383 E25.42357
G1 X28.849 Y26.956 E25.44742
G1 X30.343 Y25.926 E25.50778
G1 X31.123 Y25.437 E25.5384
G1 X31.943 Y25.017 E25.56904
G1 X32.796 Y24.67 E25.59967
G1 X33.675 Y24.399 E25.63026
G1 X34.575 Y24.204 E25.66089
G1 X35.077 Y24.131 E25.67776
G1 X36.979 Y23.899 E25.74149
G1 X38.262 Y23.821 E25.78424
G1 X84.261 Y23.821 E27.31418
G1 X85.181 Y23.861 E27.34481
G1 X86.094 Y23.981 E27.37543
G1 X86.993 Y24.179 E27.40605
G1 X88.019 Y24.509 E27.4419
G1 X89.81 Y25.188 E27.5056
G1 X90.656 Y25.552 E27.53624
G1 X91.467 Y25.987 E27.56684
G1 X92.237 Y26.492 E27.59747
G1 X92.961 Y27.061 E27.6281
G1 X93.632 Y27.69 E27.65869
G1 X93.988 Y28.073 E27.67608
G1 X95.257 Y29.506 E27.73974
G1 X95.837 Y30.221 E27.77037
G1 X96.352 Y30.983 E27.80096
G1 X96.8 Y31.788 E27.8316
G1 X97.176 Y32.628 E27.86221
G1 X97.477 Y33.498 E27.89283
G1 X97.614 Y33.999 E27.9101
G1 X98.048 Y35.762 E27.97049
G1 X98.229 Y36.665 E28.00112
G1 X98.331 Y37.58 E28.03174
G1 X98.355 Y38.288 E28.0553
G1 X98.379 Y71.386 E29.15615
G1 X98.34 Y72.306 E29.18677
G1 X98.221 Y73.219 E29.2174
G1 X98.072 Y73.928 E29.24149
G1 X97.638 Y75.691 E29.30188
G1 X97.616 Y75.779 E29.3049
G1 X97.592 Y75.873 E29.30813
G1 X97.325 Y76.755 E29.33878
G1 X96.984 Y77.609 E29.36936
G1 X96.569 Y78.431 E29.39999
G1 X96.084 Y79.214 E29.43062
G1 X95.252 Y80.284 E29.4757
G1 X94.108 Y81.574 E29.53305
G1 X94.077 Y81.61 E29.53463
G1 X94.062 Y81.625 E29.53534
G1 X94.046 Y81.644 E29.53616
G1 X94.045 Y81.644 E29.53619
G1 X93.446 Y82.28 E29.56525
G1 X92.759 Y82.893 E29.59588
G1 X92.021 Y83.444 E29.62651
G1 X91.238 Y83.929 E29.65714
G1 X90.417 Y84.344 E29.68774
G1 X89.81 Y84.596 E29.7096
G1 X88.019 Y85.275 E29.77331
G1 X87.144 Y85.563 E29.80394
G1 X86.248 Y85.775 E29.83457
G1 X85.338 Y85.908 E29.86516
G1 X84.261 Y85.963 E29.90102
G1 X38.262 Y85.963 E31.43096
G1 X36.979 Y85.885 E31.47371
G1 X35.077 Y85.653 E31.53744
G1 X34.168 Y85.502 E31.56809
G1 X33.277 Y85.273 E31.59868
G1 X32.408 Y84.967 E31.62933
G1 X31.57 Y84.587 E31.65993
G1 X30.767 Y84.136 E31.69056
G1 X30.344 Y83.858 E31.7074
G1 X28.77 Y82.773 E31.77098
G1 X28.035 Y82.218 E31.80162
G1 X27.352 Y81.602 E31.83221
G1 X26.724 Y80.928 E31.86285
G1 X26.157 Y80.203 E31.89346
G1 X25.656 Y79.431 E31.92407
G1 X25.401 Y78.974 E31.94147
G1 X24.555 Y77.363 E32.002
G1 X24.548 Y77.349 E32.00252
G1 X24.503 Y77.263 E32.00574
G1 X24.112 Y76.43 E32.03635
G1 X23.795 Y75.566 E32.06696
G1 X23.554 Y74.677 E32.0976
G1 X23.391 Y73.771 E32.12821
G1 X23.307 Y72.854 E32.15884
G1 X23.295 Y72.349 E32.17564
G1 X23.295 Y37.435 E33.33689
G1 X23.335 Y36.515 E33.36751
G1 X23.455 Y35.602 E33.39814
G1 X23.653 Y34.703 E33.42876
G1 X23.929 Y33.825 E33.45937
G1 X24.28 Y32.974 E33.48999
G1 X24.509 Y32.509 E33.50723
G1 X25.354 Y30.899 E33.5677
G1 X25.817 Y30.103 E33.59833
G1 X26.347 Y29.35 E33.62896
G1 X26.811 Y28.79 E33.65315
G1 X26.937 Y28.648 E33.65946
G1 X27.578 Y27.986 E33.69011
G0 F3600 X27.865 Y28.265
G1 F1800 X28.549 Y27.675 E33.72015
G1 X29.076 Y27.285 E33.74196
G1 X30.57 Y26.255 E33.80231
G1 X31.336 Y25.776 E33.83236
G1 X32.141 Y25.367 E33.8624
G1 X32.979 Y25.03 E33.89244
G1 X33.843 Y24.768 E33.92247
G1 X35.125 Y24.528 E33.96585
G1 X37.027 Y24.296 E34.02958
G1 X38.262 Y24.221 E34.07073
G1 X84.261 Y24.221 E35.60066
G1 X85.163 Y24.261 E35.63069
G1 X86.058 Y24.381 E35.66072
G1 X86.939 Y24.579 E35.69076
G1 X87.877 Y24.883 E35.72355
G1 X89.668 Y25.562 E35.78726
G1 X90.497 Y25.92 E35.81729
G1 X91.292 Y26.349 E35.84734
G1 X92.045 Y26.847 E35.87737
G1 X92.752 Y27.409 E35.9074
G1 X93.688 Y28.338 E35.95127
G1 X94.957 Y29.771 E36.01493
G1 X95.525 Y30.473 E36.04497
G1 X96.029 Y31.222 E36.07499
G1 X96.465 Y32.013 E36.10503
G1 X96.829 Y32.84 E36.13509
G1 X97.225 Y34.095 E36.17886
G1 X97.659 Y35.858 E36.23924
G1 X97.836 Y36.743 E36.26926
G1 X97.934 Y37.641 E36.29931
G1 X97.955 Y38.289 E36.32087
G1 X97.979 Y71.387 E37.42171
G1 X97.94 Y72.289 E37.45174
G1 X97.821 Y73.184 E37.48177
G1 X97.683 Y73.832 E37.50381
G1 X97.249 Y75.595 E37.5642
G1 X97.228 Y75.68 E37.56711
G1 X97.204 Y75.774 E37.57034
G1 X96.942 Y76.639 E37.6004
G1 X96.605 Y77.476 E37.63041
G1 X96.195 Y78.281 E37.66045
G1 X95.715 Y79.046 E37.69049
G1 X94.953 Y80.018 E37.73157
G1 X93.747 Y81.378 E37.79203
G1 X93.746 Y81.377 E37.79208
G1 X93.154 Y82.005 E37.82078
G1 X92.479 Y82.605 E37.85082
G1 X91.753 Y83.142 E37.88085
G1 X90.983 Y83.613 E37.91087
G1 X90.173 Y84.014 E37.94094
G1 X89.668 Y84.222 E37.9591
G1 X87.877 Y84.901 E38.02281
G1 X87.019 Y85.183 E38.05285
G1 X86.14 Y85.389 E38.08287
G1 X85.245 Y85.515 E38.11294
G1 X84.261 Y85.563 E38.1457
G1 X38.262 Y85.563 E39.67564
G1 X37.027 Y85.488 E39.71679
G1 X35.125 Y85.256 E39.78052
G1 X34.234 Y85.107 E39.81056
G1 X33.36 Y84.88 E39.8406
G1 X32.51 Y84.576 E39.87062
G1 X31.689 Y84.199 E39.90067
G1 X30.571 Y83.529 E39.94402
G1 X28.997 Y82.444 E40.00761
G1 X28.277 Y81.899 E40.03764
G1 X27.608 Y81.293 E40.06766
G1 X26.995 Y80.629 E40.09772
G1 X26.443 Y79.914 E40.12776
G1 X25.755 Y78.788 E40.17165
G1 X24.909 Y77.177 E40.23217
G1 X24.902 Y77.164 E40.23266
G1 X24.857 Y77.078 E40.23589
G1 X24.475 Y76.26 E40.26592
G1 X24.166 Y75.411 E40.29597
G1 X23.933 Y74.539 E40.32599
G1 X23.778 Y73.649 E40.35604
G1 X23.695 Y72.349 E40.39936
G1 X23.695 Y37.435 E41.56061
G1 X23.735 Y36.533 E41.59064
G1 X23.855 Y35.638 E41.62067
G1 X24.053 Y34.757 E41.6507
G1 X24.328 Y33.897 E41.68073
G1 X24.863 Y32.695 E41.72449
G1 X25.708 Y31.085 E41.78497
G1 X26.163 Y30.304 E41.81503
G1 X26.685 Y29.567 E41.84507
G1 X27.11 Y29.055 E41.8672
G1 X27.236 Y28.913 E41.87352
G1 X27.865 Y28.265 E41.90355
G0 F3600 X28.153 Y28.544
G1 F1800 X28.824 Y27.967 E41.93299
G1 X29.303 Y27.615 E41.95276
G1 X30.797 Y26.585 E42.01311
G1 X31.548 Y26.116 E42.04256
G1 X32.338 Y25.716 E42.07201
G1 X33.161 Y25.39 E42.10146
G1 X34.01 Y25.139 E42.1309
G1 X35.173 Y24.925 E42.17023
G1 X37.075 Y24.693 E42.23396
G1 X38.262 Y24.621 E42.27352
G1 X84.261 Y24.621 E43.80345
G1 X85.145 Y24.661 E43.83288
G1 X86.022 Y24.781 E43.86232
G1 X86.885 Y24.979 E43.89177
G1 X87.735 Y25.257 E43.92152
G1 X89.526 Y25.936 E43.98522
G1 X90.339 Y26.287 E44.01468
G1 X91.117 Y26.71 E44.04413
G1 X91.853 Y27.201 E44.07356
G1 X92.542 Y27.757 E44.103
G1 X93.389 Y28.603 E44.14282
G1 X94.658 Y30.036 E44.20648
G1 X95.214 Y30.724 E44.2359
G1 X95.706 Y31.46 E44.26535
G1 X96.13 Y32.238 E44.29482
G1 X96.481 Y33.05 E44.32424
G1 X96.837 Y34.19 E44.36396
G1 X97.271 Y35.953 E44.42435
G1 X97.443 Y36.822 E44.45382
G1 X97.537 Y37.702 E44.48325
G1 X97.555 Y38.289 E44.50278
G1 X97.579 Y71.387 E45.60363
G1 X97.54 Y72.271 E45.63306
G1 X97.421 Y73.148 E45.6625
G1 X97.295 Y73.737 E45.68253
G1 X96.861 Y75.5 E45.74292
G1 X96.84 Y75.581 E45.7457
G1 X96.816 Y75.675 E45.74893
G1 X96.559 Y76.522 E45.77837
G1 X96.226 Y77.343 E45.80783
G1 X95.82 Y78.129 E45.83726
G1 X95.346 Y78.876 E45.86668
