;FLAVOR:Marlin
;TIME:5423
;Filament used: 3.87014m
;Layer height: 0.15
;MINX:97.465
;MINY:43.2
;MINZ:0.2
;MAXX:152.535
;MAXY:166.8
;MAXZ:2.9
;Generated with Cura_SteamEngine 4.4.0
M82 ;absolute extrusion mode
G21 ; set units to millimeters
G90 ; use absolute positioning
M82 ; absolute extrusion mode
M104 S210 ; set extruder temp
M140 S60 ; set bed temp
M190 S60 ; wait for bed temp
M109 S210 ; wait for extruder temp
G28 W ; home all without mesh bed level
G80 ; mesh bed leveling
G92 E0.0 ; reset extruder distance position
G1 Y-3.0 F1000.0 ; go outside print area
G1 X60.0 E9.0 F1000.0 ; intro line
G1 X100.0 E21.5 F1000.0 ; intro line
G92 E0.0 ; reset extruder distance position
G92 E0
G92 E0
G1 F2100 E-0.8
;LAYER_COUNT:19
;LAYER:0
M107
;MESH:backback_hdmi.stl
G0 F3600 X131.684 Y54.5 Z0.2
;TYPE:WALL-OUTER
G1 F2100 E0
G1 F1800 X132.725 Y56.302 E0.06922
G1 X134.805 Y56.302 E0.1384
G1 X135.846 Y54.5 E0.20761
G1 X134.805 Y52.698 E0.27683
G1 X132.725 Y52.698 E0.34601
G1 X131.684 Y54.5 E0.41523
G0 F3600 X131.784 Y54.673
G0 X131.351 Y54.923
G0 X127.637 Y59.122
G0 X127.565 Y76.45
G0 X128.065 Y76.45
G1 F1800 X142.465 Y76.45 E0.89418
G1 X142.465 Y59.55 E1.45627
G1 X128.065 Y59.55 E1.93522
G1 X128.065 Y76.45 E2.49731
G0 F3600 X128.265 Y76.45
G0 X128.265 Y76.95
G0 X131.252 Y81.249
G0 X131.684 Y81.5
G1 F1800 X132.725 Y83.302 E2.56653
G1 X134.805 Y83.302 E2.63571
G1 X135.846 Y81.5 E2.70493
G1 X134.805 Y79.698 E2.77415
G1 X132.725 Y79.698 E2.84333
G1 X131.684 Y81.5 E2.91254
G0 F3600 X131.784 Y81.673
G0 X131.351 Y81.923
G0 X133.752 Y98.149
G0 X134.184 Y98.4
G1 F1800 X135.225 Y100.202 E2.98176
G1 X137.305 Y100.202 E3.05094
G1 X138.346 Y98.4 E3.12016
G1 X137.305 Y96.598 E3.18938
G1 X135.225 Y96.598 E3.25856
G1 X134.184 Y98.4 E3.32777
G0 F3600 X134.284 Y98.573
G0 X133.851 Y98.823
G0 X129.98 Y106.715
G0 X129.908 Y118.857
G0 X130.408 Y118.857
G1 F1800 X142.121 Y118.857 E3.71735
G1 X142.121 Y107.143 E4.10696
G1 X130.408 Y107.143 E4.49654
G1 X130.408 Y118.857 E4.88614
G0 F3600 X130.608 Y118.857
G0 X130.608 Y119.357
G0 X133.752 Y127.349
G0 X134.184 Y127.6
G1 F1800 X135.225 Y129.402 E4.95536
G1 X137.305 Y129.402 E5.02454
G1 X138.346 Y127.6 E5.09376
G1 X137.305 Y125.798 E5.16298
G1 X135.225 Y125.798 E5.23216
G1 X134.184 Y127.6 E5.30137
G0 F3600 X134.284 Y127.773
G0 X133.851 Y128.023
G0 X133.265 Y146.596
G0 X133.721 Y146.799
G1 F1800 X133.177 Y148.022 E5.34589
G1 X132.899 Y149.331 E5.3904
G1 X132.899 Y150.669 E5.4349
G1 X133.177 Y151.978 E5.47941
G1 X133.721 Y153.201 E5.52393
G1 X134.508 Y154.284 E5.56846
G1 X135.452 Y155.134 E5.61071
G1 X136.602 Y155.814 E5.65515
G1 X137.868 Y156.24 E5.69957
G1 X139.198 Y156.393 E5.7441
G1 X140.529 Y156.27 E5.78856
G1 X141.803 Y155.87 E5.83297
G1 X142.968 Y155.213 E5.87746
G1 X143.971 Y154.329 E5.92192
G1 X144.808 Y153.201 E5.96864
G1 X145.352 Y151.978 E6.01316
G1 X145.631 Y150.669 E6.05768
G1 X145.631 Y149.331 E6.10218
G1 X145.352 Y148.022 E6.14669
G1 X144.808 Y146.799 E6.19121
G1 X144.021 Y145.716 E6.23574
G1 X143.077 Y144.866 E6.27799
G1 X141.927 Y144.186 E6.32243
G1 X140.661 Y143.76 E6.36685
G1 X139.332 Y143.607 E6.41135
G1 X138 Y143.73 E6.45584
G1 X136.726 Y144.13 E6.50025
G1 X135.561 Y144.787 E6.54474
G1 X134.558 Y145.671 E6.58921
G1 X133.721 Y146.799 E6.63592
G0 F3600 X133.64 Y146.981
G0 X133.184 Y146.778
G0 X108.974 Y127.736
G0 X107.682 Y125.5
G0 X108.184 Y125.5
G1 F1800 X109.225 Y127.302 E6.70514
G1 X111.305 Y127.302 E6.77432
G1 X112.346 Y125.5 E6.84354
G1 X111.305 Y123.698 E6.91275
G1 X109.225 Y123.698 E6.98194
G1 X108.184 Y125.5 E7.05115
G0 F3600 X108.284 Y125.673
G0 X107.851 Y125.923
G0 X105.137 Y122.128
G0 X105.565 Y121.7
G1 F1800 X114.965 Y121.7 E7.3638
G1 X114.965 Y102.3 E8.00904
G1 X105.565 Y102.3 E8.32169
G1 X105.565 Y121.7 E8.96694
G0 F3600 X105.765 Y121.7
G0 X105.765 Y122.2
G0 X105.137 Y101.872
G0 X107.752 Y98.249
G0 X108.184 Y98.5
G1 F1800 X109.225 Y100.302 E9.03615
G1 X111.305 Y100.302 E9.10533
G1 X112.346 Y98.5 E9.17455
G1 X111.305 Y96.698 E9.24377
G1 X109.225 Y96.698 E9.31295
G1 X108.184 Y98.5 E9.38217
G0 F3600 X108.284 Y98.673
G0 X107.851 Y98.923
G0 X108.974 Y96.264
G0 X115.393 Y89.628
G0 X114.965 Y89.2
G1 F1800 X114.965 Y43.2 E10.91213
G1 X152.065 Y43.2 E12.14608
G1 X152.065 Y135.296 E15.20921
G1 X152.312 Y135.655 E15.2237
G1 X152.535 Y137.498 E15.28545
G1 X152.535 Y163.445 E16.14845
G1 X151.887 Y165.154 E16.20924
G1 X150.528 Y166.36 E16.26967
G1 X148.835 Y166.776 E16.32766
G1 X115.789 Y166.8 E17.42677
G1 X114.003 Y166.36 E17.48795
G1 X112.695 Y165.2 E17.5461
G1 X112.618 Y165.089 E17.55059
G1 X111.994 Y163.445 E17.60908
G1 X111.994 Y137.498 E18.47208
G1 X112.218 Y135.654 E18.53386
G1 X112.574 Y135.138 E18.55471
G1 X112.659 Y135.014 E18.55971
G1 X112.547 Y134.8 E18.56774
G1 X112.396 Y134.8 E18.57277
G1 X97.465 Y134.8 E19.06937
G1 X97.465 Y89.2 E20.58604
G1 X114.965 Y89.2 E21.16809
G0 F3600 X114.965 Y89
G0 X115.365 Y89.6
;TYPE:WALL-INNER
G1 F1800 X115.365 Y43.6 E22.69805
G1 X151.665 Y43.6 E23.9054
G1 X151.665 Y135.42 E26.95934
G1 X151.927 Y135.802 E26.97475
G1 X152.135 Y137.521 E27.03234
G1 X152.135 Y163.372 E27.89215
G1 X151.547 Y164.921 E27.94725
G1 X150.337 Y165.996 E28.00109
G1 X148.789 Y166.376 E28.0541
G1 X115.836 Y166.4 E29.15013
G1 X114.194 Y165.995 E29.20637
G1 X112.998 Y164.935 E29.25953
G1 X112.974 Y164.9 E29.26094
G1 X112.394 Y163.372 E29.3153
G1 X112.394 Y137.521 E30.17511
G1 X112.603 Y135.799 E30.2328
G1 X113.125 Y135.042 E30.26339
G1 X112.789 Y134.4 E30.28749
G1 X97.865 Y134.4 E30.78386
G1 X97.865 Y89.6 E32.27391
G1 X115.365 Y89.6 E32.85597
G0 F3600 X115.435 Y89.67
G0 X108.974 Y96.264
G0 X107.622 Y98.5
G0 X107.722 Y98.5
G1 F1800 X108.994 Y100.702 E32.94055
G1 X111.536 Y100.702 E33.02509
G1 X112.808 Y98.5 E33.10967
G1 X111.536 Y96.298 E33.19425
G1 X108.994 Y96.298 E33.2788
G1 X107.722 Y98.5 E33.36338
G0 F3600 X107.622 Y98.5
G0 X105.137 Y101.872
G0 X105.095 Y122.17
G0 X105.165 Y122.1
G1 F1800 X115.365 Y122.1 E33.70264
G1 X115.365 Y101.9 E34.37449
G1 X105.165 Y101.9 E34.71374
G1 X105.165 Y122.1 E35.3856
G0 F3600 X105.095 Y122.17
G0 X107.622 Y125.5
G0 X107.722 Y125.5
G1 F1800 X108.994 Y127.702 E35.47018
G1 X111.536 Y127.702 E35.55473
G1 X112.808 Y125.5 E35.63931
G1 X111.536 Y123.298 E35.72389
G1 X108.994 Y123.298 E35.80843
G1 X107.722 Y125.5 E35.89301
G0 F3600 X107.622 Y125.5
G0 X108.974 Y123.264
G0 X129.938 Y119.327
G0 X130.008 Y119.257
G1 F1800 X142.521 Y119.257 E36.3092
G1 X142.521 Y106.743 E36.72541
G1 X130.008 Y106.743 E37.1416
G1 X130.008 Y119.257 E37.55782
G0 F3600 X129.938 Y119.327
G0 X133.622 Y127.6
G0 X133.722 Y127.6
G1 F1800 X134.994 Y129.802 E37.6424
G1 X137.536 Y129.802 E37.72694
G1 X138.808 Y127.6 E37.81152
G1 X137.536 Y125.398 E37.8961
G1 X134.994 Y125.398 E37.98065
G1 X133.722 Y127.6 E38.06523
G0 F3600 X133.622 Y127.6
G0 X145.19 Y146.579
G0 X145.772 Y147.886
G0 X146.07 Y149.285
G0 X146.07 Y150.715
G0 X145.829 Y151.848
G0 X145.242 Y153.454
G0 X145.156 Y153.404
G1 F1800 X145.734 Y152.102 E38.11261
G1 X146.031 Y150.711 E38.15992
G1 X146.031 Y149.289 E38.20721
G1 X145.734 Y147.898 E38.25452
G1 X145.156 Y146.598 E38.30184
G1 X144.32 Y145.447 E38.34916
G1 X143.315 Y144.542 E38.39414
G1 X142.094 Y143.82 E38.44132
G1 X140.749 Y143.367 E38.48852
G1 X139.337 Y143.205 E38.53579
G1 X137.921 Y143.336 E38.58309
G1 X136.566 Y143.761 E38.63032
G1 X135.328 Y144.459 E38.67759
G1 X134.262 Y145.399 E38.72486
G1 X133.373 Y146.596 E38.77445
G1 X132.794 Y147.898 E38.82185
G1 X132.499 Y149.289 E38.86914
G1 X132.499 Y150.711 E38.91644
G1 X132.794 Y152.102 E38.96373
G1 X133.373 Y153.402 E39.01106
G1 X134.209 Y154.553 E39.05838
G1 X135.214 Y155.458 E39.10336
G1 X136.435 Y156.18 E39.15054
G1 X137.78 Y156.633 E39.19774
G1 X139.193 Y156.795 E39.24505
G1 X140.608 Y156.664 E39.29231
G1 X141.963 Y156.239 E39.33955
G1 X143.201 Y155.541 E39.38682
G1 X144.267 Y154.601 E39.43409
G1 X145.156 Y153.404 E39.48368
G0 F3600 X145.242 Y153.454
G0 X145.772 Y152.114
G0 X146.07 Y150.715
G0 X146.07 Y149.285
G0 X142.549 Y106.715
G0 X138.482 Y106.709
G0 X133.622 Y98.4
G0 X133.722 Y98.4
G1 F1800 X134.994 Y100.602 E39.56826
G1 X137.536 Y100.602 E39.65281
G1 X138.808 Y98.4 E39.73739
G1 X137.536 Y96.198 E39.82197
G1 X134.994 Y96.198 E39.90651
G1 X133.722 Y98.4 E39.99109
G0 F3600 X133.622 Y98.4
G0 X131.122 Y81.5
G0 X131.222 Y81.5
G1 F1800 X132.494 Y83.702 E40.07567
G1 X135.036 Y83.702 E40.16022
G1 X136.308 Y81.5 E40.2448
G1 X135.036 Y79.298 E40.32938
G1 X132.494 Y79.298 E40.41393
G1 X131.222 Y81.5 E40.49851
G0 F3600 X131.122 Y81.5
G0 X127.595 Y76.92
G0 X127.665 Y76.85
G1 F1800 X142.865 Y76.85 E41.00406
G1 X142.865 Y59.15 E41.59277
G1 X127.665 Y59.15 E42.09832
G1 X127.665 Y76.85 E42.68702
G0 F3600 X127.595 Y76.92
G0 X127.637 Y59.122
G0 X131.122 Y54.5
G0 X131.222 Y54.5
G1 F1800 X132.494 Y56.702 E42.77161
G1 X135.036 Y56.702 E42.85615
G1 X136.308 Y54.5 E42.94073
G1 X135.036 Y52.298 E43.02531
G1 X132.494 Y52.298 E43.10986
G1 X131.222 Y54.5 E43.19444
G0 F3600 X130.772 Y54.5
;TYPE:SKIN
G1 F1800 X132.269 Y57.092 E43.294
G1 X135.261 Y57.092 E43.39351
G1 X136.758 Y54.5 E43.49307
G1 X135.261 Y51.908 E43.59262
G1 X132.269 Y51.908 E43.69214
G1 X130.772 Y54.5 E43.79169
G0 F3600 X127.275 Y58.76
G1 F1800 X127.275 Y77.24 E44.40634
G1 X143.255 Y77.24 E44.93783
G1 X143.255 Y58.76 E45.55248
G1 X127.275 Y58.76 E46.08398
G0 F3600 X115.755 Y43.99
G1 F1800 X151.275 Y43.99 E47.26538
G1 X151.275 Y135.541 E50.31038
G1 X151.551 Y135.943 E50.3266
G1 X151.745 Y137.552 E50.3805
G1 X151.745 Y163.3 E51.23688
G1 X151.216 Y164.693 E51.28644
G1 X150.15 Y165.64 E51.33387
G1 X148.74 Y165.986 E51.38215
G1 X115.882 Y166.01 E52.47502
G1 X114.382 Y165.64 E52.5264
G1 X113.312 Y164.692 E52.57395
G1 X112.784 Y163.3 E52.62347
G1 X112.784 Y137.552 E53.47985
G1 X112.98 Y135.94 E53.53386
G1 X113.579 Y135.069 E53.56902
G1 X113.025 Y134.01 E53.60877
G1 X98.255 Y134.01 E54.10002
G1 X98.255 Y89.99 E55.56413
G1 X115.755 Y89.99 E56.14618
G1 X115.755 Y43.99 E57.67615
G0 F3600 X127.637 Y76.878
G0 X132.269 Y78.908
G1 F1800 X130.772 Y81.5 E57.77571
G1 X132.269 Y84.092 E57.87526
G1 X135.261 Y84.092 E57.97478
G1 X136.758 Y81.5 E58.07433
G1 X135.261 Y78.908 E58.17389
G1 X132.269 Y78.908 E58.2734
G0 F3600 X131.182 Y81.5
G0 X134.769 Y95.808
G1 F1800 X133.272 Y98.4 E58.37296
G1 X134.769 Y100.992 E58.47251
G1 X137.761 Y100.992 E58.57203
G1 X139.258 Y98.4 E58.67158
G1 X137.761 Y95.808 E58.77114
G1 X134.769 Y95.808 E58.87065
G0 F3600 X129.618 Y106.353
G1 F1800 X129.618 Y119.647 E59.31281
G1 X142.911 Y119.647 E59.75494
G1 X142.911 Y106.353 E60.1971
G1 X129.618 Y106.353 E60.63923
G0 F3600 X115.755 Y101.51
G1 F1800 X104.775 Y101.51 E61.00442
G1 X104.775 Y122.49 E61.70222
G1 X115.755 Y122.49 E62.06742
G1 X115.755 Y101.51 E62.76521
G0 F3600 X111.761 Y95.908
G1 F1800 X108.769 Y95.908 E62.86473
G1 X107.272 Y98.5 E62.96428
G1 X108.769 Y101.092 E63.06384
G1 X111.761 Y101.092 E63.16335
G1 X113.258 Y98.5 E63.26291
G1 X111.761 Y95.908 E63.36246
G0 F3600 X115.393 Y101.872
G0 X115.393 Y122.128
G0 X111.761 Y122.908
G1 F1800 X108.769 Y122.908 E63.46198
G1 X107.272 Y125.5 E63.56153
G1 X108.769 Y128.092 E63.66109
G1 X111.761 Y128.092 E63.7606
G1 X113.258 Y125.5 E63.86016
G1 X111.761 Y122.908 E63.95971
G0 F3600 X134.769 Y125.008
G1 F1800 X133.272 Y127.6 E64.05927
G1 X134.769 Y130.192 E64.15883
G1 X137.761 Y130.192 E64.25834
G1 X139.258 Y127.6 E64.3579
G1 X137.761 Y125.008 E64.45745
G1 X134.769 Y125.008 E64.55697
G0 F3600 X133.682 Y127.6
G0 X139.341 Y142.813
G1 F1800 X137.843 Y142.952 E64.607
G1 X136.41 Y143.401 E64.65695
G1 X135.1 Y144.139 E64.70696
G1 X133.973 Y145.134 E64.75696
G1 X133.034 Y146.399 E64.80936
G1 X132.421 Y147.777 E64.85952
G1 X132.109 Y149.248 E64.90954
G1 X132.109 Y150.752 E64.95956
G1 X132.421 Y152.223 E65.00957
G1 X133.034 Y153.599 E65.05968
G1 X133.918 Y154.816 E65.10971
G1 X134.982 Y155.774 E65.15732
G1 X136.271 Y156.537 E65.20715
G1 X137.694 Y157.015 E65.25707
G1 X139.189 Y157.187 E65.30713
G1 X140.686 Y157.048 E65.35713
G1 X142.119 Y156.599 E65.40708
G1 X143.429 Y155.861 E65.45709
G1 X144.556 Y154.866 E65.50709
G1 X145.495 Y153.601 E65.55949
G1 X146.107 Y152.223 E65.60964
G1 X146.421 Y150.752 E65.65966
G1 X146.421 Y149.248 E65.70969
G1 X146.107 Y147.777 E65.75972
G1 X145.495 Y146.403 E65.80974
G1 X144.611 Y145.184 E65.85983
G1 X143.547 Y144.226 E65.90745
G1 X142.258 Y143.463 E65.95727
G1 X140.835 Y142.985 E66.00719
G1 X139.341 Y142.813 E66.05721
G0 F3600 X136.551 Y143.725
G0 X135.305 Y144.427
G0 X113.336 Y164.248
G1 F1800 X114.594 Y165.506 E66.11638
G0 F3600 X115.346 Y165.692
G1 F1800 X112.99 Y163.336 E66.2272
G0 F3600 X112.963 Y162.744
G1 F1800 X116.048 Y165.829 E66.37231
G0 F3600 X116.614 Y165.829
G1 F1800 X112.963 Y162.178 E66.54404
G0 F3600 X112.963 Y161.612
G1 F1800 X117.179 Y165.828 E66.74235
G0 F3600 X117.745 Y165.828
G1 F1800 X112.963 Y161.047 E66.96726
G0 F3600 X112.963 Y160.481
G1 F1800 X118.31 Y165.827 E67.21874
G0 F3600 X118.875 Y165.827
G1 F1800 X112.963 Y159.915 E67.49682
G0 F3600 X112.963 Y159.35
G1 F1800 X119.44 Y165.827 E67.80148
G0 F3600 X120.005 Y165.826
G1 F1800 X112.963 Y158.784 E68.13272
G0 F3600 X112.963 Y158.218
G1 F1800 X120.571 Y165.826 E68.49057
G0 F3600 X121.136 Y165.825
G1 F1800 X112.963 Y157.652 E68.87501
G0 F3600 X112.963 Y157.087
G1 F1800 X121.701 Y165.825 E69.28602
G0 F3600 X122.267 Y165.825
G1 F1800 X112.963 Y156.521 E69.72365
G0 F3600 X112.963 Y155.955
G1 F1800 X122.832 Y165.824 E70.18785
G0 F3600 X123.397 Y165.824
G1 F1800 X112.963 Y155.39 E70.67864
G0 F3600 X112.963 Y154.824
G1 F1800 X123.962 Y165.823 E71.196
G0 F3600 X124.528 Y165.823
G1 F1800 X112.963 Y154.258 E71.73998
G0 F3600 X112.963 Y153.693
G1 F1800 X125.093 Y165.822 E72.31051
G0 F3600 X125.658 Y165.822
G1 F1800 X112.963 Y153.127 E72.90765
G0 F3600 X112.963 Y152.561
G1 F1800 X126.224 Y165.822 E73.5314
G0 F3600 X126.789 Y165.821
G1 F1800 X112.963 Y151.996 E74.18171
G0 F3600 X112.963 Y151.43
G1 F1800 X127.354 Y165.821 E74.85862
G0 F3600 X127.919 Y165.82
G1 F1800 X112.963 Y150.864 E75.56211
G0 F3600 X112.963 Y150.299
G1 F1800 X128.484 Y165.82 E76.29217
G0 F3600 X129.05 Y165.82
G1 F1800 X112.963 Y149.733 E77.04885
G0 F3600 X112.963 Y149.167
G1 F1800 X129.615 Y165.819 E77.83211
G0 F3600 X130.181 Y165.819
G1 F1800 X112.963 Y148.602 E78.64197
G0 F3600 X112.963 Y148.036
G1 F1800 X130.746 Y165.818 E79.4784
G0 F3600 X131.311 Y165.818
G1 F1800 X112.963 Y147.47 E80.34144
G0 F3600 X112.963 Y146.904
G1 F1800 X131.876 Y165.817 E81.23105
G0 F3600 X132.441 Y165.817
G1 F1800 X112.963 Y146.339 E82.14723
G0 F3600 X112.963 Y145.773
G1 F1800 X133.007 Y165.817 E83.09004
G0 F3600 X133.572 Y165.816
G1 F1800 X112.963 Y145.207 E84.05942
G0 F3600 X112.963 Y144.642
G1 F1800 X134.138 Y165.816 E85.05541
G0 F3600 X134.703 Y165.815
G1 F1800 X112.963 Y144.076 E86.07797
G0 F3600 X112.963 Y143.51
G1 F1800 X135.268 Y165.815 E87.12712
G0 F3600 X135.833 Y165.815
G1 F1800 X112.963 Y142.945 E88.20286
G0 F3600 X112.963 Y142.379
G1 F1800 X136.398 Y165.814 E89.30517
G0 F3600 X136.964 Y165.814
G1 F1800 X112.963 Y141.813 E90.4341
G0 F3600 X112.963 Y141.248
G1 F1800 X137.529 Y165.813 E91.58959
G0 F3600 X138.095 Y165.813
G1 F1800 X112.963 Y140.682 E92.7717
G0 F3600 X112.963 Y140.116
G1 F1800 X138.66 Y165.813 E93.98041
G0 F3600 X139.225 Y165.812
G1 F1800 X112.963 Y139.551 E95.21567
G0 F3600 X112.963 Y138.985
G1 F1800 X139.79 Y165.812 E96.47753
G0 F3600 X140.355 Y165.811
G1 F1800 X112.963 Y138.419 E97.76596
G0 F3600 X112.963 Y137.854
G1 F1800 X140.921 Y165.811 E99.081
G0 F3600 X141.486 Y165.81
G1 F1800 X112.994 Y137.318 E100.42117
G0 F3600 X113.055 Y136.814
G1 F1800 X142.051 Y165.81 E101.78506
G0 F3600 X142.617 Y165.81
G1 F1800 X113.116 Y136.309 E103.17269
G0 F3600 X113.244 Y135.871
G1 F1800 X143.182 Y165.809 E104.58088
G0 F3600 X143.747 Y165.809
G1 F1800 X113.475 Y135.536 E106.00481
G0 F3600 X113.705 Y135.201
G1 F1800 X144.312 Y165.808 E107.44447
G0 F3600 X144.877 Y165.808
G1 F1800 X135.155 Y156.086 E107.90176
G1 X135.085 Y156.016
G0 F3600 X136.407 Y156.771
G1 F1800 X145.443 Y165.808 E108.32681
G0 F3600 X146.008 Y165.807
G1 F1800 X137.258 Y157.057 E108.73839
G0 F3600 X137.996 Y157.23
G1 F1800 X146.574 Y165.807 E109.14184
G0 F3600 X147.139 Y165.806
G1 F1800 X138.636 Y157.303 E109.5418
