;FLAVOR:Marlin
;TIME:7267
;Filament used: 4.97414m
;Layer height: 0.15
;MINX:29.806
;MINY:27.257
;MINZ:0.2
;MAXX:143.721
;MAXY:116.519
;MAXZ:3.95
;Generated with Cura_SteamEngine 4.4.0
M82 ;absolute extrusion mode
G21 ; set units to millimeters
G90 ; use absolute positioning
M82 ; absolute extrusion mode
M104 S210 ; set extruder temp
M140 S60 ; set bed temp
M190 S60 ; wait for bed temp
M109 S210 ; wait for extruder temp
G28 W ; home all without mesh bed level
G80 ; mesh bed leveling
G92 E0.0 ; reset extruder distance position
G1 Y-3.0 F1000.0 ; go outside print area
G1 X60.0 E9.0 F1000.0 ; intro line
G1 X100.0 E21.5 F1000.0 ; intro line
G92 E0.0 ; reset extruder distance position
G92 E0
G92 E0
G1 F2100 E-0.8
;LAYER_COUNT:26
;LAYER:0
M107
;MESH:htsresources_banner.stl
G0 F3600 X112.484 Y29.264 Z0.2
;TYPE:WALL-OUTER
G1 F2100 E0
G1 F1800 X112.901 Y30.958 E0.05802
G1 X112.925 Y42.005 E0.42545
G1 X112.484 Y43.79 E0.4866
G1 X111.325 Y45.098 E0.54473
G1 X111.214 Y45.175 E0.54922
G1 X109.57 Y45.799 E0.60771
G1 X43.623 Y45.799 E2.80112
G1 X41.779 Y45.575 E2.8629
G1 X40.285 Y44.543 E2.92329
G1 X39.441 Y42.937 E2.98363
G1 X39.441 Y30.12 E3.40993
G1 X40.285 Y28.514 E3.47027
G1 X41.779 Y27.481 E3.53068
G1 X43.623 Y27.257 E3.59247
G1 X109.57 Y27.257 E5.78587
G1 X111.279 Y27.905 E5.84666
G1 X112.484 Y29.264 E5.90707
G0 F3600 X112.531 Y29.458
G0 X112.119 Y29.455
;TYPE:WALL-INNER
G1 F1800 X112.501 Y31.006 E5.9602
G1 X112.525 Y41.958 E6.32447
G1 X112.119 Y43.599 E6.38069
G1 X111.06 Y44.795 E6.43382
G1 X111.025 Y44.819 E6.43524
G1 X109.497 Y45.399 E6.4896
G1 X43.646 Y45.399 E8.67981
G1 X41.925 Y45.19 E8.73747
G1 X40.593 Y44.27 E8.79131
G1 X39.841 Y42.839 E8.84508
G1 X39.841 Y30.218 E9.26486
G1 X40.593 Y28.787 E9.31862
G1 X41.925 Y27.866 E9.37248
G1 X43.646 Y27.657 E9.43015
G1 X109.497 Y27.657 E11.62036
G1 X111.046 Y28.245 E11.67547
G1 X112.119 Y29.455 E11.72926
G0 F3600 X111.764 Y29.644
;TYPE:SKIN
G1 F1800 X112.111 Y31.051 E11.77745
G1 X112.135 Y41.912 E12.13869
G1 X111.764 Y43.411 E12.19005
G1 X110.817 Y44.481 E12.23758
G1 X109.425 Y45.009 E12.2871
G1 X43.677 Y45.009 E14.47388
G1 X42.066 Y44.813 E14.52786
G1 X40.893 Y44.002 E14.57529
G1 X40.231 Y42.744 E14.62257
G1 X40.231 Y30.313 E15.03603
G1 X40.893 Y29.055 E15.08331
G1 X42.067 Y28.243 E15.13079
G1 X43.677 Y28.047 E15.18473
G1 X109.425 Y28.047 E17.37152
G1 X110.817 Y28.575 E17.42104
G1 X111.764 Y29.644 E17.46854
G0 F3600 X109.865 Y28.406
G1 F1800 X111.734 Y30.275 E17.55645
G0 F3600 X111.919 Y31.026
G1 F1800 X109.12 Y28.226 E17.68813
G0 F3600 X108.554 Y28.226
G1 F1800 X111.932 Y31.604 E17.84702
G0 F3600 X111.933 Y32.171
G1 F1800 X107.988 Y28.226 E18.03258
G0 F3600 X107.422 Y28.226
G1 F1800 X111.935 Y32.739 E18.24486
G0 F3600 X111.935 Y33.305
G1 F1800 X106.857 Y28.226 E18.48373
G0 F3600 X106.291 Y28.226
G1 F1800 X111.937 Y33.872 E18.7493
G0 F3600 X111.938 Y34.439
G1 F1800 X105.725 Y28.226 E19.04155
G0 F3600 X105.16 Y28.226
G1 F1800 X111.939 Y35.006 E19.36043
G0 F3600 X111.94 Y35.573
G1 F1800 X104.594 Y28.226 E19.70599
G0 F3600 X104.028 Y28.226
G1 F1800 X111.942 Y36.14 E20.07824
G0 F3600 X111.943 Y36.707
G1 F1800 X103.463 Y28.226 E20.47714
G0 F3600 X102.897 Y28.226
G1 F1800 X111.944 Y37.273 E20.90268
G0 F3600 X111.945 Y37.84
G1 F1800 X102.331 Y28.226 E21.35489
G0 F3600 X101.766 Y28.226
G1 F1800 X111.947 Y38.407 E21.83378
G0 F3600 X111.948 Y38.975
G1 F1800 X101.2 Y28.226 E22.33935
G0 F3600 X100.634 Y28.226
G1 F1800 X111.949 Y39.541 E22.87157
G0 F3600 X111.95 Y40.108
G1 F1800 X100.069 Y28.226 E23.43044
G0 F3600 X99.503 Y28.226
G1 F1800 X111.951 Y40.675 E24.01598
G0 F3600 X111.953 Y41.242
G1 F1800 X98.937 Y28.226 E24.62822
G0 F3600 X98.371 Y28.226
G1 F1800 X111.954 Y41.809 E25.26712
G0 F3600 X111.857 Y42.278
G1 F1800 X97.806 Y28.226 E25.92806
G0 F3600 X97.24 Y28.226
G1 F1800 X111.746 Y42.732 E26.61038
G0 F3600 X111.633 Y43.185
G1 F1800 X96.674 Y28.226 E27.314
G0 F3600 X96.109 Y28.226
G1 F1800 X111.415 Y43.533 E28.03397
G0 F3600 X111.149 Y43.832
G1 F1800 X95.543 Y28.226 E28.76803
G0 F3600 X94.977 Y28.226
G1 F1800 X110.884 Y44.133 E29.51625
G0 F3600 X110.567 Y44.382
G1 F1800 X94.412 Y28.226 E30.27615
G0 F3600 X93.846 Y28.226
G1 F1800 X110.157 Y44.537 E31.04337
G0 F3600 X109.747 Y44.693
G1 F1800 X93.28 Y28.226 E31.81793
G0 F3600 X92.715 Y28.226
G1 F1800 X109.316 Y44.828 E32.59881
G0 F3600 X108.75 Y44.828
G1 F1800 X92.149 Y28.226 E33.3797
G0 F3600 X91.583 Y28.226
G1 F1800 X108.185 Y44.828 E34.1606
G0 F3600 X107.619 Y44.828
G1 F1800 X91.018 Y28.226 E34.94149
G0 F3600 X90.452 Y28.226
G1 F1800 X107.053 Y44.828 E35.72237
G0 F3600 X106.488 Y44.828
G1 F1800 X89.886 Y28.226 E36.50328
G0 F3600 X89.321 Y28.226
G1 F1800 X105.922 Y44.828 E37.28416
G0 F3600 X105.356 Y44.828
G1 F1800 X88.755 Y28.226 E38.06505
G0 F3600 X88.189 Y28.226
G1 F1800 X104.791 Y44.828 E38.84595
G0 F3600 X104.225 Y44.828
G1 F1800 X87.623 Y28.226 E39.62686
G0 F3600 X87.058 Y28.226
G1 F1800 X103.659 Y44.828 E40.40774
G0 F3600 X103.094 Y44.828
G1 F1800 X86.492 Y28.226 E41.18865
G0 F3600 X85.926 Y28.226
G1 F1800 X102.528 Y44.828 E41.96956
G0 F3600 X101.962 Y44.828
G1 F1800 X85.361 Y28.226 E42.75044
G0 F3600 X84.795 Y28.226
G1 F1800 X101.396 Y44.828 E43.53133
G0 F3600 X100.831 Y44.828
G1 F1800 X84.229 Y28.226 E44.31223
G0 F3600 X83.664 Y28.226
G1 F1800 X100.265 Y44.828 E45.09312
G0 F3600 X99.699 Y44.828
G1 F1800 X83.098 Y28.226 E45.874
G0 F3600 X82.532 Y28.226
G1 F1800 X99.134 Y44.828 E46.65491
G0 F3600 X98.568 Y44.828
G1 F1800 X81.967 Y28.226 E47.43579
G0 F3600 X81.401 Y28.226
G1 F1800 X98.002 Y44.828 E48.21667
G0 F3600 X97.437 Y44.828
G1 F1800 X80.835 Y28.226 E48.99758
G0 F3600 X80.27 Y28.226
G1 F1800 X96.871 Y44.828 E49.77846
G0 F3600 X96.305 Y44.828
G1 F1800 X79.704 Y28.226 E50.55935
G0 F3600 X79.138 Y28.226
G1 F1800 X95.74 Y44.828 E51.34026
G0 F3600 X95.174 Y44.828
G1 F1800 X78.572 Y28.226 E52.12116
G0 F3600 X78.007 Y28.226
G1 F1800 X94.608 Y44.828 E52.90205
G0 F3600 X94.043 Y44.828
G1 F1800 X77.441 Y28.226 E53.68295
G0 F3600 X76.875 Y28.226
G1 F1800 X93.477 Y44.828 E54.46386
G0 F3600 X92.911 Y44.828
G1 F1800 X76.31 Y28.226 E55.24474
G0 F3600 X75.744 Y28.226
G1 F1800 X92.346 Y44.828 E56.02565
G0 F3600 X91.78 Y44.828
G1 F1800 X75.178 Y28.226 E56.80656
G0 F3600 X74.613 Y28.226
G1 F1800 X91.214 Y44.828 E57.58744
G0 F3600 X90.648 Y44.828
G1 F1800 X74.047 Y28.226 E58.36833
G0 F3600 X73.481 Y28.226
G1 F1800 X90.083 Y44.828 E59.14923
G0 F3600 X89.517 Y44.828
G1 F1800 X72.916 Y28.226 E59.93012
G0 F3600 X72.35 Y28.226
G1 F1800 X88.951 Y44.828 E60.711
G0 F3600 X88.386 Y44.828
G1 F1800 X71.784 Y28.226 E61.49191
G0 F3600 X71.219 Y28.226
G1 F1800 X87.82 Y44.828 E62.27279
G0 F3600 X87.254 Y44.828
G1 F1800 X70.653 Y28.226 E63.05368
G0 F3600 X70.087 Y28.226
G1 F1800 X86.689 Y44.828 E63.83458
G0 F3600 X86.123 Y44.828
G1 F1800 X69.522 Y28.226 E64.61547
G0 F3600 X68.956 Y28.226
G1 F1800 X85.557 Y44.828 E65.39635
G0 F3600 X84.992 Y44.828
G1 F1800 X68.39 Y28.226 E66.17726
G0 F3600 X67.824 Y28.226
G1 F1800 X84.426 Y44.828 E66.95816
G0 F3600 X83.86 Y44.828
G1 F1800 X67.259 Y28.226 E67.73905
G0 F3600 X66.693 Y28.226
G1 F1800 X83.295 Y44.828 E68.51996
G0 F3600 X82.729 Y44.828
G1 F1800 X66.127 Y28.226 E69.30086
G0 F3600 X65.562 Y28.226
G1 F1800 X82.163 Y44.828 E70.08175
G0 F3600 X81.598 Y44.828
G1 F1800 X64.996 Y28.226 E70.86265
G0 F3600 X64.43 Y28.226
G1 F1800 X81.032 Y44.828 E71.64356
G0 F3600 X80.466 Y44.828
G1 F1800 X63.865 Y28.226 E72.42444
G0 F3600 X63.299 Y28.226
G1 F1800 X79.9 Y44.828 E73.20533
G0 F3600 X79.335 Y44.828
G1 F1800 X62.733 Y28.226 E73.98623
G0 F3600 X62.168 Y28.226
G1 F1800 X78.769 Y44.828 E74.76712
G0 F3600 X78.203 Y44.828
G1 F1800 X61.602 Y28.226 E75.548
G0 F3600 X61.036 Y28.226
G1 F1800 X77.638 Y44.828 E76.32891
G0 F3600 X77.072 Y44.828
G1 F1800 X60.471 Y28.226 E77.10979
G0 F3600 X59.905 Y28.226
G1 F1800 X76.506 Y44.827 E77.89065
G0 F3600 X75.94 Y44.827
G1 F1800 X59.339 Y28.226 E78.67151
G0 F3600 X58.774 Y28.226
G1 F1800 X75.374 Y44.827 E79.45235
G0 F3600 X74.809 Y44.827
G1 F1800 X58.208 Y28.226 E80.23321
G0 F3600 X57.642 Y28.226
G1 F1800 X74.243 Y44.827 E81.01407
G0 F3600 X73.677 Y44.827
G1 F1800 X57.076 Y28.226 E81.79493
G0 F3600 X56.511 Y28.226
G1 F1800 X73.112 Y44.827 E82.57579
G0 F3600 X72.546 Y44.827
G1 F1800 X55.945 Y28.226 E83.35665
G0 F3600 X55.379 Y28.226
G1 F1800 X71.98 Y44.827 E84.13751
G0 F3600 X71.414 Y44.827
G1 F1800 X54.814 Y28.226 E84.91835
G0 F3600 X54.248 Y28.226
G1 F1800 X70.849 Y44.827 E85.69921
G0 F3600 X70.283 Y44.827
G1 F1800 X53.682 Y28.226 E86.48007
G0 F3600 X53.117 Y28.226
G1 F1800 X69.717 Y44.827 E87.2609
G0 F3600 X69.152 Y44.827
G1 F1800 X52.551 Y28.226 E88.04176
G0 F3600 X51.985 Y28.226
G1 F1800 X68.586 Y44.827 E88.82262
G0 F3600 X68.02 Y44.827
G1 F1800 X51.42 Y28.226 E89.60346
G0 F3600 X50.854 Y28.226
G1 F1800 X67.455 Y44.827 E90.38432
G0 F3600 X66.889 Y44.827
G1 F1800 X50.288 Y28.226 E91.16518
G0 F3600 X49.723 Y28.226
G1 F1800 X66.323 Y44.827 E91.94602
G0 F3600 X65.758 Y44.827
G1 F1800 X49.157 Y28.226 E92.72688
G0 F3600 X48.591 Y28.226
G1 F1800 X65.192 Y44.827 E93.50774
G0 F3600 X64.626 Y44.827
G1 F1800 X48.025 Y28.226 E94.2886
G0 F3600 X47.46 Y28.226
G1 F1800 X64.061 Y44.827 E95.06946
G0 F3600 X63.495 Y44.827
G1 F1800 X46.894 Y28.226 E95.85032
G0 F3600 X46.328 Y28.226
G1 F1800 X62.929 Y44.827 E96.63118
G0 F3600 X62.363 Y44.827
G1 F1800 X45.763 Y28.226 E97.41202
G0 F3600 X45.197 Y28.226
G1 F1800 X61.798 Y44.827 E98.19288
G0 F3600 X61.232 Y44.827
G1 F1800 X44.631 Y28.226 E98.97374
G0 F3600 X44.066 Y28.226
G1 F1800 X60.666 Y44.827 E99.75457
G0 F3600 X60.101 Y44.827
G1 F1800 X43.521 Y28.248 E100.53442
G0 F3600 X43.017 Y28.309
G1 F1800 X59.535 Y44.827 E101.31138
G0 F3600 X58.969 Y44.827
G1 F1800 X42.513 Y28.371 E102.08542
G0 F3600 X42.05 Y28.473
G1 F1800 X58.404 Y44.827 E102.85466
G0 F3600 X57.838 Y44.827
G1 F1800 X41.715 Y28.704 E103.61304
G0 F3600 X41.381 Y28.936
G1 F1800 X57.272 Y44.827 E104.3605
G0 F3600 X56.707 Y44.827
G1 F1800 X41.046 Y29.167 E105.09712
G0 F3600 X40.844 Y29.53
G1 F1800 X56.141 Y44.827 E105.81665
G0 F3600 X55.575 Y44.827
G1 F1800 X40.649 Y29.901 E106.51872
G0 F3600 X40.454 Y30.271
G1 F1800 X55.01 Y44.827 E107.20339
G0 F3600 X54.444 Y44.827
G1 F1800 X40.41 Y30.793 E107.8635
G0 F3600 X40.41 Y31.359
G1 F1800 X53.878 Y44.827 E108.497
G0 F3600 X53.313 Y44.827
G1 F1800 X40.41 Y31.925 E109.10389
G0 F3600 X40.41 Y32.49
G1 F1800 X52.747 Y44.827 E109.68419
G0 F3600 X52.181 Y44.827
G1 F1800 X40.41 Y33.056 E110.23786
G0 F3600 X40.41 Y33.622
G1 F1800 X51.615 Y44.827 E110.76491
G0 F3600 X51.05 Y44.827
G1 F1800 X40.41 Y34.187 E111.26538
G0 F3600 X40.41 Y34.753
G1 F1800 X50.484 Y44.827 E111.73923
G0 F3600 X49.918 Y44.827
G1 F1800 X40.41 Y35.319 E112.18646
G0 F3600 X40.41 Y35.884
G1 F1800 X49.353 Y44.827 E112.60711
G0 F3600 X48.787 Y44.827
G1 F1800 X40.41 Y36.45 E113.00114
G0 F3600 X40.41 Y37.016
G1 F1800 X48.221 Y44.827 E113.36854
G0 F3600 X47.656 Y44.827
G1 F1800 X40.41 Y37.582 E113.70935
G0 F3600 X40.41 Y38.147
G1 F1800 X47.09 Y44.827 E114.02356
G0 F3600 X46.524 Y44.827
G1 F1800 X40.41 Y38.713 E114.31114
G0 F3600 X40.41 Y39.279
G1 F1800 X45.959 Y44.827 E114.57212
G0 F3600 X45.393 Y44.827
G1 F1800 X40.41 Y39.844 E114.80651
G0 F3600 X40.41 Y40.41
G1 F1800 X44.827 Y44.827 E115.01427
G0 F3600 X44.262 Y44.827
G1 F1800 X40.41 Y40.976 E115.19543
G0 F3600 X40.41 Y41.541
G1 F1800 X43.696 Y44.827 E115.35
G0 F3600 X43.052 Y44.749
G1 F1800 X40.41 Y42.107 E115.47427
G0 F3600 X40.41 Y42.673
G1 F1800 X42.409 Y44.672 E115.5683
G1 X42.479 Y44.742
G0 F3600 X41.089 Y43.918
G1 F1800 X41.01 Y43.838 E115.57204
G1 F2100 E114.77204
;MESH:code_imager_banner.stl
G0 F3600 X109.494 Y45.38
G0 X109.494 Y46.664
G0 X109.494 Y51.672
G0 X109.494 Y52.957
G0 X142.827 Y54.781
G0 X143.28 Y54.544
;TYPE:WALL-OUTER
G1 F2100 E115.57204
G1 F1800 X143.697 Y56.238 E115.63006
G1 X143.721 Y67.285 E115.99749
G1 X143.28 Y69.07 E116.05864
G1 X142.121 Y70.378 E116.11677
G1 X142.01 Y70.455 E116.12126
G1 X140.366 Y71.079 E116.17974
G1 X64.419 Y71.079 E118.70575
G1 X62.575 Y70.855 E118.76753
G1 X61.081 Y69.823 E118.82793
G1 X60.237 Y68.216 E118.8883
G1 X60.237 Y55.4 E119.31456
G1 X61.081 Y53.794 E119.3749
G1 X62.575 Y52.761 E119.43532
G1 X64.419 Y52.537 E119.4971
G1 X140.366 Y52.537 E122.02311
G1 X142.075 Y53.185 E122.0839
G1 X143.28 Y54.544 E122.14431
G0 F3600 X143.327 Y54.738
G0 X142.915 Y54.735
;TYPE:WALL-INNER
G1 F1800 X143.297 Y56.286 E122.19744
G1 X143.321 Y67.238 E122.5617
G1 X142.915 Y68.879 E122.61793
G1 X141.856 Y70.075 E122.67106
G1 X141.821 Y70.099 E122.67247
G1 X140.293 Y70.679 E122.72683
G1 X64.442 Y70.679 E125.24964
G1 X62.721 Y70.47 E125.30731
G1 X61.389 Y69.55 E125.36115
G1 X60.637 Y68.118 E125.41494
G1 X60.637 Y55.498 E125.83469
G1 X61.389 Y54.067 E125.88845
G1 X62.721 Y53.146 E125.94232
G1 X64.442 Y52.937 E125.99998
G1 X140.293 Y52.937 E128.52279
G1 X141.842 Y53.525 E128.5779
G1 X142.915 Y54.735 E128.63169
G0 F3600 X142.56 Y54.924
;TYPE:SKIN
G1 F1800 X142.907 Y56.331 E128.67989
G1 X142.931 Y67.192 E129.04113
G1 X142.56 Y68.691 E129.09249
G1 X141.613 Y69.761 E129.14001
G1 X140.221 Y70.289 E129.18953
G1 X64.473 Y70.289 E131.70892
G1 X62.862 Y70.093 E131.7629
G1 X61.689 Y69.282 E131.81033
G1 X61.027 Y68.023 E131.85764
G1 X61.027 Y55.593 E132.27106
G1 X61.689 Y54.335 E132.31834
G1 X62.863 Y53.523 E132.36582
G1 X64.473 Y53.327 E132.41976
G1 X140.221 Y53.327 E134.93915
G1 X141.613 Y53.855 E134.98867
G1 X142.56 Y54.924 E135.03617
G0 F3600 X140.889 Y53.774
G1 F1800 X142.483 Y55.367 E135.11112
G0 F3600 X142.668 Y56.118
G1 F1800 X140.057 Y53.507 E135.23393
G0 F3600 X139.491 Y53.507
G1 F1800 X142.727 Y56.743 E135.38615
G0 F3600 X142.728 Y57.31
G1 F1800 X138.925 Y53.507 E135.56503
G0 F3600 X138.36 Y53.507
G1 F1800 X142.729 Y57.876 E135.77053
G0 F3600 X142.73 Y58.443
G1 F1800 X137.794 Y53.507 E136.00271
G0 F3600 X137.228 Y53.507
G1 F1800 X142.732 Y59.01 E136.26157
G0 F3600 X142.733 Y59.577
G1 F1800 X136.663 Y53.507 E136.54709
G0 F3600 X136.097 Y53.507
G1 F1800 X142.734 Y60.144 E136.85927
G0 F3600 X142.735 Y60.711
G1 F1800 X135.531 Y53.507 E137.19813
G0 F3600 X134.966 Y53.507
G1 F1800 X142.737 Y61.278 E137.56365
G0 F3600 X142.738 Y61.845
G1 F1800 X134.4 Y53.507 E137.95584
G0 F3600 X133.834 Y53.507
G1 F1800 X142.74 Y62.412 E138.37473
G0 F3600 X142.74 Y62.979
G1 F1800 X133.269 Y53.507 E138.82024
G0 F3600 X132.703 Y53.507
G1 F1800 X142.742 Y63.546 E139.29245
G0 F3600 X142.743 Y64.113
G1 F1800 X132.137 Y53.507 E139.79132
G0 F3600 X131.572 Y53.507
G1 F1800 X142.745 Y64.68 E140.31686
G0 F3600 X142.745 Y65.246
G1 F1800 X131.006 Y53.507 E140.86903
G0 F3600 X130.44 Y53.507
G1 F1800 X142.747 Y65.813 E141.44789
G0 F3600 X142.748 Y66.381
G1 F1800 X129.875 Y53.507 E142.05342
G0 F3600 X129.309 Y53.507
G1 F1800 X142.75 Y66.948 E142.68564
G0 F3600 X142.682 Y67.445
G1 F1800 X128.743 Y53.507 E143.34127
G0 F3600 X128.177 Y53.507
G1 F1800 X142.569 Y67.899 E144.01822
G0 F3600 X142.457 Y68.353
G1 F1800 X127.612 Y53.507 E144.71651
G0 F3600 X127.046 Y53.507
G1 F1800 X142.276 Y68.737 E145.43288
G0 F3600 X142.011 Y69.038
G1 F1800 X126.48 Y53.507 E146.16341
G0 F3600 X125.915 Y53.507
G1 F1800 X141.745 Y69.338 E146.90803
G0 F3600 X141.465 Y69.623
G1 F1800 X125.349 Y53.507 E147.66608
G0 F3600 X124.783 Y53.507
G1 F1800 X141.055 Y69.779 E148.43146
G0 F3600 X140.645 Y69.934
G1 F1800 X124.218 Y53.507 E149.20414
G0 F3600 X123.652 Y53.507
G1 F1800 X140.235 Y70.09 E149.98415
G0 F3600 X139.687 Y70.108
G1 F1800 X123.086 Y53.507 E150.76501
G0 F3600 X122.521 Y53.507
G1 F1800 X139.121 Y70.108 E151.54585
G0 F3600 X138.556 Y70.108
G1 F1800 X121.955 Y53.507 E152.32671
G0 F3600 X121.389 Y53.507
G1 F1800 X137.99 Y70.108 E153.10757
G0 F3600 X137.424 Y70.108
G1 F1800 X120.824 Y53.507 E153.88841
G0 F3600 X120.258 Y53.507
G1 F1800 X136.859 Y70.108 E154.66927
G0 F3600 X136.293 Y70.108
G1 F1800 X119.692 Y53.507 E155.45013
G0 F3600 X119.126 Y53.507
G1 F1800 X135.727 Y70.108 E156.23099
G0 F3600 X135.162 Y70.108
G1 F1800 X118.561 Y53.507 E157.01185
G0 F3600 X117.995 Y53.507
G1 F1800 X134.596 Y70.108 E157.79271
G0 F3600 X134.03 Y70.108
G1 F1800 X117.429 Y53.507 E158.57357
G0 F3600 X116.864 Y53.507
G1 F1800 X133.464 Y70.108 E159.3544
G0 F3600 X132.899 Y70.108
