;FLAVOR:Marlin
;TIME:14016
;Filament used: 11.3198m
;Layer height: 0.15
;MINX:44.344
;MINY:45.449
;MINZ:0.2
;MAXX:205.656
;MAXY:164.551
;MAXZ:11
;Generated with Cura_SteamEngine 4.4.0
M82 ;absolute extrusion mode
G21 ; set units to millimeters
G90 ; use absolute positioning
M82 ; absolute extrusion mode
M104 S210 ; set extruder temp
M140 S60 ; set bed temp
M190 S60 ; wait for bed temp
M109 S210 ; wait for extruder temp
G28 W ; home all without mesh bed level
G80 ; mesh bed leveling
G92 E0.0 ; reset extruder distance position
G1 Y-3.0 F1000.0 ; go outside print area
G1 X60.0 E9.0 F1000.0 ; intro line
G1 X100.0 E21.5 F1000.0 ; intro line
G92 E0.0 ; reset extruder distance position
G92 E0
G92 E0
G1 F2100 E-0.8
;LAYER_COUNT:73
;LAYER:0
M107
G0 F3600 X47.393 Y48.651 Z0.2
;TYPE:SKIRT
G1 F2100 E0
G1 F1800 X48.089 Y48.074 E0.03007
G1 X49.595 Y46.966 E0.09226
G1 X50.254 Y46.531 E0.11852
G1 X50.953 Y46.165 E0.14476
G1 X51.686 Y45.871 E0.17103
G1 X52.445 Y45.653 E0.19729
G1 X53.222 Y45.513 E0.22355
G1 X54.217 Y45.449 E0.25672
G1 X195.783 Y45.449 E4.96522
G1 X196.572 Y45.489 E4.9915
G1 X197.352 Y45.608 E5.01774
G1 X198.117 Y45.806 E5.04402
G1 X198.857 Y46.08 E5.07027
G1 X199.566 Y46.428 E5.09654
G1 X200.368 Y46.939 E5.12816
G1 X201.868 Y48.029 E5.18984
G1 X202.483 Y48.525 E5.21611
G1 X203.044 Y49.081 E5.24238
G1 X203.546 Y49.69 E5.26863
G1 X203.984 Y50.347 E5.2949
G1 X204.353 Y51.045 E5.32116
G1 X204.701 Y51.929 E5.35276
G1 X205.268 Y53.674 E5.41378
G1 X205.474 Y54.436 E5.44004
G1 X205.601 Y55.215 E5.46629
G1 X205.65 Y56.055 E5.49427
G1 X205.656 Y57.662 E5.54772
G1 X205.656 Y153.898 E8.74855
G1 X205.616 Y154.687 E8.77482
G1 X205.497 Y155.467 E8.80106
G1 X205.275 Y156.307 E8.82996
G1 X204.708 Y158.053 E8.89102
G1 X204.426 Y158.791 E8.9173
G1 X204.071 Y159.496 E8.94355
G1 X203.647 Y160.162 E8.96981
G1 X203.158 Y160.782 E8.99607
G1 X202.608 Y161.349 E9.02235
G1 X201.909 Y161.929 E9.05256
G1 X200.403 Y163.036 E9.11472
G1 X199.744 Y163.471 E9.14098
G1 X199.044 Y163.837 E9.16726
G1 X198.311 Y164.13 E9.19351
G1 X197.552 Y164.348 E9.21978
G1 X196.774 Y164.488 E9.24607
G1 X195.783 Y164.551 E9.2791
G1 X54.217 Y164.551 E13.9876
G1 X53.428 Y164.511 E14.01388
G1 X52.648 Y164.392 E14.04012
G1 X51.883 Y164.194 E14.0664
G1 X51.143 Y163.92 E14.09265
G1 X50.434 Y163.572 E14.11892
G1 X49.635 Y163.063 E14.15043
G1 X48.135 Y161.974 E14.21208
G1 X47.52 Y161.478 E14.23836
G1 X46.958 Y160.923 E14.26463
G1 X46.456 Y160.314 E14.29088
G1 X46.018 Y159.657 E14.31714
G1 X45.648 Y158.959 E14.34342
G1 X45.298 Y158.071 E14.37516
G1 X44.731 Y156.325 E14.43622
G1 X44.526 Y155.563 E14.46246
G1 X44.398 Y154.783 E14.48875
G1 X44.351 Y154.007 E14.51461
G1 X44.345 Y153.495 E14.53164
G1 X44.344 Y153.404 E14.53467
G1 X44.344 Y56.102 E17.77095
G1 X44.384 Y55.313 E17.79722
G1 X44.503 Y54.533 E17.82347
G1 X44.726 Y53.692 E17.8524
G1 X45.293 Y51.947 E17.91343
G1 X45.575 Y51.209 E17.93971
G1 X45.929 Y50.503 E17.96597
G1 X46.354 Y49.837 E17.99225
G1 X46.843 Y49.218 E18.01849
G1 X47.393 Y48.651 E18.04476
G0 F3600 X47.739 Y48.876
G1 F1800 X48.326 Y48.396 E18.06998
G1 X49.832 Y47.288 E18.13217
G1 X50.474 Y46.865 E18.15774
G1 X51.157 Y46.511 E18.18333
G1 X51.873 Y46.23 E18.20891
G1 X52.614 Y46.025 E18.23448
G1 X53.373 Y45.897 E18.26008
G1 X54.217 Y45.849 E18.2882
G1 X195.783 Y45.849 E22.9967
G1 X196.551 Y45.889 E23.02228
G1 X197.311 Y46.008 E23.04787
G1 X198.054 Y46.206 E23.07344
G1 X198.773 Y46.48 E23.09903
G1 X199.459 Y46.827 E23.1246
G1 X200.133 Y47.263 E23.1513
G1 X201.633 Y48.353 E23.21297
G1 X202.231 Y48.837 E23.23856
G1 X202.775 Y49.38 E23.26412
G1 X203.261 Y49.977 E23.28973
G1 X203.681 Y50.621 E23.3153
G1 X204.032 Y51.305 E23.34087
G1 X204.321 Y52.052 E23.36751
G1 X204.888 Y53.797 E23.42854
G1 X205.087 Y54.54 E23.45412
G1 X205.208 Y55.3 E23.47972
G1 X205.25 Y56.056 E23.5049
G1 X205.256 Y57.663 E23.55835
G1 X205.256 Y153.898 E26.75914
G1 X205.216 Y154.666 E26.78472
G1 X205.097 Y155.426 E26.8103
G1 X204.894 Y156.184 E26.8364
G1 X204.327 Y157.93 E26.89746
G1 X204.052 Y158.648 E26.92303
G1 X203.704 Y159.334 E26.94862
G1 X203.286 Y159.979 E26.97418
G1 X202.804 Y160.579 E26.99978
G1 X202.262 Y161.124 E27.02534
G1 X201.672 Y161.606 E27.05068
G1 X200.166 Y162.713 E27.11285
G1 X199.523 Y163.136 E27.13845
G1 X198.84 Y163.49 E27.16403
G1 X198.124 Y163.771 E27.18962
G1 X197.383 Y163.976 E27.21519
G1 X196.624 Y164.103 E27.24078
G1 X195.783 Y164.151 E27.2688
G1 X54.217 Y164.151 E31.97731
G1 X53.449 Y164.111 E32.00288
G1 X52.689 Y163.992 E32.02847
G1 X51.946 Y163.794 E32.05404
G1 X51.227 Y163.52 E32.07964
G1 X50.541 Y163.173 E32.10521
G1 X49.87 Y162.739 E32.13178
G1 X48.37 Y161.65 E32.19344
G1 X47.771 Y161.167 E32.21903
G1 X47.227 Y160.624 E32.24459
G1 X46.741 Y160.027 E32.2702
G1 X46.321 Y159.383 E32.29577
G1 X45.969 Y158.699 E32.32135
G1 X45.679 Y157.948 E32.34813
G1 X45.112 Y156.202 E32.40919
G1 X44.913 Y155.459 E32.43477
G1 X44.792 Y154.699 E32.46037
G1 X44.751 Y154.003 E32.48356
G1 X44.745 Y153.491 E32.50059
G1 X44.744 Y153.404 E32.50348
G1 X44.744 Y56.102 E35.73976
G1 X44.784 Y55.334 E35.76534
G1 X44.903 Y54.574 E35.79092
G1 X45.106 Y53.815 E35.81705
G1 X45.673 Y52.07 E35.87808
G1 X45.949 Y51.352 E35.90366
G1 X46.297 Y50.666 E35.92925
G1 X46.715 Y50.021 E35.95481
G1 X47.197 Y49.422 E35.98039
G1 X47.739 Y48.876 E36.00597
G0 F3600 X48.085 Y49.104
G1 F1800 X48.563 Y48.719 E36.02639
G1 X50.069 Y47.611 E36.08857
G1 X50.694 Y47.2 E36.11345
G1 X51.36 Y46.859 E36.13834
G1 X52.058 Y46.59 E36.16322
G1 X52.781 Y46.398 E36.1881
G1 X53.52 Y46.284 E36.21297
G1 X54.217 Y46.249 E36.23618
G1 X195.783 Y46.249 E40.94468
G1 X196.53 Y46.289 E40.96957
G1 X197.268 Y46.408 E40.99443
G1 X197.99 Y46.606 E41.01933
G1 X198.686 Y46.879 E41.0442
G1 X199.349 Y47.226 E41.06908
G1 X199.898 Y47.586 E41.09092
G1 X201.398 Y48.676 E41.15259
G1 X201.979 Y49.148 E41.17749
G1 X202.506 Y49.678 E41.20235
G1 X202.973 Y50.262 E41.22722
G1 X203.376 Y50.893 E41.25212
G1 X203.709 Y51.563 E41.27701
G1 X203.94 Y52.176 E41.29879
G1 X204.507 Y53.921 E41.35982
G1 X204.7 Y54.644 E41.38471
G1 X204.815 Y55.383 E41.40958
G1 X204.85 Y56.058 E41.43206
G1 X204.856 Y57.665 E41.48551
G1 X204.856 Y153.898 E44.68624
G1 X204.816 Y154.645 E44.71112
G1 X204.697 Y155.383 E44.73598
G1 X204.514 Y156.06 E44.75931
G1 X203.947 Y157.806 E44.82036
G1 X203.678 Y158.504 E44.84524
G1 X203.336 Y159.17 E44.87014
G1 X202.926 Y159.795 E44.89501
G1 X202.45 Y160.373 E44.91991
G1 X201.916 Y160.896 E44.94477
G1 X201.435 Y161.284 E44.96532
G1 X199.929 Y162.391 E45.02749
G1 X199.303 Y162.801 E45.05238
G1 X198.638 Y163.143 E45.07725
G1 X197.939 Y163.411 E45.10215
G1 X197.216 Y163.603 E45.12703
G1 X196.477 Y163.717 E45.1519
G1 X195.783 Y163.751 E45.17501
G1 X54.217 Y163.751 E49.88352
G1 X53.47 Y163.711 E49.9084
G1 X52.732 Y163.592 E49.93326
G1 X52.01 Y163.394 E49.95816
G1 X51.314 Y163.121 E49.98303
G1 X50.651 Y162.774 E50.00791
G1 X50.105 Y162.416 E50.02963
G1 X48.605 Y161.327 E50.09128
G1 X48.024 Y160.855 E50.11618
G1 X47.496 Y160.325 E50.14106
G1 X47.028 Y159.741 E50.16595
G1 X46.626 Y159.111 E50.19081
G1 X46.292 Y158.441 E50.21571
G1 X46.059 Y157.824 E50.23765
G1 X45.492 Y156.078 E50.2987
G1 X45.3 Y155.355 E50.32358
G1 X45.185 Y154.616 E50.34846
G1 X45.15 Y153.998 E50.36905
G1 X45.144 Y153.486 E50.38608
G1 X45.144 Y56.102 E53.62508
G1 X45.184 Y55.355 E53.64996
G1 X45.303 Y54.617 E53.67483
G1 X45.487 Y53.939 E53.69819
G1 X46.054 Y52.194 E53.75922
G1 X46.322 Y51.496 E53.78409
G1 X46.664 Y50.83 E53.80899
G1 X47.075 Y50.205 E53.83387
G1 X47.55 Y49.628 E53.85872
G1 X48.085 Y49.104 E53.88363
G0 F3600 X48.429 Y49.335
G1 F1800 X48.8 Y49.041 E53.89938
G1 X50.306 Y47.933 E53.96156
G1 X50.914 Y47.535 E53.98573
G1 X51.561 Y47.207 E54.00986
G1 X52.242 Y46.952 E54.03404
G1 X52.946 Y46.773 E54.0582
G1 X53.665 Y46.672 E54.08235
G1 X54.217 Y46.649 E54.10073
G1 X195.783 Y46.649 E58.80923
G1 X196.508 Y46.689 E58.83338
G1 X197.225 Y46.808 E58.85756
G1 X197.924 Y47.006 E58.88172
G1 X198.597 Y47.279 E58.90588
G1 X199.236 Y47.624 E58.93003
G1 X199.663 Y47.91 E58.94712
G1 X201.163 Y49 E59.00879
G1 X201.726 Y49.458 E59.03293
G1 X202.235 Y49.976 E59.05709
G1 X202.685 Y50.547 E59.08127
G1 X203.069 Y51.163 E59.10541
G1 X203.383 Y51.818 E59.12957
G1 X203.56 Y52.299 E59.14662
G1 X204.127 Y54.044 E59.20764
G1 X204.313 Y54.747 E59.23183
G1 X204.421 Y55.465 E59.25598
G1 X204.45 Y56.059 E59.27576
G1 X204.456 Y57.666 E59.32921
G1 X204.456 Y153.898 E62.5299
G1 X204.416 Y154.623 E62.55405
G1 X204.297 Y155.34 E62.57822
G1 X204.133 Y155.937 E62.59881
G1 X203.566 Y157.683 E62.65987
G1 X203.304 Y158.36 E62.68401
G1 X202.969 Y159.005 E62.70819
G1 X202.566 Y159.608 E62.73231
G1 X202.098 Y160.164 E62.75648
G1 X201.572 Y160.665 E62.78064
G1 X201.198 Y160.962 E62.79653
G1 X199.692 Y162.069 E62.85869
G1 X199.084 Y162.466 E62.88285
G1 X198.436 Y162.794 E62.907
G1 X197.756 Y163.049 E62.93116
G1 X197.052 Y163.228 E62.95532
G1 X196.332 Y163.328 E62.97949
G1 X195.783 Y163.351 E62.99777
G1 X54.217 Y163.351 E67.70627
G1 X53.492 Y163.311 E67.73042
G1 X52.775 Y163.192 E67.7546
G1 X52.076 Y162.994 E67.77876
G1 X51.403 Y162.721 E67.80292
G1 X50.764 Y162.376 E67.82707
G1 X50.34 Y162.092 E67.84404
G1 X48.84 Y161.003 E67.9057
G1 X48.276 Y160.544 E67.92988
G1 X47.766 Y160.027 E67.95404
G1 X47.317 Y159.456 E67.9782
G1 X46.933 Y158.84 E68.00234
G1 X46.618 Y158.185 E68.02651
G1 X46.44 Y157.701 E68.04366
G1 X45.873 Y155.955 E68.10472
G1 X45.687 Y155.252 E68.12891
G1 X45.579 Y154.534 E68.15306
G1 X45.55 Y153.993 E68.17108
G1 X45.544 Y153.481 E68.18811
G1 X45.544 Y56.102 E71.42695
G1 X45.584 Y55.377 E71.4511
G1 X45.703 Y54.66 E71.47527
G1 X45.867 Y54.062 E71.49589
G1 X46.434 Y52.317 E71.55692
G1 X46.696 Y51.64 E71.58106
G1 X47.031 Y50.996 E71.60521
G1 X47.435 Y50.392 E71.62938
G1 X47.903 Y49.836 E71.65355
G1 X48.429 Y49.335 E71.67771
G0 F3600 X48.254 Y50.047
G1 F1800 X49.037 Y49.363 E71.71229
G1 X50.543 Y48.255 E71.77448
G1 X51.133 Y47.871 E71.79789
G1 X51.762 Y47.556 E71.82129
G1 X52.423 Y47.314 E71.8447
G1 X53.108 Y47.149 E71.86813
G1 X53.806 Y47.063 E71.89152
G1 X54.217 Y47.049 E71.9052
G1 X195.783 Y47.049 E76.61371
G1 X196.486 Y47.089 E76.63713
G1 X197.18 Y47.208 E76.66055
G1 X197.855 Y47.406 E76.68394
G1 X198.504 Y47.678 E76.70735
G1 X199.118 Y48.023 E76.73077
G1 X199.428 Y48.233 E76.74323
G1 X200.928 Y49.323 E76.8049
G1 X201.473 Y49.769 E76.82832
G1 X201.964 Y50.273 E76.85172
G1 X202.395 Y50.83 E76.87515
G1 X202.759 Y51.432 E76.89855
G1 X203.054 Y52.072 E76.92198
G1 X203.18 Y52.423 E76.93439
G1 X203.747 Y54.168 E76.99541
G1 X203.926 Y54.849 E77.01883
G1 X204.027 Y55.546 E77.04226
G1 X204.05 Y56.061 E77.0594
G1 X204.056 Y57.668 E77.11285
G1 X204.056 Y153.898 E80.31348
G1 X204.016 Y154.601 E80.3369
G1 X203.897 Y155.295 E80.36032
G1 X203.753 Y155.813 E80.3782
G1 X203.186 Y157.559 E80.43925
G1 X202.931 Y158.215 E80.46266
G1 X202.603 Y158.838 E80.48608
G1 X202.207 Y159.42 E80.50949
G1 X201.747 Y159.953 E80.53291
G1 X200.961 Y160.64 E80.56763
G1 X199.455 Y161.747 E80.6298
G1 X198.865 Y162.131 E80.65321
G1 X198.235 Y162.445 E80.67662
G1 X197.574 Y162.687 E80.70004
G1 X196.89 Y162.851 E80.72343
G1 X196.191 Y162.938 E80.74686
G1 X195.783 Y162.951 E80.76044
G1 X54.217 Y162.951 E85.46894
G1 X53.514 Y162.911 E85.49236
G1 X52.82 Y162.792 E85.51578
G1 X52.145 Y162.594 E85.53918
G1 X51.496 Y162.322 E85.56258
G1 X50.882 Y161.977 E85.58601
G1 X50.575 Y161.768 E85.59836
G1 X49.075 Y160.679 E85.66001
G1 X48.529 Y160.234 E85.68344
G1 X48.038 Y159.73 E85.70684
G1 X47.607 Y159.173 E85.73027
G1 X47.242 Y158.571 E85.75368
G1 X46.947 Y157.932 E85.77709
G1 X46.82 Y157.577 E85.78963
G1 X46.253 Y155.831 E85.85069
G1 X46.074 Y155.15 E85.87411
G1 X45.973 Y154.453 E85.89753
G1 X45.95 Y153.989 E85.91298
G1 X45.944 Y153.477 E85.93001
G1 X45.944 Y56.102 E89.16872
G1 X45.984 Y55.399 E89.19214
G1 X46.103 Y54.705 E89.21556
G1 X46.247 Y54.186 E89.23347
G1 X46.814 Y52.441 E89.2945
G1 X47.07 Y51.785 E89.31792
G1 X47.398 Y51.162 E89.34134
G1 X47.794 Y50.58 E89.36475
G1 X48.254 Y50.047 E89.38817
G0 F3600 X48.604 Y50.261
G1 F1800 X49.274 Y49.685 E89.41755
G1 X50.78 Y48.577 E89.47974
G1 X51.351 Y48.207 E89.50237
G1 X51.962 Y47.905 E89.52504
G1 X52.603 Y47.678 E89.54766
G1 X53.267 Y47.527 E89.5703
G1 X54.217 Y47.449 E89.60201
G1 X195.783 Y47.449 E94.31051
G1 X196.463 Y47.489 E94.33317
G1 X197.133 Y47.608 E94.3558
G1 X197.785 Y47.805 E94.37845
G1 X198.409 Y48.077 E94.4011
G1 X199.193 Y48.557 E94.43167
G1 X200.693 Y49.647 E94.49334
G1 X201.219 Y50.079 E94.51598
G1 X201.691 Y50.569 E94.53861
G1 X202.102 Y51.112 E94.56126
G1 X202.447 Y51.699 E94.58391
G1 X202.799 Y52.547 E94.61444
G1 X203.366 Y54.292 E94.67547
G1 X203.538 Y54.95 E94.69809
G1 X203.632 Y55.625 E94.72076
G1 X203.65 Y56.062 E94.7353
G1 X203.656 Y57.669 E94.78875
G1 X203.656 Y153.898 E97.98934
G1 X203.616 Y154.578 E98.012
G1 X203.497 Y155.248 E98.03463
G1 X203.372 Y155.689 E98.04988
G1 X202.805 Y157.435 E98.11094
G1 X202.557 Y158.07 E98.13361
G1 X202.237 Y158.67 E98.15623
G1 X201.848 Y159.229 E98.17888
G1 X201.397 Y159.739 E98.20152
G1 X200.724 Y160.317 E98.23103
G1 X199.218 Y161.424 E98.29319
G1 X198.647 Y161.795 E98.31584
G1 X198.036 Y162.096 E98.3385
G1 X197.394 Y162.323 E98.36114
G1 X196.73 Y162.473 E98.38379
G1 X195.783 Y162.551 E98.41539
G1 X54.217 Y162.551 E103.12389
G1 X53.537 Y162.511 E103.14655
G1 X52.867 Y162.392 E103.16918
G1 X52.215 Y162.195 E103.19184
G1 X51.591 Y161.923 E103.21448
G1 X50.81 Y161.445 E103.24493
G1 X49.31 Y160.356 E103.30658
G1 X48.783 Y159.924 E103.32925
G1 X48.311 Y159.433 E103.3519
G1 X47.899 Y158.891 E103.37455
G1 X47.554 Y158.304 E103.39719
G1 X47.201 Y157.453 E103.42783
G1 X46.634 Y155.707 E103.48889
G1 X46.462 Y155.049 E103.51151
G1 X46.368 Y154.374 E103.53418
G1 X46.35 Y153.984 E103.54716
G1 X46.344 Y153.472 E103.5642
G1 X46.344 Y56.102 E106.80273
G1 X46.384 Y55.422 E106.82539
G1 X46.503 Y54.752 E106.84802
G1 X46.628 Y54.31 E106.8633
G1 X47.195 Y52.565 E106.92433
G1 X47.443 Y51.931 E106.94697
G1 X47.764 Y51.33 E106.96963
G1 X48.152 Y50.771 E106.99226
G1 X48.604 Y50.261 E107.01493
G0 F3600 X48.953 Y50.479
G1 F1800 X49.511 Y50.007 E107.03924
G1 X51.017 Y48.899 E107.10142
G1 X51.569 Y48.543 E107.12327
G1 X52.16 Y48.256 E107.14512
G1 X52.781 Y48.043 E107.16696
G1 X53.424 Y47.908 E107.18881
G1 X54.217 Y47.849 E107.21526
G1 X195.783 Y47.849 E111.92376
G1 X196.439 Y47.889 E111.94562
G1 X197.085 Y48.008 E111.96747
G1 X197.712 Y48.205 E111.98933
G1 X198.31 Y48.477 E112.01118
G1 X198.957 Y48.881 E112.03655
G1 X200.457 Y49.971 E112.09822
G1 X200.964 Y50.388 E112.12005
G1 X201.417 Y50.865 E112.14193
G1 X201.808 Y51.392 E112.16376
G1 X202.133 Y51.964 E112.18564
G1 X202.419 Y52.67 E112.21098
G1 X202.986 Y54.415 E112.272
G1 X203.15 Y55.051 E112.29385
G1 X203.237 Y55.703 E112.31573
G1 X203.25 Y56.064 E112.32774
G1 X203.256 Y57.671 E112.38119
G1 X203.256 Y153.898 E115.58171
G1 X203.216 Y154.554 E115.60357
G1 X203.097 Y155.2 E115.62542
G1 X202.992 Y155.566 E115.63808
G1 X202.425 Y157.312 E115.69914
G1 X202.184 Y157.923 E115.72099
G1 X201.871 Y158.501 E115.74285
G1 X201.491 Y159.036 E115.76467
G1 X201.048 Y159.521 E115.78652
G1 X200.487 Y159.995 E115.81095
G1 X198.981 Y161.102 E115.87312
G1 X198.429 Y161.458 E115.89496
G1 X197.838 Y161.745 E115.91681
G1 X197.216 Y161.957 E115.93867
G1 X196.574 Y162.093 E115.9605
G1 X195.783 Y162.151 E115.98688
G1 X54.217 Y162.151 E120.69538
G1 X53.561 Y162.111 E120.71724
G1 X52.915 Y161.992 E120.73909
G1 X52.288 Y161.795 E120.76095
G1 X51.69 Y161.523 E120.7828
G1 X51.045 Y161.121 E120.80808
G1 X49.545 Y160.032 E120.86973
G1 X49.037 Y159.614 E120.89161
G1 X48.585 Y159.138 E120.91344
G1 X48.193 Y158.611 E120.93529
G1 X47.869 Y158.039 E120.95715
G1 X47.581 Y157.33 E120.9826
G1 X47.014 Y155.584 E121.04366
G1 X46.849 Y154.948 E121.06551
G1 X46.75 Y153.979 E121.09791
G1 X46.744 Y153.467 E121.11494
G1 X46.744 Y56.102 E124.35332
G1 X46.784 Y55.446 E124.37517
G1 X46.903 Y54.8 E124.39702
G1 X47.008 Y54.433 E124.40972
G1 X47.575 Y52.688 E124.47074
G1 X47.816 Y52.077 E124.49259
G1 X48.129 Y51.499 E124.51445
G1 X48.51 Y50.964 E124.5363
G1 X48.953 Y50.479 E124.55814
G0 F3600 X49.301 Y50.701
G1 F1800 X49.748 Y50.33 E124.57747
