;FLAVOR:Marlin
;TIME:13644
;Filament used: 10.9794m
;Layer height: 0.15
;MINX:52.443
;MINY:52.487
;MINZ:0.2
;MAXX:197.557
;MAXY:156.648
;MAXZ:11
;Generated with Cura_SteamEngine 4.4.0
M82 ;absolute extrusion mode
G21 ; set units to millimeters
G90 ; use absolute positioning
M82 ; absolute extrusion mode
M104 S210 ; set extruder temp
M140 S60 ; set bed temp
M190 S60 ; wait for bed temp
M109 S210 ; wait for extruder temp
G28 W ; home all without mesh bed level
G80 ; mesh bed leveling
G92 E0.0 ; reset extruder distance position
G1 Y-3.0 F1000.0 ; go outside print area
G1 X60.0 E9.0 F1000.0 ; intro line
G1 X100.0 E21.5 F1000.0 ; intro line
G92 E0.0 ; reset extruder distance position
G92 E0
G92 E0
G1 F2100 E-0.8
;LAYER_COUNT:73
;LAYER:0
M107
;MESH:teachplate_core_larger.stl
G0 F3600 X55.892 Y58.419 Z0.2
;TYPE:WALL-OUTER
G1 F2100 E0
G1 F1800 X56.027 Y58.834 E0.01451
G1 X56.241 Y59.205 E0.02876
G1 X56.534 Y59.529 E0.04329
G1 X56.882 Y59.78 E0.05756
G1 X57.273 Y59.951 E0.07175
G1 X57.693 Y60.04 E0.08603
G1 X58.122 Y60.039 E0.1003
G1 X58.542 Y59.947 E0.1146
G1 X58.932 Y59.772 E0.12882
G1 X59.274 Y59.525 E0.14285
G1 X59.561 Y59.205 E0.15715
G1 X59.775 Y58.834 E0.17139
G1 X59.908 Y58.427 E0.18564
G1 X59.952 Y58 E0.19991
G1 X59.908 Y57.573 E0.21419
G1 X59.775 Y57.166 E0.22843
G1 X59.561 Y56.795 E0.24268
G1 X59.268 Y56.471 E0.25721
G1 X58.92 Y56.22 E0.27148
G1 X58.529 Y56.049 E0.28567
G1 X58.109 Y55.96 E0.29995
G1 X57.68 Y55.961 E0.31422
G1 X57.26 Y56.053 E0.32852
G1 X56.87 Y56.228 E0.34274
G1 X56.528 Y56.475 E0.35677
G1 X56.241 Y56.795 E0.37106
G1 X56.027 Y57.166 E0.38531
G1 X55.894 Y57.573 E0.39955
G1 X55.85 Y58 E0.41383
G1 X55.892 Y58.419 E0.42783
G0 F3600 X55.953 Y58.609
G0 X55.478 Y58.763
G0 X56.157 Y149.141
G0 X56.528 Y149.475
G1 F1800 X56.241 Y149.795 E0.44213
G1 X56.027 Y150.166 E0.45638
G1 X55.894 Y150.573 E0.47062
G1 X55.85 Y151 E0.48489
G1 X55.894 Y151.427 E0.49917
G1 X56.027 Y151.834 E0.51341
G1 X56.241 Y152.205 E0.52766
G1 X56.529 Y152.525 E0.54198
G1 X56.882 Y152.78 E0.55646
G1 X57.273 Y152.951 E0.57066
G1 X57.693 Y153.04 E0.58493
G1 X58.122 Y153.039 E0.5992
G1 X58.542 Y152.947 E0.6135
G1 X58.932 Y152.772 E0.62772
G1 X59.274 Y152.525 E0.64175
G1 X59.561 Y152.205 E0.65605
G1 X59.775 Y151.834 E0.67029
G1 X59.908 Y151.427 E0.68454
G1 X59.952 Y151 E0.69881
G1 X59.908 Y150.573 E0.71309
G1 X59.775 Y150.166 E0.72733
G1 X59.561 Y149.795 E0.74158
G1 X59.268 Y149.471 E0.75611
G1 X58.92 Y149.22 E0.77038
G1 X58.529 Y149.049 E0.78457
G1 X58.109 Y148.96 E0.79885
G1 X57.68 Y148.961 E0.81312
G1 X57.26 Y149.053 E0.82742
G1 X56.87 Y149.228 E0.84164
G1 X56.528 Y149.475 E0.85567
G0 F3600 X56.395 Y149.624
G0 X56.024 Y149.29
G0 X57.122 Y148.634
G0 X181.884 Y144.987
G0 X183.752 Y144.623
G0 X183.642 Y144.136
G1 F1800 X184.457 Y142.444 E0.91813
G1 X184.457 Y67.556 E3.40892
G1 X183.642 Y65.864 E3.47138
G1 X181.835 Y65.452 E3.53303
G1 X67.03 Y65.452 E7.35146
G1 X65.543 Y66.638 E7.41472
G1 X65.543 Y143.362 E9.96657
G1 X67.03 Y144.548 E10.02983
G1 X181.835 Y144.548 E13.84826
G1 X183.642 Y144.136 E13.9099
G0 F3600 X183.728 Y143.956
G0 X184.179 Y144.173
G0 X190.157 Y149.141
G0 X190.528 Y149.475
G1 F1800 X190.241 Y149.795 E13.9242
G1 X190.027 Y150.166 E13.93845
G1 X189.894 Y150.573 E13.95269
G1 X189.85 Y151 E13.96696
G1 X189.894 Y151.427 E13.98124
G1 X190.027 Y151.834 E13.99548
G1 X190.241 Y152.205 E14.00973
G1 X190.534 Y152.529 E14.02426
G1 X190.882 Y152.78 E14.03853
G1 X191.273 Y152.951 E14.05272
G1 X191.687 Y153.04 E14.06681
G1 X192.122 Y153.039 E14.08128
G1 X192.542 Y152.947 E14.09558
G1 X192.932 Y152.772 E14.10979
G1 X193.274 Y152.525 E14.12382
G1 X193.561 Y152.205 E14.13812
G1 X193.775 Y151.834 E14.15237
G1 X193.908 Y151.427 E14.16661
G1 X193.952 Y151 E14.18089
G1 X193.908 Y150.573 E14.19516
G1 X193.775 Y150.166 E14.2094
G1 X193.561 Y149.795 E14.22365
G1 X193.268 Y149.471 E14.23818
G1 X192.92 Y149.22 E14.25245
G1 X192.529 Y149.049 E14.26664
G1 X192.109 Y148.96 E14.28092
G1 X191.68 Y148.961 E14.29519
G1 X191.26 Y149.053 E14.30949
G1 X190.87 Y149.228 E14.32371
G1 X190.528 Y149.475 E14.33774
G0 F3600 X190.395 Y149.624
G0 X190.024 Y149.29
G0 X189.408 Y58
G0 X189.592 Y57.081
G0 X190.157 Y56.141
G0 X190.528 Y56.475
G1 F1800 X190.241 Y56.795 E14.35204
G1 X190.027 Y57.166 E14.36628
G1 X189.894 Y57.573 E14.38052
G1 X189.85 Y58 E14.3948
G1 X189.894 Y58.427 E14.40908
G1 X190.027 Y58.834 E14.42332
G1 X190.241 Y59.205 E14.43756
G1 X190.534 Y59.529 E14.45209
G1 X190.882 Y59.78 E14.46637
G1 X191.273 Y59.951 E14.48056
G1 X191.693 Y60.04 E14.49484
G1 X192.122 Y60.039 E14.50911
G1 X192.542 Y59.947 E14.52341
G1 X192.932 Y59.772 E14.53763
G1 X193.274 Y59.525 E14.55166
G1 X193.561 Y59.205 E14.56595
G1 X193.775 Y58.834 E14.5802
G1 X193.908 Y58.427 E14.59444
G1 X193.952 Y58 E14.60872
G1 X193.908 Y57.573 E14.62299
G1 X193.775 Y57.166 E14.63724
G1 X193.561 Y56.795 E14.65148
G1 X193.273 Y56.475 E14.6658
G1 X192.92 Y56.22 E14.68028
G1 X192.529 Y56.049 E14.69448
G1 X192.109 Y55.96 E14.70876
G1 X191.68 Y55.961 E14.72303
G1 X191.26 Y56.053 E14.73733
G1 X190.87 Y56.228 E14.75154
G1 X190.528 Y56.475 E14.76558
G0 F3600 X190.395 Y56.624
G0 X190.024 Y56.29
G0 X191.122 Y55.634
G0 X197.052 Y55.247
G0 X197.549 Y55.132
G1 F1800 X197.557 Y56.714 E14.81819
G1 X197.557 Y154.853 E18.08231
G1 X196.873 Y156.273 E18.13473
G1 X195.287 Y156.648 E18.18894
G1 X53.67 Y156.648 E22.89914
G1 X52.443 Y155.67 E22.95133
G1 X52.443 Y54.695 E26.30977
G1 X52.453 Y54.322 E26.32218
G1 X53.67 Y53.352 E26.37394
G1 X195.29 Y53.352 E31.08424
G1 X196.866 Y53.711 E31.138
G1 X197.549 Y55.132 E31.19044
G0 F3600 X197.55 Y55.332
G0 X197.149 Y55.225
;TYPE:WALL-INNER
G1 F1800 X197.157 Y56.714 E31.23997
G1 X197.157 Y154.762 E34.50106
G1 X196.595 Y155.928 E34.54411
G1 X195.242 Y156.248 E34.59035
G1 X53.81 Y156.248 E39.2944
G1 X52.843 Y155.477 E39.33553
G1 X52.843 Y54.706 E42.68719
G1 X52.848 Y54.519 E42.69341
G1 X53.81 Y53.752 E42.73433
G1 X195.245 Y53.752 E47.43848
G1 X196.589 Y54.058 E47.48432
G1 X197.149 Y55.225 E47.52738
G0 F3600 X197.052 Y55.247
G0 X191.632 Y55.522
G0 X190.649 Y55.846
G0 X189.95 Y56.462
G0 X189.403 Y57.469
G0 X189.5 Y57.489
G1 F1800 X189.448 Y58 E47.54446
G1 X189.5 Y58.511 E47.56154
G1 X189.66 Y58.998 E47.57859
G1 X189.916 Y59.442 E47.59564
G1 X190.266 Y59.829 E47.61299
G1 X190.683 Y60.129 E47.63008
G1 X191.15 Y60.334 E47.64704
G1 X191.652 Y60.44 E47.66411
G1 X192.166 Y60.439 E47.6812
G1 X192.668 Y60.329 E47.6983
G1 X193.133 Y60.12 E47.71525
G1 X193.543 Y59.824 E47.73207
G1 X193.887 Y59.441 E47.74919
G1 X194.142 Y58.998 E47.76619
G1 X194.302 Y58.511 E47.78324
G1 X194.354 Y58 E47.80033
G1 X194.302 Y57.489 E47.81741
G1 X194.142 Y57.002 E47.83446
G1 X193.886 Y56.559 E47.85148
G1 X193.542 Y56.176 E47.8686
G1 X193.12 Y55.871 E47.88592
G1 X192.652 Y55.666 E47.90291
G1 X192.15 Y55.56 E47.91998
G1 X191.636 Y55.561 E47.93707
G1 X191.134 Y55.671 E47.95417
G1 X190.669 Y55.88 E47.97112
G1 X190.259 Y56.176 E47.98794
G1 X189.915 Y56.559 E48.00506
G1 X189.66 Y57.002 E48.02206
G1 X189.5 Y57.489 E48.03911
G0 F3600 X189.403 Y57.469
G0 X184.895 Y142.543
G0 X183.981 Y144.561
G0 X183.919 Y144.483
G1 F1800 X184.857 Y142.535 E48.11102
G1 X184.857 Y67.465 E50.60786
G1 X183.919 Y65.517 E50.67977
G1 X181.88 Y65.052 E50.74933
G1 X66.89 Y65.052 E54.57392
G1 X65.143 Y66.445 E54.64823
G1 X65.143 Y143.555 E57.21292
G1 X66.89 Y144.948 E57.28724
G1 X181.88 Y144.948 E61.11182
G1 X183.919 Y144.483 E61.18138
G0 F3600 X183.981 Y144.561
G0 X189.403 Y150.469
G0 X189.5 Y150.489
G1 F1800 X189.448 Y151 E61.19846
G1 X189.5 Y151.511 E61.21554
G1 X189.66 Y151.998 E61.23259
G1 X189.916 Y152.442 E61.24964
G1 X190.266 Y152.829 E61.267
G1 X190.683 Y153.129 E61.28408
G1 X191.15 Y153.334 E61.30104
G1 X191.645 Y153.44 E61.31788
G1 X192.166 Y153.439 E61.33521
G1 X192.668 Y153.329 E61.3523
G1 X193.133 Y153.12 E61.36926
G1 X193.543 Y152.824 E61.38608
G1 X193.887 Y152.441 E61.4032
G1 X194.142 Y151.998 E61.4202
G1 X194.302 Y151.511 E61.43725
G1 X194.354 Y151 E61.45433
G1 X194.302 Y150.489 E61.47142
G1 X194.142 Y150.002 E61.48847
G1 X193.886 Y149.558 E61.50551
G1 X193.536 Y149.171 E61.52287
G1 X193.119 Y148.871 E61.53996
G1 X192.652 Y148.666 E61.55692
G1 X192.15 Y148.56 E61.57398
G1 X191.636 Y148.561 E61.59108
G1 X191.134 Y148.671 E61.60817
G1 X190.669 Y148.88 E61.62513
G1 X190.259 Y149.176 E61.64195
G1 X189.915 Y149.559 E61.65907
G1 X189.66 Y150.002 E61.67607
G1 X189.5 Y150.489 E61.69312
G0 F3600 X189.403 Y150.469
G0 X57.632 Y148.522
G0 X56.649 Y148.846
G0 X55.95 Y149.462
G0 X55.403 Y150.469
G0 X55.5 Y150.489
G1 F1800 X55.448 Y151 E61.7102
G1 X55.5 Y151.511 E61.72729
G1 X55.66 Y151.998 E61.74434
G1 X55.916 Y152.441 E61.76135
G1 X56.26 Y152.824 E61.77848
G1 X56.682 Y153.129 E61.79579
G1 X57.15 Y153.334 E61.81279
G1 X57.652 Y153.44 E61.82985
G1 X58.166 Y153.439 E61.84695
G1 X58.668 Y153.329 E61.86404
G1 X59.133 Y153.12 E61.881
G1 X59.543 Y152.824 E61.89782
G1 X59.887 Y152.441 E61.91494
G1 X60.142 Y151.998 E61.93194
G1 X60.302 Y151.511 E61.94899
G1 X60.354 Y151 E61.96607
G1 X60.302 Y150.489 E61.98316
G1 X60.142 Y150.002 E62.00021
G1 X59.886 Y149.558 E62.01725
G1 X59.536 Y149.171 E62.03461
G1 X59.119 Y148.871 E62.05169
G1 X58.652 Y148.666 E62.06866
G1 X58.15 Y148.56 E62.08572
G1 X57.636 Y148.561 E62.10282
G1 X57.134 Y148.671 E62.11991
G1 X56.669 Y148.88 E62.13687
G1 X56.259 Y149.176 E62.15369
G1 X55.915 Y149.559 E62.17081
G1 X55.66 Y150.002 E62.18781
G1 X55.5 Y150.489 E62.20486
G0 F3600 X55.403 Y150.469
G0 X55.401 Y58.522
G0 X55.498 Y58.502
G1 F1800 X55.66 Y58.998 E62.22221
G1 X55.916 Y59.442 E62.23926
G1 X56.266 Y59.829 E62.25661
G1 X56.683 Y60.129 E62.2737
G1 X57.15 Y60.334 E62.29066
G1 X57.652 Y60.44 E62.30773
G1 X58.166 Y60.439 E62.32482
G1 X58.668 Y60.329 E62.34192
G1 X59.133 Y60.12 E62.35887
G1 X59.543 Y59.824 E62.37569
G1 X59.887 Y59.441 E62.39281
G1 X60.142 Y58.998 E62.40982
G1 X60.302 Y58.511 E62.42686
G1 X60.354 Y58 E62.44395
G1 X60.302 Y57.489 E62.46103
G1 X60.142 Y57.002 E62.47808
G1 X59.886 Y56.558 E62.49513
G1 X59.536 Y56.171 E62.51248
G1 X59.119 Y55.871 E62.52957
G1 X58.652 Y55.666 E62.54653
G1 X58.15 Y55.56 E62.5636
G1 X57.636 Y55.561 E62.58069
G1 X57.134 Y55.671 E62.59779
G1 X56.669 Y55.88 E62.61474
G1 X56.259 Y56.176 E62.63156
G1 X55.915 Y56.559 E62.64868
G1 X55.66 Y57.002 E62.66568
G1 X55.5 Y57.489 E62.68273
G1 X55.448 Y57.999 E62.69978
G1 X55.498 Y58.502 E62.7166
G0 F3600 X55.114 Y58.582
;TYPE:SKIN
G1 F1800 X55.302 Y59.158 E62.73675
G1 X55.599 Y59.672 E62.75649
G1 X56.005 Y60.121 E62.77663
G1 X56.488 Y60.47 E62.79645
G1 X57.03 Y60.707 E62.81612
G1 X57.611 Y60.83 E62.83587
G1 X58.209 Y60.829 E62.85576
G1 X58.791 Y60.701 E62.87558
G1 X59.33 Y60.459 E62.89523
G1 X59.805 Y60.116 E62.91472
G1 X60.205 Y59.671 E62.93462
G1 X60.5 Y59.158 E62.95431
G1 X60.686 Y58.593 E62.97409
G1 X60.746 Y58 E62.99391
G1 X60.686 Y57.407 E63.01374
G1 X60.5 Y56.842 E63.03352
G1 X60.203 Y56.328 E63.05327
G1 X59.797 Y55.879 E63.0734
G1 X59.314 Y55.53 E63.09322
G1 X58.772 Y55.293 E63.11289
G1 X58.191 Y55.17 E63.13265
G1 X57.593 Y55.171 E63.15254
G1 X57.011 Y55.299 E63.17236
G1 X56.472 Y55.541 E63.19201
G1 X55.997 Y55.884 E63.21149
G1 X55.597 Y56.329 E63.2314
G1 X55.302 Y56.842 E63.25108
G1 X55.116 Y57.407 E63.27086
G1 X55.056 Y57.999 E63.29065
G1 X55.114 Y58.582 E63.31014
G0 F3600 X53.233 Y54.711
G1 F1800 X53.947 Y54.142 E63.34051
G1 X195.203 Y54.142 E68.0387
G1 X196.32 Y54.396 E68.0768
G1 X196.759 Y55.314 E68.11064
G1 X196.767 Y56.714 E68.15721
G1 X196.767 Y154.673 E71.41534
G1 X196.326 Y155.591 E71.44921
G1 X195.194 Y155.858 E71.4879
G1 X53.947 Y155.858 E76.18579
G1 X53.233 Y155.289 E76.21616
G1 X53.233 Y54.711 E79.56139
G0 F3600 X55.884 Y59.465
G0 X64.753 Y66.258
G1 F1800 X64.753 Y143.742 E82.13852
G1 X66.754 Y145.338 E82.22365
G1 X181.924 Y145.338 E86.05422
G1 X184.188 Y144.822 E86.13145
G1 X185.247 Y142.624 E86.2126
G1 X185.247 Y67.376 E88.71536
G1 X184.188 Y65.178 E88.79651
G1 X181.924 Y64.662 E88.87374
G1 X66.754 Y64.662 E92.70431
G1 X64.753 Y66.258 E92.78944
G0 F3600 X57.593 Y148.171
G1 F1800 X57.011 Y148.299 E92.80926
G1 X56.472 Y148.541 E92.82891
G1 X55.997 Y148.884 E92.8484
G1 X55.597 Y149.329 E92.8683
G1 X55.302 Y149.842 E92.88798
G1 X55.116 Y150.407 E92.90777
G1 X55.056 Y151 E92.92759
G1 X55.116 Y151.593 E92.94742
G1 X55.302 Y152.158 E92.9672
G1 X55.598 Y152.671 E92.9869
G1 X55.998 Y153.116 E93.0068
G1 X56.487 Y153.47 E93.02688
G1 X57.031 Y153.707 E93.04662
G1 X57.611 Y153.83 E93.06633
G1 X58.209 Y153.829 E93.08622
G1 X58.791 Y153.701 E93.10604
G1 X59.33 Y153.459 E93.1257
G1 X59.805 Y153.116 E93.14518
G1 X60.205 Y152.671 E93.16508
G1 X60.5 Y152.158 E93.18477
G1 X60.686 Y151.593 E93.20455
G1 X60.746 Y151 E93.22437
G1 X60.686 Y150.407 E93.2442
G1 X60.5 Y149.842 E93.26398
G1 X60.203 Y149.328 E93.28373
G1 X59.797 Y148.879 E93.30386
G1 X59.314 Y148.53 E93.32368
G1 X58.772 Y148.293 E93.34336
G1 X58.191 Y148.17 E93.36311
G1 X57.593 Y148.171 E93.383
G0 F3600 X189.597 Y149.329
G1 F1800 X189.302 Y149.842 E93.40268
G1 X189.116 Y150.407 E93.42246
G1 X189.056 Y151 E93.44229
G1 X189.116 Y151.593 E93.46211
G1 X189.302 Y152.158 E93.4819
G1 X189.599 Y152.672 E93.50164
G1 X190.005 Y153.121 E93.52177
G1 X190.488 Y153.47 E93.54159
G1 X191.029 Y153.707 E93.56124
G1 X191.604 Y153.83 E93.5808
G1 X192.209 Y153.829 E93.60092
G1 X192.791 Y153.701 E93.62074
G1 X193.33 Y153.459 E93.64039
G1 X193.805 Y153.116 E93.65988
G1 X194.205 Y152.671 E93.67978
G1 X194.5 Y152.158 E93.69946
G1 X194.686 Y151.593 E93.71924
G1 X194.746 Y151 E93.73907
G1 X194.686 Y150.407 E93.75889
G1 X194.5 Y149.842 E93.77868
G1 X194.203 Y149.328 E93.79842
G1 X193.797 Y148.879 E93.81855
G1 X193.314 Y148.53 E93.83837
G1 X192.772 Y148.293 E93.85805
G1 X192.191 Y148.17 E93.8778
G1 X191.593 Y148.171 E93.89769
G1 X191.011 Y148.299 E93.91751
G1 X190.472 Y148.541 E93.93716
G1 X189.997 Y148.884 E93.95665
G1 X189.597 Y149.329 E93.97655
G0 F3600 X189.056 Y58
G1 F1800 X189.116 Y58.593 E93.99637
G1 X189.302 Y59.158 E94.01616
G1 X189.599 Y59.672 E94.0359
G1 X190.005 Y60.121 E94.05604
G1 X190.488 Y60.47 E94.07586
G1 X191.03 Y60.707 E94.09553
G1 X191.611 Y60.83 E94.11528
G1 X192.209 Y60.829 E94.13517
G1 X192.791 Y60.701 E94.15499
G1 X193.33 Y60.459 E94.17464
G1 X193.805 Y60.116 E94.19413
G1 X194.205 Y59.671 E94.21403
G1 X194.5 Y59.158 E94.23371
G1 X194.686 Y58.593 E94.2535
G1 X194.746 Y58 E94.27332
G1 X194.686 Y57.407 E94.29315
G1 X194.5 Y56.842 E94.31293
G1 X194.204 Y56.329 E94.33263
G1 X193.804 Y55.884 E94.35253
G1 X193.315 Y55.53 E94.37261
G1 X192.771 Y55.293 E94.39235
G1 X192.191 Y55.17 E94.41207
G1 X191.593 Y55.171 E94.43196
G1 X191.011 Y55.299 E94.45178
G1 X190.472 Y55.541 E94.47143
G1 X189.997 Y55.884 E94.49091
G1 X189.597 Y56.329 E94.51081
G1 X189.302 Y56.842 E94.5305
G1 X189.116 Y57.407 E94.55028
G1 X189.056 Y58 E94.57011
G0 F3600 X189.883 Y56.536
G0 X190.649 Y55.846
G0 X195.909 Y54.488
G1 F1800 X196.398 Y54.976 E94.59308
G0 F3600 X196.581 Y55.725
G1 F1800 X195.177 Y54.322 E94.6591
G0 F3600 X194.612 Y54.322
G1 F1800 X196.584 Y56.294 E94.75186
G0 F3600 X196.586 Y56.861
G1 F1800 X194.046 Y54.322 E94.87131
G0 F3600 X193.48 Y54.322
G1 F1800 X196.586 Y57.427 E95.01738
G0 F3600 X196.586 Y57.993
G1 F1800 X192.914 Y54.322 E95.19008
G0 F3600 X192.349 Y54.322
G1 F1800 X193.395 Y55.368 E95.23928
G1 X193.465 Y55.438
G0 F3600 X192.517 Y55.056
G1 F1800 X191.783 Y54.322 E95.2738
G0 F3600 X191.217 Y54.322
G1 F1800 X191.886 Y54.99 E95.30525
G0 F3600 X191.366 Y55.036
G1 F1800 X190.652 Y54.322 E95.33883
G0 F3600 X190.086 Y54.322
G1 F1800 X190.91 Y55.145 E95.37756
G0 F3600 X190.519 Y55.32
G1 F1800 X189.52 Y54.322 E95.42453
G0 F3600 X188.955 Y54.322
G1 F1800 X190.169 Y55.536 E95.48163
G0 F3600 X189.848 Y55.78
G1 F1800 X188.389 Y54.322 E95.55024
G0 F3600 X187.823 Y54.322
G1 F1800 X189.58 Y56.078 E95.63286
G0 F3600 X189.343 Y56.407
G1 F1800 X187.258 Y54.322 E95.73093
G0 F3600 X186.692 Y54.322
G1 F1800 X189.136 Y56.765 E95.84586
G0 F3600 X188.996 Y57.191
G1 F1800 X186.126 Y54.322 E95.98084
G0 F3600 X185.561 Y54.322
G1 F1800 X188.908 Y57.669 E96.13827
G0 F3600 X188.897 Y58.223
G1 F1800 X184.995 Y54.322 E96.32178
G0 F3600 X184.429 Y54.322
G1 F1800 X189.035 Y58.928 E96.53844
G1 X189.105 Y58.998
