;FLAVOR:Marlin
;TIME:801
;Filament used: 1.00213m
;Layer height: 0.3
;MINX:100.258
;MINY:77.729
;MINZ:0.2
;MAXX:149.742
;MAXY:132.271
;MAXZ:2.9
;Generated with Cura_SteamEngine 4.4.0
M82 ;absolute extrusion mode
G21 ; set units to millimeters
G90 ; use absolute positioning
M82 ; absolute extrusion mode
M104 S210 ; set extruder temp
M140 S60 ; set bed temp
M190 S60 ; wait for bed temp
M109 S210 ; wait for extruder temp
G28 W ; home all without mesh bed level
G80 ; mesh bed leveling
G92 E0.0 ; reset extruder distance position
G1 Y-3.0 F1000.0 ; go outside print area
G1 X60.0 E9.0 F1000.0 ; intro line
G1 X100.0 E21.5 F1000.0 ; intro line
G92 E0.0 ; reset extruder distance position
G92 E0
G92 E0
G1 F2100 E-0.8
;LAYER_COUNT:10
;LAYER:0
M107
G0 F3600 X103.069 Y81.756 Z0.2
;TYPE:SKIRT
G1 F2100 E0
G1 F1800 X103.195 Y81.614 E0.00631
G1 X103.748 Y81.051 E0.03256
G1 X104.602 Y80.369 E0.06891
G1 X106.096 Y79.339 E0.12927
G1 X106.768 Y78.925 E0.15552
G1 X107.478 Y78.58 E0.18177
G1 X108.22 Y78.309 E0.20805
G1 X108.985 Y78.114 E0.23431
G1 X109.579 Y78.018 E0.25432
G1 X111.481 Y77.786 E0.31805
G1 X112.425 Y77.729 E0.3495
G1 X138.424 Y77.729 E1.21423
G1 X139.213 Y77.769 E1.24051
G1 X139.993 Y77.888 E1.26675
G1 X140.758 Y78.086 E1.29303
G1 X141.189 Y78.236 E1.30821
G1 X142.98 Y78.915 E1.37192
G1 X143.703 Y79.232 E1.39818
G1 X144.391 Y79.62 E1.42445
G1 X145.036 Y80.076 E1.45072
G1 X145.631 Y80.595 E1.47698
G1 X146.054 Y81.037 E1.49733
G1 X147.323 Y82.47 E1.56099
G1 X147.816 Y83.087 E1.58726
G1 X148.244 Y83.75 E1.61351
G1 X148.603 Y84.454 E1.63979
G1 X148.889 Y85.19 E1.66605
G1 X149.058 Y85.777 E1.68637
G1 X149.492 Y87.54 E1.74676
G1 X149.642 Y88.315 E1.77301
G1 X149.718 Y89.398 E1.80912
G1 X149.742 Y120.496 E2.84345
G1 X149.703 Y121.285 E2.86972
G1 X149.516 Y122.366 E2.90621
G1 X149.082 Y124.129 E2.9666
G1 X149.066 Y124.195 E2.96886
G1 X149.042 Y124.289 E2.97208
G1 X148.808 Y125.043 E2.99834
G1 X148.499 Y125.77 E3.02461
G1 X148.118 Y126.461 E3.05086
G1 X147.669 Y127.111 E3.07714
G1 X147.32 Y127.534 E3.09537
G1 X146.145 Y128.859 E3.15428
G1 X146.12 Y128.888 E3.15555
G1 X145.574 Y129.459 E3.18183
G1 X144.974 Y129.972 E3.20808
G1 X144.325 Y130.421 E3.23433
G1 X143.633 Y130.803 E3.26062
G1 X142.98 Y131.085 E3.28428
G1 X141.189 Y131.764 E3.34798
G1 X140.437 Y132.007 E3.37427
G1 X139.665 Y132.172 E3.40053
G1 X138.88 Y132.258 E3.42679
G1 X138.424 Y132.271 E3.44196
G1 X112.425 Y132.271 E4.30669
G1 X111.481 Y132.214 E4.33815
G1 X109.579 Y131.982 E4.40188
G1 X108.801 Y131.846 E4.42815
G1 X108.04 Y131.633 E4.45443
G1 X107.305 Y131.344 E4.4807
G1 X106.603 Y130.983 E4.50695
G1 X106.099 Y130.663 E4.52681
G1 X104.525 Y129.579 E4.59038
G1 X103.898 Y129.099 E4.61664
G1 X103.323 Y128.558 E4.6429
G1 X102.806 Y127.961 E4.66917
G1 X102.351 Y127.315 E4.69545
G1 X102.042 Y126.78 E4.716
G1 X101.196 Y125.168 E4.77655
G1 X101.192 Y125.159 E4.77687
G1 X101.147 Y125.073 E4.7801
G1 X100.817 Y124.356 E4.80635
G1 X100.561 Y123.609 E4.83262
G1 X100.382 Y122.84 E4.85888
G1 X100.281 Y122.057 E4.88514
G1 X100.258 Y121.457 E4.90511
G1 X100.258 Y88.543 E5.99983
G1 X100.298 Y87.754 E6.02611
G1 X100.417 Y86.974 E6.05235
G1 X100.615 Y86.209 E6.07863
G1 X100.889 Y85.469 E6.10488
G1 X101.151 Y84.918 E6.12517
G1 X101.996 Y83.308 E6.18565
G1 X102.398 Y82.628 E6.21192
G1 X103.069 Y81.756 E6.24852
G0 F3600 X103.368 Y82.022
G1 F1800 X103.494 Y81.88 E6.25483
G1 X104.034 Y81.332 E6.28042
G1 X104.829 Y80.699 E6.31422
G1 X106.323 Y79.669 E6.37457
G1 X106.978 Y79.265 E6.40017
G1 X107.671 Y78.933 E6.42573
G1 X108.395 Y78.673 E6.45131
G1 X109.143 Y78.491 E6.47692
G1 X109.627 Y78.415 E6.49321
G1 X111.529 Y78.183 E6.55694
G1 X112.425 Y78.129 E6.5868
G1 X138.424 Y78.129 E7.45153
G1 X139.192 Y78.169 E7.47711
G1 X139.952 Y78.288 E7.50269
G1 X141.047 Y78.61 E7.54066
G1 X142.838 Y79.289 E7.60436
G1 X143.542 Y79.598 E7.62993
G1 X144.21 Y79.979 E7.65551
G1 X144.835 Y80.428 E7.68111
G1 X145.41 Y80.939 E7.70669
G1 X145.755 Y81.302 E7.72335
G1 X147.024 Y82.735 E7.78701
G1 X147.503 Y83.337 E7.8126
G1 X147.918 Y83.985 E7.83819
G1 X148.262 Y84.672 E7.86375
G1 X148.534 Y85.392 E7.88935
G1 X148.669 Y85.872 E7.90593
G1 X149.103 Y87.635 E7.96632
G1 X149.248 Y88.391 E7.99192
G1 X149.318 Y89.398 E8.0255
G1 X149.342 Y120.496 E9.05982
G1 X149.303 Y121.264 E9.0854
G1 X149.127 Y122.271 E9.1194
G1 X148.693 Y124.034 E9.17978
G1 X148.678 Y124.096 E9.18191
G1 X148.654 Y124.19 E9.18513
G1 X148.425 Y124.924 E9.21071
G1 X148.122 Y125.631 E9.23629
G1 X147.746 Y126.302 E9.26187
G1 X147.303 Y126.931 E9.28746
G1 X147.021 Y127.269 E9.3021
G1 X145.815 Y128.629 E9.36256
G1 X145.285 Y129.182 E9.38804
G1 X144.698 Y129.679 E9.41362
G1 X144.063 Y130.113 E9.4392
G1 X143.386 Y130.478 E9.46478
G1 X142.838 Y130.711 E9.48459
G1 X141.047 Y131.39 E9.54829
G1 X140.315 Y131.625 E9.57386
G1 X139.562 Y131.783 E9.59945
G1 X138.424 Y131.871 E9.63742
G1 X112.425 Y131.871 E10.50215
G1 X111.529 Y131.817 E10.532
G1 X109.627 Y131.585 E10.59573
G1 X108.869 Y131.452 E10.62133
G1 X108.13 Y131.241 E10.64689
G1 X107.416 Y130.955 E10.67247
G1 X106.735 Y130.596 E10.69808
G1 X106.326 Y130.334 E10.71423
G1 X104.752 Y129.25 E10.7778
G1 X104.142 Y128.781 E10.80339
G1 X103.584 Y128.252 E10.82896
G1 X103.084 Y127.667 E10.85456
G1 X102.647 Y127.034 E10.88014
G1 X102.397 Y126.594 E10.89697
G1 X101.551 Y124.982 E10.95752
G1 X101.546 Y124.974 E10.95784
G1 X101.501 Y124.888 E10.96107
G1 X101.181 Y124.189 E10.98663
G1 X100.934 Y123.46 E11.01223
G1 X100.765 Y122.71 E11.03781
G1 X100.674 Y121.946 E11.0634
G1 X100.658 Y121.457 E11.07967
G1 X100.658 Y88.543 E12.17439
G1 X100.698 Y87.775 E12.19997
G1 X100.817 Y87.015 E12.22556
G1 X101.015 Y86.272 E12.25113
G1 X101.289 Y85.553 E12.27672
G1 X101.506 Y85.104 E12.29331
G1 X102.351 Y83.494 E12.35379
G1 X102.743 Y82.832 E12.37937
G1 X103.368 Y82.022 E12.4134
G0 F3600 X103.667 Y82.287
G1 F1800 X103.793 Y82.145 E12.41972
G1 X104.319 Y81.613 E12.4446
G1 X105.056 Y81.028 E12.4759
G1 X106.55 Y79.998 E12.53625
G1 X107.187 Y79.607 E12.56111
G1 X107.863 Y79.286 E12.586
G1 X108.569 Y79.039 E12.61088
G1 X109.298 Y78.869 E12.63578
G1 X109.675 Y78.813 E12.64845
G1 X111.577 Y78.581 E12.71218
G1 X112.425 Y78.529 E12.74044
G1 X138.424 Y78.529 E13.60517
G1 X139.171 Y78.569 E13.63005
G1 X139.909 Y78.688 E13.65491
G1 X140.905 Y78.984 E13.68947
G1 X142.696 Y79.663 E13.75318
G1 X143.381 Y79.965 E13.77808
G1 X144.029 Y80.338 E13.80295
G1 X144.634 Y80.779 E13.82785
G1 X145.188 Y81.281 E13.85271
G1 X145.456 Y81.567 E13.86575
G1 X146.725 Y83 E13.92941
G1 X147.19 Y83.586 E13.95429
G1 X147.59 Y84.218 E13.97917
G1 X147.92 Y84.889 E14.00404
G1 X148.177 Y85.592 E14.02894
G1 X148.281 Y85.968 E14.04191
G1 X148.715 Y87.731 E14.1023
G1 X148.855 Y88.466 E14.12719
G1 X148.918 Y89.399 E14.15829
G1 X148.942 Y120.497 E15.19261
G1 X148.903 Y121.244 E15.21749
G1 X148.739 Y122.175 E15.24893
G1 X148.305 Y123.938 E15.30932
G1 X148.29 Y123.997 E15.31135
G1 X148.266 Y124.091 E15.31457
G1 X148.043 Y124.805 E15.33945
G1 X147.744 Y125.491 E15.36434
G1 X147.375 Y126.141 E15.3892
G1 X146.721 Y127.003 E15.42519
G1 X145.542 Y128.332 E15.48428
G1 X145.514 Y128.365 E15.48572
G1 X144.996 Y128.905 E15.51061
G1 X144.423 Y129.386 E15.53549
G1 X143.802 Y129.803 E15.56037
G1 X143.14 Y130.151 E15.58524
G1 X142.696 Y130.337 E15.60125
G1 X140.905 Y131.016 E15.66496
G1 X140.193 Y131.244 E15.68983
G1 X139.46 Y131.394 E15.71471
G1 X138.424 Y131.471 E15.74926
G1 X112.425 Y131.471 E16.61399
G1 X111.577 Y131.419 E16.64225
G1 X109.675 Y131.187 E16.70598
G1 X108.939 Y131.057 E16.73084
G1 X108.22 Y130.849 E16.75573
G1 X107.528 Y130.566 E16.7806
G1 X106.87 Y130.21 E16.80548
G1 X106.553 Y130.004 E16.81806
G1 X104.979 Y128.92 E16.88162
G1 X104.386 Y128.463 E16.90652
G1 X103.846 Y127.946 E16.93139
G1 X103.364 Y127.374 E16.95627
G1 X102.945 Y126.754 E16.98116
G1 X102.751 Y126.408 E16.99435
G1 X101.905 Y124.796 E17.0549
G1 X101.901 Y124.788 E17.0552
G1 X101.856 Y124.702 E17.05843
G1 X101.545 Y124.022 E17.0833
G1 X101.308 Y123.312 E17.10819
G1 X101.149 Y122.581 E17.13307
G1 X101.068 Y121.838 E17.15793
G1 X101.058 Y121.457 E17.17061
G1 X101.058 Y88.543 E18.26533
G1 X101.098 Y87.796 E18.29021
G1 X101.217 Y87.058 E18.31508
G1 X101.415 Y86.336 E18.33998
G1 X101.688 Y85.64 E18.36484
G1 X101.86 Y85.29 E18.37781
G1 X102.705 Y83.68 E18.43829
G1 X103.087 Y83.037 E18.46317
G1 X103.667 Y82.287 E18.4947
G0 F3600 X103.966 Y82.553
G1 F1800 X104.092 Y82.411 E18.50101
G1 X104.604 Y81.895 E18.52519
G1 X105.283 Y81.357 E18.554
G1 X106.777 Y80.327 E18.61436
G1 X107.397 Y79.948 E18.63853
G1 X108.054 Y79.64 E18.66266
G1 X108.742 Y79.406 E18.68683
G1 X109.724 Y79.21 E18.72014
G1 X111.626 Y78.978 E18.78387
G1 X112.425 Y78.929 E18.81049
G1 X138.424 Y78.929 E19.67522
G1 X139.149 Y78.969 E19.69937
G1 X139.866 Y79.088 E19.72355
G1 X140.764 Y79.358 E19.75474
G1 X142.555 Y80.037 E19.81844
G1 X143.219 Y80.331 E19.84259
G1 X143.846 Y80.697 E19.86674
G1 X144.43 Y81.129 E19.8909
G1 X145.156 Y81.832 E19.92451
G1 X146.425 Y83.265 E19.98818
G1 X146.876 Y83.835 E20.01235
G1 X147.262 Y84.45 E20.0365
G1 X147.577 Y85.105 E20.06068
G1 X147.893 Y86.063 E20.09423
G1 X148.327 Y87.826 E20.15462
G1 X148.461 Y88.54 E20.17878
G1 X148.518 Y89.399 E20.20741
G1 X148.542 Y120.497 E21.24174
G1 X148.503 Y121.222 E21.26589
G1 X148.351 Y122.08 E21.29487
G1 X147.917 Y123.843 E21.35526
G1 X147.903 Y123.898 E21.35714
G1 X147.879 Y123.992 E21.36037
G1 X147.661 Y124.685 E21.38453
G1 X147.368 Y125.349 E21.40867
G1 X147.004 Y125.978 E21.43284
G1 X146.422 Y126.738 E21.46468
G1 X145.275 Y128.031 E21.52217
G1 X145.212 Y128.104 E21.52538
G1 X144.707 Y128.627 E21.54956
G1 X144.149 Y129.091 E21.57369
G1 X143.543 Y129.492 E21.59786
G1 X142.896 Y129.823 E21.62203
G1 X142.555 Y129.963 E21.63429
G1 X140.764 Y130.642 E21.698
G1 X140.071 Y130.862 E21.72218
G1 X139.359 Y131.004 E21.74633
G1 X138.424 Y131.071 E21.77751
G1 X112.425 Y131.071 E22.64224
G1 X111.626 Y131.022 E22.66886
G1 X109.724 Y130.79 E22.73259
G1 X109.009 Y130.663 E22.75675
G1 X108.312 Y130.458 E22.78091
G1 X107.642 Y130.177 E22.80508
G1 X106.78 Y129.675 E22.83825
G1 X105.206 Y128.591 E22.90182
G1 X104.631 Y128.146 E22.926
G1 X104.109 Y127.642 E22.95014
G1 X103.645 Y127.083 E22.9743
G1 X103.105 Y126.222 E23.0081
G1 X102.259 Y124.61 E23.06865
G1 X102.255 Y124.603 E23.06892
G1 X102.21 Y124.517 E23.07215
G1 X101.909 Y123.856 E23.09631
G1 X101.683 Y123.166 E23.12046
G1 X101.534 Y122.455 E23.14462
G1 X101.458 Y121.457 E23.17791
G1 X101.458 Y88.543 E24.27263
G1 X101.498 Y87.818 E24.29678
G1 X101.617 Y87.101 E24.32095
G1 X101.815 Y86.402 E24.34512
G1 X102.214 Y85.476 E24.37865
G1 X103.059 Y83.866 E24.43913
G1 X103.431 Y83.242 E24.46329
G1 X103.966 Y82.553 E24.49231
G0 F3600 X104.265 Y82.818
G1 F1800 X104.391 Y82.676 E24.49862
G1 X104.888 Y82.177 E24.52205
G1 X105.51 Y81.687 E24.54838
G1 X107.004 Y80.657 E24.60874
G1 X107.605 Y80.29 E24.63216
G1 X108.244 Y79.995 E24.65557
G1 X108.913 Y79.774 E24.679
G1 X109.772 Y79.607 E24.70811
G1 X111.674 Y79.375 E24.77184
G1 X112.425 Y79.329 E24.79686
G1 X138.424 Y79.329 E25.66159
G1 X139.127 Y79.369 E25.68501
G1 X139.821 Y79.488 E25.70843
G1 X140.622 Y79.732 E25.73628
G1 X142.413 Y80.411 E25.79999
G1 X143.056 Y80.697 E25.82339
G1 X143.662 Y81.055 E25.8468
G1 X144.224 Y81.479 E25.87022
G1 X144.857 Y82.098 E25.89967
G1 X146.126 Y83.531 E25.96333
G1 X146.562 Y84.083 E25.98672
G1 X146.932 Y84.682 E26.01014
G1 X147.233 Y85.319 E26.03357
G1 X147.504 Y86.159 E26.06293
G1 X147.938 Y87.922 E26.12332
G1 X148.067 Y88.614 E26.14673
G1 X148.118 Y89.399 E26.1729
G1 X148.142 Y120.497 E27.20722
G1 X148.103 Y121.2 E27.23064
G1 X147.962 Y121.984 E27.25713
G1 X147.528 Y123.747 E27.31752
G1 X147.515 Y123.799 E27.3193
G1 X147.491 Y123.893 E27.32253
G1 X147.279 Y124.564 E27.34594
G1 X146.991 Y125.207 E27.36937
G1 X146.633 Y125.813 E27.39278
G1 X146.123 Y126.473 E27.42052
G1 X144.941 Y127.806 E27.47978
G1 X144.909 Y127.843 E27.4814
G1 X144.419 Y128.349 E27.50483
G1 X143.876 Y128.796 E27.52822
G1 X143.285 Y129.179 E27.55165
G1 X142.413 Y129.589 E27.5837
G1 X140.622 Y130.268 E27.6474
G1 X139.951 Y130.48 E27.67081
G1 X139.259 Y130.614 E27.69425
G1 X138.424 Y130.671 E27.72209
G1 X112.425 Y130.671 E28.58682
G1 X111.674 Y130.625 E28.61184
G1 X109.772 Y130.393 E28.67557
G1 X109.079 Y130.269 E28.69899
G1 X108.405 Y130.066 E28.7224
G1 X107.758 Y129.788 E28.74582
G1 X107.006 Y129.345 E28.77485
G1 X105.432 Y128.261 E28.83842
G1 X104.876 Y127.83 E28.86181
G1 X104.373 Y127.338 E28.88522
G1 X103.928 Y126.792 E28.90864
G1 X103.459 Y126.036 E28.93823
G1 X102.613 Y124.424 E28.99878
G1 X102.61 Y124.417 E28.99904
G1 X102.565 Y124.331 E29.00227
G1 X102.274 Y123.69 E29.02568
G1 X102.058 Y123.02 E29.04909
G1 X101.92 Y122.33 E29.0725
G1 X101.858 Y121.457 E29.10161
G1 X101.858 Y88.543 E30.19633
G1 X101.898 Y87.84 E30.21975
G1 X102.017 Y87.146 E30.24317
G1 X102.215 Y86.471 E30.26657
G1 X102.568 Y85.662 E30.29592
G1 X103.413 Y84.052 E30.3564
G1 X103.775 Y83.448 E30.37982
G1 X104.265 Y82.818 E30.40637
G0 F3600 X104.565 Y83.083
G1 F1800 X104.691 Y82.941 E30.41268
G1 X105.172 Y82.46 E30.43531
G1 X105.737 Y82.016 E30.45921
G1 X107.231 Y80.986 E30.51956
G1 X107.813 Y80.633 E30.5422
G1 X108.433 Y80.351 E30.56485
G1 X109.081 Y80.143 E30.58749
G1 X109.821 Y80.004 E30.61253
G1 X111.723 Y79.772 E30.67626
G1 X112.425 Y79.729 E30.69965
G1 X138.424 Y79.729 E31.56439
G1 X139.104 Y79.769 E31.58704
G1 X139.774 Y79.888 E31.60967
G1 X140.48 Y80.106 E31.63425
G1 X142.271 Y80.785 E31.69796
G1 X142.892 Y81.063 E31.72059
G1 X143.477 Y81.412 E31.74324
G1 X144.017 Y81.828 E31.76591
G1 X144.557 Y82.363 E31.7912
G1 X145.826 Y83.796 E31.85486
G1 X146.247 Y84.331 E31.8775
G1 X146.602 Y84.912 E31.90015
G1 X146.886 Y85.531 E31.9228
G1 X147.116 Y86.255 E31.94807
G1 X147.55 Y88.018 E32.00846
G1 X147.674 Y88.687 E32.03109
G1 X147.718 Y89.4 E32.05485
G1 X147.742 Y120.498 E33.08917
G1 X147.703 Y121.177 E33.11179
G1 X147.574 Y121.888 E33.13582
G1 X147.14 Y123.651 E33.19621
G1 X147.128 Y123.7 E33.19789
G1 X147.104 Y123.794 E33.20112
G1 X146.897 Y124.443 E33.22377
G1 X146.615 Y125.062 E33.2464
G1 X146.263 Y125.645 E33.26905
G1 X145.824 Y126.207 E33.29277
G1 X144.618 Y127.567 E33.35322
G1 X144.606 Y127.581 E33.35384
G1 X144.132 Y128.07 E33.37649
G1 X143.603 Y128.499 E33.39914
G1 X143.028 Y128.864 E33.42179
G1 X142.271 Y129.215 E33.44955
G1 X140.48 Y129.894 E33.51325
G1 X139.83 Y130.098 E33.53591
G1 X139.161 Y130.224 E33.55855
G1 X138.424 Y130.271 E33.58312
G1 X112.425 Y130.271 E34.44785
G1 X111.723 Y130.228 E34.47124
G1 X109.821 Y129.996 E34.53497
G1 X109.151 Y129.874 E34.55762
G1 X108.5 Y129.675 E34.58026
G1 X107.877 Y129.4 E34.60291
G1 X107.233 Y129.016 E34.62785
G1 X105.659 Y127.932 E34.69142
G1 X105.122 Y127.513 E34.71407
G1 X104.638 Y127.035 E34.73669
G1 X104.213 Y126.503 E34.75934
G1 X103.813 Y125.85 E34.78481
G1 X102.967 Y124.238 E34.84536
G1 X102.964 Y124.232 E34.84559
G1 X102.919 Y124.146 E34.84881
G1 X102.639 Y123.525 E34.87147
G1 X102.434 Y122.876 E34.89411
G1 X102.307 Y122.207 E34.91676
G1 X102.258 Y121.457 E34.94175
G1 X102.258 Y88.543 E36.03648
G1 X102.298 Y87.863 E36.05913
G1 X102.417 Y87.193 E36.08177
G1 X102.614 Y86.541 E36.10442
G1 X102.922 Y85.848 E36.12964
G1 X103.767 Y84.238 E36.19012
G1 X104.119 Y83.654 E36.2128
G1 X104.565 Y83.083 E36.2369
G0 F3600 X104.864 Y83.349
G1 F1800 X104.99 Y83.207 E36.24321
G1 X105.455 Y82.743 E36.26506
G1 X105.964 Y82.345 E36.28655
G1 X107.458 Y81.315 E36.34691
G1 X108.02 Y80.976 E36.36874
G1 X108.62 Y80.707 E36.39061
G1 X109.248 Y80.514 E36.41246
G1 X109.869 Y80.401 E36.43345
G1 X111.771 Y80.169 E36.49718
G1 X112.425 Y80.129 E36.51897
G1 X138.424 Y80.129 E37.3837
G1 X139.08 Y80.169 E37.40556
G1 X139.726 Y80.288 E37.42741
G1 X140.338 Y80.48 E37.44874
G1 X142.129 Y81.159 E37.51245
G1 X142.728 Y81.429 E37.5343
G1 X143.29 Y81.769 E37.55615
G1 X143.806 Y82.175 E37.57799
G1 X144.258 Y82.628 E37.59927
G1 X145.527 Y84.061 E37.66294
G1 X145.932 Y84.578 E37.68478
G1 X146.271 Y85.141 E37.70664
G1 X146.539 Y85.741 E37.72849
G1 X146.727 Y86.35 E37.74969
G1 X147.161 Y88.113 E37.81008
G1 X147.279 Y88.76 E37.83196
G1 X147.318 Y89.4 E37.85328
G1 X147.342 Y120.498 E38.88761
G1 X147.303 Y121.154 E38.90946
