; generated by Slic3r Prusa Edition 1.41.3+win64 on 2019-06-01 at 06:25:53

; 

; external perimeters extrusion width = 0.61mm
; perimeters extrusion width = 0.65mm
; infill extrusion width = 0.70mm
; solid infill extrusion width = 0.65mm
; top infill extrusion width = 0.60mm
; first layer extrusion width = 0.65mm

M107
M115 U3.1.0 ; tell printer latest fw version
M83  ; extruder relative mode
M104 S215 ; set extruder temp
M140 S60 ; set bed temp
M190 S60 ; wait for bed temp
M109 S215 ; wait for extruder temp
G28 W ; home all without mesh bed level
G80 ; mesh bed leveling
G1 Y-3.0 F1000.0 ; go outside print area
G92 E0.0
G1 X60.0 E9.0  F1000.0 ; intro line
G1 X100.0 E12.5  F1000.0 ; intro line
G92 E0.0
M900 K15 ; Filament gcode
G21 ; set units to millimeters
G90 ; use absolute coordinates
M83 ; use relative distances for extrusion
;BEFORE_LAYER_CHANGE
;0.2


G1 E-0.80000 F2100.00000
G1 Z0.600 F10800.000
;AFTER_LAYER_CHANGE
;0.2
G1 X121.006 Y93.069
G1 Z0.200
G1 E0.80000 F2100.00000
M204 S1000
G1 F900
G1 X128.423 Y93.031 E0.37444
G1 X129.255 Y93.188 E0.04272
G1 X129.977 Y93.637 E0.04291
G1 X130.486 Y94.317 E0.04291
G1 X130.715 Y95.136 E0.04291
G1 X130.723 Y118.342 E1.17141
G1 X130.640 Y118.949 E0.03095
G1 X130.377 Y119.549 E0.03301
G1 X129.957 Y120.050 E0.03301
G1 X129.413 Y120.413 E0.03301
G1 X128.789 Y120.608 E0.03301
G1 X121.405 Y120.638 E0.37277
G1 X120.805 Y120.555 E0.03057
G1 X120.158 Y120.262 E0.03582
G1 X119.631 Y119.787 E0.03582
G1 X119.274 Y119.174 E0.03582
G1 X119.121 Y118.477 E0.03601
G1 X119.116 Y95.327 E1.16858
G1 X119.200 Y94.720 E0.03095
G1 X119.456 Y94.130 E0.03245
G1 X119.865 Y93.634 E0.03245
G1 X120.396 Y93.271 E0.03245
G1 X120.920 Y93.097 E0.02791
; PURGING FINISHED
G1 F8640
G1 X124.212 Y93.068 E-0.76000
G1 E-0.04000 F2100.00000
G1 Z0.800 F10800.000
G1 X127.352 Y96.267
G1 Z0.200
G1 E0.80000 F2100.00000
G1 F900
G1 X127.488 Y96.267 E0.00686
G1 X127.488 Y117.403 E1.06691
G1 X127.352 Y117.403 E0.00686
G1 X127.352 Y96.357 E1.06237
G1 X126.745 Y95.660 F10800.000
G1 F900
G1 X128.095 Y95.660 E0.06815
G1 X128.095 Y118.010 E1.12820
G1 X126.745 Y118.010 E0.06815
G1 X126.745 Y95.750 E1.12366
G1 X127.270 Y95.949 F10800.000
G1 F8640
G1 X128.095 Y95.660 E-0.31241
G1 X128.095 Y97.598 E-0.44759
G1 E-0.04000 F2100.00000
G1 Z0.800 F10800.000
G1 X122.488 Y96.267
G1 Z0.200
G1 E0.80000 F2100.00000
G1 F900
G1 X122.488 Y117.403 E1.06691
G1 X122.352 Y117.403 E0.00686
G1 X122.352 Y96.267 E1.06691
G1 X122.398 Y96.267 E0.00231
G1 X121.745 Y95.660 F10800.000
G1 F900
G1 X123.095 Y95.660 E0.06815
G1 X123.095 Y118.010 E1.12820
G1 X121.745 Y118.010 E0.06815
G1 X121.745 Y95.750 E1.12366
G1 X122.270 Y95.949 F10800.000
M106 S255
;BEFORE_LAYER_CHANGE
;0.35


G1 F8640
G1 X123.095 Y95.660 E-0.31241
G1 X123.095 Y97.598 E-0.44759
G1 E-0.04000 F2100.00000
G1 Z0.800 F10800.000
;AFTER_LAYER_CHANGE
;0.35
M104 S210 ; set temperature
G1 X121.006 Y93.069
G1 Z0.350
G1 E0.80000 F2100.00000
G1 F900
G1 X128.423 Y93.031 E0.28580
G1 X129.255 Y93.188 E0.03261
G1 X129.977 Y93.637 E0.03275
G1 X130.486 Y94.317 E0.03275
G1 X130.715 Y95.136 E0.03275
G1 X130.723 Y118.342 E0.89409
G1 X130.640 Y118.949 E0.02362
G1 X130.377 Y119.549 E0.02520
G1 X129.957 Y120.050 E0.02520
G1 X129.413 Y120.413 E0.02520
G1 X128.789 Y120.608 E0.02520
G1 X121.405 Y120.638 E0.28452
G1 X120.805 Y120.555 E0.02334
G1 X120.158 Y120.262 E0.02734
G1 X119.631 Y119.787 E0.02734
G1 X119.274 Y119.174 E0.02734
G1 X119.121 Y118.477 E0.02748
G1 X119.116 Y95.327 E0.89193
G1 X119.200 Y94.720 E0.02362
G1 X119.456 Y94.130 E0.02477
G1 X119.865 Y93.634 E0.02477
G1 X120.396 Y93.271 E0.02477
G1 X120.920 Y93.097 E0.02130
; PURGING FINISHED
G1 F8640
G1 X124.212 Y93.068 E-0.76000
G1 E-0.04000 F2100.00000
G1 Z0.950 F10800.000
G1 X122.323 Y96.237
G1 Z0.350
G1 E0.80000 F2100.00000
M204 S800
G1 F900
G1 X122.517 Y96.237 E0.00749
G1 X122.517 Y107.748 E0.44348
G1 X127.323 Y107.748 E0.18515
G1 X127.323 Y96.237 E0.44348
G1 X127.517 Y96.237 E0.00749
G1 X127.517 Y117.432 E0.81658
G1 X127.323 Y117.432 E0.00749
G1 X127.323 Y111.721 E0.22001
G1 X122.517 Y111.721 E0.18515
G1 X122.517 Y117.432 E0.22001
G1 X122.323 Y117.432 E0.00749
G1 X122.323 Y96.327 E0.81312
M204 S1000
G1 F8640
G1 X122.517 Y96.237 E-0.04946
G1 X122.517 Y99.315 E-0.71054
G1 E-0.04000 F2100.00000
G1 Z0.950 F10800.000
G1 X123.115 Y107.150
G1 Z0.350
G1 E0.80000 F2100.00000
M204 S800
G1 F900
G1 X126.725 Y107.150 E0.13008
G1 X126.725 Y95.640 E0.41476
G1 X128.115 Y95.640 E0.05009
G1 X128.115 Y118.030 E0.80680
G1 X126.725 Y118.030 E0.05009
G1 X126.725 Y112.319 E0.20577
G1 X123.115 Y112.319 E0.13008
G1 X123.115 Y118.030 E0.20577
G1 X121.725 Y118.030 E0.05009
G1 X121.725 Y95.640 E0.80680
G1 X123.115 Y95.640 E0.05009
G1 X123.115 Y107.060 E0.41152
M204 S1000
G1 X123.139 Y107.749 F10800.000
G1 F8640
G1 X126.405 Y107.142 E-0.76000
G1 E-0.04000 F2100.00000
G1 Z0.950 F10800.000
G1 X122.782 Y111.538
G1 Z0.350
G1 E0.80000 F2100.00000
G1 F1200
G1 X122.782 Y108.196 E0.34307
G1 X123.393 Y108.196 E0.06269
G1 X123.393 Y111.274 E0.31597
G1 X124.004 Y111.274 E0.06269
G1 X124.004 Y108.196 E0.31597
G1 X124.614 Y108.196 E0.06269
G1 X124.614 Y111.274 E0.31597
G1 X125.225 Y111.274 E0.06269
G1 X125.225 Y108.196 E0.31597
G1 X125.836 Y108.196 E0.06269
G1 X125.836 Y111.274 E0.31597
G1 X126.446 Y111.274 E0.06269
G1 X126.446 Y108.196 E0.31597
G1 X127.057 Y108.196 E0.06269
G1 X127.057 Y111.538 E0.34307
;BEFORE_LAYER_CHANGE
;0.5


G1 F8640
G1 X127.057 Y108.246 E-0.76000
G1 E-0.04000 F2100.00000
G1 Z0.950 F10800.000
;AFTER_LAYER_CHANGE
;0.5
G1 X129.977 Y93.637
G1 Z0.500
G1 E0.80000 F2100.00000
G1 F900
G1 X130.486 Y94.317 E0.03275
G1 X130.715 Y95.136 E0.03275
G1 X130.723 Y118.342 E0.89409
G1 X130.640 Y118.949 E0.02362
G1 X130.377 Y119.549 E0.02520
G1 X129.957 Y120.050 E0.02520
G1 X129.413 Y120.413 E0.02520
G1 X128.789 Y120.608 E0.02520
G1 X121.405 Y120.638 E0.28452
G1 X120.805 Y120.555 E0.02334
G1 X120.158 Y120.262 E0.02734
G1 X119.631 Y119.787 E0.02734
G1 X119.274 Y119.174 E0.02734
G1 X119.121 Y118.477 E0.02748
G1 X119.116 Y95.327 E0.89193
G1 X119.200 Y94.720 E0.02362
G1 X119.456 Y94.130 E0.02477
G1 X119.865 Y93.634 E0.02477
G1 X120.396 Y93.271 E0.02477
G1 X121.006 Y93.069 E0.02477
G1 X128.423 Y93.031 E0.28580
G1 X129.255 Y93.188 E0.03261
G1 X129.900 Y93.589 E0.02928
; PURGING FINISHED
G1 F8640
G1 X130.486 Y94.317 E-0.21577
G1 X130.715 Y95.136 E-0.19627
G1 X130.715 Y96.643 E-0.34796
G1 E-0.04000 F2100.00000
G1 Z1.100 F10800.000
G1 X127.517 Y96.237
G1 Z0.500
G1 E0.80000 F2100.00000
M204 S800
G1 F900
G1 X127.517 Y117.432 E0.81658
G1 X127.323 Y117.432 E0.00749
G1 X127.323 Y111.741 E0.21924
G1 X122.517 Y111.741 E0.18515
G1 X122.517 Y117.432 E0.21924
G1 X122.323 Y117.432 E0.00749
G1 X122.323 Y96.237 E0.81658
G1 X122.517 Y96.237 E0.00749
G1 X122.517 Y107.728 E0.44270
G1 X127.323 Y107.728 E0.18515
G1 X127.323 Y96.237 E0.44270
G1 X127.427 Y96.237 E0.00402
M204 S1000
G1 F8640
G1 X127.441 Y99.529 E-0.76000
G1 E-0.04000 F2100.00000
G1 Z1.100 F10800.000
G1 X123.115 Y107.130
G1 Z0.500
G1 E0.80000 F2100.00000
M204 S800
G1 F900
G1 X126.725 Y107.130 E0.13008
G1 X126.725 Y95.640 E0.41404
G1 X128.115 Y95.640 E0.05009
G1 X128.115 Y118.030 E0.80680
G1 X126.725 Y118.030 E0.05009
G1 X126.725 Y112.339 E0.20504
G1 X123.115 Y112.339 E0.13008
G1 X123.115 Y118.030 E0.20504
G1 X121.725 Y118.030 E0.05009
G1 X121.725 Y95.640 E0.80680
G1 X123.115 Y95.640 E0.05009
G1 X123.115 Y107.040 E0.41080
M204 S1000
G1 X123.139 Y107.729 F10800.000
G1 F8640
G1 X126.405 Y107.122 E-0.76000
G1 E-0.04000 F2100.00000
G1 Z1.100 F10800.000
G1 X123.737 Y111.559
G1 Z0.500
G1 E0.80000 F2100.00000
M204 S2000
G1 F900
G1 X122.761 Y110.582 E0.05230
G1 X122.761 Y109.723 E0.03254
G1 X124.341 Y111.303 E0.08463
G1 X125.200 Y111.303 E0.03254
G1 X122.761 Y108.864 E0.13065
G1 X122.761 Y108.166 E0.02645
G1 X122.922 Y108.166 E0.00609
G1 X126.059 Y111.303 E0.16806
G1 X126.918 Y111.303 E0.03254
G1 X123.781 Y108.166 E0.16806
G1 X124.640 Y108.166 E0.03254
G1 X127.079 Y110.605 E0.13066
G1 X127.079 Y109.746 E0.03254
G1 X125.499 Y108.166 E0.08464
G1 X126.358 Y108.166 E0.03254
G1 X127.334 Y109.142 E0.05230
M204 S1000
;BEFORE_LAYER_CHANGE
;0.65


G1 F8640
G1 X126.358 Y108.166 E-0.31882
G1 X125.499 Y108.166 E-0.19836
G1 X126.242 Y108.910 E-0.24282
G1 E-0.04000 F2100.00000
G1 Z1.100 F10800.000
;AFTER_LAYER_CHANGE
;0.65
; PURGING FINISHED
G1 X127.323 Y117.432
G1 Z0.650
G1 E0.80000 F2100.00000
M204 S800
G1 F900
G1 X127.323 Y96.237 E0.81658
G1 X127.517 Y96.237 E0.00749
G1 X127.517 Y117.432 E0.81658
G1 X127.413 Y117.432 E0.00402
M204 S1000
G1 X126.725 Y118.030 F10800.000
M204 S800
G1 F900
G1 X126.725 Y95.640 E0.80680
G1 X128.115 Y95.640 E0.05009
G1 X128.115 Y118.030 E0.80680
G1 X126.815 Y118.030 E0.04684
M204 S1000
G1 X126.737 Y117.430 F10800.000
G1 F8640
G1 X126.801 Y114.738 E-0.76000
G1 E-0.04000 F2100.00000
G1 Z1.250 F10800.000
G1 X122.517 Y117.432
G1 Z0.650
G1 E0.80000 F2100.00000
M204 S800
G1 F900
G1 X122.323 Y117.432 E0.00749
G1 X122.323 Y96.237 E0.81658
G1 X122.517 Y96.237 E0.00749
G1 X122.517 Y117.342 E0.81312
M204 S1000
G1 X123.115 Y118.030 F10800.000
M204 S800
G1 F900
G1 X121.725 Y118.030 E0.05009
G1 X121.725 Y95.640 E0.80680
G1 X123.115 Y95.640 E0.05009
G1 X123.115 Y117.940 E0.80355
M204 S1000
G1 X122.589 Y117.740 F10800.000
;BEFORE_LAYER_CHANGE
;0.8


G1 F8640
G1 X121.725 Y118.030 E-0.32163
G1 X121.725 Y116.131 E-0.43837
G1 E-0.04000 F2100.00000
G1 Z1.250 F10800.000
;AFTER_LAYER_CHANGE
;0.8
; PURGING FINISHED
G1 X127.323 Y117.432
G1 Z0.800
G1 E0.80000 F2100.00000
M204 S800
G1 F900
G1 X127.323 Y96.237 E0.81658
G1 X127.517 Y96.237 E0.00749
G1 X127.517 Y117.432 E0.81658
G1 X127.413 Y117.432 E0.00402
M204 S1000
G1 X126.725 Y118.030 F10800.000
M204 S800
G1 F900
G1 X126.725 Y95.640 E0.80680
G1 X128.115 Y95.640 E0.05009
G1 X128.115 Y118.030 E0.80680
G1 X126.815 Y118.030 E0.04684
M204 S1000
G1 X126.737 Y117.430 F10800.000
G1 F8640
G1 X126.801 Y114.738 E-0.76000
G1 E-0.04000 F2100.00000
G1 Z1.400 F10800.000
G1 X122.517 Y117.432
G1 Z0.800
G1 E0.80000 F2100.00000
M204 S800
G1 F900
G1 X122.323 Y117.432 E0.00749
G1 X122.323 Y96.237 E0.81658
G1 X122.517 Y96.237 E0.00749
G1 X122.517 Y117.342 E0.81312
M204 S1000
G1 X123.115 Y118.030 F10800.000
M204 S800
G1 F900
G1 X121.725 Y118.030 E0.05009
G1 X121.725 Y95.640 E0.80680
G1 X123.115 Y95.640 E0.05009
G1 X123.115 Y117.940 E0.80355
M204 S1000
G1 X122.589 Y117.740 F10800.000
;BEFORE_LAYER_CHANGE
;0.95


G1 F8640
G1 X121.725 Y118.030 E-0.32163
G1 X121.725 Y116.131 E-0.43837
G1 E-0.04000 F2100.00000
G1 Z1.400 F10800.000
;AFTER_LAYER_CHANGE
;0.95
; PURGING FINISHED
G1 X127.323 Y117.432
G1 Z0.950
G1 E0.80000 F2100.00000
M204 S800
G1 F900
G1 X127.323 Y96.237 E0.81658
G1 X127.517 Y96.237 E0.00749
G1 X127.517 Y117.432 E0.81658
G1 X127.413 Y117.432 E0.00402
M204 S1000
G1 X126.725 Y118.030 F10800.000
M204 S800
G1 F900
G1 X126.725 Y95.640 E0.80680
G1 X128.115 Y95.640 E0.05009
G1 X128.115 Y118.030 E0.80680
G1 X126.815 Y118.030 E0.04684
M204 S1000
G1 X126.737 Y117.430 F10800.000
G1 F8640
G1 X126.801 Y114.738 E-0.76000
G1 E-0.04000 F2100.00000
G1 Z1.550 F10800.000
G1 X122.517 Y117.432
G1 Z0.950
G1 E0.80000 F2100.00000
M204 S800
G1 F900
G1 X122.323 Y117.432 E0.00749
G1 X122.323 Y96.237 E0.81658
G1 X122.517 Y96.237 E0.00749
G1 X122.517 Y117.342 E0.81312
M204 S1000
G1 X123.115 Y118.030 F10800.000
M204 S800
G1 F900
G1 X121.725 Y118.030 E0.05009
G1 X121.725 Y95.640 E0.80680
G1 X123.115 Y95.640 E0.05009
G1 X123.115 Y117.940 E0.80355
M204 S1000
G1 X122.589 Y117.740 F10800.000
;BEFORE_LAYER_CHANGE
;1.1


G1 F8640
G1 X121.725 Y118.030 E-0.32163
G1 X121.725 Y116.131 E-0.43837
G1 E-0.04000 F2100.00000
G1 Z1.550 F10800.000
;AFTER_LAYER_CHANGE
;1.1
; PURGING FINISHED
G1 X122.517 Y117.432
G1 Z1.100
G1 E0.80000 F2100.00000
M204 S800
G1 F900
G1 X122.323 Y117.432 E0.00749
G1 X122.323 Y96.237 E0.81658
G1 X122.517 Y96.237 E0.00749
G1 X122.517 Y107.390 E0.42970
G1 X127.323 Y107.390 E0.18515
G1 X127.323 Y96.237 E0.42970
G1 X127.517 Y96.237 E0.00749
G1 X127.517 Y117.432 E0.81658
G1 X127.323 Y117.432 E0.00749
G1 X127.323 Y111.429 E0.23128
G1 X122.517 Y111.429 E0.18515
G1 X122.517 Y117.342 E0.22781
M204 S1000
G1 F8640
G1 X122.323 Y117.432 E-0.04946
G1 X122.323 Y114.355 E-0.71054
G1 E-0.04000 F2100.00000
G1 Z1.700 F10800.000
G1 X123.115 Y106.792
G1 Z1.100
G1 E0.80000 F2100.00000
M204 S800
G1 F900
G1 X126.725 Y106.792 E0.13008
G1 X126.725 Y95.640 E0.40188
G1 X128.115 Y95.640 E0.05009
G1 X128.115 Y118.030 E0.80680
G1 X126.725 Y118.030 E0.05009
G1 X126.725 Y112.027 E0.21631
G1 X123.115 Y112.027 E0.13008
G1 X123.115 Y118.030 E0.21631
G1 X121.725 Y118.030 E0.05009
G1 X121.725 Y95.640 E0.80680
G1 X123.115 Y95.640 E0.05009
G1 X123.115 Y106.702 E0.39864
M204 S1000
G1 X123.140 Y107.392 F10800.000
G1 F8640
G1 X126.405 Y106.785 E-0.76000
G1 E-0.04000 F2100.00000
G1 Z1.700 F10800.000
G1 X123.741 Y111.246
G1 Z1.100
G1 E0.80000 F2100.00000
M204 S2000
G1 F900
G1 X122.761 Y110.266 E0.05265
G1 X122.761 Y109.405 E0.03273
G1 X124.347 Y110.991 E0.08521
G1 X125.208 Y110.991 E0.03273
G1 X122.761 Y108.543 E0.13149
G1 X122.761 Y107.829 E0.02714
G1 X122.908 Y107.829 E0.00559
G1 X126.070 Y110.991 E0.16988
G1 X126.931 Y110.991 E0.03273
G1 X123.769 Y107.829 E0.16988
G1 X124.631 Y107.829 E0.03273
G1 X127.079 Y110.276 E0.13150
G1 X127.079 Y109.415 E0.03273
G1 X125.492 Y107.829 E0.08522
G1 X126.354 Y107.829 E0.03273
G1 X127.334 Y108.809 E0.05266
M204 S1000
;BEFORE_LAYER_CHANGE
;1.25


G1 F8640
G1 X126.354 Y107.829 E-0.32004
G1 X125.492 Y107.829 E-0.19893
G1 X126.231 Y108.567 E-0.24104
G1 E-0.04000 F2100.00000
G1 Z1.700 F10800.000
;AFTER_LAYER_CHANGE
;1.25
; PURGING FINISHED
G1 X127.517 Y117.432
G1 Z1.250
G1 E0.80000 F2100.00000
M204 S800
G1 F900
G1 X127.323 Y117.432 E0.00749
G1 X127.323 Y96.237 E0.81658
G1 X127.517 Y96.237 E0.00749
G1 X127.517 Y117.342 E0.81312
M204 S1000
G1 X128.115 Y118.030 F10800.000
M204 S800
G1 F900
G1 X126.725 Y118.030 E0.05009
G1 X126.725 Y95.640 E0.80680
G1 X128.115 Y95.640 E0.05009
G1 X128.115 Y117.940 E0.80355
M204 S1000
G1 X127.589 Y117.740 F10800.000
G1 F8640
G1 X126.725 Y118.030 E-0.32163
G1 X126.725 Y116.131 E-0.43837
G1 E-0.04000 F2100.00000
G1 Z1.850 F10800.000
G1 X122.517 Y117.432
G1 Z1.250
G1 E0.80000 F2100.00000
M204 S800
G1 F900
G1 X122.323 Y117.432 E0.00749
G1 X122.323 Y96.237 E0.81658
G1 X122.517 Y96.237 E0.00749
G1 X122.517 Y117.342 E0.81312
M204 S1000
G1 X123.115 Y118.030 F10800.000
M204 S800
G1 F900
G1 X121.725 Y118.030 E0.05009
G1 X121.725 Y95.640 E0.80680
G1 X123.115 Y95.640 E0.05009
G1 X123.115 Y117.940 E0.80355
M204 S1000
G1 X122.589 Y117.740 F10800.000
;BEFORE_LAYER_CHANGE
;1.4


G1 F8640
G1 X121.725 Y118.030 E-0.32163
G1 X121.725 Y116.131 E-0.43837
G1 E-0.04000 F2100.00000
G1 Z1.850 F10800.000
;AFTER_LAYER_CHANGE
;1.4
; PURGING FINISHED
G1 X127.323 Y117.432
G1 Z1.400
G1 E0.80000 F2100.00000
M204 S800
G1 F900
G1 X127.323 Y96.237 E0.81658
G1 X127.517 Y96.237 E0.00749
G1 X127.517 Y117.432 E0.81658
G1 X127.413 Y117.432 E0.00402
M204 S1000
G1 X126.725 Y118.030 F10800.000
M204 S800
G1 F900
G1 X126.725 Y95.640 E0.80680
G1 X128.115 Y95.640 E0.05009
G1 X128.115 Y118.030 E0.80680
G1 X126.815 Y118.030 E0.04684
M204 S1000
G1 X126.737 Y117.430 F10800.000
G1 F8640
G1 X126.801 Y114.738 E-0.76000
G1 E-0.04000 F2100.00000
G1 Z2.000 F10800.000
G1 X122.517 Y117.432
G1 Z1.400
G1 E0.80000 F2100.00000
M204 S800
G1 F900
G1 X122.323 Y117.432 E0.00749
G1 X122.323 Y96.237 E0.81658
G1 X122.517 Y96.237 E0.00749
G1 X122.517 Y117.342 E0.81312
M204 S1000
G1 X123.115 Y118.030 F10800.000
M204 S800
G1 F900
G1 X121.725 Y118.030 E0.05009
G1 X121.725 Y95.640 E0.80680
G1 X123.115 Y95.640 E0.05009
G1 X123.115 Y117.940 E0.80355
M204 S1000
G1 X122.589 Y117.740 F10800.000
;BEFORE_LAYER_CHANGE
;1.55


G1 F8640
G1 X121.725 Y118.030 E-0.32163
G1 X121.725 Y116.131 E-0.43837
G1 E-0.04000 F2100.00000
G1 Z2.000 F10800.000
;AFTER_LAYER_CHANGE
;1.55
; PURGING FINISHED
G1 X127.323 Y117.432
G1 Z1.550
G1 E0.80000 F2100.00000
M204 S800
G1 F900
G1 X127.323 Y96.237 E0.81658
G1 X127.517 Y96.237 E0.00749
G1 X127.517 Y117.432 E0.81658
G1 X127.413 Y117.432 E0.00402
M204 S1000
G1 X126.725 Y118.030 F10800.000
M204 S800
G1 F900
G1 X126.725 Y95.640 E0.80680
G1 X128.115 Y95.640 E0.05009
