; generated by Slic3r Prusa Edition 1.41.3+win64 on 2019-05-31 at 11:55:39

; 

; external perimeters extrusion width = 0.61mm
; perimeters extrusion width = 0.65mm
; infill extrusion width = 0.70mm
; solid infill extrusion width = 0.65mm
; top infill extrusion width = 0.60mm
; first layer extrusion width = 0.65mm

M107
M115 U3.1.0 ; tell printer latest fw version
M83  ; extruder relative mode
M104 S215 ; set extruder temp
M140 S60 ; set bed temp
M190 S60 ; wait for bed temp
M109 S215 ; wait for extruder temp
G28 W ; home all without mesh bed level
G80 ; mesh bed leveling
G1 Y-3.0 F1000.0 ; go outside print area
G92 E0.0
G1 X60.0 E9.0  F1000.0 ; intro line
G1 X100.0 E12.5  F1000.0 ; intro line
G92 E0.0
M900 K15 ; Filament gcode
G21 ; set units to millimeters
G90 ; use absolute coordinates
M83 ; use relative distances for extrusion
;BEFORE_LAYER_CHANGE
;0.2


G1 E-0.80000 F2100.00000
G1 Z0.600 F10800.000
;AFTER_LAYER_CHANGE
;0.2
G1 X121.086 Y79.734
G1 Z0.200
G1 E0.80000 F2100.00000
M204 S1000
G1 F900
G1 X128.504 Y79.696 E0.37444
G1 X129.335 Y79.853 E0.04272
G1 X130.057 Y80.302 E0.04291
G1 X130.567 Y80.983 E0.04291
G1 X130.795 Y81.802 E0.04291
G1 X130.804 Y105.007 E1.17141
G1 X130.720 Y105.615 E0.03095
G1 X130.458 Y106.214 E0.03301
G1 X130.038 Y106.715 E0.03301
G1 X129.494 Y107.078 E0.03301
G1 X128.870 Y107.274 E0.03301
G1 X121.485 Y107.303 E0.37277
G1 X120.885 Y107.220 E0.03057
G1 X120.239 Y106.927 E0.03582
G1 X119.712 Y106.452 E0.03582
G1 X119.355 Y105.839 E0.03582
G1 X119.201 Y105.142 E0.03601
G1 X119.196 Y81.993 E1.16858
G1 X119.280 Y81.385 E0.03095
G1 X119.536 Y80.796 E0.03245
G1 X119.946 Y80.300 E0.03245
G1 X120.476 Y79.937 E0.03245
G1 X121.001 Y79.762 E0.02791
; PURGING FINISHED
G1 F8640
G1 X124.292 Y79.733 E-0.76000
G1 E-0.04000 F2100.00000
G1 Z0.800 F10800.000
G1 X122.432 Y82.932
G1 Z0.200
G1 E0.80000 F2100.00000
G1 F900
G1 X122.568 Y82.932 E0.00686
G1 X122.568 Y104.068 E1.06691
G1 X122.432 Y104.068 E0.00686
G1 X122.432 Y83.022 E1.06237
G1 X121.825 Y82.325 F10800.000
G1 F900
G1 X123.175 Y82.325 E0.06815
G1 X123.175 Y104.675 E1.12820
G1 X121.825 Y104.675 E0.06815
G1 X121.825 Y82.415 E1.12366
G1 X122.351 Y82.614 F10800.000
G1 F8640
G1 X123.175 Y82.325 E-0.31241
G1 X123.175 Y84.263 E-0.44759
G1 E-0.04000 F2100.00000
G1 Z0.800 F10800.000
G1 X127.432 Y82.932
G1 Z0.200
G1 E0.80000 F2100.00000
G1 F900
G1 X127.568 Y82.932 E0.00686
G1 X127.568 Y104.068 E1.06691
G1 X127.432 Y104.068 E0.00686
G1 X127.432 Y83.022 E1.06237
G1 X126.825 Y82.325 F10800.000
G1 F900
G1 X128.175 Y82.325 E0.06815
G1 X128.175 Y104.675 E1.12820
G1 X126.825 Y104.675 E0.06815
G1 X126.825 Y82.415 E1.12366
G1 X127.351 Y82.614 F10800.000
M106 S255
;BEFORE_LAYER_CHANGE
;0.35


G1 F8640
G1 X128.175 Y82.325 E-0.31241
G1 X128.175 Y84.263 E-0.44759
G1 E-0.04000 F2100.00000
G1 Z0.800 F10800.000
;AFTER_LAYER_CHANGE
;0.35
M104 S210 ; set temperature
G1 X129.335 Y79.853
G1 Z0.350
G1 E0.80000 F2100.00000
G1 F900
G1 X130.057 Y80.302 E0.03275
G1 X130.567 Y80.983 E0.03275
G1 X130.795 Y81.802 E0.03275
G1 X130.804 Y105.007 E0.89409
G1 X130.720 Y105.615 E0.02362
G1 X130.458 Y106.214 E0.02520
G1 X130.038 Y106.715 E0.02520
G1 X129.494 Y107.078 E0.02520
G1 X128.870 Y107.274 E0.02520
G1 X121.485 Y107.303 E0.28452
G1 X120.885 Y107.220 E0.02334
G1 X120.239 Y106.927 E0.02734
G1 X119.712 Y106.452 E0.02734
G1 X119.355 Y105.839 E0.02734
G1 X119.201 Y105.142 E0.02748
G1 X119.196 Y81.993 E0.89193
G1 X119.280 Y81.385 E0.02362
G1 X119.536 Y80.796 E0.02477
G1 X119.946 Y80.300 E0.02477
G1 X120.476 Y79.937 E0.02477
G1 X121.086 Y79.734 E0.02477
G1 X128.504 Y79.696 E0.28580
G1 X129.247 Y79.837 E0.02914
; PURGING FINISHED
G1 F8640
G1 X130.057 Y80.302 E-0.21578
G1 X130.567 Y80.983 E-0.19627
G1 X130.795 Y81.802 E-0.19627
G1 X130.795 Y82.458 E-0.15168
G1 E-0.04000 F2100.00000
G1 Z0.950 F10800.000
G1 X122.597 Y82.903
G1 Z0.350
G1 E0.80000 F2100.00000
M204 S800
G1 F900
G1 X122.597 Y104.097 E0.81658
G1 X122.403 Y104.097 E0.00749
G1 X122.403 Y82.903 E0.81658
G1 X122.507 Y82.903 E0.00402
M204 S1000
G1 X123.195 Y82.305 F10800.000
M204 S800
G1 F900
G1 X123.195 Y104.695 E0.80680
G1 X121.805 Y104.695 E0.05009
G1 X121.805 Y82.305 E0.80680
G1 X123.105 Y82.305 E0.04684
M204 S1000
G1 X123.183 Y82.905 F10800.000
G1 F8640
G1 X123.118 Y85.596 E-0.76000
G1 E-0.04000 F2100.00000
G1 Z0.950 F10800.000
G1 X127.403 Y82.903
G1 Z0.350
G1 E0.80000 F2100.00000
M204 S800
G1 F900
G1 X127.597 Y82.903 E0.00749
G1 X127.597 Y104.097 E0.81658
G1 X127.403 Y104.097 E0.00749
G1 X127.403 Y82.993 E0.81312
M204 S1000
G1 X126.805 Y82.305 F10800.000
M204 S800
G1 F900
G1 X128.195 Y82.305 E0.05009
G1 X128.195 Y104.695 E0.80680
G1 X126.805 Y104.695 E0.05009
G1 X126.805 Y82.395 E0.80355
M204 S1000
G1 X127.331 Y82.594 F10800.000
;BEFORE_LAYER_CHANGE
;0.5


G1 F8640
G1 X128.195 Y82.305 E-0.32163
G1 X128.195 Y84.204 E-0.43837
G1 E-0.04000 F2100.00000
G1 Z0.950 F10800.000
;AFTER_LAYER_CHANGE
;0.5
G1 X129.335 Y79.853
G1 Z0.500
G1 E0.80000 F2100.00000
G1 F900
G1 X130.057 Y80.302 E0.03275
G1 X130.567 Y80.983 E0.03275
G1 X130.795 Y81.802 E0.03275
G1 X130.804 Y105.007 E0.89409
G1 X130.720 Y105.615 E0.02362
G1 X130.458 Y106.214 E0.02520
G1 X130.038 Y106.715 E0.02520
G1 X129.494 Y107.078 E0.02520
G1 X128.870 Y107.274 E0.02520
G1 X121.485 Y107.303 E0.28452
G1 X120.885 Y107.220 E0.02334
G1 X120.239 Y106.927 E0.02734
G1 X119.712 Y106.452 E0.02734
G1 X119.355 Y105.839 E0.02734
G1 X119.201 Y105.142 E0.02748
G1 X119.196 Y81.993 E0.89193
G1 X119.280 Y81.385 E0.02362
G1 X119.536 Y80.796 E0.02477
G1 X119.946 Y80.300 E0.02477
G1 X120.476 Y79.937 E0.02477
G1 X121.086 Y79.734 E0.02477
G1 X128.504 Y79.696 E0.28580
G1 X129.247 Y79.837 E0.02914
; PURGING FINISHED
G1 F8640
G1 X130.057 Y80.302 E-0.21578
G1 X130.567 Y80.983 E-0.19627
G1 X130.795 Y81.802 E-0.19627
G1 X130.795 Y82.458 E-0.15168
G1 E-0.04000 F2100.00000
G1 Z1.100 F10800.000
G1 X122.597 Y82.903
G1 Z0.500
G1 E0.80000 F2100.00000
M204 S800
G1 F900
G1 X122.597 Y104.097 E0.81658
G1 X122.403 Y104.097 E0.00749
G1 X122.403 Y82.903 E0.81658
G1 X122.507 Y82.903 E0.00402
M204 S1000
G1 X123.195 Y82.305 F10800.000
M204 S800
G1 F900
G1 X123.195 Y104.695 E0.80680
G1 X121.805 Y104.695 E0.05009
G1 X121.805 Y82.305 E0.80680
G1 X123.105 Y82.305 E0.04684
M204 S1000
G1 X123.183 Y82.905 F10800.000
G1 F8640
G1 X123.118 Y85.596 E-0.76000
G1 E-0.04000 F2100.00000
G1 Z1.100 F10800.000
G1 X127.403 Y82.903
G1 Z0.500
G1 E0.80000 F2100.00000
M204 S800
G1 F900
G1 X127.597 Y82.903 E0.00749
G1 X127.597 Y104.097 E0.81658
G1 X127.403 Y104.097 E0.00749
G1 X127.403 Y82.993 E0.81312
M204 S1000
G1 X126.805 Y82.305 F10800.000
M204 S800
G1 F900
G1 X128.195 Y82.305 E0.05009
G1 X128.195 Y104.695 E0.80680
G1 X126.805 Y104.695 E0.05009
G1 X126.805 Y82.395 E0.80355
M204 S1000
G1 X127.331 Y82.594 F10800.000
;BEFORE_LAYER_CHANGE
;0.65


G1 F8640
G1 X128.195 Y82.305 E-0.32163
G1 X128.195 Y84.204 E-0.43837
G1 E-0.04000 F2100.00000
G1 Z1.100 F10800.000
;AFTER_LAYER_CHANGE
;0.65
; PURGING FINISHED
G1 X122.597 Y82.903
G1 Z0.650
G1 E0.80000 F2100.00000
M204 S800
G1 F900
G1 X122.597 Y104.097 E0.81658
G1 X122.403 Y104.097 E0.00749
G1 X122.403 Y82.903 E0.81658
G1 X122.507 Y82.903 E0.00402
M204 S1000
G1 X123.195 Y82.305 F10800.000
M204 S800
G1 F900
G1 X123.195 Y104.695 E0.80680
G1 X121.805 Y104.695 E0.05009
G1 X121.805 Y82.305 E0.80680
G1 X123.105 Y82.305 E0.04684
M204 S1000
G1 X123.183 Y82.905 F10800.000
G1 F8640
G1 X123.118 Y85.596 E-0.76000
G1 E-0.04000 F2100.00000
G1 Z1.250 F10800.000
G1 X127.403 Y82.903
G1 Z0.650
G1 E0.80000 F2100.00000
M204 S800
G1 F900
G1 X127.597 Y82.903 E0.00749
G1 X127.597 Y104.097 E0.81658
G1 X127.403 Y104.097 E0.00749
G1 X127.403 Y82.993 E0.81312
M204 S1000
G1 X126.805 Y82.305 F10800.000
M204 S800
G1 F900
G1 X128.195 Y82.305 E0.05009
G1 X128.195 Y104.695 E0.80680
G1 X126.805 Y104.695 E0.05009
G1 X126.805 Y82.395 E0.80355
M204 S1000
G1 X127.331 Y82.594 F10800.000
;BEFORE_LAYER_CHANGE
;0.8


G1 F8640
G1 X128.195 Y82.305 E-0.32163
G1 X128.195 Y84.204 E-0.43837
G1 E-0.04000 F2100.00000
G1 Z1.250 F10800.000
;AFTER_LAYER_CHANGE
;0.8
; PURGING FINISHED
G1 X127.403 Y82.903
G1 Z0.800
G1 E0.80000 F2100.00000
M204 S800
G1 F900
G1 X127.597 Y82.903 E0.00749
G1 X127.597 Y104.097 E0.81658
G1 X127.403 Y104.097 E0.00749
G1 X127.403 Y82.993 E0.81312
M204 S1000
G1 X126.805 Y82.305 F10800.000
M204 S800
G1 F900
G1 X128.195 Y82.305 E0.05009
G1 X128.195 Y104.695 E0.80680
G1 X126.805 Y104.695 E0.05009
G1 X126.805 Y82.395 E0.80355
M204 S1000
G1 X127.331 Y82.594 F10800.000
G1 F8640
G1 X128.195 Y82.305 E-0.32163
G1 X128.195 Y84.204 E-0.43837
G1 E-0.04000 F2100.00000
G1 Z1.400 F10800.000
G1 X122.597 Y82.903
G1 Z0.800
G1 E0.80000 F2100.00000
M204 S800
G1 F900
G1 X122.597 Y104.097 E0.81658
G1 X122.403 Y104.097 E0.00749
G1 X122.403 Y82.903 E0.81658
G1 X122.507 Y82.903 E0.00402
M204 S1000
G1 X123.195 Y82.305 F10800.000
M204 S800
G1 F900
G1 X123.195 Y104.695 E0.80680
G1 X121.805 Y104.695 E0.05009
G1 X121.805 Y82.305 E0.80680
G1 X123.105 Y82.305 E0.04684
M204 S1000
G1 X123.183 Y82.905 F10800.000
;BEFORE_LAYER_CHANGE
;0.95


G1 F8640
G1 X123.118 Y85.596 E-0.76000
G1 E-0.04000 F2100.00000
G1 Z1.400 F10800.000
;AFTER_LAYER_CHANGE
;0.95
; PURGING FINISHED
G1 X127.403 Y82.903
G1 Z0.950
G1 E0.80000 F2100.00000
M204 S800
G1 F900
G1 X127.597 Y82.903 E0.00749
G1 X127.597 Y104.097 E0.81658
G1 X127.403 Y104.097 E0.00749
G1 X127.403 Y82.993 E0.81312
M204 S1000
G1 X126.805 Y82.305 F10800.000
M204 S800
G1 F900
G1 X128.195 Y82.305 E0.05009
G1 X128.195 Y104.695 E0.80680
G1 X126.805 Y104.695 E0.05009
G1 X126.805 Y82.395 E0.80355
M204 S1000
G1 X127.331 Y82.594 F10800.000
G1 F8640
G1 X128.195 Y82.305 E-0.32163
G1 X128.195 Y84.204 E-0.43837
G1 E-0.04000 F2100.00000
G1 Z1.550 F10800.000
G1 X122.597 Y82.903
G1 Z0.950
G1 E0.80000 F2100.00000
M204 S800
G1 F900
G1 X122.597 Y104.097 E0.81658
G1 X122.403 Y104.097 E0.00749
G1 X122.403 Y82.903 E0.81658
G1 X122.507 Y82.903 E0.00402
M204 S1000
G1 X123.195 Y82.305 F10800.000
M204 S800
G1 F900
G1 X123.195 Y104.695 E0.80680
G1 X121.805 Y104.695 E0.05009
G1 X121.805 Y82.305 E0.80680
G1 X123.105 Y82.305 E0.04684
M204 S1000
G1 X123.183 Y82.905 F10800.000
;BEFORE_LAYER_CHANGE
;1.1


G1 F8640
G1 X123.118 Y85.596 E-0.76000
G1 E-0.04000 F2100.00000
G1 Z1.550 F10800.000
;AFTER_LAYER_CHANGE
;1.1
; PURGING FINISHED
G1 X123.195 Y93.001
G1 Z1.100
G1 E0.80000 F2100.00000
M204 S800
G1 F900
G1 X126.805 Y93.001 E0.13008
G1 X126.805 Y94.999 E0.07201
G1 X123.195 Y94.999 E0.13008
G1 X123.195 Y93.091 E0.06876
M204 S1000
G1 X122.986 Y92.438 F10800.000
G1 X123.195 Y92.999
M204 S800
G1 F900
G1 X123.195 Y91.001 E0.07201
G1 X126.805 Y91.001 E0.13008
G1 X126.805 Y92.999 E0.07201
G1 X123.285 Y92.999 E0.12684
M204 S1000
G1 X122.603 Y93.100 F10800.000
G1 F8640
G1 X123.195 Y91.001 E-0.46187
G1 X124.486 Y91.001 E-0.29813
G1 E-0.04000 F2100.00000
G1 Z1.700 F10800.000
G1 X123.285 Y90.999
G1 Z1.100
G1 E0.80000 F2100.00000
M204 S800
G1 F900
G1 X123.195 Y90.999 E0.00324
G1 X123.195 Y89.001 E0.07201
G1 X126.805 Y89.001 E0.13008
G1 X126.805 Y90.999 E0.07201
G1 X123.375 Y90.999 E0.12360
M204 S1000
G1 X123.254 Y91.084 F10800.000
G1 F8640
G1 X123.195 Y90.999 E-0.04156
G1 X123.195 Y89.001 E-0.46140
G1 X124.308 Y89.001 E-0.25703
G1 E-0.04000 F2100.00000
G1 Z1.700 F10800.000
G1 X123.195 Y87.001
G1 Z1.100
G1 E0.80000 F2100.00000
M204 S800
G1 F900
G1 X126.805 Y87.001 E0.13008
G1 X126.805 Y88.999 E0.07201
G1 X123.195 Y88.999 E0.13008
G1 X123.195 Y87.091 E0.06876
M204 S1000
G1 X122.986 Y86.438 F10800.000
G1 X123.195 Y86.999
M204 S800
G1 F900
G1 X123.195 Y85.001 E0.07201
G1 X126.805 Y85.001 E0.13008
G1 X126.805 Y86.999 E0.07201
G1 X123.285 Y86.999 E0.12684
M204 S1000
G1 X122.603 Y87.100 F10800.000
G1 F8640
G1 X123.195 Y85.001 E-0.46187
G1 X124.486 Y85.001 E-0.29813
G1 E-0.04000 F2100.00000
G1 Z1.700 F10800.000
G1 X122.597 Y82.903
G1 Z1.100
G1 E0.80000 F2100.00000
M204 S800
G1 F900
G1 X122.597 Y104.097 E0.81658
G1 X122.403 Y104.097 E0.00749
G1 X122.403 Y82.903 E0.81658
G1 X122.507 Y82.903 E0.00402
M204 S1000
G1 F8640
G1 X122.521 Y86.194 E-0.76000
G1 E-0.04000 F2100.00000
G1 Z1.700 F10800.000
G1 X127.403 Y82.903
G1 Z1.100
G1 E0.80000 F2100.00000
M204 S800
G1 F900
G1 X127.597 Y82.903 E0.00749
G1 X127.597 Y104.097 E0.81658
G1 X127.403 Y104.097 E0.00749
G1 X127.403 Y82.993 E0.81312
M204 S1000
G1 F8640
G1 X127.597 Y82.903 E-0.04946
G1 X127.597 Y85.980 E-0.71054
G1 E-0.04000 F2100.00000
G1 Z1.700 F10800.000
G1 X123.195 Y84.999
G1 Z1.100
G1 E0.80000 F2100.00000
M204 S800
G1 F900
G1 X126.805 Y84.999 E0.13008
G1 X126.805 Y82.305 E0.09708
G1 X128.195 Y82.305 E0.05009
G1 X128.195 Y104.695 E0.80680
G1 X126.805 Y104.695 E0.05009
G1 X126.805 Y95.001 E0.34932
G1 X123.195 Y95.001 E0.13008
G1 X123.195 Y104.695 E0.34932
G1 X121.805 Y104.695 E0.05009
G1 X121.805 Y82.305 E0.80680
G1 X123.195 Y82.305 E0.05009
G1 X123.195 Y84.909 E0.09384
M204 S1000
G1 X123.290 Y85.592 F10800.000
;BEFORE_LAYER_CHANGE
;1.25


G1 F8640
G1 X126.485 Y84.991 E-0.76000
G1 E-0.04000 F2100.00000
G1 Z1.700 F10800.000
;AFTER_LAYER_CHANGE
;1.25
; PURGING FINISHED
G1 X127.403 Y82.903
G1 Z1.250
G1 E0.80000 F2100.00000
M204 S800
G1 F900
G1 X127.597 Y82.903 E0.00749
G1 X127.597 Y104.097 E0.81658
G1 X127.403 Y104.097 E0.00749
G1 X127.403 Y82.993 E0.81312
M204 S1000
G1 X126.805 Y82.305 F10800.000
M204 S800
G1 F900
G1 X128.195 Y82.305 E0.05009
G1 X128.195 Y104.695 E0.80680
G1 X126.805 Y104.695 E0.05009
G1 X126.805 Y82.395 E0.80355
M204 S1000
G1 X127.331 Y82.594 F10800.000
G1 F8640
G1 X128.195 Y82.305 E-0.32163
G1 X128.195 Y84.204 E-0.43837
G1 E-0.04000 F2100.00000
G1 Z1.850 F10800.000
G1 X122.597 Y82.903
G1 Z1.250
G1 E0.80000 F2100.00000
M204 S800
G1 F900
G1 X122.597 Y104.097 E0.81658
G1 X122.403 Y104.097 E0.00749
G1 X122.403 Y82.903 E0.81658
G1 X122.507 Y82.903 E0.00402
M204 S1000
G1 X123.195 Y82.305 F10800.000
M204 S800
G1 F900
G1 X123.195 Y104.695 E0.80680
G1 X121.805 Y104.695 E0.05009
G1 X121.805 Y82.305 E0.80680
G1 X123.105 Y82.305 E0.04684
M204 S1000
G1 X123.183 Y82.905 F10800.000
;BEFORE_LAYER_CHANGE
;1.4


G1 F8640
G1 X123.118 Y85.596 E-0.76000
G1 E-0.04000 F2100.00000
G1 Z1.850 F10800.000
;AFTER_LAYER_CHANGE
;1.4
; PURGING FINISHED
G1 X127.403 Y82.903
G1 Z1.400
G1 E0.80000 F2100.00000
M204 S800
G1 F900
G1 X127.597 Y82.903 E0.00749
G1 X127.597 Y104.097 E0.81658
G1 X127.403 Y104.097 E0.00749
G1 X127.403 Y82.993 E0.81312
M204 S1000
G1 X126.805 Y82.305 F10800.000
M204 S800
G1 F900
G1 X128.195 Y82.305 E0.05009
G1 X128.195 Y104.695 E0.80680
G1 X126.805 Y104.695 E0.05009
G1 X126.805 Y82.395 E0.80355
M204 S1000
G1 X127.331 Y82.594 F10800.000
G1 F8640
G1 X128.195 Y82.305 E-0.32163
G1 X128.195 Y84.204 E-0.43837
G1 E-0.04000 F2100.00000
G1 Z2.000 F10800.000
G1 X122.597 Y82.903
G1 Z1.400
G1 E0.80000 F2100.00000
M204 S800
G1 F900
G1 X122.597 Y104.097 E0.81658
G1 X122.403 Y104.097 E0.00749
G1 X122.403 Y82.903 E0.81658
G1 X122.507 Y82.903 E0.00402
M204 S1000
G1 X123.195 Y82.305 F10800.000
M204 S800
G1 F900
G1 X123.195 Y104.695 E0.80680
G1 X121.805 Y104.695 E0.05009
G1 X121.805 Y82.305 E0.80680
G1 X123.105 Y82.305 E0.04684
M204 S1000
G1 X123.183 Y82.905 F10800.000
;BEFORE_LAYER_CHANGE
;1.55


G1 F8640
G1 X123.118 Y85.596 E-0.76000
G1 E-0.04000 F2100.00000
G1 Z2.000 F10800.000
;AFTER_LAYER_CHANGE
;1.55
; PURGING FINISHED
G1 X122.597 Y82.903
G1 Z1.550
G1 E0.80000 F2100.00000
M204 S800
G1 F900
G1 X122.597 Y104.097 E0.81658
G1 X122.403 Y104.097 E0.00749
G1 X122.403 Y82.903 E0.81658
G1 X122.507 Y82.903 E0.00402
M204 S1000
G1 X123.195 Y82.305 F10800.000
M204 S800
G1 F900
G1 X123.195 Y104.695 E0.80680
G1 X121.805 Y104.695 E0.05009
G1 X121.805 Y82.305 E0.80680
G1 X123.105 Y82.305 E0.04684
M204 S1000
G1 X123.183 Y82.905 F10800.000
G1 F8640
G1 X123.118 Y85.596 E-0.76000
G1 E-0.04000 F2100.00000
G1 Z2.150 F10800.000
G1 X127.403 Y82.903
G1 Z1.550
G1 E0.80000 F2100.00000
M204 S800
G1 F900
G1 X127.597 Y82.903 E0.00749
G1 X127.597 Y104.097 E0.81658
G1 X127.403 Y104.097 E0.00749
G1 X127.403 Y82.993 E0.81312
M204 S1000
G1 X126.805 Y82.305 F10800.000
M204 S800
G1 F900
G1 X128.195 Y82.305 E0.05009
G1 X128.195 Y104.695 E0.80680
G1 X126.805 Y104.695 E0.05009
G1 X126.805 Y82.395 E0.80355
M204 S1000
G1 X127.331 Y82.594 F10800.000
;BEFORE_LAYER_CHANGE
