;FLAVOR:Marlin
;TIME:4371
;Filament used: 3.01141m
;Layer height: 0.15
;MINX:88.202
;MINY:81.712
;MINZ:0.2
;MAXX:143.656
;MAXY:104.812
;MAXZ:40.4
;Generated with Cura_SteamEngine 4.4.0
M82 ;absolute extrusion mode
G21 ; set units to millimeters
G90 ; use absolute positioning
M82 ; absolute extrusion mode
M104 S200 ; set extruder temp
M140 S60 ; set bed temp
M190 S60 ; wait for bed temp
M109 S200 ; wait for extruder temp
G28 W ; home all without mesh bed level
G80 ; mesh bed leveling
G92 E0.0 ; reset extruder distance position
G1 Y-3.0 F1000.0 ; go outside print area
G1 X60.0 E9.0 F1000.0 ; intro line
G1 X100.0 E21.5 F1000.0 ; intro line
G92 E0.0 ; reset extruder distance position
G92 E0
G92 E0
G1 F2100 E-0.8
;LAYER_COUNT:269
;LAYER:0
M107
;MESH:1-RightIdlerCorner.stl
G0 F3600 X98.954 Y95.952 Z0.2
;TYPE:WALL-OUTER
G1 F2100 E0
G1 F1800 X98.573 Y96.25 E0.01609
G1 X98.291 Y96.626 E0.03172
G1 X98.114 Y97.06 E0.04731
G1 X98.056 Y97.528 E0.06299
G1 X98.122 Y97.993 E0.07862
G1 X98.305 Y98.425 E0.09422
G1 X98.582 Y98.786 E0.10935
G1 X98.955 Y99.072 E0.12499
G1 X99.39 Y99.252 E0.14064
G1 X99.856 Y99.314 E0.15628
G1 X100.322 Y99.252 E0.17192
G1 X100.758 Y99.071 E0.18762
G1 X101.14 Y98.773 E0.20373
G1 X101.422 Y98.398 E0.21934
G1 X101.599 Y97.962 E0.23499
G1 X101.656 Y97.496 E0.2506
G1 X101.591 Y97.03 E0.26625
G1 X101.408 Y96.599 E0.28183
G1 X101.131 Y96.237 E0.29699
G1 X100.757 Y95.951 E0.31265
G1 X100.322 Y95.771 E0.3283
G1 X99.856 Y95.71 E0.34394
G1 X99.39 Y95.771 E0.35957
G1 X98.954 Y95.952 E0.37527
G0 F3600 X98.797 Y96.075
G0 X98.489 Y95.682
G0 X99.276 Y95.343
G0 X116.484 Y92.14
G0 X116.056 Y91.712
G1 F1800 X116.056 Y81.712 E0.70787
G1 X134.256 Y81.712 E1.3132
G1 X134.256 Y91.712 E1.64581
G1 X143.656 Y91.712 E1.95845
G1 X143.656 Y104.812 E2.39416
G1 X89.056 Y104.812 E4.21016
G1 X89.056 Y91.712 E4.64587
G1 X116.056 Y91.712 E5.54389
G0 F3600 X116.056 Y91.512
G0 X116.556 Y91.512
G0 X138.2 Y95.309
G0 X138.391 Y95.771
G1 F1800 X137.954 Y95.952 E5.55963
G1 X137.571 Y96.252 E5.57581
G1 X137.289 Y96.628 E5.59144
G1 X137.114 Y97.064 E5.60707
G1 X137.056 Y97.531 E5.62272
G1 X137.123 Y97.995 E5.63831
G1 X137.307 Y98.427 E5.65393
G1 X137.582 Y98.786 E5.66897
G1 X137.955 Y99.072 E5.6846
G1 X138.39 Y99.252 E5.70026
G1 X138.856 Y99.314 E5.71589
G1 X139.322 Y99.252 E5.73153
G1 X139.758 Y99.071 E5.74723
G1 X140.142 Y98.771 E5.76344
G1 X140.424 Y98.396 E5.77905
G1 X140.599 Y97.959 E5.7947
G1 X140.656 Y97.493 E5.81032
G1 X140.59 Y97.028 E5.82594
G1 X140.406 Y96.597 E5.84152
G1 X140.131 Y96.237 E5.85659
G1 X139.757 Y95.951 E5.87225
G1 X139.322 Y95.771 E5.88791
G1 X138.875 Y95.713 E5.9029
G1 X138.391 Y95.771 E5.91911
G0 F3600 X138.207 Y95.847
G0 X138.289 Y95.38
;TYPE:WALL-INNER
G1 F1800 X137.75 Y95.603 E5.93852
G1 X137.283 Y95.97 E5.95827
G1 X136.937 Y96.43 E5.97741
G1 X136.723 Y96.963 E5.99652
G1 X136.652 Y97.535 E6.01569
G1 X136.735 Y98.104 E6.03481
G1 X136.959 Y98.63 E6.05383
G1 X137.297 Y99.071 E6.07231
G1 X137.753 Y99.421 E6.09143
G1 X138.285 Y99.642 E6.11059
G1 X138.856 Y99.718 E6.12975
G1 X139.427 Y99.642 E6.14891
G1 X139.961 Y99.42 E6.16814
G1 X140.43 Y99.054 E6.18793
G1 X140.776 Y98.594 E6.20707
G1 X140.99 Y98.059 E6.22624
G1 X141.059 Y97.489 E6.24533
G1 X140.979 Y96.92 E6.26445
G1 X140.754 Y96.394 E6.28347
G1 X140.416 Y95.952 E6.30198
G1 X139.958 Y95.601 E6.32117
G1 X139.426 Y95.381 E6.34032
G1 X138.877 Y95.31 E6.35873
G1 X138.289 Y95.38 E6.37843
G0 F3600 X138.264 Y95.284
G0 X116.526 Y92.182
G0 X116.456 Y92.112
G1 F1800 X116.456 Y82.112 E6.71103
G1 X133.856 Y82.112 E7.28976
G1 X133.856 Y92.112 E7.62236
G1 X143.256 Y92.112 E7.935
G1 X143.256 Y104.412 E8.3441
G1 X89.456 Y104.412 E10.1335
G1 X89.456 Y92.112 E10.5426
G1 X116.456 Y92.112 E11.44062
G0 F3600 X116.526 Y92.182
G0 X99.276 Y95.343
G0 X98.75 Y95.603
G1 F1800 X98.285 Y95.968 E11.46028
G1 X97.94 Y96.427 E11.47938
G1 X97.724 Y96.958 E11.49845
G1 X97.652 Y97.532 E11.51769
G1 X97.733 Y98.101 E11.5368
G1 X97.957 Y98.628 E11.55585
G1 X98.297 Y99.071 E11.57442
G1 X98.753 Y99.421 E11.59354
G1 X99.285 Y99.642 E11.6127
G1 X99.856 Y99.718 E11.63186
G1 X100.427 Y99.642 E11.65102
G1 X100.961 Y99.42 E11.67025
G1 X101.428 Y99.056 E11.68995
G1 X101.773 Y98.597 E11.70905
G1 X101.99 Y98.063 E11.72822
G1 X102.059 Y97.493 E11.74731
G1 X101.98 Y96.922 E11.76649
G1 X101.756 Y96.396 E11.7855
G1 X101.416 Y95.952 E11.8041
G1 X100.958 Y95.601 E11.82329
G1 X100.426 Y95.381 E11.84244
G1 X99.856 Y95.307 E11.86156
G1 X99.286 Y95.381 E11.88068
G1 X98.75 Y95.603 E11.89997
G0 F3600 X98.551 Y95.263
;TYPE:SKIN
G1 F1800 X98.004 Y95.693 E11.92311
G1 X97.598 Y96.234 E11.94561
G1 X97.344 Y96.858 E11.96802
G1 X97.258 Y97.536 E11.99075
G1 X97.354 Y98.206 E12.01326
G1 X97.618 Y98.826 E12.03567
G1 X98.018 Y99.349 E12.05757
G1 X98.556 Y99.762 E12.08013
G1 X99.183 Y100.022 E12.10271
G1 X99.856 Y100.112 E12.12529
G1 X100.529 Y100.022 E12.14787
G1 X101.16 Y99.76 E12.1706
G1 X101.709 Y99.331 E12.19377
G1 X102.115 Y98.79 E12.21627
G1 X102.371 Y98.162 E12.23883
G1 X102.453 Y97.489 E12.26138
G1 X102.359 Y96.817 E12.28394
G1 X102.095 Y96.198 E12.30633
G1 X101.695 Y95.674 E12.32825
G1 X101.155 Y95.26 E12.35088
G1 X100.527 Y95.001 E12.37348
G1 X99.856 Y94.913 E12.39599
G1 X99.184 Y95.001 E12.41853
G1 X98.551 Y95.263 E12.44131
G0 F3600 X89.846 Y92.502
G1 F1800 X116.846 Y92.502 E13.33934
G1 X116.846 Y82.502 E13.67194
G1 X133.466 Y82.502 E14.22472
G1 X133.466 Y92.502 E14.55732
G1 X142.866 Y92.502 E14.86997
G1 X142.866 Y104.022 E15.25313
G1 X89.846 Y104.022 E17.01658
G1 X89.846 Y92.502 E17.39973
G0 F3600 X136.258 Y97.539
G1 F1800 X136.357 Y98.211 E17.42233
G1 X136.62 Y98.828 E17.44463
G1 X137.018 Y99.349 E17.46644
G1 X137.556 Y99.762 E17.489
G1 X138.183 Y100.022 E17.51158
G1 X138.856 Y100.112 E17.53416
G1 X139.529 Y100.022 E17.55674
G1 X140.16 Y99.76 E17.57947
G1 X140.711 Y99.329 E17.60273
G1 X141.119 Y98.787 E17.6253
G1 X141.371 Y98.157 E17.64787
G1 X141.453 Y97.485 E17.67038
G1 X141.358 Y96.814 E17.69292
G1 X141.093 Y96.196 E17.71529
G1 X140.695 Y95.674 E17.73712
G1 X140.155 Y95.26 E17.75975
G1 X139.527 Y95.001 E17.78234
G1 X138.879 Y94.917 E17.80408
G1 X138.189 Y94.999 E17.82719
G1 X137.551 Y95.263 E17.85015
G1 X137.002 Y95.695 E17.87339
G1 X136.594 Y96.237 E17.89595
G1 X136.343 Y96.865 E17.91845
G1 X136.258 Y97.539 E17.94104
G0 F3600 X133.828 Y92.14
G0 X133.285 Y82.939
G1 F1800 X133.027 Y82.681 E17.95318
G0 F3600 X132.462 Y82.681
G1 F1800 X133.285 Y83.505 E17.99191
G0 F3600 X133.285 Y84.07
G1 F1800 X131.896 Y82.681 E18.05725
G0 F3600 X131.33 Y82.681
G1 F1800 X133.285 Y84.636 E18.1492
G0 F3600 X133.285 Y85.202
G1 F1800 X130.765 Y82.681 E18.26776
G0 F3600 X130.199 Y82.681
G1 F1800 X133.285 Y85.767 E18.41292
G0 F3600 X133.285 Y86.333
G1 F1800 X129.633 Y82.681 E18.58469
G0 F3600 X129.068 Y82.681
G1 F1800 X133.285 Y86.899 E18.78307
G0 F3600 X133.285 Y87.464
G1 F1800 X128.502 Y82.681 E19.00805
G0 F3600 X127.936 Y82.681
G1 F1800 X133.285 Y88.03 E19.25965
G0 F3600 X133.285 Y88.596
G1 F1800 X127.371 Y82.681 E19.53785
G0 F3600 X126.805 Y82.681
G1 F1800 X133.285 Y89.161 E19.84265
G0 F3600 X133.285 Y89.727
G1 F1800 X126.239 Y82.681 E20.17407
G0 F3600 X125.674 Y82.681
G1 F1800 X133.285 Y90.293 E20.53209
G0 F3600 X133.285 Y90.858
G1 F1800 X125.108 Y82.681 E20.91672
G0 F3600 X124.542 Y82.681
G1 F1800 X133.285 Y91.424 E21.32796
G0 F3600 X133.285 Y91.99
G1 F1800 X123.977 Y82.681 E21.7658
G0 F3600 X123.411 Y82.681
G1 F1800 X133.285 Y92.556 E22.23027
G0 F3600 X133.411 Y92.681
G1 F1800 X136.625 Y95.895 E22.38145
G0 F3600 X136.867 Y95.572
G1 F1800 X133.976 Y92.681 E22.51743
G0 F3600 X134.542 Y92.681
G1 F1800 X137.182 Y95.322 E22.64163
G0 F3600 X137.51 Y95.083
G1 F1800 X135.108 Y92.681 E22.75461
G0 F3600 X135.673 Y92.681
G1 F1800 X137.91 Y94.918 E22.85983
G0 F3600 X138.355 Y94.797
G1 F1800 X136.239 Y92.681 E22.95936
G0 F3600 X136.805 Y92.681
G1 F1800 X138.86 Y94.736 E23.05603
G0 F3600 X139.505 Y94.816
G1 F1800 X137.371 Y92.681 E23.15643
G0 F3600 X137.936 Y92.681
G1 F1800 X140.726 Y95.471 E23.28766
G0 F3600 X140.895 Y95.64
G1 F1800 X142.685 Y97.43 E23.37186
G0 F3600 X142.685 Y96.865
G1 F1800 X138.502 Y92.681 E23.56863
G0 F3600 X139.068 Y92.681
G1 F1800 X142.685 Y96.299 E23.73879
G0 F3600 X142.685 Y95.733
G1 F1800 X139.633 Y92.681 E23.88235
G0 F3600 X140.199 Y92.681
G1 F1800 X142.685 Y95.168 E23.9993
G0 F3600 X142.685 Y94.602
G1 F1800 X140.765 Y92.681 E24.08964
G0 F3600 X141.33 Y92.681
G1 F1800 X142.685 Y94.036 E24.15337
G0 F3600 X142.685 Y93.471
G1 F1800 X141.896 Y92.681 E24.19051
G0 F3600 X142.462 Y92.681
G1 F1800 X142.685 Y92.905 E24.20102
G0 F3600 X141.544 Y96.855
G1 F1800 X142.685 Y97.996 E24.25469
G0 F3600 X142.685 Y98.562
G1 F1800 X141.63 Y97.507 E24.30432
G0 F3600 X141.568 Y98.01
G1 F1800 X142.685 Y99.127 E24.35686
G0 F3600 X142.685 Y99.693
G1 F1800 X141.444 Y98.452 E24.41523
G0 F3600 X141.283 Y98.857
G1 F1800 X142.685 Y100.259 E24.48117
G0 F3600 X142.685 Y100.824
G1 F1800 X141.044 Y99.183 E24.55836
G0 F3600 X140.79 Y99.495
G1 F1800 X142.685 Y101.39 E24.6475
G0 F3600 X142.685 Y101.956
G1 F1800 X140.473 Y99.743 E24.75157
G0 F3600 X140.13 Y99.967
G1 F1800 X142.685 Y102.521 E24.87172
G0 F3600 X142.685 Y103.087
G1 F1800 X139.731 Y100.133 E25.01067
G0 F3600 X139.271 Y100.238
G1 F1800 X142.685 Y103.653 E25.17128
G0 F3600 X142.308 Y103.841
G1 F1800 X138.746 Y100.279 E25.33882
G0 F3600 X138.073 Y100.172
G1 F1800 X141.742 Y103.841 E25.5114
G0 F3600 X141.176 Y103.841
G1 F1800 X120.017 Y82.681 E26.50668
G0 F3600 X120.582 Y82.681
G1 F1800 X136.196 Y98.295 E27.24111
G0 F3600 X136.087 Y97.621
G1 F1800 X121.148 Y82.681 E27.94382
G0 F3600 X121.714 Y82.681
G1 F1800 X136.132 Y97.099 E28.622
G0 F3600 X136.238 Y96.64
G1 F1800 X122.279 Y82.681 E29.27859
G0 F3600 X122.845 Y82.681
G1 F1800 X136.4 Y96.236 E29.91617
G1 X136.47 Y96.306
G0 F3600 X136.651 Y103.841
G1 F1800 X117.024 Y84.215 E30.83934
G0 F3600 X117.024 Y84.78
G1 F1800 X136.085 Y103.841 E31.73592
G0 F3600 X135.519 Y103.841
G1 F1800 X117.024 Y85.346 E32.60586
G0 F3600 X117.024 Y85.912
G1 F1800 X134.954 Y103.841 E33.44921
G0 F3600 X134.388 Y103.841
G1 F1800 X117.024 Y86.477 E34.26596
G0 F3600 X117.024 Y87.043
G1 F1800 X133.822 Y103.841 E35.05609
G0 F3600 X133.257 Y103.841
G1 F1800 X117.024 Y87.609 E35.81962
G0 F3600 X117.024 Y88.174
G1 F1800 X132.691 Y103.841 E36.55654
G0 F3600 X132.125 Y103.841
G1 F1800 X117.024 Y88.74 E37.26685
G0 F3600 X117.024 Y89.306
G1 F1800 X131.56 Y103.841 E37.95055
G0 F3600 X130.994 Y103.841
G1 F1800 X117.024 Y89.871 E38.60766
G0 F3600 X117.024 Y90.437
G1 F1800 X130.428 Y103.841 E39.23814
G0 F3600 X129.862 Y103.841
G1 F1800 X117.024 Y91.003 E39.842
G0 F3600 X117.024 Y91.568
G1 F1800 X129.297 Y103.841 E40.41929
G0 F3600 X128.731 Y103.841
G1 F1800 X117.024 Y92.134 E40.96995
G0 F3600 X117.006 Y92.681
G1 F1800 X128.165 Y103.841 E41.49486
G0 F3600 X127.6 Y103.841
G1 F1800 X116.44 Y92.681 E42.01979
G0 F3600 X115.875 Y92.681
G1 F1800 X127.034 Y103.841 E42.5447
G0 F3600 X126.468 Y103.841
G1 F1800 X115.309 Y92.681 E43.06961
G0 F3600 X114.743 Y92.681
G1 F1800 X125.903 Y103.841 E43.59454
G0 F3600 X125.337 Y103.841
G1 F1800 X114.177 Y92.681 E44.11947
G0 F3600 X113.612 Y92.681
G1 F1800 X124.771 Y103.841 E44.64438
G0 F3600 X124.206 Y103.841
G1 F1800 X113.046 Y92.681 E45.16931
G0 F3600 X112.48 Y92.681
G1 F1800 X123.64 Y103.841 E45.69424
G0 F3600 X123.074 Y103.841
G1 F1800 X111.915 Y92.681 E46.21915
G0 F3600 X111.349 Y92.681
G1 F1800 X122.509 Y103.841 E46.74408
G0 F3600 X121.943 Y103.841
G1 F1800 X110.783 Y92.681 E47.26902
G0 F3600 X110.218 Y92.681
G1 F1800 X121.377 Y103.841 E47.79393
G0 F3600 X120.812 Y103.841
G1 F1800 X109.652 Y92.681 E48.31886
G0 F3600 X109.086 Y92.681
G1 F1800 X120.246 Y103.841 E48.84379
G0 F3600 X119.68 Y103.841
G1 F1800 X108.521 Y92.681 E49.3687
G0 F3600 X107.955 Y92.681
G1 F1800 X119.114 Y103.841 E49.89361
G0 F3600 X118.549 Y103.841
G1 F1800 X107.389 Y92.681 E50.41854
G0 F3600 X106.824 Y92.681
G1 F1800 X117.983 Y103.841 E50.94345
G0 F3600 X117.417 Y103.841
G1 F1800 X106.258 Y92.681 E51.46836
G0 F3600 X105.692 Y92.681
G1 F1800 X116.852 Y103.841 E51.99329
G0 F3600 X116.286 Y103.841
G1 F1800 X105.126 Y92.681 E52.51822
G0 F3600 X104.561 Y92.681
G1 F1800 X115.72 Y103.841 E53.04313
G0 F3600 X115.155 Y103.841
G1 F1800 X103.995 Y92.681 E53.56806
G0 F3600 X103.429 Y92.681
G1 F1800 X114.589 Y103.841 E54.09299
G0 F3600 X114.023 Y103.841
G1 F1800 X102.864 Y92.681 E54.6179
G0 F3600 X102.298 Y92.681
G1 F1800 X113.458 Y103.841 E55.14283
G0 F3600 X112.892 Y103.841
G1 F1800 X101.732 Y92.681 E55.66777
G0 F3600 X101.167 Y92.681
G1 F1800 X112.326 Y103.841 E56.19268
G0 F3600 X111.761 Y103.841
G1 F1800 X100.601 Y92.681 E56.71761
G0 F3600 X100.035 Y92.681
G1 F1800 X111.195 Y103.841 E57.24254
G0 F3600 X110.629 Y103.841
G1 F1800 X99.47 Y92.681 E57.76745
G0 F3600 X98.904 Y92.681
G1 F1800 X101.587 Y95.364 E57.89365
G0 F3600 X101.998 Y95.776
G1 F1800 X110.063 Y103.841 E58.273
G0 F3600 X109.498 Y103.841
G1 F1800 X102.549 Y96.892 E58.59986
G0 F3600 X102.628 Y97.536
G1 F1800 X108.932 Y103.841 E58.89641
G0 F3600 X108.366 Y103.841
G1 F1800 X102.566 Y98.041 E59.16922
G0 F3600 X102.435 Y98.475
G1 F1800 X107.801 Y103.841 E59.42162
G0 F3600 X107.235 Y103.841
G1 F1800 X102.27 Y98.876 E59.65516
G0 F3600 X102.029 Y99.201
G1 F1800 X106.669 Y103.841 E59.87341
G0 F3600 X106.104 Y103.841
G1 F1800 X101.772 Y99.509 E60.07717
G0 F3600 X101.454 Y99.757
G1 F1800 X105.538 Y103.841 E60.26927
G0 F3600 X104.972 Y103.841
G1 F1800 X101.108 Y99.977 E60.45102
G0 F3600 X100.708 Y100.143
G1 F1800 X104.407 Y103.841 E60.62499
G0 F3600 X103.841 Y103.841
G1 F1800 X100.242 Y100.242 E60.79428
G0 F3600 X99.707 Y100.273
G1 F1800 X103.275 Y103.841 E60.9621
G0 F3600 X102.71 Y103.841
G1 F1800 X99.016 Y100.147 E61.13586
G1 X98.946 Y100.077
G0 F3600 X97.22 Y98.352
G1 F1800 X91.55 Y92.681 E61.40258
G0 F3600 X90.984 Y92.681
G1 F1800 X102.144 Y103.841 E61.92751
G0 F3600 X101.578 Y103.841
G1 F1800 X90.419 Y92.681 E62.45242
G0 F3600 X90.026 Y92.854
G1 F1800 X101.013 Y103.841 E62.96922
G0 F3600 X100.447 Y103.841
G1 F1800 X90.026 Y93.42 E63.45939
G0 F3600 X90.026 Y93.985
G1 F1800 X99.881 Y103.841 E63.92296
G0 F3600 X99.315 Y103.841
G1 F1800 X90.026 Y94.551 E64.35991
G0 F3600 X90.026 Y95.117
G1 F1800 X98.75 Y103.841 E64.77026
G0 F3600 X98.184 Y103.841
G1 F1800 X90.026 Y95.682 E65.15401
G0 F3600 X90.026 Y96.248
G1 F1800 X97.618 Y103.841 E65.51114
G0 F3600 X97.053 Y103.841
G1 F1800 X90.026 Y96.814 E65.84167
G0 F3600 X90.026 Y97.379
G1 F1800 X96.487 Y103.841 E66.1456
G0 F3600 X95.921 Y103.841
G1 F1800 X90.026 Y97.945 E66.4229
G0 F3600 X90.026 Y98.511
G1 F1800 X95.356 Y103.841 E66.67361
G0 F3600 X94.79 Y103.841
G1 F1800 X90.026 Y99.076 E66.89772
G0 F3600 X90.026 Y99.642
G1 F1800 X94.224 Y103.841 E67.0952
G0 F3600 X93.659 Y103.841
G1 F1800 X90.026 Y100.208 E67.26609
G0 F3600 X90.026 Y100.774
G1 F1800 X93.093 Y103.841 E67.41035
G0 F3600 X92.527 Y103.841
G1 F1800 X90.026 Y101.339 E67.52801
G0 F3600 X90.026 Y101.905
G1 F1800 X91.962 Y103.841 E67.61908
G0 F3600 X91.396 Y103.841
G1 F1800 X90.026 Y102.471 E67.68352
G0 F3600 X90.026 Y103.036
G1 F1800 X90.83 Y103.841 E67.72136
G0 F3600 X90.265 Y103.841
G1 F1800 X90.026 Y103.602 E67.7326
G0 F3600 X97.094 Y97.659
G1 F1800 X92.116 Y92.681 E67.96675
G0 F3600 X92.681 Y92.681
G1 F1800 X97.128 Y97.128 E68.17592
G0 F3600 X97.229 Y96.663
G1 F1800 X93.247 Y92.681 E68.36322
G0 F3600 X93.813 Y92.681
G1 F1800 X97.393 Y96.261 E68.53162
G0 F3600 X97.612 Y95.915
G1 F1800 X94.378 Y92.681 E68.68373
G0 F3600 X94.944 Y92.681
G1 F1800 X97.854 Y95.591 E68.82061
G0 F3600 X98.164 Y95.336
G1 F1800 X95.51 Y92.681 E68.94547
G0 F3600 X96.076 Y92.681
G1 F1800 X98.487 Y95.093 E69.0589
G0 F3600 X98.887 Y94.927
G1 F1800 X96.641 Y92.681 E69.16454
G0 F3600 X97.207 Y92.681
G1 F1800 X99.325 Y94.8 E69.26419
G0 F3600 X99.825 Y94.734
G1 F1800 X97.773 Y92.681 E69.36074
G0 F3600 X98.338 Y92.681
G1 F1800 X100.469 Y94.812 E69.46097
G1 X100.539 Y94.882
G0 F3600 X116.484 Y92.14
G0 X117.024 Y83.649
G1 F1800 X137.216 Y103.841 E70.41074
G0 F3600 X137.782 Y103.841
G1 F1800 X117.024 Y83.083 E71.38713
G0 F3600 X117.188 Y82.681
G1 F1800 X138.348 Y103.841 E72.38244
G0 F3600 X138.913 Y103.841
G1 F1800 X117.754 Y82.681 E73.37771
