; generated by Slic3r 0.9.8 on 2017-03-27 at 08:23:13

; layer_height = 0.4
; perimeters = 3
; top_solid_layers = 3
; bottom_solid_layers = 3
; fill_density = 0.4
; perimeter_speed = 30
; infill_speed = 60
; travel_speed = 130
; scale = 1
; nozzle_diameter = 0.5
; filament_diameter = 1.75
; extrusion_multiplier = 1
; perimeters extrusion width = 0.53mm
; infill extrusion width = 0.53mm
; first layer extrusion width = 0.53mm

M107
M190 S50 ; wait for bed temperature to be reached
M104 S210 ; set temperature
G28 X0 Y0; home all axes
M109 S210 ; wait for temperature to be reached
G90 ; use absolute coordinates
G21 ; set units to millimeters
G92 E0
M82 ; use absolute distances for extrusion
G1 F1800.000 E-1.00000
G92 E0
G1 Z0.400 F7800.000
G1 X142.547 Y127.420
G1 F1800.000 E1.00000
G1 X111.617 Y146.880 F540.000 E4.15785
G1 X110.837 Y147.330 E4.23566
G1 X110.157 Y147.650 E4.30061
G1 X109.467 Y147.920 E4.36464
G1 X109.207 Y148.010 E4.38841
G1 X108.487 Y148.210 E4.45299
G1 X108.127 Y148.290 E4.48486
G1 X107.437 Y148.410 E4.54538
G1 X106.587 Y148.490 E4.61916
G1 X104.567 Y148.490 E4.79372
G1 X103.737 Y148.410 E4.86577
G1 X103.027 Y148.290 E4.92800
G1 X102.667 Y148.210 E4.95987
G1 X101.947 Y148.010 E5.02444
G1 X101.337 Y147.790 E5.08048
G1 X100.557 Y147.450 E5.15401
G1 X100.317 Y147.330 E5.17720
G1 X99.447 Y146.810 E5.26478
G1 X62.657 Y120.620 E9.16731
G1 X62.217 Y120.240 E9.21755
G1 X61.807 Y119.820 E9.26827
G1 X61.277 Y119.130 E9.34346
G1 X60.967 Y118.630 E9.39430
G1 X60.707 Y118.110 E9.44454
G1 X60.497 Y117.570 E9.49460
G1 X53.107 Y95.700 E11.48949
G1 X52.897 Y94.920 E11.55930
G1 X52.817 Y94.530 E11.59370
G1 X52.697 Y93.640 E11.67131
G1 X52.667 Y93.170 E11.71201
G1 X52.667 Y92.340 E11.78373
G1 X52.697 Y91.860 E11.82529
G1 X52.867 Y90.750 E11.92233
G1 X53.107 Y89.820 E12.00533
G1 X60.557 Y66.650 E14.10854
G1 X60.887 Y65.890 E14.18014
G1 X61.317 Y65.190 E14.25113
G1 X61.647 Y64.750 E14.29866
G1 X62.207 Y64.150 E14.36958
G1 X62.627 Y63.790 E14.41739
G1 X63.067 Y63.470 E14.46440
G1 X63.297 Y63.320 E14.48813
G1 X63.777 Y63.060 E14.53530
G1 X64.027 Y62.940 E14.55927
G1 X64.537 Y62.740 E14.60661
G1 X91.757 Y53.280 E17.09685
G1 X92.817 Y52.990 E17.19181
G1 X93.307 Y52.900 E17.23487
G1 X93.797 Y52.850 E17.27743
G1 X94.527 Y52.820 E17.34057
G1 X128.037 Y52.830 E20.23636
G1 X128.857 Y52.900 E20.30747
G1 X129.357 Y52.990 E20.35138
G1 X130.017 Y53.160 E20.41027
G1 X131.037 Y53.520 E20.50374
G1 X131.327 Y53.650 E20.53121
G1 X132.117 Y54.070 E20.60852
G1 X132.917 Y54.620 E20.69242
G1 X133.167 Y54.820 E20.72009
G1 X133.807 Y55.400 E20.79472
G1 X134.497 Y56.180 E20.88472
G1 X135.107 Y57.080 E20.97867
G1 X135.307 Y57.420 E21.01276
G1 X146.087 Y76.830 E22.93141
G1 X146.487 Y77.670 E23.01181
G1 X146.827 Y78.570 E23.09495
G1 X147.037 Y79.340 E23.16392
G1 X147.247 Y80.420 E23.25900
G1 X147.307 Y81.030 E23.31197
G1 X147.337 Y81.750 E23.37424
G1 X147.337 Y118.740 E26.57075
G1 X147.297 Y119.620 E26.64688
G1 X147.177 Y120.500 E26.72363
G1 X147.067 Y121.040 E26.77125
G1 X146.847 Y121.840 E26.84295
G1 X146.697 Y122.280 E26.88312
G1 X146.387 Y123.040 E26.95405
G1 X146.187 Y123.450 E26.99347
G1 X145.777 Y124.170 E27.06507
G1 X145.527 Y124.550 E27.10438
G1 X145.097 Y125.130 E27.16677
G1 X144.807 Y125.480 E27.20605
G1 X144.177 Y126.140 E27.28490
G1 X143.837 Y126.450 E27.32466
G1 X143.287 Y126.900 E27.38607
G1 X142.611 Y127.376 E27.45749
G1 X142.547 Y127.420 E27.46423
G1 F1800.000 E26.46423
G92 E0
G1 X101.971 Y67.413 F7800.000
G1 F1800.000 E1.00000
G1 X101.724 Y67.783 F540.000 E1.03843
G1 X101.442 Y68.127 E1.07685
G1 X101.127 Y68.442 E1.11530
G1 X100.783 Y68.724 E1.15373
G1 X100.413 Y68.971 E1.19217
G1 X100.021 Y69.180 E1.23061
G1 X99.610 Y69.351 E1.26903
G1 X99.185 Y69.480 E1.30747
G1 X98.748 Y69.566 E1.34591
G1 X98.306 Y69.610 E1.38434
G1 X97.861 Y69.610 E1.42277
G1 X97.418 Y69.566 E1.46121
G1 X96.982 Y69.480 E1.49965
G1 X96.556 Y69.351 E1.53809
G1 X96.146 Y69.180 E1.57651
G1 X95.753 Y68.971 E1.61496
G1 X95.383 Y68.724 E1.65339
G1 X95.040 Y68.441 E1.69182
G1 X94.725 Y68.127 E1.73027
G1 X94.443 Y67.783 E1.76869
G1 X94.196 Y67.413 E1.80713
G1 X93.986 Y67.021 E1.84557
G1 X93.816 Y66.610 E1.88400
G1 X93.687 Y66.185 E1.92244
G1 X93.600 Y65.748 E1.96087
G1 X93.557 Y65.306 E1.99930
G1 X93.557 Y64.861 E2.03774
G1 X93.600 Y64.418 E2.07617
G1 X93.687 Y63.982 E2.11461
G1 X93.816 Y63.556 E2.15304
G1 X93.986 Y63.146 E2.19148
G1 X94.147 Y62.836 E2.22160
G1 X94.378 Y62.474 E2.25874
G1 X94.652 Y62.123 E2.29718
G1 X94.958 Y61.801 E2.33561
G1 X95.295 Y61.510 E2.37405
G1 X95.659 Y61.254 E2.41249
G1 X96.046 Y61.035 E2.45092
G1 X96.452 Y60.855 E2.48935
G1 X96.875 Y60.715 E2.52778
G1 X97.308 Y60.618 E2.56622
G1 X97.750 Y60.563 E2.60466
G1 X98.195 Y60.553 E2.64310
G1 X98.638 Y60.585 E2.68152
G1 X99.076 Y60.661 E2.71997
G1 X99.505 Y60.780 E2.75840
G1 X99.920 Y60.940 E2.79684
G1 X100.317 Y61.140 E2.83526
G1 X100.693 Y61.378 E2.87370
G1 X101.044 Y61.651 E2.91213
G1 X101.366 Y61.958 E2.95057
G1 X101.656 Y62.295 E2.98901
G1 X101.912 Y62.659 E3.02744
G1 X102.132 Y63.046 E3.06587
G1 X102.312 Y63.452 E3.10432
G1 X102.451 Y63.875 E3.14275
G1 X102.549 Y64.308 E3.18118
G1 X102.603 Y64.750 E3.21962
G1 X102.614 Y65.195 E3.25805
G1 X102.581 Y65.638 E3.29648
G1 X102.505 Y66.076 E3.33491
G1 X102.387 Y66.505 E3.37336
G1 X102.227 Y66.920 E3.41179
G1 X102.010 Y67.346 E3.45310
G1 X101.971 Y67.413 E3.45984
G1 X101.525 Y67.146 F7800.000
G1 X101.306 Y67.474 F540.000 E3.49387
G1 X101.056 Y67.778 E3.52789
G1 X100.778 Y68.056 E3.56192
G1 X100.474 Y68.306 E3.59595
G1 X100.146 Y68.525 E3.62998
G1 X99.799 Y68.711 E3.66401
G1 X99.435 Y68.861 E3.69803
G1 X99.058 Y68.976 E3.73206
G1 X98.672 Y69.052 E3.76609
G1 X98.280 Y69.091 E3.80012
G1 X97.886 Y69.091 E3.83414
G1 X97.495 Y69.052 E3.86817
G1 X97.108 Y68.976 E3.90220
G1 X96.732 Y68.861 E3.93623
G1 X96.368 Y68.711 E3.97025
G1 X96.020 Y68.525 E4.00428
G1 X95.693 Y68.306 E4.03831
G1 X95.389 Y68.056 E4.07234
G1 X95.110 Y67.778 E4.10637
G1 X94.860 Y67.474 E4.14039
G1 X94.642 Y67.146 E4.17442
G1 X94.456 Y66.799 E4.20845
G1 X94.305 Y66.435 E4.24248
G1 X94.191 Y66.058 E4.27651
G1 X94.114 Y65.672 E4.31053
G1 X94.076 Y65.280 E4.34456
G1 X94.076 Y64.886 E4.37859
G1 X94.114 Y64.495 E4.41262
G1 X94.191 Y64.108 E4.44665
G1 X94.305 Y63.732 E4.48067
G1 X94.456 Y63.368 E4.51470
G1 X94.596 Y63.098 E4.54097
G1 X94.803 Y62.773 E4.57426
G1 X95.045 Y62.462 E4.60828
G1 X95.317 Y62.177 E4.64231
G1 X95.615 Y61.920 E4.67634
G1 X95.937 Y61.693 E4.71037
G1 X96.279 Y61.499 E4.74439
G1 X96.639 Y61.340 E4.77842
G1 X97.013 Y61.216 E4.81245
G1 X97.397 Y61.130 E4.84648
G1 X97.788 Y61.082 E4.88051
G1 X98.182 Y61.072 E4.91454
G1 X98.574 Y61.101 E4.94856
G1 X98.962 Y61.168 E4.98259
G1 X99.342 Y61.273 E5.01662
G1 X99.709 Y61.415 E5.05065
G1 X100.061 Y61.592 E5.08467
G1 X100.394 Y61.803 E5.11870
G1 X100.704 Y62.045 E5.15273
G1 X100.989 Y62.317 E5.18676
G1 X101.247 Y62.615 E5.22079
G1 X101.473 Y62.937 E5.25481
G1 X101.667 Y63.279 E5.28884
G1 X101.827 Y63.639 E5.32287
G1 X101.951 Y64.013 E5.35690
G1 X102.037 Y64.397 E5.39092
G1 X102.085 Y64.788 E5.42495
G1 X102.095 Y65.182 E5.45898
G1 X102.066 Y65.574 E5.49301
G1 X101.998 Y65.962 E5.52703
G1 X101.893 Y66.342 E5.56106
G1 X101.752 Y66.709 E5.59509
G1 X101.564 Y67.079 E5.63089
G1 X101.525 Y67.146 E5.63763
G1 X101.772 Y67.603 F7800.000
G1 F1800.000 E4.63763
G92 E0
G1 X119.584 Y65.623 F7800.000
G1 F1800.000 E1.00000
G1 X119.553 Y65.195 F540.000 E1.03713
G1 X119.563 Y64.750 E1.07557
G1 X119.618 Y64.309 E1.11400
G1 X119.715 Y63.875 E1.15244
G1 X119.855 Y63.452 E1.19088
G1 X120.035 Y63.046 E1.22931
G1 X120.254 Y62.659 E1.26774
G1 X120.510 Y62.295 E1.30619
G1 X120.801 Y61.958 E1.34460
G1 X121.123 Y61.652 E1.38305
G1 X121.474 Y61.378 E1.42148
G1 X121.849 Y61.140 E1.45992
G1 X122.247 Y60.940 E1.49836
G1 X122.662 Y60.780 E1.53680
G1 X123.090 Y60.661 E1.57522
G1 X123.529 Y60.585 E1.61366
G1 X123.972 Y60.553 E1.65210
G1 X124.417 Y60.563 E1.69053
G1 X124.858 Y60.618 E1.72897
G1 X125.292 Y60.715 E1.76740
G1 X125.714 Y60.855 E1.80584
G1 X126.121 Y61.035 E1.84427
G1 X126.508 Y61.254 E1.88271
G1 X126.872 Y61.510 E1.92114
G1 X127.208 Y61.801 E1.95957
G1 X127.515 Y62.123 E1.99801
G1 X127.789 Y62.474 E2.03645
G1 X128.027 Y62.849 E2.07488
G1 X128.227 Y63.247 E2.11331
G1 X128.387 Y63.662 E2.15175
G1 X128.505 Y64.090 E2.19019
G1 X128.581 Y64.529 E2.22862
G1 X128.614 Y64.972 E2.26706
G1 X128.603 Y65.417 E2.30549
G1 X128.549 Y65.858 E2.34393
G1 X128.451 Y66.292 E2.38237
G1 X128.312 Y66.715 E2.42080
G1 X128.132 Y67.121 E2.45924
G1 X127.912 Y67.508 E2.49766
G1 X127.656 Y67.872 E2.53610
G1 X127.366 Y68.209 E2.57455
G1 X127.044 Y68.515 E2.61297
G1 X126.693 Y68.789 E2.65140
G1 X126.317 Y69.027 E2.68984
G1 X125.920 Y69.227 E2.72827
G1 X125.505 Y69.387 E2.76670
G1 X125.076 Y69.505 E2.80515
G1 X124.638 Y69.581 E2.84357
G1 X124.195 Y69.614 E2.88202
G1 X123.750 Y69.603 E2.92045
G1 X123.309 Y69.549 E2.95888
G1 X122.874 Y69.451 E2.99733
G1 X122.452 Y69.312 E3.03575
G1 X122.046 Y69.132 E3.07418
G1 X121.659 Y68.912 E3.11263
G1 X121.295 Y68.656 E3.15105
G1 X120.958 Y68.366 E3.18950
G1 X120.652 Y68.044 E3.22793
G1 X120.378 Y67.693 E3.26636
G1 X120.140 Y67.317 E3.30480
G1 X119.940 Y66.920 E3.34323
G1 X119.780 Y66.505 E3.38166
G1 X119.661 Y66.076 E3.42010
G1 X119.594 Y65.700 E3.45311
G1 X119.584 Y65.623 E3.45984
G1 X120.100 Y65.566 F7800.000
G1 X120.072 Y65.182 F540.000 E3.49312
G1 X120.082 Y64.788 E3.52715
G1 X120.130 Y64.397 E3.56118
G1 X120.216 Y64.013 E3.59521
G1 X120.340 Y63.639 E3.62924
G1 X120.499 Y63.279 E3.66326
G1 X120.693 Y62.937 E3.69729
G1 X120.920 Y62.615 E3.73132
G1 X121.177 Y62.317 E3.76534
G1 X121.462 Y62.045 E3.79937
G1 X121.773 Y61.803 E3.83340
G1 X122.106 Y61.592 E3.86743
G1 X122.457 Y61.415 E3.90146
G1 X122.825 Y61.273 E3.93549
G1 X123.204 Y61.168 E3.96951
G1 X123.592 Y61.101 E4.00354
G1 X123.985 Y61.072 E4.03757
G1 X124.379 Y61.082 E4.07160
G1 X124.769 Y61.130 E4.10562
G1 X125.154 Y61.216 E4.13965
G1 X125.527 Y61.340 E4.17368
G1 X125.887 Y61.499 E4.20771
G1 X126.230 Y61.693 E4.24174
G1 X126.552 Y61.920 E4.27576
G1 X126.850 Y62.177 E4.30979
G1 X127.122 Y62.462 E4.34382
G1 X127.364 Y62.773 E4.37785
G1 X127.575 Y63.106 E4.41188
G1 X127.752 Y63.457 E4.44590
G1 X127.893 Y63.825 E4.47993
G1 X127.998 Y64.204 E4.51396
G1 X128.066 Y64.592 E4.54799
G1 X128.095 Y64.985 E4.58202
G1 X128.085 Y65.379 E4.61604
G1 X128.037 Y65.769 E4.65007
G1 X127.950 Y66.154 E4.68410
G1 X127.827 Y66.527 E4.71813
G1 X127.667 Y66.887 E4.75216
G1 X127.473 Y67.230 E4.78618
G1 X127.247 Y67.552 E4.82021
G1 X126.989 Y67.850 E4.85424
G1 X126.704 Y68.122 E4.88827
G1 X126.394 Y68.364 E4.92229
G1 X126.061 Y68.575 E4.95632
G1 X125.709 Y68.752 E4.99035
G1 X125.342 Y68.893 E5.02438
G1 X124.962 Y68.998 E5.05841
G1 X124.575 Y69.066 E5.09243
G1 X124.182 Y69.095 E5.12646
G1 X123.788 Y69.085 E5.16049
G1 X123.397 Y69.037 E5.19452
G1 X123.013 Y68.950 E5.22855
G1 X122.639 Y68.827 E5.26257
G1 X122.279 Y68.667 E5.29660
G1 X121.937 Y68.473 E5.33063
G1 X121.615 Y68.247 E5.36465
G1 X121.317 Y67.989 E5.39869
G1 X121.045 Y67.704 E5.43271
G1 X120.803 Y67.394 E5.46674
G1 X120.592 Y67.061 E5.50077
G1 X120.415 Y66.709 E5.53479
G1 X120.273 Y66.342 E5.56882
G1 X120.168 Y65.962 E5.60285
G1 X120.110 Y65.643 E5.63090
G1 X120.100 Y65.566 E5.63763
G1 X119.625 Y65.355 F7800.000
G1 F1800.000 E4.63763
G92 E0
G1 X128.782 Y67.419 F7800.000
G1 F1800.000 E1.00000
G1 X128.769 Y68.802 F540.000 E1.11951
G1 X128.714 Y69.020 E1.13895
G1 X128.646 Y69.174 E1.15354
G1 X128.445 Y69.445 E1.18265
G1 X128.174 Y69.646 E1.21176
G1 X127.967 Y69.732 E1.23121
G1 X127.802 Y69.769 E1.24580
G1 X126.419 Y69.782 E1.36530
G1 X126.371 Y69.621 E1.37976
G1 X127.093 Y69.141 E1.45464
G1 X127.567 Y68.742 E1.50819
G1 X127.826 Y68.476 E1.54030
G1 X128.066 Y68.191 E1.57245
G1 X128.621 Y67.371 E1.65804
G1 X128.707 Y67.397 E1.66576
G1 X128.782 Y67.419 E1.67249
G1 F1800.000 E0.67249
G92 E0
G1 X121.795 Y60.545 F7800.000
G1 F1800.000 E1.00000
G1 X121.074 Y61.026 F540.000 E1.07489
G1 X120.600 Y61.424 E1.12840
G1 X120.178 Y61.878 E1.18196
G1 X119.953 Y62.175 E1.21412
G1 X119.750 Y62.486 E1.24624
G1 X119.571 Y62.812 E1.27839
G1 X119.424 Y63.131 E1.30868
G1 X119.214 Y63.736 E1.36406
G1 X119.129 Y64.098 E1.39619
G1 X119.072 Y64.444 E1.42649
G1 X119.031 Y65.083 E1.48187
G1 X119.069 Y65.702 E1.53540
G1 X119.183 Y66.311 E1.58894
G1 X119.370 Y66.901 E1.64248
G1 X119.516 Y67.243 E1.67462
G1 X119.688 Y67.573 E1.70675
G1 X119.883 Y67.890 E1.73889
G1 X120.101 Y68.191 E1.77103
G1 X120.340 Y68.476 E1.80316
G1 X120.600 Y68.742 E1.83530
G1 X121.074 Y69.141 E1.88886
G1 X121.795 Y69.621 E1.96373
G1 X121.748 Y69.782 E1.97819
G1 X100.419 Y69.782 E3.82133
G1 X100.371 Y69.621 E3.83578
G1 X101.093 Y69.141 E3.91068
G1 X101.567 Y68.742 E3.96421
G1 X101.827 Y68.476 E3.99637
G1 X102.066 Y68.192 E4.02847
G1 X102.416 Y67.681 E4.08202
G1 X102.702 Y67.130 E4.13557
G1 X102.840 Y66.785 E4.16772
G1 X102.952 Y66.431 E4.19984
G1 X103.038 Y66.069 E4.23198
G1 X103.094 Y65.723 E4.26227
G1 X103.135 Y65.083 E4.31765
G1 X103.097 Y64.465 E4.37119
G1 X103.038 Y64.098 E4.40332
G1 X102.958 Y63.757 E4.43362
G1 X102.751 Y63.150 E4.48900
G1 X102.479 Y62.593 E4.54254
G1 X102.284 Y62.277 E4.57467
G1 X102.066 Y61.975 E4.60681
G1 X101.827 Y61.691 E4.63895
G1 X101.567 Y61.425 E4.67109
G1 X101.093 Y61.026 E4.72463
G1 X100.371 Y60.545 E4.79952
G1 X100.419 Y60.385 E4.81397
G1 X121.748 Y60.385 E6.65712
G1 X121.773 Y60.471 E6.66483
G1 X121.795 Y60.545 E6.67157
G1 F1800.000 E5.67157
G92 E0
G1 X93.385 Y67.419 F7800.000
G1 F1800.000 E1.00000
G1 X93.545 Y67.371 F540.000 E1.01445
G1 X94.101 Y68.191 E1.10004
G1 X94.355 Y68.492 E1.13401
G1 X94.691 Y68.827 E1.17502
G1 X95.174 Y69.214 E1.22855
G1 X95.795 Y69.621 E1.29274
G1 X95.748 Y69.782 E1.30719
G1 X94.477 Y69.780 E1.41700
G1 X94.309 Y69.759 E1.43159
G1 X94.094 Y69.694 E1.45104
G1 X93.943 Y69.618 E1.46563
G1 X93.762 Y69.484 E1.48508
G1 X93.549 Y69.223 E1.51419
G1 X93.473 Y69.073 E1.52878
G1 X93.408 Y68.857 E1.54822
G1 X93.385 Y68.617 E1.56905
G1 X93.385 Y67.497 E1.66588
G1 X93.385 Y67.419 E1.67261
G1 F1800.000 E0.67261
G92 E0
G1 X128.362 Y60.646 F7800.000
G1 F1800.000 E1.00000
G1 X128.521 Y60.805 F540.000 E1.01944
G1 X128.646 Y60.992 E1.03889
G1 X128.732 Y61.200 E1.05833
G1 X128.776 Y61.421 E1.07778
G1 X128.782 Y62.748 E1.19245
G1 X128.621 Y62.795 E1.20690
G1 X128.141 Y62.074 E1.28180
G1 X127.909 Y61.784 E1.31392
G1 X127.656 Y61.511 E1.34605
G1 X127.383 Y61.258 E1.37818
G1 X127.093 Y61.026 E1.41034
G1 X126.371 Y60.545 E1.48522
G1 X126.419 Y60.385 E1.49967
G1 X127.690 Y60.387 E1.60949
G1 X128.020 Y60.453 E1.63860
G1 X128.299 Y60.599 E1.66586
G1 X128.362 Y60.646 E1.67259
G1 F1800.000 E0.67259
G92 E0
G1 X93.545 Y62.795 F7800.000
G1 F1800.000 E1.00000
G1 X93.385 Y62.748 F540.000 E1.01445
G1 X93.385 Y61.549 E1.11802
G1 X93.398 Y61.365 E1.13399
G1 X93.435 Y61.200 E1.14858
G1 X93.579 Y60.896 E1.17769
G1 X93.762 Y60.683 E1.20198
G1 X93.943 Y60.549 E1.22142
G1 X94.147 Y60.453 E1.24087
G1 X94.365 Y60.398 E1.26031
G1 X95.748 Y60.385 E1.37982
G1 X95.795 Y60.545 E1.39427
G1 X95.074 Y61.026 E1.46915
G1 X94.784 Y61.258 E1.50128
G1 X94.511 Y61.511 E1.53343
G1 X94.258 Y61.784 E1.56556
G1 X94.026 Y62.074 E1.59770
G1 X93.588 Y62.730 E1.66585
G1 X93.545 Y62.795 E1.67259
G1 X92.865 Y61.543 F7800.000
G1 X92.884 Y61.289 F540.000 E1.69462
G1 X92.963 Y60.972 E1.72287
G1 X93.103 Y60.676 E1.75112
G1 X93.298 Y60.413 E1.77937
G1 X93.540 Y60.194 E1.80762
G1 X93.820 Y60.026 E1.83587
G1 X94.128 Y59.916 E1.86412
G1 X94.452 Y59.868 E1.89237
G1 X127.624 Y59.865 E4.75897
G1 X127.959 Y59.898 E4.78805
G1 X128.271 Y59.993 E4.81630
G1 X128.560 Y60.147 E4.84455
G1 X128.813 Y60.354 E4.87280
G1 X129.020 Y60.607 E4.90105
G1 X129.174 Y60.895 E4.92930
G1 X129.269 Y61.208 E4.95755
G1 X129.301 Y61.543 E4.98664
G1 X129.301 Y68.624 E5.59852
G1 X129.269 Y68.959 E5.62760
G1 X129.203 Y69.195 E5.64881
G1 X129.064 Y69.491 E5.67706
G1 X128.869 Y69.753 E5.70530
G1 X128.691 Y69.922 E5.72651
G1 X128.419 Y70.104 E5.75476
G1 X128.195 Y70.203 E5.77596
G1 X127.878 Y70.283 E5.80421
G1 X127.624 Y70.301 E5.82625
G1 X94.543 Y70.301 E8.68494
G1 X94.370 Y70.293 E8.69991
G1 X94.128 Y70.251 E8.72112
G1 X93.895 Y70.174 E8.74232
