; generated by Slic3r 0.9.8 on 2017-03-27 at 12:23:21

; layer_height = 0.2
; perimeters = 3
; top_solid_layers = 3
; bottom_solid_layers = 3
; fill_density = 0.4
; perimeter_speed = 30
; infill_speed = 60
; travel_speed = 130
; scale = 1
; nozzle_diameter = 0.5
; filament_diameter = 1.75
; extrusion_multiplier = 1
; perimeters extrusion width = 0.80mm
; infill extrusion width = 0.80mm
; first layer extrusion width = 0.80mm

M107
M190 S50 ; wait for bed temperature to be reached
M104 S210 ; set temperature
G28 X0 Y0; home all axes
M109 S210 ; wait for temperature to be reached
G90 ; use absolute coordinates
G21 ; set units to millimeters
G92 E0
M82 ; use absolute distances for extrusion
G1 F1800.000 E-1.00000
G92 E0
G1 Z0.200 F7800.000
G1 X129.100 Y135.360
G1 F1800.000 E1.00000
G1 X110.900 Y135.360 F540.000 E2.14572
G1 X110.000 Y135.300 E2.20250
G1 X109.410 Y135.190 E2.24028
G1 X108.830 Y135.030 E2.27816
G1 X108.270 Y134.830 E2.31559
G1 X107.730 Y134.570 E2.35332
G1 X107.470 Y134.420 E2.37221
G1 X59.970 Y106.420 E5.84326
G1 X59.500 Y106.120 E5.87836
G1 X59.270 Y105.950 E5.89636
G1 X58.840 Y105.590 E5.93167
G1 X58.440 Y105.190 E5.96728
G1 X58.080 Y104.770 E6.00210
G1 X57.750 Y104.310 E6.03774
G1 X57.460 Y103.830 E6.07304
G1 X57.110 Y103.070 E6.12572
G1 X56.930 Y102.540 E6.16095
G1 X56.790 Y101.990 E6.19668
G1 X56.700 Y101.440 E6.23176
G1 X56.650 Y100.880 E6.26716
G1 X56.640 Y71.400 E8.12296
G1 X56.660 Y70.860 E8.15698
G1 X56.690 Y70.590 E8.17408
G1 X56.840 Y69.780 E8.22594
G1 X56.990 Y69.260 E8.26001
G1 X57.180 Y68.750 E8.29427
G1 X57.420 Y68.260 E8.32862
G1 X57.690 Y67.790 E8.36274
G1 X58.000 Y67.340 E8.39714
G1 X58.340 Y66.920 E8.43116
G1 X58.920 Y66.340 E8.48279
G1 X59.560 Y65.840 E8.53392
G1 X60.020 Y65.550 E8.56815
G1 X60.750 Y65.180 E8.61967
G1 X61.000 Y65.080 E8.63662
G1 X61.780 Y64.840 E8.68799
G1 X62.320 Y64.730 E8.72269
G1 X62.860 Y64.660 E8.75696
G1 X63.400 Y64.640 E8.79098
G1 X92.600 Y64.640 E10.62916
G1 X93.250 Y64.670 E10.67013
G1 X93.580 Y64.710 E10.69105
G1 X94.220 Y64.840 E10.73216
G1 X94.540 Y64.930 E10.75309
G1 X131.300 Y75.950 E13.16893
G1 X132.050 Y76.260 E13.22002
G1 X132.760 Y76.660 E13.27132
G1 X133.210 Y76.980 E13.30608
G1 X133.630 Y77.320 E13.34010
G1 X134.020 Y77.710 E13.37482
G1 X134.200 Y77.910 E13.39175
G1 X134.700 Y78.550 E13.44288
G1 X135.110 Y79.260 E13.49449
G1 X135.440 Y80.000 E13.54550
G1 X142.890 Y103.020 E15.06864
G1 X143.150 Y104.040 E15.13491
G1 X143.300 Y105.100 E15.20230
G1 X143.330 Y105.560 E15.23132
G1 X143.330 Y106.450 E15.28734
G1 X143.300 Y106.900 E15.31574
G1 X143.150 Y107.950 E15.38251
G1 X143.050 Y108.390 E15.41091
G1 X142.860 Y109.060 E15.45475
G1 X135.500 Y130.770 E16.89783
G1 X135.190 Y131.520 E16.94892
G1 X134.940 Y132.000 E16.98299
G1 X134.650 Y132.460 E17.01722
G1 X134.140 Y133.100 E17.06873
G1 X133.960 Y133.300 E17.08567
G1 X133.570 Y133.670 E17.11951
G1 X133.150 Y134.010 E17.15353
G1 X132.700 Y134.320 E17.18793
G1 X131.990 Y134.710 E17.23892
G1 X131.490 Y134.920 E17.27306
G1 X130.970 Y135.090 E17.30750
G1 X130.180 Y135.270 E17.35851
G1 X129.640 Y135.340 E17.39279
G1 X129.213 Y135.356 E17.41966
G1 X129.100 Y135.360 E17.42681
G1 F1800.000 E16.42681
G92 E0
G1 X108.318 Y106.552 F7800.000
G1 F1800.000 E1.00000
G1 X108.176 Y106.896 F540.000 E1.02345
G1 X107.969 Y107.205 E1.04690
G1 X107.705 Y107.469 E1.07036
G1 X107.407 Y107.669 E1.09296
G1 X107.140 Y107.789 E1.11139
G1 X106.779 Y107.880 E1.13484
G1 X106.407 Y107.898 E1.15828
G1 X106.038 Y107.843 E1.18175
G1 X105.688 Y107.718 E1.20519
G1 X105.368 Y107.526 E1.22864
G1 X105.092 Y107.276 E1.25209
G1 X104.870 Y106.977 E1.27553
G1 X104.711 Y106.640 E1.29899
G1 X104.620 Y106.279 E1.32244
G1 X104.602 Y105.907 E1.34589
G1 X104.657 Y105.538 E1.36933
G1 X104.782 Y105.188 E1.39278
G1 X104.974 Y104.868 E1.41622
G1 X105.224 Y104.592 E1.43967
G1 X105.523 Y104.370 E1.46313
G1 X105.860 Y104.211 E1.48657
G1 X106.221 Y104.120 E1.51002
G1 X106.593 Y104.102 E1.53347
G1 X106.962 Y104.157 E1.55692
G1 X107.312 Y104.282 E1.58037
G1 X107.632 Y104.474 E1.60382
G1 X107.908 Y104.724 E1.62727
G1 X108.130 Y105.023 E1.65071
G1 X108.289 Y105.360 E1.67416
G1 X108.380 Y105.721 E1.69761
G1 X108.398 Y106.093 E1.72106
G1 X108.348 Y106.442 E1.74323
G1 X108.318 Y106.552 E1.75038
G1 X108.822 Y107.117 F7800.000
G1 F1800.000 E0.75038
G92 E0
G1 X131.602 Y106.093 F7800.000
G1 F1800.000 E1.00000
G1 X131.620 Y105.721 F540.000 E1.02345
G1 X131.711 Y105.360 E1.04690
G1 X131.870 Y105.023 E1.07034
G1 X132.092 Y104.724 E1.09380
G1 X132.368 Y104.474 E1.11724
G1 X132.688 Y104.282 E1.14069
G1 X133.038 Y104.157 E1.16414
G1 X133.327 Y104.108 E1.18258
G1 X133.686 Y104.109 E1.20519
G1 X134.052 Y104.182 E1.22864
G1 X134.396 Y104.324 E1.25208
G1 X134.705 Y104.531 E1.27554
G1 X134.969 Y104.795 E1.29899
G1 X135.176 Y105.104 E1.32244
G1 X135.318 Y105.448 E1.34588
G1 X135.391 Y105.814 E1.36932
G1 X135.391 Y106.186 E1.39277
G1 X135.318 Y106.551 E1.41622
G1 X135.176 Y106.896 E1.43968
G1 X134.969 Y107.206 E1.46313
G1 X134.705 Y107.469 E1.48659
G1 X134.396 Y107.676 E1.51003
G1 X134.052 Y107.818 E1.53347
G1 X133.686 Y107.891 E1.55691
G1 X133.314 Y107.891 E1.58037
G1 X132.948 Y107.818 E1.60382
G1 X132.604 Y107.676 E1.62726
G1 X132.295 Y107.469 E1.65072
G1 X132.031 Y107.205 E1.67417
G1 X131.824 Y106.896 E1.69762
G1 X131.682 Y106.552 E1.72106
G1 X131.612 Y106.206 E1.74323
G1 X131.602 Y106.093 E1.75038
G1 X130.937 Y105.731 F7800.000
G1 F1800.000 E0.75038
G92 E0
G1 X127.586 Y83.859 F7800.000
G1 F1800.000 E1.00000
G1 X127.586 Y104.414 F540.000 E2.29397
G1 X130.429 Y104.414 E2.47293
G1 X130.232 Y105.009 E2.51238
G1 X130.151 Y105.334 E2.53348
G1 X130.102 Y105.666 E2.55457
G1 X130.085 Y105.999 E2.57560
G1 X130.102 Y106.336 E2.59679
G1 X130.151 Y106.666 E2.61783
G1 X130.232 Y106.991 E2.63891
G1 X130.429 Y107.586 E2.67834
G1 X127.586 Y107.586 E2.85731
G1 X127.586 Y127.086 E4.08486
G1 X112.414 Y127.086 E5.03994
G1 X112.414 Y107.586 E6.26749
G1 X109.571 Y107.586 E6.44645
G1 X109.768 Y106.991 E6.48589
G1 X109.849 Y106.665 E6.50702
G1 X109.898 Y106.335 E6.52803
G1 X109.915 Y106.000 E6.54917
G1 X109.898 Y105.665 E6.57027
G1 X109.849 Y105.334 E6.59136
G1 X109.768 Y105.009 E6.61243
G1 X109.571 Y104.414 E6.65187
G1 X112.414 Y104.414 E6.83083
G1 X112.414 Y83.859 E8.12480
G1 X127.472 Y83.859 E9.07273
G1 X127.586 Y83.859 E9.07988
G1 X128.343 Y83.102 F7800.000
G1 X128.343 Y103.657 F540.000 E10.37384
G1 X132.013 Y103.657 E10.60485
G1 X131.366 Y104.417 E10.66768
G1 X131.220 Y104.634 E10.68412
G1 X131.098 Y104.864 E10.70052
G1 X130.998 Y105.105 E10.71693
G1 X130.922 Y105.354 E10.73333
G1 X130.871 Y105.610 E10.74976
G1 X130.843 Y106.000 E10.77435
G1 X130.855 Y106.261 E10.79083
G1 X130.894 Y106.518 E10.80721
G1 X130.988 Y106.865 E10.82982
G1 X131.098 Y107.137 E10.84826
G1 X131.221 Y107.366 E10.86465
G1 X131.366 Y107.583 E10.88108
G1 X132.013 Y108.343 E10.94390
G1 X128.343 Y108.343 E11.17491
G1 X128.343 Y127.843 E12.40246
G1 X111.657 Y127.843 E13.45286
G1 X111.657 Y108.343 E14.68042
G1 X107.987 Y108.343 E14.91142
G1 X108.635 Y107.583 E14.97426
G1 X108.779 Y107.366 E14.99069
G1 X108.902 Y107.136 E15.00708
G1 X109.002 Y106.896 E15.02348
G1 X109.099 Y106.549 E15.04613
G1 X109.145 Y106.261 E15.06451
G1 X109.157 Y106.000 E15.08095
G1 X109.145 Y105.739 E15.09737
G1 X109.085 Y105.386 E15.11996
G1 X109.002 Y105.104 E15.13841
G1 X108.902 Y104.864 E15.15481
G1 X108.779 Y104.634 E15.17123
G1 X108.634 Y104.417 E15.18765
G1 X107.987 Y103.657 E15.25047
G1 X111.657 Y103.657 E15.48148
G1 X111.657 Y83.102 E16.77545
G1 X128.229 Y83.102 E17.81869
G1 X128.343 Y83.102 E17.82584
G1 X129.100 Y82.345 F7800.000
G1 X129.100 Y102.900 F540.000 E19.11981
G1 X133.652 Y102.904 E19.40637
G1 X134.179 Y102.975 E19.43986
G1 X134.686 Y103.136 E19.47334
G1 X135.094 Y103.341 E19.50206
G1 X135.467 Y103.604 E19.53077
G1 X135.797 Y103.918 E19.55948
G1 X136.077 Y104.278 E19.58819
G1 X136.302 Y104.675 E19.61690
G1 X136.467 Y105.100 E19.64562
G1 X136.566 Y105.545 E19.67433
G1 X136.600 Y106.000 E19.70304
G1 X136.566 Y106.455 E19.73176
G1 X136.466 Y106.900 E19.76047
G1 X136.302 Y107.325 E19.78918
G1 X136.078 Y107.722 E19.81788
G1 X135.797 Y108.082 E19.84660
G1 X135.467 Y108.396 E19.87531
G1 X135.094 Y108.659 E19.90403
G1 X134.686 Y108.864 E19.93273
G1 X134.179 Y109.025 E19.96622
G1 X133.652 Y109.096 E19.99971
G1 X129.100 Y109.100 E20.28627
G1 X129.100 Y128.600 E21.51382
G1 X110.900 Y128.600 E22.65954
G1 X110.900 Y109.100 E23.88709
G1 X106.348 Y109.096 E24.17365
G1 X105.821 Y109.025 E24.20713
G1 X105.314 Y108.864 E24.24063
G1 X104.906 Y108.659 E24.26934
G1 X104.533 Y108.396 E24.29805
G1 X104.203 Y108.082 E24.32676
G1 X103.922 Y107.722 E24.35548
G1 X103.698 Y107.325 E24.38418
G1 X103.534 Y106.900 E24.41290
G1 X103.434 Y106.455 E24.44161
G1 X103.400 Y106.000 E24.47032
G1 X103.434 Y105.545 E24.49903
G1 X103.534 Y105.100 E24.52774
G1 X103.698 Y104.675 E24.55645
G1 X103.922 Y104.278 E24.58517
G1 X104.203 Y103.918 E24.61388
G1 X104.533 Y103.604 E24.64259
G1 X104.906 Y103.341 E24.67130
G1 X105.314 Y103.136 E24.70002
G1 X105.821 Y102.975 E24.73350
G1 X106.348 Y102.904 E24.76699
G1 X110.900 Y102.900 E25.05355
G1 X110.900 Y82.345 E26.34752
G1 X128.986 Y82.345 E27.48608
G1 X129.100 Y82.345 E27.49323
G1 X128.721 Y83.001 F7800.000
G1 F1800.000 E26.49323
G92 E0
G1 X127.070 Y84.857 F7800.000
G1 F1800.000 E1.00000
G1 X126.588 Y84.375 F1080.000 E1.04351
G1 X125.502 Y84.375 E1.11282
G1 X127.070 Y85.943 E1.25434
G1 X127.070 Y87.028 E1.32364
G1 X124.416 Y84.375 E1.56317
G1 X123.331 Y84.375 E1.63248
G1 X127.070 Y88.114 E1.97002
G1 X127.070 Y89.200 E2.03932
G1 X122.245 Y84.375 E2.47487
G1 X121.159 Y84.375 E2.54418
G1 X127.070 Y90.286 E3.07774
G1 X127.070 Y91.371 E3.14705
G1 X120.074 Y84.375 E3.77862
G1 X118.988 Y84.375 E3.84793
G1 X127.070 Y92.457 E4.57751
G1 X127.070 Y93.543 E4.64682
G1 X117.902 Y84.375 E5.47442
G1 X116.817 Y84.375 E5.54372
G1 X127.070 Y94.628 E6.46932
G1 X127.070 Y95.714 E6.53862
G1 X115.731 Y84.375 E7.56224
G1 X114.645 Y84.375 E7.63154
G1 X127.070 Y96.800 E8.75317
G1 X127.070 Y97.885 E8.82247
G1 X113.560 Y84.375 E10.04211
G1 X112.930 Y84.832 E10.09173
G1 X127.070 Y98.971 E11.36818
G1 X127.070 Y100.057 E11.43748
G1 X112.930 Y85.917 E12.71393
G1 X112.930 Y87.003 E12.78324
G1 X127.070 Y101.142 E14.05969
G1 X127.070 Y102.228 E14.12899
G1 X112.930 Y88.089 E15.40544
G1 X112.930 Y89.174 E15.47474
G1 X127.070 Y103.314 E16.75119
G1 X127.070 Y104.400 F7800.000
G1 X112.930 Y90.260 F1080.000 E18.02765
G1 X112.930 Y91.346 E18.09695
G1 X128.654 Y107.070 E19.51645
G1 X127.569 Y107.070 E19.58575
G1 X112.930 Y92.431 E20.90724
G1 X112.930 Y93.517 E20.97654
G1 X127.070 Y107.657 E22.25300
G1 X127.070 Y108.742 E22.32230
G1 X112.930 Y94.603 E23.59875
G1 X112.930 Y95.688 E23.66806
G1 X127.070 Y109.828 E24.94451
G1 X127.070 Y110.914 E25.01382
G1 X112.930 Y96.774 E26.29027
G1 X112.930 Y97.860 E26.35958
G1 X127.070 Y111.999 E27.63603
G1 X127.070 Y113.085 E27.70534
G1 X112.930 Y98.946 E28.98179
G1 X112.930 Y100.031 E29.05110
G1 X127.070 Y114.171 E30.32755
G1 X127.070 Y115.256 E30.39686
G1 X112.930 Y101.117 E31.67331
G1 X112.930 Y102.203 E31.74262
G1 X127.070 Y116.342 E33.01907
G1 X127.070 Y117.428 E33.08838
G1 X112.930 Y103.288 E34.36483
G1 X112.930 Y104.374 E34.43414
G1 X127.070 Y118.514 E35.71059
G1 X127.070 Y119.599 E35.77990
G1 X112.401 Y104.930 E37.10414
G1 F1800.000 E36.10414
G92 E0
G1 X110.408 Y106.194 F7800.000
G1 F1800.000 E1.00000
G1 X111.283 Y107.070 F1080.000 E1.07904
G1 X112.369 Y107.070 E1.14834
G1 X110.377 Y105.078 E1.32813
G1 X111.315 Y104.930 E1.38873
G1 X127.070 Y120.685 E2.81099
G1 X127.070 Y121.771 E2.88029
G1 X112.930 Y107.631 E4.15675
G1 X112.930 Y108.717 E4.22605
G1 X127.070 Y122.856 E5.50251
G1 X127.070 Y123.942 E5.57181
G1 X112.930 Y109.802 E6.84827
G1 X112.930 Y110.888 E6.91757
G1 X127.070 Y125.028 E8.19403
G1 X127.070 Y126.113 E8.26333
G1 X112.930 Y111.974 E9.53979
G1 X112.930 Y113.060 E9.60909
G1 X126.440 Y126.570 E10.82873
G1 X125.355 Y126.570 E10.89804
G1 X112.930 Y114.145 E12.01967
G1 X112.930 Y115.231 E12.08897
G1 X124.269 Y126.570 E13.11259
G1 X123.183 Y126.570 E13.18190
G1 X112.930 Y116.317 E14.10751
G1 X112.930 Y117.402 E14.17681
G1 X122.098 Y126.570 E15.00441
G1 X121.012 Y126.570 E15.07371
G1 X112.930 Y118.488 E15.80330
G1 X112.930 Y119.574 E15.87261
G1 X119.926 Y126.570 E16.50419
G1 X118.841 Y126.570 E16.57349
G1 X112.930 Y120.659 E17.10706
G1 X112.930 Y121.745 E17.17636
G1 X117.755 Y126.570 E17.61192
G1 X116.669 Y126.570 E17.68123
G1 X112.930 Y122.831 E18.01877
G1 X112.930 Y123.916 E18.08808
G1 X115.584 Y126.570 E18.32761
G1 X114.498 Y126.570 E18.39692
G1 X112.930 Y125.002 E18.53844
G1 X112.930 Y126.088 E18.60775
G1 X113.412 Y126.570 E18.65126
G1 F1800.000 E17.65126
G92 E0
G1 X127.600 Y104.930 F7800.000
G1 F1800.000 E1.00000
G1 X129.627 Y106.957 F1080.000 E1.18294
G1 X129.589 Y105.833 E1.25471
G1 X128.686 Y104.930 E1.33621
G1 F1800.000 E0.33621
G92 E0
G1 X107.009 Y108.259 F7800.000
G1 F1800.000 E1.00000
G1 X107.297 Y108.547 F360.000 E1.01450
G1 X106.800 Y108.656 E1.03260
G1 X106.486 Y108.342 E1.04840
G1 X106.147 Y108.608 E1.06373
G1 X105.823 Y108.284 E1.08005
G1 X104.857 Y107.923 F7800.000
G1 X103.892 Y106.352 F360.000 E1.14564
G1 X104.158 Y106.014 E1.16097
G1 X103.850 Y105.705 E1.17650
G1 X104.241 Y105.491 E1.19236
G1 X103.937 Y105.188 E1.20763
G1 X104.105 Y104.750 E1.22430
G1 X104.405 Y105.050 E1.23942
G1 X104.633 Y104.673 E1.25511
G1 X104.334 Y104.374 E1.27016
G1 X104.616 Y104.051 E1.28542
G1 X104.915 Y104.350 E1.30045
G1 X105.249 Y104.079 E1.31576
G1 X104.950 Y103.780 E1.33081
G1 X105.339 Y103.563 E1.34664
G1 X105.640 Y103.864 E1.36179
G1 X105.791 Y103.411 E1.37880
G1 X106.096 Y103.715 E1.39411
G1 X106.331 Y103.345 E1.40972
G1 X106.641 Y103.656 E1.42535
G1 X106.935 Y103.344 E1.44058
G1 X107.204 Y103.614 E1.45413
G1 F1800.000 E0.45413
G92 E0
G1 X133.065 Y108.656 F7800.000
G1 F1800.000 E1.00000
G1 X132.796 Y108.386 F360.000 E1.01355
G1 X133.359 Y108.344 E1.03364
G1 X133.670 Y108.655 E1.04928
G1 X133.904 Y108.285 E1.06488
G1 X134.209 Y108.589 E1.08020
G1 X134.661 Y108.437 E1.09719
G1 X134.360 Y108.136 E1.11235
G1 X134.751 Y107.921 E1.12820
G1 X135.050 Y108.220 E1.14325
G1 X135.384 Y107.949 E1.15856
G1 X135.085 Y107.650 E1.17359
G1 X135.367 Y107.327 E1.18885
G1 X135.666 Y107.626 E1.20390
G1 X135.895 Y107.250 E1.21957
G1 X135.595 Y106.950 E1.23469
G1 X135.759 Y106.509 E1.25143
G1 X136.063 Y106.812 E1.26670
G1 X136.150 Y106.295 E1.28537
G1 X135.842 Y105.986 E1.30090
G1 X136.108 Y105.648 E1.31623
G1 X135.143 Y104.077 E1.38181
G1 X134.177 Y103.716 E1.41851
G1 X133.853 Y103.392 E1.43483
G1 X133.514 Y103.658 E1.45016
G1 X133.200 Y103.344 E1.46596
G1 X132.991 Y103.741 E1.48190
G1 X132.703 Y103.453 E1.49641
G1 F1800.000 E0.49641
G92 E0
G1 X90.605 Y100.600 F7800.000
G1 F1800.000 E1.00000
G1 X91.642 Y99.749 F540.000 E1.08448
G1 X91.749 Y99.642 E1.09397
G1 X92.600 Y98.605 E1.17845
G1 X92.600 Y100.600 E1.30406
G1 X90.718 Y100.600 E1.42252
G1 X90.605 Y100.600 E1.42967
G1 F1800.000 E0.42967
G92 E0
G1 X91.575 Y92.807 F7800.000
G1 F1800.000 E1.00000
G1 X91.843 Y92.880 F540.000 E1.01746
G1 X91.843 Y95.380 E1.17486
G1 X91.154 Y95.059 E1.22272
G1 X90.340 Y94.812 E1.27626
G1 X90.837 Y94.059 E1.33300
G1 X91.518 Y92.905 E1.41737
G1 X91.575 Y92.807 E1.42452
G1 X90.891 Y92.416 F7800.000
G1 X91.287 Y91.551 F540.000 E1.48437
G1 X91.545 Y90.887 E1.52921
G1 X91.770 Y90.212 E1.57405
G1 X92.106 Y89.057 E1.64975
G1 X92.600 Y89.127 E1.68116
G1 X92.600 Y97.395 E2.20165
G1 X91.749 Y96.358 E2.28613
G1 X91.642 Y96.251 E2.29563
G1 X91.285 Y95.974 E2.32409
G1 X90.883 Y95.768 E2.35256
G1 X90.448 Y95.641 E2.38104
G1 X90.000 Y95.598 E2.40939
G1 X88.656 Y95.729 E2.49437
G1 X89.379 Y94.825 E2.56720
G1 X89.936 Y94.055 E2.62706
G1 X90.380 Y93.354 E2.67929
G1 X90.840 Y92.517 E2.73940
G1 X90.891 Y92.416 E2.74655
G1 X91.646 Y92.362 F7800.000
G1 F1800.000 E1.74655
G92 E0
G1 X87.380 Y99.843 F7800.000
G1 F1800.000 E1.00000
G1 X84.879 Y99.843 F540.000 E1.15744
G1 X84.807 Y99.575 E1.17490
G1 X85.794 Y99.000 E1.24682
G1 X86.814 Y98.346 E1.32308
G1 X87.059 Y99.154 E1.37620
G1 X87.332 Y99.740 E1.41692
G1 X87.380 Y99.843 E1.42407
G1 X88.060 Y99.409 F7800.000
