; generated by Slic3r Prusa Edition 1.39.2+win64 on 2018-08-21 at 13:05:52

; 

; external perimeters extrusion width = 0.45mm
; perimeters extrusion width = 0.45mm
; infill extrusion width = 0.45mm
; solid infill extrusion width = 0.45mm
; top infill extrusion width = 0.45mm
; first layer extrusion width = 0.42mm

M107
M115 U3.1.0 ; tell printer latest fw version
M83  ; extruder relative mode
M104 S205 ; set extruder temp
M140 S55 ; set bed temp
M190 S55 ; wait for bed temp
M109 S205 ; wait for extruder temp
G28 W ; home all without mesh bed level
G80 ; mesh bed leveling
G1 Y-3.0 F1000.0 ; go outside print area
G92 E0.0
G1 X60.0 E9.0  F1000.0 ; intro line
G1 X100.0 E12.5  F1000.0 ; intro line
G92 E0.0
M900 K30; Filament gcode
G21 ; set units to millimeters
G90 ; use absolute coordinates
M83 ; use relative distances for extrusion
;BEFORE_LAYER_CHANGE
;0.2


G1 E-0.80000 F2100.00000
G1 Z0.600 F7200.000
;AFTER_LAYER_CHANGE
;0.2
G1 X67.317 Y79.059
G1 Z0.200
G1 E0.80000 F2100.00000
M204 S1000
G1 F1800
G1 X67.865 Y78.274 E0.03001
G1 X68.604 Y77.798 E0.02755
G1 X69.468 Y77.623 E0.02767
G1 X119.504 Y77.623 E1.56882
G1 X120.154 Y77.715 E0.02060
G1 X120.758 Y77.983 E0.02071
G1 X136.792 Y88.005 E0.59286
G1 X137.261 Y88.403 E0.01929
G1 X137.612 Y88.909 E0.01929
G1 X137.806 Y89.424 E0.01728
G1 X137.877 Y89.971 E0.01728
G1 X137.877 Y110.050 E0.62956
G1 X137.674 Y110.962 E0.02931
G1 X137.135 Y111.726 E0.02931
G1 X121.101 Y126.757 E0.68912
G1 X120.589 Y127.113 E0.01953
G1 X119.999 Y127.324 E0.01965
G1 X119.504 Y127.377 E0.01562
G1 X69.470 Y127.377 E1.56879
G1 X68.549 Y127.178 E0.02954
G1 X67.774 Y126.635 E0.02966
G1 X67.298 Y125.896 E0.02755
G1 X67.123 Y125.032 E0.02767
G1 X67.123 Y79.996 E1.41205
G1 X67.305 Y79.118 E0.02813
G1 F5760
G1 X67.865 Y78.274 E-0.35069
G1 X68.604 Y77.798 E-0.30431
G1 X68.901 Y77.738 E-0.10500
G1 E-0.04000 F2100.00000
G1 Z0.800 F7200.000
G1 X124.468 Y98.650
G1 Z0.200
G1 E0.80000 F2100.00000
G1 F1800
G1 X124.814 Y98.049 E0.02176
G1 X125.279 Y97.533 E0.02176
G1 X125.840 Y97.125 E0.02176
G1 X126.474 Y96.843 E0.02176
G1 X127.153 Y96.699 E0.02176
G1 X127.847 Y96.699 E0.02175
G1 X128.526 Y96.843 E0.02176
G1 X129.160 Y97.125 E0.02176
G1 X129.721 Y97.533 E0.02176
G1 X130.186 Y98.049 E0.02176
G1 X130.532 Y98.650 E0.02176
G1 X130.747 Y99.310 E0.02175
G1 X130.819 Y100.000 E0.02176
G1 X130.747 Y100.690 E0.02176
G1 X130.532 Y101.350 E0.02175
G1 X130.186 Y101.951 E0.02176
G1 X129.721 Y102.467 E0.02176
G1 X129.160 Y102.875 E0.02176
G1 X128.526 Y103.157 E0.02176
G1 X127.847 Y103.301 E0.02176
G1 X127.153 Y103.301 E0.02175
G1 X126.474 Y103.157 E0.02176
G1 X125.840 Y102.875 E0.02176
G1 X125.279 Y102.467 E0.02176
G1 X124.814 Y101.951 E0.02176
G1 X124.468 Y101.350 E0.02176
G1 X124.253 Y100.690 E0.02175
G1 X124.181 Y100.000 E0.02176
G1 X124.253 Y99.310 E0.02176
G1 X124.449 Y98.707 E0.01987
G1 X124.808 Y98.824 F7200.000
G1 F1800
G1 X125.121 Y98.272 E0.01990
G1 X125.532 Y97.815 E0.01927
G1 X126.030 Y97.454 E0.01928
G1 X126.591 Y97.204 E0.01927
G1 X127.193 Y97.076 E0.01927
G1 X127.807 Y97.076 E0.01927
G1 X128.409 Y97.204 E0.01927
G1 X128.970 Y97.454 E0.01927
G1 X129.468 Y97.815 E0.01928
G1 X129.879 Y98.272 E0.01927
G1 X130.186 Y98.804 E0.01927
G1 X130.376 Y99.389 E0.01927
G1 X130.440 Y100.000 E0.01927
G1 X130.376 Y100.611 E0.01927
G1 X130.186 Y101.196 E0.01927
G1 X129.879 Y101.728 E0.01927
G1 X129.468 Y102.185 E0.01927
G1 X128.970 Y102.546 E0.01928
G1 X128.409 Y102.796 E0.01927
G1 X127.807 Y102.924 E0.01927
G1 X127.193 Y102.924 E0.01927
G1 X126.591 Y102.796 E0.01927
G1 X126.030 Y102.546 E0.01927
G1 X125.532 Y102.185 E0.01928
G1 X125.121 Y101.728 E0.01927
G1 X124.814 Y101.196 E0.01927
G1 X124.624 Y100.611 E0.01927
G1 X124.560 Y100.000 E0.01927
G1 X124.624 Y99.389 E0.01927
G1 X124.789 Y98.881 E0.01675
G1 X125.148 Y98.997 F7200.000
G1 F1800
G1 X125.428 Y98.495 E0.01804
G1 X125.786 Y98.097 E0.01679
G1 X126.219 Y97.782 E0.01679
G1 X126.709 Y97.564 E0.01679
G1 X127.232 Y97.453 E0.01679
G1 X127.768 Y97.453 E0.01678
G1 X128.291 Y97.564 E0.01679
G1 X128.781 Y97.782 E0.01679
G1 X129.214 Y98.097 E0.01679
G1 X129.572 Y98.495 E0.01679
G1 X129.840 Y98.958 E0.01679
G1 X130.005 Y99.467 E0.01679
G1 X130.061 Y100.000 E0.01679
G1 X130.005 Y100.533 E0.01679
G1 X129.840 Y101.042 E0.01679
G1 X129.572 Y101.505 E0.01679
G1 X129.214 Y101.903 E0.01679
G1 X128.781 Y102.218 E0.01679
G1 X128.291 Y102.436 E0.01679
G1 X127.768 Y102.547 E0.01679
G1 X127.232 Y102.547 E0.01678
G1 X126.709 Y102.436 E0.01679
G1 X126.219 Y102.218 E0.01679
G1 X125.786 Y101.903 E0.01679
G1 X125.428 Y101.505 E0.01679
G1 X125.160 Y101.042 E0.01679
G1 X124.995 Y100.533 E0.01679
G1 X124.939 Y100.000 E0.01679
G1 X124.995 Y99.467 E0.01679
G1 X125.129 Y99.054 E0.01363
G1 X124.909 Y98.676 F7200.000
G1 F5760
G1 X125.428 Y98.495 E-0.21971
G1 X125.786 Y98.097 E-0.18544
G1 X126.219 Y97.782 E-0.18547
G1 X126.666 Y97.583 E-0.16938
G1 E-0.04000 F2100.00000
G1 Z0.800 F7200.000
G1 X118.536 Y90.964
G1 Z0.200
G1 E0.80000 F2100.00000
G1 F1800
G1 X134.536 Y90.964 E0.50167
G1 X134.536 Y109.036 E0.56663
G1 X118.536 Y109.036 E0.50167
G1 X118.536 Y124.036 E0.47031
G1 X70.464 Y124.036 E1.50725
G1 X70.464 Y80.964 E1.35048
G1 X118.536 Y80.964 E1.50725
G1 X118.536 Y90.904 E0.31166
G1 X118.913 Y90.587 F7200.000
G1 F1800
G1 X134.913 Y90.587 E0.50167
G1 X134.913 Y109.413 E0.59027
G1 X118.913 Y109.413 E0.50167
G1 X118.913 Y124.413 E0.47031
G1 X70.087 Y124.413 E1.53090
G1 X70.087 Y80.587 E1.37413
G1 X118.913 Y80.587 E1.53090
G1 X118.913 Y90.527 E0.31166
G1 X119.290 Y90.210 F7200.000
G1 F1800
G1 X135.290 Y90.210 E0.50167
G1 X135.290 Y109.790 E0.61392
G1 X119.290 Y109.790 E0.50167
G1 X119.290 Y124.790 E0.47031
G1 X69.710 Y124.790 E1.55455
G1 X69.710 Y80.210 E1.39777
G1 X119.290 Y80.210 E1.55455
G1 X119.290 Y90.150 E0.31166
G1 X119.467 Y90.569 F7200.000
G1 F5760
G1 X121.484 Y90.158 E-0.76000
G1 E-0.04000 F2100.00000
G1 Z0.800 F7200.000
G1 X118.423 Y90.811
G1 Z0.200
G1 E0.80000 F2100.00000
G1 F1800
G1 X108.859 Y81.247 E0.42516
G1 X109.393 Y81.247 E0.01681
G1 X118.253 Y90.107 E0.39385
G1 X118.253 Y89.572 E0.01681
G1 X109.928 Y81.247 E0.37008
G1 X110.463 Y81.247 E0.01681
G1 X118.253 Y89.037 E0.34632
G1 X118.253 Y88.503 E0.01681
G1 X110.997 Y81.247 E0.32255
G1 X111.532 Y81.247 E0.01681
G1 X118.253 Y87.968 E0.29878
G1 X118.253 Y87.434 E0.01681
G1 X112.066 Y81.247 E0.27502
G1 X112.601 Y81.247 E0.01681
G1 X118.253 Y86.899 E0.25125
G1 X118.253 Y86.364 E0.01681
G1 X113.136 Y81.247 E0.22749
G1 X113.670 Y81.247 E0.01681
G1 X118.253 Y85.830 E0.20372
G1 X118.253 Y85.295 E0.01681
G1 X114.205 Y81.247 E0.17995
G1 X114.740 Y81.247 E0.01681
G1 X118.253 Y84.760 E0.15619
G1 X118.253 Y84.226 E0.01681
G1 X115.274 Y81.247 E0.13242
G1 X115.809 Y81.247 E0.01681
G1 X118.253 Y83.691 E0.10866
G1 X118.253 Y83.157 E0.01681
G1 X116.343 Y81.247 E0.08489
G1 X116.878 Y81.247 E0.01681
G1 X118.253 Y82.622 E0.06112
G1 X118.253 Y82.087 E0.01681
G1 X117.413 Y81.247 E0.03736
G1 X117.947 Y81.247 E0.01681
G1 X118.423 Y81.722 E0.02114
G1 F5760
G1 X117.947 Y81.247 E-0.23288
G1 X117.413 Y81.247 E-0.18517
G1 X118.111 Y81.945 E-0.34195
G1 E-0.04000 F2100.00000
G1 Z0.800 F7200.000
G1 X122.966 Y91.077
G1 Z0.200
G1 E0.80000 F2100.00000
G1 F1800
G1 X128.420 Y96.531 E0.24246
G1 X127.877 Y96.416 E0.01747
G1 X127.770 Y96.416 E0.00335
G1 X122.601 Y91.247 E0.22978
G1 X122.066 Y91.247 E0.01681
G1 X127.235 Y96.416 E0.22978
G1 X127.123 Y96.416 E0.00352
G1 X126.775 Y96.490 E0.01120
G1 X121.532 Y91.247 E0.23307
G1 X120.997 Y91.247 E0.01681
G1 X126.342 Y96.592 E0.23761
G1 X125.972 Y96.757 E0.01273
G1 X120.463 Y91.247 E0.24494
G1 X119.928 Y91.247 E0.01681
G1 X125.618 Y96.937 E0.25295
G1 X125.308 Y97.162 E0.01203
G1 X119.393 Y91.247 E0.26295
G1 X118.859 Y91.247 E0.01681
G1 X125.015 Y97.403 E0.27368
G1 X124.762 Y97.685 E0.01190
G1 X108.324 Y81.247 E0.73072
G1 X107.790 Y81.247 E0.01681
G1 X124.526 Y97.983 E0.74399
G1 X124.330 Y98.322 E0.01230
G1 X107.255 Y81.247 E0.75906
G1 X106.720 Y81.247 E0.01681
G1 X124.159 Y98.685 E0.77521
G1 X124.028 Y99.089 E0.01334
G1 X106.186 Y81.247 E0.79314
G1 X105.651 Y81.247 E0.01681
G1 X123.945 Y99.540 E0.81322
G1 X123.899 Y100.030 E0.01545
G1 X105.116 Y81.247 E0.83497
G1 X104.582 Y81.247 E0.01681
G1 X123.962 Y100.627 E0.86153
G1 X123.975 Y100.749 E0.00386
G1 X124.180 Y101.380 E0.02083
G1 X104.047 Y81.247 E0.89497
G1 X103.513 Y81.247 E0.01681
G1 X131.019 Y108.753 E1.22275
G1 X131.553 Y108.753 E0.01681
G1 X126.100 Y103.300 E0.24240
G1 X126.386 Y103.427 E0.00984
G1 X126.864 Y103.529 E0.01534
G1 X132.088 Y108.753 E0.23224
G1 X132.623 Y108.753 E0.01681
G1 X127.454 Y103.584 E0.22978
G1 X127.877 Y103.584 E0.01330
G1 X127.969 Y103.565 E0.00296
G1 X133.157 Y108.753 E0.23065
G1 X133.692 Y108.753 E0.01681
G1 X128.410 Y103.471 E0.23482
G1 X128.614 Y103.427 E0.00656
G1 X128.812 Y103.339 E0.00684
G1 X134.226 Y108.753 E0.24068
G1 X134.253 Y108.753 E0.00084
G1 X134.253 Y108.245 E0.01597
G1 X129.182 Y103.174 E0.22542
G1 X129.302 Y103.121 E0.00412
G1 X129.511 Y102.969 E0.00814
G1 X134.253 Y107.710 E0.21079
G1 X134.253 Y107.176 E0.01681
G1 X129.821 Y102.744 E0.19702
G1 X129.911 Y102.678 E0.00351
G1 X130.091 Y102.479 E0.00842
G1 X134.253 Y106.641 E0.18503
G1 X134.253 Y106.107 E0.01681
G1 X130.344 Y102.198 E0.17377
G1 X130.416 Y102.118 E0.00336
G1 X130.556 Y101.875 E0.00883
G1 X134.253 Y105.572 E0.16435
G1 X134.253 Y105.037 E0.01681
G1 X130.752 Y101.536 E0.15565
G1 X130.792 Y101.466 E0.00255
G1 X130.896 Y101.146 E0.01057
G1 X134.253 Y104.503 E0.14923
G1 X134.253 Y103.968 E0.01681
G1 X131.026 Y100.741 E0.14346
G1 X131.077 Y100.257 E0.01529
G1 X134.253 Y103.434 E0.14120
G1 X134.253 Y102.899 E0.01681
G1 X131.074 Y99.720 E0.14130
G1 X131.025 Y99.251 E0.01484
G1 X130.970 Y99.081 E0.00560
G1 X134.253 Y102.364 E0.14595
G1 X134.253 Y101.830 E0.01681
G1 X123.670 Y91.247 E0.47044
G1 X124.205 Y91.247 E0.01681
G1 X134.253 Y101.295 E0.44668
G1 X134.253 Y100.760 E0.01681
G1 X124.740 Y91.247 E0.42291
G1 X125.274 Y91.247 E0.01681
G1 X134.253 Y100.226 E0.39915
G1 X134.253 Y99.691 E0.01681
G1 X125.809 Y91.247 E0.37538
G1 X126.343 Y91.247 E0.01681
G1 X134.253 Y99.157 E0.35161
G1 X134.253 Y98.622 E0.01681
G1 X126.878 Y91.247 E0.32785
G1 X127.413 Y91.247 E0.01681
G1 X134.253 Y98.087 E0.30408
G1 X134.253 Y97.553 E0.01681
G1 X127.947 Y91.247 E0.28032
G1 X128.482 Y91.247 E0.01681
G1 X134.253 Y97.018 E0.25655
G1 X134.253 Y96.483 E0.01681
G1 X129.017 Y91.247 E0.23278
G1 X129.551 Y91.247 E0.01681
G1 X134.253 Y95.949 E0.20902
G1 X134.253 Y95.414 E0.01681
G1 X130.086 Y91.247 E0.18525
G1 X130.620 Y91.247 E0.01681
G1 X134.253 Y94.880 E0.16149
G1 X134.253 Y94.345 E0.01681
G1 X131.155 Y91.247 E0.13772
G1 X131.690 Y91.247 E0.01681
G1 X134.253 Y93.810 E0.11395
G1 X134.253 Y93.276 E0.01681
G1 X132.224 Y91.247 E0.09019
G1 X132.759 Y91.247 E0.01681
G1 X134.253 Y92.741 E0.06642
G1 X134.253 Y92.206 E0.01681
G1 X133.294 Y91.247 E0.04266
G1 X133.828 Y91.247 E0.01681
G1 X134.423 Y91.842 E0.02643
G1 F5760
G1 X133.828 Y91.247 E-0.29125
G1 X133.294 Y91.247 E-0.18517
G1 X133.872 Y91.826 E-0.28358
G1 E-0.04000 F2100.00000
G1 Z0.800 F7200.000
G1 X130.654 Y108.923
G1 Z0.200
G1 E0.80000 F2100.00000
G1 F1800
G1 X102.978 Y81.247 E1.23030
G1 X102.443 Y81.247 E0.01681
G1 X129.949 Y108.753 E1.22275
G1 X129.415 Y108.753 E0.01681
G1 X101.909 Y81.247 E1.22275
G1 X101.374 Y81.247 E0.01681
G1 X128.880 Y108.753 E1.22275
G1 X128.346 Y108.753 E0.01681
G1 X100.839 Y81.247 E1.22275
G1 X100.305 Y81.247 E0.01681
G1 X127.811 Y108.753 E1.22275
G1 X127.276 Y108.753 E0.01681
G1 X99.770 Y81.247 E1.22275
G1 X99.236 Y81.247 E0.01681
G1 X126.742 Y108.753 E1.22275
G1 X126.207 Y108.753 E0.01681
G1 X98.701 Y81.247 E1.22275
G1 X98.166 Y81.247 E0.01681
G1 X125.672 Y108.753 E1.22275
G1 X125.138 Y108.753 E0.01681
G1 X97.632 Y81.247 E1.22275
G1 X97.097 Y81.247 E0.01681
G1 X124.603 Y108.753 E1.22275
G1 X124.069 Y108.753 E0.01681
G1 X96.562 Y81.247 E1.22275
G1 X96.028 Y81.247 E0.01681
G1 X123.534 Y108.753 E1.22275
G1 X122.999 Y108.753 E0.01681
G1 X95.493 Y81.247 E1.22275
G1 X94.959 Y81.247 E0.01681
G1 X122.465 Y108.753 E1.22275
G1 X121.930 Y108.753 E0.01681
G1 X94.424 Y81.247 E1.22275
G1 X93.889 Y81.247 E0.01681
G1 X121.395 Y108.753 E1.22275
G1 X120.861 Y108.753 E0.01681
G1 X93.355 Y81.247 E1.22275
G1 X92.820 Y81.247 E0.01681
G1 X120.326 Y108.753 E1.22275
G1 X119.792 Y108.753 E0.01681
G1 X92.286 Y81.247 E1.22275
G1 X91.751 Y81.247 E0.01681
G1 X119.257 Y108.753 E1.22275
G1 X118.722 Y108.753 E0.01681
G1 X91.216 Y81.247 E1.22275
G1 X90.682 Y81.247 E0.01681
G1 X118.253 Y108.818 E1.22566
G1 X118.253 Y109.353 E0.01681
G1 X90.147 Y81.247 E1.24942
G1 X89.612 Y81.247 E0.01681
G1 X118.253 Y109.888 E1.27319
G1 X118.253 Y110.422 E0.01681
G1 X89.078 Y81.247 E1.29695
G1 X88.543 Y81.247 E0.01681
G1 X118.253 Y110.957 E1.32072
G1 X118.253 Y111.491 E0.01681
G1 X88.009 Y81.247 E1.34449
G1 X87.474 Y81.247 E0.01681
G1 X118.253 Y112.026 E1.36825
G1 X118.253 Y112.561 E0.01681
G1 X86.939 Y81.247 E1.39202
G1 X86.405 Y81.247 E0.01681
G1 X118.253 Y113.095 E1.41578
G1 X118.253 Y113.630 E0.01681
G1 X85.870 Y81.247 E1.43955
G1 X85.335 Y81.247 E0.01681
G1 X118.253 Y114.165 E1.46332
G1 X118.253 Y114.699 E0.01681
G1 X84.801 Y81.247 E1.48708
G1 X84.266 Y81.247 E0.01681
G1 X118.253 Y115.234 E1.51085
G1 X118.253 Y115.768 E0.01681
G1 X83.732 Y81.247 E1.53461
G1 X83.197 Y81.247 E0.01681
G1 X118.253 Y116.303 E1.55838
G1 X118.253 Y116.838 E0.01681
G1 X82.662 Y81.247 E1.58215
G1 X82.128 Y81.247 E0.01681
G1 X118.253 Y117.372 E1.60591
G1 X118.253 Y117.907 E0.01681
G1 X81.593 Y81.247 E1.62968
G1 X81.058 Y81.247 E0.01681
G1 X118.253 Y118.442 E1.65344
G1 X118.253 Y118.976 E0.01681
G1 X80.524 Y81.247 E1.67721
G1 X79.989 Y81.247 E0.01681
G1 X118.253 Y119.511 E1.70098
G1 X118.253 Y120.045 E0.01681
G1 X79.455 Y81.247 E1.72474
G1 X78.920 Y81.247 E0.01681
G1 X118.253 Y120.580 E1.74851
G1 X118.253 Y121.115 E0.01681
G1 X78.385 Y81.247 E1.77227
G1 X77.851 Y81.247 E0.01681
G1 X118.253 Y121.649 E1.79604
G1 X118.253 Y122.184 E0.01681
G1 X77.316 Y81.247 E1.81981
G1 X76.781 Y81.247 E0.01681
G1 X118.253 Y122.719 E1.84357
G1 X118.253 Y123.253 E0.01681
G1 X76.247 Y81.247 E1.86734
G1 X75.712 Y81.247 E0.01681
G1 X118.218 Y123.753 E1.88956
G1 X117.684 Y123.753 E0.01681
G1 X75.178 Y81.247 E1.88956
G1 X74.643 Y81.247 E0.01681
G1 X117.149 Y123.753 E1.88956
G1 X116.615 Y123.753 E0.01681
G1 X74.108 Y81.247 E1.88956
G1 X73.574 Y81.247 E0.01681
G1 X116.080 Y123.753 E1.88956
G1 X115.545 Y123.753 E0.01681
G1 X73.039 Y81.247 E1.88956
G1 X72.505 Y81.247 E0.01681
G1 X115.011 Y123.753 E1.88956
G1 X114.476 Y123.753 E0.01681
G1 X71.970 Y81.247 E1.88956
G1 X71.435 Y81.247 E0.01681
G1 X113.941 Y123.753 E1.88956
G1 X113.407 Y123.753 E0.01681
G1 X70.901 Y81.247 E1.88956
G1 X70.747 Y81.247 E0.00483
G1 X70.747 Y81.628 E0.01197
G1 X112.872 Y123.753 E1.87263
G1 X112.338 Y123.753 E0.01681
G1 X70.747 Y82.162 E1.84886
G1 X70.747 Y82.697 E0.01681
G1 X111.803 Y123.753 E1.82510
G1 X111.268 Y123.753 E0.01681
G1 X70.747 Y83.232 E1.80133
G1 X70.747 Y83.766 E0.01681
G1 X110.734 Y123.753 E1.77757
G1 X110.199 Y123.753 E0.01681
G1 X70.747 Y84.301 E1.75380
G1 X70.747 Y84.836 E0.01681
G1 X109.664 Y123.753 E1.73003
G1 X109.130 Y123.753 E0.01681
G1 X70.747 Y85.370 E1.70627
G1 X70.747 Y85.905 E0.01681
G1 X108.595 Y123.753 E1.68250
G1 X108.061 Y123.753 E0.01681
G1 X70.747 Y86.439 E1.65874
G1 X70.747 Y86.974 E0.01681
G1 X107.526 Y123.753 E1.63497
G1 X106.991 Y123.753 E0.01681
G1 X70.747 Y87.509 E1.61120
G1 X70.747 Y88.043 E0.01681
G1 X106.457 Y123.753 E1.58744
G1 X105.922 Y123.753 E0.01681
G1 X70.747 Y88.578 E1.56367
G1 X70.747 Y89.113 E0.01681
G1 X105.387 Y123.753 E1.53991
G1 X104.853 Y123.753 E0.01681
G1 X70.747 Y89.647 E1.51614
G1 X70.747 Y90.182 E0.01681
G1 X104.318 Y123.753 E1.49237
G1 X103.784 Y123.753 E0.01681
G1 X70.747 Y90.716 E1.46861
G1 X70.747 Y91.251 E0.01681
G1 X103.249 Y123.753 E1.44484
G1 X102.714 Y123.753 E0.01681
G1 X70.747 Y91.786 E1.42108
G1 X70.747 Y92.320 E0.01681
G1 X102.180 Y123.753 E1.39731
G1 X101.645 Y123.753 E0.01681
G1 X70.747 Y92.855 E1.37354
G1 X70.747 Y93.389 E0.01681
G1 X101.111 Y123.753 E1.34978
G1 X100.576 Y123.753 E0.01681
G1 X70.747 Y93.924 E1.32601
G1 X70.747 Y94.459 E0.01681
