; generated by Slic3r Prusa Edition 1.39.2+win64 on 2018-06-02 at 08:09:25

; 

; external perimeters extrusion width = 0.45mm
; perimeters extrusion width = 0.45mm
; infill extrusion width = 0.45mm
; solid infill extrusion width = 0.45mm
; top infill extrusion width = 0.45mm
; first layer extrusion width = 0.42mm

M107
M115 U3.1.0 ; tell printer latest fw version
M83  ; extruder relative mode
M104 S205 ; set extruder temp
M140 S55 ; set bed temp
M190 S55 ; wait for bed temp
M109 S205 ; wait for extruder temp
G28 W ; home all without mesh bed level
G80 ; mesh bed leveling
G1 Y-3.0 F1000.0 ; go outside print area
G92 E0.0
G1 X60.0 E9.0  F1000.0 ; intro line
G1 X100.0 E12.5  F1000.0 ; intro line
G92 E0.0
M900 K30; Filament gcode
G21 ; set units to millimeters
G90 ; use absolute coordinates
M83 ; use relative distances for extrusion
;BEFORE_LAYER_CHANGE
;0.2


G1 E-0.80000 F2100.00000
G1 Z0.600 F7200.000
;AFTER_LAYER_CHANGE
;0.2
G1 X68.720 Y26.827
G1 Z0.200
G1 E0.80000 F2100.00000
M204 S1000
G1 F1800
G1 X69.035 Y26.162 E0.02308
G1 X69.541 Y25.623 E0.02319
G1 X70.189 Y25.266 E0.02319
G1 X70.915 Y25.124 E0.02319
G1 X116.004 Y25.123 E1.41372
G1 X116.785 Y25.256 E0.02484
G1 X117.482 Y25.641 E0.02496
G1 X135.525 Y40.676 E0.73639
G1 X136.074 Y41.338 E0.02696
G1 X136.352 Y42.156 E0.02708
G1 X136.377 Y162.500 E3.77331
G1 X136.280 Y163.173 E0.02130
G1 X135.990 Y163.800 E0.02166
G1 X135.533 Y164.317 E0.02166
G1 X117.504 Y179.341 E0.73582
G1 X117.067 Y179.624 E0.01633
G1 X116.583 Y179.805 E0.01621
G1 X116.006 Y179.877 E0.01823
G1 X71.000 Y179.877 E1.41113
G1 X70.327 Y179.780 E0.02130
G1 X69.650 Y179.456 E0.02355
G1 X69.105 Y178.934 E0.02367
G1 X68.750 Y178.268 E0.02367
G1 X68.623 Y177.524 E0.02367
G1 X68.623 Y27.500 E4.70390
G1 X68.711 Y26.887 E0.01942
G1 F5760
G1 X69.035 Y26.162 E-0.27484
G1 X69.541 Y25.623 E-0.25621
G1 X70.120 Y25.304 E-0.22895
G1 E-0.04000 F2100.00000
G1 Z0.800 F7200.000
G1 X75.989 Y170.561
G1 Z0.200
G1 E0.80000 F2100.00000
G1 F1800
G1 X76.611 Y170.623 E0.01958
G1 X77.197 Y170.814 E0.01932
G1 X77.728 Y171.122 E0.01927
G1 X78.185 Y171.533 E0.01926
G1 X78.546 Y172.030 E0.01926
G1 X78.796 Y172.592 E0.01929
G1 X78.924 Y173.192 E0.01926
G1 X78.924 Y173.808 E0.01929
G1 X78.796 Y174.408 E0.01926
G1 X78.546 Y174.970 E0.01929
G1 X78.185 Y175.467 E0.01926
G1 X77.728 Y175.878 E0.01926
G1 X77.197 Y176.186 E0.01927
G1 X76.612 Y176.376 E0.01929
G1 X76.000 Y176.440 E0.01928
G1 X75.388 Y176.376 E0.01928
G1 X74.803 Y176.186 E0.01929
G1 X74.272 Y175.878 E0.01927
G1 X73.815 Y175.467 E0.01926
G1 X73.454 Y174.970 E0.01926
G1 X73.204 Y174.408 E0.01929
G1 X73.076 Y173.808 E0.01926
G1 X73.076 Y173.192 E0.01929
G1 X73.204 Y172.592 E0.01926
G1 X73.454 Y172.030 E0.01929
G1 X73.815 Y171.533 E0.01926
G1 X74.272 Y171.122 E0.01926
G1 X74.803 Y170.814 E0.01927
G1 X75.388 Y170.624 E0.01929
G1 X75.929 Y170.567 E0.01705
G1 X75.968 Y170.942 F7200.000
G1 F1800
G1 X76.532 Y170.994 E0.01776
G1 X77.042 Y171.160 E0.01680
G1 X77.505 Y171.428 E0.01678
G1 X77.903 Y171.787 E0.01678
G1 X78.218 Y172.219 E0.01678
G1 X78.436 Y172.709 E0.01680
G1 X78.547 Y173.232 E0.01677
G1 X78.547 Y173.768 E0.01681
G1 X78.436 Y174.291 E0.01677
G1 X78.218 Y174.781 E0.01680
G1 X77.903 Y175.213 E0.01678
G1 X77.505 Y175.572 E0.01678
G1 X77.042 Y175.840 E0.01678
G1 X76.533 Y176.006 E0.01679
G1 X76.000 Y176.061 E0.01680
G1 X75.467 Y176.006 E0.01680
G1 X74.958 Y175.840 E0.01679
G1 X74.495 Y175.572 E0.01678
G1 X74.097 Y175.213 E0.01678
G1 X73.782 Y174.781 E0.01678
G1 X73.564 Y174.291 E0.01680
G1 X73.453 Y173.768 E0.01677
G1 X73.453 Y173.232 E0.01681
G1 X73.564 Y172.709 E0.01677
G1 X73.782 Y172.219 E0.01680
G1 X74.097 Y171.787 E0.01678
G1 X74.495 Y171.428 E0.01678
G1 X74.958 Y171.160 E0.01678
G1 X75.467 Y170.994 E0.01679
G1 X75.909 Y170.948 E0.01392
G1 X76.165 Y170.594 F7200.000
G1 F5760
G1 X76.532 Y170.994 E-0.21660
G1 X77.042 Y171.160 E-0.18560
G1 X77.505 Y171.428 E-0.18537
G1 X77.875 Y171.762 E-0.17243
G1 E-0.04000 F2100.00000
G1 Z0.800 F7200.000
G1 X80.036 Y166.464
G1 Z0.200
G1 E0.80000 F2100.00000
G1 F1800
G1 X80.036 Y138.536 E0.87567
G1 X111.964 Y138.536 E1.00109
G1 X111.964 Y166.464 E0.87567
G1 X80.096 Y166.464 E0.99921
G1 X80.413 Y166.087 F7200.000
G1 F1800
G1 X80.413 Y138.913 E0.85203
G1 X111.587 Y138.913 E0.97744
G1 X111.587 Y166.087 E0.85203
G1 X80.473 Y166.087 E0.97556
G1 X80.790 Y165.710 F7200.000
G1 F1800
G1 X80.790 Y139.290 E0.82838
G1 X111.210 Y139.290 E0.95380
G1 X111.210 Y165.710 E0.82838
G1 X80.850 Y165.710 E0.95192
G1 X80.401 Y165.804 F7200.000
G1 F5760
G1 X80.845 Y163.516 E-0.76000
G1 E-0.04000 F2100.00000
G1 Z0.800 F7200.000
G1 X76.690 Y134.747
G1 Z0.200
G1 E0.80000 F2100.00000
G1 F1800
G1 X76.000 Y134.819 E0.02177
G1 X75.310 Y134.747 E0.02177
G1 X74.649 Y134.532 E0.02178
G1 X74.049 Y134.185 E0.02175
G1 X73.534 Y133.721 E0.02173
G1 X73.126 Y133.160 E0.02174
G1 X72.843 Y132.526 E0.02178
G1 X72.699 Y131.847 E0.02174
G1 X72.699 Y131.153 E0.02178
G1 X72.843 Y130.474 E0.02174
G1 X73.126 Y129.840 E0.02178
G1 X73.534 Y129.279 E0.02174
G1 X74.049 Y128.815 E0.02173
G1 X74.649 Y128.468 E0.02175
G1 X75.310 Y128.253 E0.02178
G1 X75.988 Y128.182 E0.02140
G1 X76.689 Y128.252 E0.02207
G1 X77.351 Y128.468 E0.02184
G1 X77.951 Y128.815 E0.02175
G1 X78.466 Y129.279 E0.02173
G1 X78.874 Y129.840 E0.02174
G1 X79.157 Y130.474 E0.02178
G1 X79.301 Y131.153 E0.02174
G1 X79.301 Y131.847 E0.02178
G1 X79.157 Y132.526 E0.02174
G1 X78.874 Y133.160 E0.02178
G1 X78.466 Y133.721 E0.02174
G1 X77.951 Y134.185 E0.02173
G1 X77.351 Y134.532 E0.02175
G1 X76.747 Y134.729 E0.01990
G1 X76.631 Y134.370 F7200.000
G1 F1800
G1 X76.000 Y134.440 E0.01990
G1 X75.388 Y134.376 E0.01928
G1 X74.803 Y134.186 E0.01929
G1 X74.272 Y133.878 E0.01927
G1 X73.815 Y133.467 E0.01926
G1 X73.454 Y132.970 E0.01926
G1 X73.204 Y132.408 E0.01929
G1 X73.076 Y131.808 E0.01926
G1 X73.076 Y131.192 E0.01929
G1 X73.204 Y130.592 E0.01926
G1 X73.454 Y130.030 E0.01929
G1 X73.815 Y129.533 E0.01926
G1 X74.272 Y129.122 E0.01926
G1 X74.803 Y128.814 E0.01927
G1 X75.388 Y128.624 E0.01929
G1 X75.989 Y128.561 E0.01894
G1 X76.611 Y128.623 E0.01958
G1 X77.197 Y128.814 E0.01932
G1 X77.728 Y129.122 E0.01927
G1 X78.185 Y129.533 E0.01926
G1 X78.546 Y130.030 E0.01926
G1 X78.796 Y130.592 E0.01929
G1 X78.924 Y131.192 E0.01926
G1 X78.924 Y131.808 E0.01929
G1 X78.796 Y132.408 E0.01926
G1 X78.546 Y132.970 E0.01929
G1 X78.185 Y133.467 E0.01926
G1 X77.728 Y133.878 E0.01926
G1 X77.197 Y134.186 E0.01927
G1 X76.688 Y134.352 E0.01677
G1 X76.571 Y133.993 F7200.000
G1 F1800
G1 X76.000 Y134.061 E0.01803
G1 X75.467 Y134.006 E0.01680
G1 X74.958 Y133.840 E0.01679
G1 X74.495 Y133.572 E0.01678
G1 X74.097 Y133.213 E0.01678
G1 X73.782 Y132.781 E0.01678
G1 X73.564 Y132.291 E0.01680
G1 X73.453 Y131.768 E0.01677
G1 X73.453 Y131.232 E0.01681
G1 X73.564 Y130.709 E0.01677
G1 X73.782 Y130.219 E0.01680
G1 X74.097 Y129.787 E0.01678
G1 X74.495 Y129.428 E0.01678
G1 X74.958 Y129.160 E0.01678
G1 X75.467 Y128.994 E0.01679
G1 X75.990 Y128.940 E0.01648
G1 X76.532 Y128.994 E0.01710
G1 X77.042 Y129.160 E0.01680
G1 X77.505 Y129.428 E0.01678
G1 X77.903 Y129.787 E0.01678
G1 X78.218 Y130.219 E0.01678
G1 X78.436 Y130.709 E0.01680
G1 X78.547 Y131.232 E0.01677
G1 X78.547 Y131.768 E0.01681
G1 X78.436 Y132.291 E0.01677
G1 X78.218 Y132.781 E0.01680
G1 X77.903 Y133.213 E0.01678
G1 X77.505 Y133.572 E0.01678
G1 X77.042 Y133.840 E0.01678
G1 X76.628 Y133.975 E0.01365
G1 X76.452 Y134.375 F7200.000
G1 F5760
G1 X76.000 Y134.061 E-0.21963
G1 X75.467 Y134.006 E-0.18556
G1 X74.958 Y133.840 E-0.18546
G1 X74.535 Y133.595 E-0.16935
G1 E-0.04000 F2100.00000
G1 Z0.800 F7200.000
G1 X76.000 Y126.819
G1 Z0.200
G1 E0.80000 F2100.00000
G1 F1800
G1 X75.309 Y126.747 E0.02177
G1 X74.649 Y126.532 E0.02176
G1 X74.049 Y126.185 E0.02174
G1 X73.534 Y125.721 E0.02174
G1 X73.126 Y125.160 E0.02176
G1 X72.843 Y124.526 E0.02177
G1 X72.699 Y123.847 E0.02176
G1 X72.699 Y123.153 E0.02175
G1 X72.843 Y122.474 E0.02176
G1 X73.126 Y121.840 E0.02177
G1 X73.534 Y121.279 E0.02176
G1 X74.049 Y120.815 E0.02174
G1 X74.649 Y120.468 E0.02174
G1 X75.309 Y120.253 E0.02176
G1 X75.988 Y120.182 E0.02140
G1 X76.689 Y120.253 E0.02208
G1 X77.351 Y120.468 E0.02182
G1 X77.951 Y120.815 E0.02174
G1 X78.466 Y121.279 E0.02174
G1 X78.874 Y121.840 E0.02176
G1 X79.157 Y122.474 E0.02177
G1 X79.301 Y123.153 E0.02176
G1 X79.301 Y123.847 E0.02175
G1 X79.157 Y124.526 E0.02176
G1 X78.874 Y125.160 E0.02177
G1 X78.466 Y125.721 E0.02176
G1 X77.951 Y126.185 E0.02174
G1 X77.351 Y126.532 E0.02174
G1 X76.691 Y126.747 E0.02176
G1 X76.060 Y126.813 E0.01989
G1 X76.020 Y126.438 F7200.000
G1 F1800
G1 X75.388 Y126.376 E0.01991
G1 X74.804 Y126.186 E0.01927
G1 X74.272 Y125.879 E0.01926
G1 X73.815 Y125.468 E0.01926
G1 X73.454 Y124.970 E0.01927
G1 X73.204 Y124.409 E0.01928
G1 X73.076 Y123.807 E0.01928
G1 X73.076 Y123.193 E0.01927
G1 X73.204 Y122.591 E0.01928
G1 X73.454 Y122.030 E0.01928
G1 X73.815 Y121.532 E0.01927
G1 X74.272 Y121.121 E0.01926
G1 X74.804 Y120.814 E0.01926
G1 X75.388 Y120.624 E0.01927
G1 X75.989 Y120.561 E0.01894
G1 X76.611 Y120.624 E0.01959
G1 X77.196 Y120.814 E0.01931
G1 X77.728 Y121.121 E0.01926
G1 X78.185 Y121.532 E0.01926
G1 X78.546 Y122.030 E0.01927
G1 X78.796 Y122.591 E0.01928
G1 X78.924 Y123.193 E0.01928
G1 X78.924 Y123.807 E0.01927
G1 X78.796 Y124.409 E0.01928
G1 X78.546 Y124.970 E0.01928
G1 X78.185 Y125.468 E0.01927
G1 X77.728 Y125.879 E0.01926
G1 X77.196 Y126.186 E0.01926
G1 X76.612 Y126.376 E0.01927
G1 X76.080 Y126.432 E0.01677
G1 X76.041 Y126.057 F7200.000
G1 F1800
G1 X75.467 Y126.005 E0.01805
G1 X74.958 Y125.840 E0.01678
G1 X74.495 Y125.572 E0.01677
G1 X74.097 Y125.214 E0.01678
G1 X73.782 Y124.781 E0.01679
G1 X73.564 Y124.291 E0.01679
G1 X73.453 Y123.768 E0.01679
G1 X73.453 Y123.232 E0.01678
G1 X73.564 Y122.709 E0.01679
G1 X73.782 Y122.219 E0.01679
G1 X74.097 Y121.786 E0.01679
G1 X74.495 Y121.428 E0.01678
G1 X74.958 Y121.160 E0.01677
G1 X75.467 Y120.995 E0.01678
G1 X75.990 Y120.940 E0.01648
G1 X76.533 Y120.995 E0.01710
G1 X77.042 Y121.160 E0.01680
G1 X77.505 Y121.428 E0.01677
G1 X77.903 Y121.786 E0.01678
G1 X78.218 Y122.219 E0.01679
G1 X78.436 Y122.709 E0.01679
G1 X78.547 Y123.232 E0.01679
G1 X78.547 Y123.768 E0.01678
G1 X78.436 Y124.291 E0.01679
G1 X78.218 Y124.781 E0.01679
G1 X77.903 Y125.214 E0.01679
G1 X77.505 Y125.572 E0.01678
G1 X77.042 Y125.840 E0.01677
G1 X76.533 Y126.005 E0.01678
G1 X76.100 Y126.051 E0.01364
G1 X75.844 Y126.406 F7200.000
G1 F5760
G1 X75.467 Y126.005 E-0.21984
G1 X74.958 Y125.840 E-0.18538
G1 X74.495 Y125.572 E-0.18530
G1 X74.131 Y125.245 E-0.16948
G1 E-0.04000 F2100.00000
G1 Z0.800 F7200.000
G1 X98.036 Y124.036
G1 Z0.200
G1 E0.80000 F2100.00000
G1 F1800
G1 X113.964 Y124.036 E0.49942
G1 X113.964 Y130.964 E0.21723
G1 X98.036 Y130.964 E0.49942
G1 X98.036 Y124.096 E0.21535
G1 X98.413 Y124.413 F7200.000
G1 F1800
G1 X113.587 Y124.413 E0.47578
G1 X113.587 Y130.587 E0.19359
G1 X98.413 Y130.587 E0.47578
G1 X98.413 Y124.473 E0.19171
G1 X98.790 Y124.790 F7200.000
G1 F1800
G1 X113.210 Y124.790 E0.45213
G1 X113.210 Y130.210 E0.16994
G1 X98.790 Y130.210 E0.45213
G1 X98.790 Y124.850 E0.16806
G1 X98.633 Y124.422 F7200.000
G1 F5760
G1 X100.984 Y124.841 E-0.76000
G1 E-0.04000 F2100.00000
G1 Z0.800 F7200.000
G1 X125.534 Y104.721
G1 Z0.200
G1 E0.80000 F2100.00000
G1 F1800
G1 X125.126 Y104.160 E0.02176
G1 X124.843 Y103.526 E0.02177
G1 X124.699 Y102.847 E0.02176
G1 X124.699 Y102.153 E0.02175
G1 X124.843 Y101.474 E0.02176
G1 X125.126 Y100.840 E0.02177
G1 X125.534 Y100.279 E0.02176
G1 X126.049 Y99.815 E0.02174
G1 X126.649 Y99.468 E0.02174
G1 X127.309 Y99.253 E0.02176
G1 X127.988 Y99.182 E0.02140
G1 X128.689 Y99.253 E0.02208
G1 X129.351 Y99.468 E0.02182
G1 X129.951 Y99.815 E0.02174
G1 X130.466 Y100.279 E0.02174
G1 X130.874 Y100.840 E0.02176
G1 X131.157 Y101.474 E0.02177
G1 X131.301 Y102.153 E0.02176
G1 X131.301 Y102.847 E0.02175
G1 X131.157 Y103.526 E0.02176
G1 X130.874 Y104.160 E0.02177
G1 X130.466 Y104.721 E0.02176
G1 X129.951 Y105.185 E0.02174
G1 X129.351 Y105.532 E0.02174
G1 X128.691 Y105.747 E0.02176
G1 X128.000 Y105.819 E0.02177
G1 X127.309 Y105.747 E0.02177
G1 X126.649 Y105.532 E0.02176
G1 X126.049 Y105.185 E0.02174
G1 X125.578 Y104.761 E0.01986
G1 X125.831 Y104.481 F7200.000
G1 F1800
G1 X125.454 Y103.970 E0.01990
G1 X125.204 Y103.409 E0.01928
G1 X125.076 Y102.807 E0.01928
G1 X125.076 Y102.193 E0.01927
G1 X125.204 Y101.591 E0.01928
G1 X125.454 Y101.030 E0.01928
G1 X125.815 Y100.532 E0.01928
G1 X126.272 Y100.121 E0.01926
G1 X126.804 Y99.814 E0.01926
G1 X127.388 Y99.624 E0.01927
G1 X127.989 Y99.561 E0.01894
G1 X128.611 Y99.624 E0.01959
G1 X129.196 Y99.814 E0.01931
G1 X129.728 Y100.121 E0.01926
G1 X130.185 Y100.532 E0.01926
G1 X130.546 Y101.030 E0.01928
G1 X130.796 Y101.591 E0.01928
G1 X130.924 Y102.193 E0.01928
G1 X130.924 Y102.807 E0.01927
G1 X130.796 Y103.409 E0.01928
G1 X130.546 Y103.970 E0.01928
G1 X130.185 Y104.468 E0.01928
G1 X129.728 Y104.879 E0.01926
G1 X129.196 Y105.186 E0.01926
G1 X128.612 Y105.376 E0.01927
G1 X128.000 Y105.440 E0.01929
G1 X127.388 Y105.376 E0.01929
G1 X126.804 Y105.186 E0.01927
G1 X126.272 Y104.879 E0.01926
G1 X125.875 Y104.521 E0.01674
G1 X126.127 Y104.241 F7200.000
G1 F1800
G1 X125.782 Y103.781 E0.01805
G1 X125.564 Y103.291 E0.01679
G1 X125.453 Y102.768 E0.01679
G1 X125.453 Y102.232 E0.01678
G1 X125.564 Y101.709 E0.01679
G1 X125.782 Y101.219 E0.01679
G1 X126.097 Y100.786 E0.01679
G1 X126.495 Y100.428 E0.01678
G1 X126.958 Y100.160 E0.01677
G1 X127.467 Y99.995 E0.01678
G1 X127.990 Y99.940 E0.01648
G1 X128.533 Y99.995 E0.01710
G1 X129.042 Y100.160 E0.01680
G1 X129.505 Y100.428 E0.01677
G1 X129.903 Y100.786 E0.01678
G1 X130.218 Y101.219 E0.01679
G1 X130.436 Y101.709 E0.01679
G1 X130.547 Y102.232 E0.01679
G1 X130.547 Y102.768 E0.01678
G1 X130.436 Y103.291 E0.01679
G1 X130.218 Y103.781 E0.01679
G1 X129.903 Y104.214 E0.01679
G1 X129.505 Y104.572 E0.01678
G1 X129.042 Y104.840 E0.01677
G1 X128.533 Y105.005 E0.01678
G1 X128.000 Y105.061 E0.01680
G1 X127.467 Y105.005 E0.01680
G1 X126.958 Y104.840 E0.01678
G1 X126.495 Y104.572 E0.01677
G1 X126.172 Y104.281 E0.01362
G1 X125.737 Y104.329 F7200.000
G1 F5760
G1 X125.782 Y103.781 E-0.21979
G1 X125.564 Y103.291 E-0.18549
G1 X125.453 Y102.768 E-0.18547
G1 X125.453 Y102.279 E-0.16925
G1 E-0.04000 F2100.00000
G1 Z0.800 F7200.000
G1 X113.964 Y80.964
G1 Z0.200
G1 E0.80000 F2100.00000
G1 F1800
G1 X98.036 Y80.964 E0.49942
G1 X98.036 Y74.036 E0.21723
G1 X113.964 Y74.036 E0.49942
G1 X113.964 Y80.904 E0.21535
G1 X113.587 Y80.587 F7200.000
G1 F1800
G1 X98.413 Y80.587 E0.47578
G1 X98.413 Y74.413 E0.19359
G1 X113.587 Y74.413 E0.47578
G1 X113.587 Y80.527 E0.19171
G1 X113.210 Y80.210 F7200.000
G1 F1800
G1 X98.790 Y80.210 E0.45213
G1 X98.790 Y74.790 E0.16994
G1 X113.210 Y74.790 E0.45213
G1 X113.210 Y80.150 E0.16806
G1 X113.367 Y80.578 F7200.000
G1 F5760
G1 X111.016 Y80.159 E-0.76000
G1 E-0.04000 F2100.00000
G1 Z0.800 F7200.000
G1 X79.301 Y73.847
G1 Z0.200
G1 E0.80000 F2100.00000
G1 F1800
G1 X79.157 Y74.526 E0.02176
G1 X78.874 Y75.160 E0.02177
G1 X78.466 Y75.721 E0.02176
G1 X77.951 Y76.185 E0.02174
G1 X77.351 Y76.532 E0.02174
G1 X76.691 Y76.747 E0.02176
G1 X76.000 Y76.819 E0.02177
G1 X75.309 Y76.747 E0.02177
G1 X74.649 Y76.532 E0.02176
G1 X74.049 Y76.185 E0.02174
G1 X73.534 Y75.721 E0.02174
G1 X73.126 Y75.160 E0.02176
G1 X72.843 Y74.526 E0.02177
G1 X72.699 Y73.847 E0.02176
G1 X72.699 Y73.153 E0.02175
G1 X72.843 Y72.474 E0.02176
G1 X73.126 Y71.840 E0.02177
G1 X73.534 Y71.279 E0.02176
G1 X74.049 Y70.815 E0.02174
G1 X74.649 Y70.468 E0.02174
G1 X75.309 Y70.253 E0.02176
G1 X75.988 Y70.182 E0.02140
G1 X76.689 Y70.253 E0.02208
G1 X77.351 Y70.468 E0.02182
G1 X77.951 Y70.815 E0.02174
G1 X78.466 Y71.279 E0.02174
G1 X78.874 Y71.840 E0.02176
G1 X79.157 Y72.474 E0.02177
G1 X79.301 Y73.153 E0.02176
G1 X79.301 Y73.787 E0.01987
G1 X78.924 Y73.787 F7200.000
G1 F1800
G1 X78.796 Y74.409 E0.01990
G1 X78.546 Y74.970 E0.01928
G1 X78.185 Y75.468 E0.01927
G1 X77.728 Y75.879 E0.01926
G1 X77.196 Y76.186 E0.01926
G1 X76.612 Y76.376 E0.01927
G1 X76.000 Y76.440 E0.01929
G1 X75.388 Y76.376 E0.01929
G1 X74.804 Y76.186 E0.01927
G1 X74.272 Y75.879 E0.01926
G1 X73.815 Y75.468 E0.01926
G1 X73.454 Y74.970 E0.01927
