; generated by Slic3r Prusa Edition 1.39.2+win64 on 2018-05-30 at 11:59:06

; 

; external perimeters extrusion width = 0.45mm
; perimeters extrusion width = 0.45mm
; infill extrusion width = 0.45mm
; solid infill extrusion width = 0.45mm
; top infill extrusion width = 0.45mm
; first layer extrusion width = 0.42mm

M107
M115 U3.1.0 ; tell printer latest fw version
M83  ; extruder relative mode
M104 S205 ; set extruder temp
M140 S55 ; set bed temp
M190 S55 ; wait for bed temp
M109 S205 ; wait for extruder temp
G28 W ; home all without mesh bed level
G80 ; mesh bed leveling
G1 Y-3.0 F1000.0 ; go outside print area
G92 E0.0
G1 X60.0 E9.0  F1000.0 ; intro line
G1 X100.0 E12.5  F1000.0 ; intro line
G92 E0.0
M900 K30; Filament gcode
G21 ; set units to millimeters
G90 ; use absolute coordinates
M83 ; use relative distances for extrusion
;BEFORE_LAYER_CHANGE
;0.2


G1 E-0.80000 F2100.00000
G1 Z0.600 F7200.000
;AFTER_LAYER_CHANGE
;0.2
G1 X46.593 Y78.803
G1 Z0.200
G1 E0.80000 F2100.00000
M204 S1000
G1 F1800
G1 X47.495 Y78.623 E0.02884
G1 X157.504 Y78.623 E3.44925
G1 X158.399 Y78.799 E0.02860
G1 X159.164 Y79.303 E0.02872
G1 X159.682 Y80.058 E0.02872
G1 X159.877 Y80.953 E0.02872
G1 X159.876 Y124.076 E1.35209
G1 X159.757 Y124.745 E0.02130
G1 X159.454 Y125.353 E0.02130
G1 X158.991 Y125.851 E0.02130
G1 X158.407 Y126.197 E0.02130
G1 X157.505 Y126.377 E0.02884
G1 X47.473 Y126.377 E3.44996
G1 X46.791 Y126.269 E0.02166
G1 X46.169 Y125.969 E0.02166
G1 X45.659 Y125.503 E0.02166
G1 X45.303 Y124.907 E0.02178
G1 X45.123 Y124.009 E0.02872
G1 X45.124 Y80.935 E1.35054
G1 X45.239 Y80.266 E0.02130
G1 X45.541 Y79.653 E0.02142
G1 X46.006 Y79.151 E0.02142
G1 X46.542 Y78.833 E0.01954
G1 F5760
G1 X47.495 Y78.623 E-0.33823
G1 X48.713 Y78.623 E-0.42177
G1 E-0.04000 F2100.00000
G1 Z0.800 F7200.000
G1 X51.205 Y117.196
G1 Z0.200
G1 E0.80000 F2100.00000
G1 F1800
G1 X51.795 Y117.196 E0.01848
G1 X52.371 Y117.318 E0.01848
G1 X52.910 Y117.558 E0.01848
G1 X53.387 Y117.905 E0.01848
G1 X53.781 Y118.343 E0.01848
G1 X54.082 Y118.863 E0.01885
G1 X54.264 Y119.475 E0.02003
G1 X54.319 Y120.000 E0.01654
G1 X54.258 Y120.586 E0.01848
G1 X54.076 Y121.147 E0.01848
G1 X53.781 Y121.657 E0.01848
G1 X53.387 Y122.095 E0.01848
G1 X52.910 Y122.442 E0.01848
G1 X52.371 Y122.682 E0.01848
G1 X51.795 Y122.804 E0.01848
G1 X51.205 Y122.804 E0.01848
G1 X50.629 Y122.682 E0.01848
G1 X50.090 Y122.442 E0.01848
G1 X49.613 Y122.095 E0.01848
G1 X49.219 Y121.657 E0.01848
G1 X48.924 Y121.147 E0.01848
G1 X48.742 Y120.586 E0.01848
G1 X48.685 Y120.046 E0.01703
G1 X48.739 Y119.422 E0.01963
G1 X48.924 Y118.853 E0.01876
G1 X49.219 Y118.343 E0.01848
G1 X49.613 Y117.905 E0.01848
G1 X50.090 Y117.558 E0.01848
G1 X50.629 Y117.318 E0.01848
G1 X51.147 Y117.208 E0.01660
G1 X51.225 Y117.577 F7200.000
G1 F1800
G1 X51.755 Y117.573 E0.01662
G1 X52.254 Y117.679 E0.01600
G1 X52.720 Y117.887 E0.01600
G1 X53.133 Y118.186 E0.01599
G1 X53.474 Y118.566 E0.01600
G1 X53.733 Y119.014 E0.01622
G1 X53.893 Y119.550 E0.01754
G1 X53.940 Y120.000 E0.01420
G1 X53.887 Y120.507 E0.01599
G1 X53.729 Y120.993 E0.01600
G1 X53.474 Y121.434 E0.01600
G1 X53.133 Y121.814 E0.01600
G1 X52.720 Y122.113 E0.01599
G1 X52.254 Y122.321 E0.01600
G1 X51.755 Y122.427 E0.01600
G1 X51.245 Y122.427 E0.01600
G1 X50.746 Y122.321 E0.01600
G1 X50.280 Y122.113 E0.01600
G1 X49.867 Y121.814 E0.01599
G1 X49.526 Y121.434 E0.01600
G1 X49.271 Y120.993 E0.01600
G1 X49.113 Y120.507 E0.01600
G1 X49.064 Y120.043 E0.01465
G1 X49.111 Y119.498 E0.01714
G1 X49.271 Y119.007 E0.01617
G1 X49.526 Y118.566 E0.01600
G1 X49.867 Y118.186 E0.01600
G1 X50.280 Y117.887 E0.01599
G1 X50.746 Y117.679 E0.01600
G1 X51.166 Y117.590 E0.01348
G1 X51.285 Y117.950 F7200.000
G1 F1800
G1 X51.715 Y117.950 E0.01351
G1 X52.137 Y118.040 E0.01351
G1 X52.531 Y118.215 E0.01351
G1 X52.879 Y118.468 E0.01351
G1 X53.168 Y118.788 E0.01351
G1 X53.384 Y119.164 E0.01359
G1 X53.522 Y119.624 E0.01506
G1 X53.561 Y120.000 E0.01186
G1 X53.516 Y120.428 E0.01351
G1 X53.383 Y120.838 E0.01351
G1 X53.168 Y121.212 E0.01351
G1 X52.879 Y121.532 E0.01351
G1 X52.531 Y121.785 E0.01351
G1 X52.137 Y121.960 E0.01351
G1 X51.715 Y122.050 E0.01351
G1 X51.285 Y122.050 E0.01351
G1 X50.863 Y121.960 E0.01351
G1 X50.469 Y121.785 E0.01351
G1 X50.121 Y121.532 E0.01351
G1 X49.832 Y121.212 E0.01351
G1 X49.617 Y120.838 E0.01351
G1 X49.484 Y120.428 E0.01351
G1 X49.443 Y120.039 E0.01227
G1 X49.483 Y119.573 E0.01466
G1 X49.617 Y119.162 E0.01357
G1 X49.832 Y118.788 E0.01351
G1 X50.121 Y118.468 E0.01351
G1 X50.469 Y118.215 E0.01351
G1 X50.863 Y118.040 E0.01351
G1 X51.226 Y117.963 E0.01163
G1 X51.447 Y117.585 F7200.000
G1 F5760
G1 X51.715 Y117.950 E-0.16962
G1 X52.137 Y118.040 E-0.14925
G1 X52.531 Y118.215 E-0.14926
G1 X52.879 Y118.468 E-0.14923
G1 X53.155 Y118.774 E-0.14264
G1 E-0.04000 F2100.00000
G1 Z0.800 F7200.000
G1 X51.226 Y87.804
G1 Z0.200
G1 E0.80000 F2100.00000
G1 F1800
G1 X50.628 Y87.681 E0.01913
G1 X50.091 Y87.442 E0.01844
G1 X49.613 Y87.095 E0.01850
G1 X49.219 Y86.656 E0.01851
G1 X48.924 Y86.147 E0.01846
G1 X48.742 Y85.587 E0.01846
G1 X48.681 Y85.000 E0.01850
G1 X48.742 Y84.413 E0.01850
G1 X48.924 Y83.853 E0.01846
G1 X49.219 Y83.344 E0.01846
G1 X49.613 Y82.905 E0.01851
G1 X50.091 Y82.558 E0.01850
G1 X50.628 Y82.319 E0.01844
G1 X51.205 Y82.196 E0.01847
G1 X51.795 Y82.196 E0.01853
G1 X52.372 Y82.319 E0.01847
G1 X52.909 Y82.558 E0.01844
G1 X53.387 Y82.905 E0.01850
G1 X53.781 Y83.344 E0.01851
G1 X54.076 Y83.853 E0.01846
G1 X54.258 Y84.413 E0.01846
G1 X54.319 Y85.000 E0.01850
G1 X54.258 Y85.587 E0.01850
G1 X54.076 Y86.147 E0.01846
G1 X53.781 Y86.656 E0.01846
G1 X53.387 Y87.095 E0.01851
G1 X52.909 Y87.442 E0.01850
G1 X52.372 Y87.681 E0.01844
G1 X51.795 Y87.804 E0.01847
G1 X51.286 Y87.804 E0.01598
G1 X51.286 Y87.427 F7200.000
G1 F1800
G1 X50.746 Y87.320 E0.01726
G1 X50.280 Y87.113 E0.01597
G1 X49.867 Y86.814 E0.01601
G1 X49.526 Y86.434 E0.01602
G1 X49.271 Y85.992 E0.01598
G1 X49.113 Y85.508 E0.01597
G1 X49.060 Y85.000 E0.01601
G1 X49.113 Y84.492 E0.01601
G1 X49.271 Y84.008 E0.01597
G1 X49.526 Y83.566 E0.01598
G1 X49.867 Y83.186 E0.01602
G1 X50.280 Y82.887 E0.01601
G1 X50.746 Y82.680 E0.01597
G1 X51.244 Y82.573 E0.01599
G1 X51.756 Y82.573 E0.01602
G1 X52.254 Y82.680 E0.01599
G1 X52.720 Y82.887 E0.01597
G1 X53.133 Y83.186 E0.01601
G1 X53.474 Y83.566 E0.01602
G1 X53.729 Y84.008 E0.01598
G1 X53.887 Y84.492 E0.01597
G1 X53.940 Y85.000 E0.01601
G1 X53.887 Y85.508 E0.01601
G1 X53.729 Y85.992 E0.01597
G1 X53.474 Y86.434 E0.01598
G1 X53.133 Y86.814 E0.01602
G1 X52.720 Y87.113 E0.01601
G1 X52.254 Y87.320 E0.01597
G1 X51.756 Y87.427 E0.01599
G1 X51.346 Y87.427 E0.01284
G1 X51.284 Y87.050 F7200.000
G1 F1800
G1 X50.863 Y86.960 E0.01351
G1 X50.470 Y86.785 E0.01350
G1 X50.121 Y86.532 E0.01351
G1 X49.832 Y86.211 E0.01353
G1 X49.617 Y85.838 E0.01351
G1 X49.484 Y85.429 E0.01349
G1 X49.439 Y85.000 E0.01352
G1 X49.484 Y84.571 E0.01352
G1 X49.617 Y84.162 E0.01349
G1 X49.832 Y83.789 E0.01351
G1 X50.121 Y83.468 E0.01353
G1 X50.470 Y83.215 E0.01351
G1 X50.863 Y83.040 E0.01350
G1 X51.284 Y82.950 E0.01351
G1 X51.716 Y82.950 E0.01352
G1 X52.137 Y83.040 E0.01351
G1 X52.530 Y83.215 E0.01350
G1 X52.879 Y83.468 E0.01351
G1 X53.168 Y83.789 E0.01353
G1 X53.383 Y84.162 E0.01351
G1 X53.516 Y84.571 E0.01349
G1 X53.561 Y85.000 E0.01352
G1 X53.516 Y85.429 E0.01352
G1 X53.383 Y85.838 E0.01349
G1 X53.168 Y86.211 E0.01351
G1 X52.879 Y86.532 E0.01353
G1 X52.530 Y86.785 E0.01351
G1 X52.137 Y86.960 E0.01350
G1 X51.716 Y87.050 E0.01351
G1 X51.344 Y87.050 E0.01164
G1 X51.049 Y87.373 F7200.000
G1 F5760
G1 X50.863 Y86.960 E-0.16963
G1 X50.470 Y86.785 E-0.14912
G1 X50.121 Y86.532 E-0.14924
G1 X49.832 Y86.211 E-0.14942
G1 X49.627 Y85.854 E-0.14258
G1 E-0.04000 F2100.00000
G1 Z0.800 F7200.000
G1 X56.946 Y98.036
G1 Z0.200
G1 E0.80000 F2100.00000
G1 F1800
G1 X81.036 Y98.036 E0.75533
G1 X81.036 Y95.123 E0.09133
G1 X86.964 Y95.123 E0.18588
G1 X86.964 Y98.036 E0.09133
G1 X110.974 Y98.036 E0.75282
G1 X110.974 Y100.536 E0.07839
G1 X114.532 Y100.536 E0.11154
G1 X114.532 Y107.464 E0.21723
G1 X110.974 Y107.464 E0.11154
G1 X110.974 Y109.964 E0.07839
G1 X56.946 Y109.964 E1.69402
G1 X56.946 Y107.464 E0.07839
G1 X53.999 Y107.464 E0.09240
G1 X53.999 Y100.536 E0.21723
G1 X56.946 Y100.536 E0.09240
G1 X56.946 Y98.096 E0.07650
G1 X57.323 Y98.413 F7200.000
G1 F1800
G1 X81.413 Y98.413 E0.75533
G1 X81.413 Y95.500 E0.09133
G1 X86.587 Y95.500 E0.16223
G1 X86.587 Y98.413 E0.09133
G1 X110.597 Y98.413 E0.75282
G1 X110.597 Y100.913 E0.07839
G1 X114.155 Y100.913 E0.11154
G1 X114.155 Y107.087 E0.19359
G1 X110.597 Y107.087 E0.11154
G1 X110.597 Y109.587 E0.07839
G1 X57.323 Y109.587 E1.67037
G1 X57.323 Y107.087 E0.07839
G1 X54.376 Y107.087 E0.09240
G1 X54.376 Y100.913 E0.19359
G1 X57.323 Y100.913 E0.09240
G1 X57.323 Y98.473 E0.07650
G1 X57.700 Y98.790 F7200.000
G1 F1800
G1 X81.790 Y98.790 E0.75533
G1 X81.790 Y95.877 E0.09133
G1 X86.210 Y95.877 E0.13859
G1 X86.210 Y98.790 E0.09133
G1 X110.220 Y98.790 E0.75282
G1 X110.220 Y101.290 E0.07839
G1 X113.778 Y101.290 E0.11154
G1 X113.778 Y106.710 E0.16994
G1 X110.220 Y106.710 E0.11154
G1 X110.220 Y109.210 E0.07839
G1 X57.700 Y109.210 E1.64673
G1 X57.700 Y106.710 E0.07839
G1 X54.753 Y106.710 E0.09240
G1 X54.753 Y101.290 E0.16994
G1 X57.700 Y101.290 E0.09240
G1 X57.700 Y98.850 E0.07650
G1 X57.814 Y98.407 F7200.000
G1 F5760
G1 X59.894 Y98.845 E-0.76000
G1 E-0.04000 F2100.00000
G1 Z0.800 F7200.000
G1 X119.536 Y101.536
G1 Z0.200
G1 E0.80000 F2100.00000
G1 F1800
G1 X122.646 Y101.536 E0.09751
G1 X122.646 Y99.036 E0.07839
G1 X129.536 Y99.036 E0.21603
G1 X129.536 Y96.123 E0.09133
G1 X135.464 Y96.123 E0.18588
G1 X135.464 Y99.036 E0.09133
G1 X143.274 Y99.036 E0.24488
G1 X143.274 Y101.536 E0.07839
G1 X146.132 Y101.536 E0.08959
G1 X146.132 Y108.464 E0.21723
G1 X143.274 Y108.464 E0.08959
G1 X143.274 Y110.964 E0.07839
G1 X122.646 Y110.964 E0.64679
G1 X122.646 Y108.464 E0.07839
G1 X119.536 Y108.464 E0.09751
G1 X119.536 Y101.596 E0.21535
G1 X119.913 Y101.913 F7200.000
G1 F1800
G1 X123.023 Y101.913 E0.09751
G1 X123.023 Y99.413 E0.07839
G1 X129.913 Y99.413 E0.21603
G1 X129.913 Y96.500 E0.09133
G1 X135.087 Y96.500 E0.16223
G1 X135.087 Y99.413 E0.09133
G1 X142.897 Y99.413 E0.24488
G1 X142.897 Y101.913 E0.07839
G1 X145.755 Y101.913 E0.08959
G1 X145.755 Y108.087 E0.19359
G1 X142.897 Y108.087 E0.08959
G1 X142.897 Y110.587 E0.07839
G1 X123.023 Y110.587 E0.62314
G1 X123.023 Y108.087 E0.07839
G1 X119.913 Y108.087 E0.09751
G1 X119.913 Y101.973 E0.19171
G1 X120.290 Y102.290 F7200.000
G1 F1800
G1 X123.400 Y102.290 E0.09751
G1 X123.400 Y99.790 E0.07839
G1 X130.290 Y99.790 E0.21603
G1 X130.290 Y96.877 E0.09133
G1 X134.710 Y96.877 E0.13859
G1 X134.710 Y99.790 E0.09133
G1 X142.520 Y99.790 E0.24488
G1 X142.520 Y102.290 E0.07839
G1 X145.377 Y102.290 E0.08959
G1 X145.377 Y107.710 E0.16994
G1 X142.520 Y107.710 E0.08959
G1 X142.520 Y110.210 E0.07839
G1 X123.400 Y110.210 E0.59949
G1 X123.400 Y107.710 E0.07839
G1 X120.290 Y107.710 E0.09751
G1 X120.290 Y102.350 E0.16806
G1 X120.221 Y101.896 F7200.000
G1 F5760
G1 X122.484 Y102.308 E-0.76000
G1 E-0.04000 F2100.00000
G1 Z0.800 F7200.000
G1 X148.924 Y86.147
G1 Z0.200
G1 E0.80000 F2100.00000
G1 F1800
G1 X148.742 Y85.587 E0.01846
G1 X148.681 Y85.000 E0.01850
G1 X148.742 Y84.413 E0.01850
G1 X148.924 Y83.853 E0.01846
G1 X149.219 Y83.344 E0.01846
G1 X149.613 Y82.905 E0.01851
G1 X150.091 Y82.558 E0.01850
G1 X150.628 Y82.319 E0.01844
G1 X151.205 Y82.196 E0.01847
G1 X151.795 Y82.196 E0.01853
G1 X152.372 Y82.319 E0.01847
G1 X152.909 Y82.558 E0.01844
G1 X153.387 Y82.904 E0.01850
G1 X153.782 Y83.344 E0.01853
G1 X154.075 Y83.853 E0.01844
G1 X154.258 Y84.413 E0.01847
G1 X154.319 Y85.000 E0.01850
G1 X154.258 Y85.587 E0.01850
G1 X154.075 Y86.147 E0.01847
G1 X153.782 Y86.656 E0.01844
G1 X153.387 Y87.096 E0.01853
G1 X152.909 Y87.442 E0.01850
G1 X152.372 Y87.681 E0.01844
G1 X151.795 Y87.804 E0.01847
G1 X151.205 Y87.804 E0.01853
G1 X150.628 Y87.681 E0.01847
G1 X150.091 Y87.442 E0.01844
G1 X149.613 Y87.095 E0.01850
G1 X149.219 Y86.656 E0.01851
G1 X148.954 Y86.199 E0.01658
G1 X149.281 Y86.010 F7200.000
G1 F1800
G1 X149.113 Y85.508 E0.01660
G1 X149.060 Y85.000 E0.01601
G1 X149.113 Y84.492 E0.01601
G1 X149.271 Y84.008 E0.01597
G1 X149.526 Y83.566 E0.01598
G1 X149.867 Y83.186 E0.01602
G1 X150.280 Y82.887 E0.01601
G1 X150.746 Y82.680 E0.01597
G1 X151.244 Y82.573 E0.01599
G1 X151.756 Y82.573 E0.01602
G1 X152.254 Y82.680 E0.01599
G1 X152.720 Y82.887 E0.01597
G1 X153.133 Y83.186 E0.01600
G1 X153.475 Y83.566 E0.01603
G1 X153.729 Y84.008 E0.01597
G1 X153.887 Y84.492 E0.01598
G1 X153.940 Y85.000 E0.01601
G1 X153.887 Y85.508 E0.01601
G1 X153.729 Y85.992 E0.01598
G1 X153.475 Y86.434 E0.01597
G1 X153.133 Y86.814 E0.01603
G1 X152.720 Y87.113 E0.01600
G1 X152.254 Y87.320 E0.01597
G1 X151.756 Y87.427 E0.01599
G1 X151.244 Y87.427 E0.01602
G1 X150.746 Y87.320 E0.01599
G1 X150.280 Y87.113 E0.01597
G1 X149.867 Y86.814 E0.01601
G1 X149.526 Y86.434 E0.01602
G1 X149.311 Y86.062 E0.01346
G1 X149.617 Y85.838 F7200.000
G1 F1800
G1 X149.484 Y85.429 E0.01349
G1 X149.439 Y85.000 E0.01352
G1 X149.484 Y84.571 E0.01352
G1 X149.617 Y84.162 E0.01349
G1 X149.832 Y83.789 E0.01351
G1 X150.121 Y83.468 E0.01353
G1 X150.470 Y83.215 E0.01351
G1 X150.863 Y83.040 E0.01350
G1 X151.284 Y82.950 E0.01351
G1 X151.716 Y82.950 E0.01352
G1 X152.137 Y83.040 E0.01351
G1 X152.530 Y83.215 E0.01350
G1 X152.879 Y83.468 E0.01351
G1 X153.168 Y83.789 E0.01353
G1 X153.383 Y84.162 E0.01350
G1 X153.517 Y84.571 E0.01349
G1 X153.561 Y85.000 E0.01352
G1 X153.517 Y85.429 E0.01352
G1 X153.383 Y85.838 E0.01349
G1 X153.168 Y86.211 E0.01350
G1 X152.879 Y86.532 E0.01353
G1 X152.530 Y86.785 E0.01351
G1 X152.137 Y86.960 E0.01350
G1 X151.716 Y87.050 E0.01351
G1 X151.284 Y87.050 E0.01352
G1 X150.863 Y86.960 E0.01351
G1 X150.470 Y86.785 E0.01350
G1 X150.121 Y86.532 E0.01351
G1 X149.832 Y86.211 E0.01353
G1 X149.647 Y85.890 E0.01163
G1 X149.219 Y85.796 F7200.000
G1 F5760
G1 X149.484 Y85.429 E-0.16936
G1 X149.439 Y85.000 E-0.14939
G1 X149.484 Y84.571 E-0.14939
G1 X149.617 Y84.162 E-0.14897
G1 X149.823 Y83.805 E-0.14290
G1 E-0.04000 F2100.00000
G1 Z0.800 F7200.000
G1 X151.205 Y117.196
G1 Z0.200
G1 E0.80000 F2100.00000
G1 F1800
G1 X151.795 Y117.196 E0.01848
G1 X152.371 Y117.318 E0.01848
G1 X152.910 Y117.558 E0.01848
G1 X153.386 Y117.905 E0.01847
G1 X153.781 Y118.343 E0.01850
G1 X154.075 Y118.853 E0.01846
G1 X154.258 Y119.414 E0.01849
G1 X154.319 Y120.000 E0.01848
G1 X154.258 Y120.586 E0.01848
G1 X154.075 Y121.147 E0.01849
G1 X153.781 Y121.657 E0.01846
G1 X153.386 Y122.095 E0.01850
G1 X152.910 Y122.442 E0.01847
G1 X152.371 Y122.682 E0.01848
G1 X151.795 Y122.804 E0.01848
G1 X151.205 Y122.804 E0.01848
G1 X150.629 Y122.682 E0.01848
G1 X150.090 Y122.442 E0.01848
G1 X149.613 Y122.095 E0.01848
G1 X149.219 Y121.657 E0.01848
G1 X148.924 Y121.147 E0.01848
G1 X148.742 Y120.586 E0.01848
G1 X148.685 Y120.046 E0.01703
G1 X148.739 Y119.422 E0.01963
G1 X148.924 Y118.853 E0.01877
G1 X149.219 Y118.343 E0.01848
G1 X149.613 Y117.905 E0.01848
G1 X150.090 Y117.558 E0.01848
G1 X150.629 Y117.318 E0.01848
G1 X151.147 Y117.208 E0.01660
G1 X151.225 Y117.577 F7200.000
G1 F1800
G1 X151.755 Y117.573 E0.01662
G1 X152.254 Y117.679 E0.01600
G1 X152.720 Y117.887 E0.01599
G1 X153.133 Y118.186 E0.01599
G1 X153.475 Y118.566 E0.01601
G1 X153.729 Y119.007 E0.01598
G1 X153.887 Y119.493 E0.01601
G1 X153.940 Y120.000 E0.01599
G1 X153.887 Y120.507 E0.01599
G1 X153.729 Y120.993 E0.01601
G1 X153.475 Y121.434 E0.01598
G1 X153.133 Y121.814 E0.01601
G1 X152.720 Y122.113 E0.01599
G1 X152.254 Y122.321 E0.01599
G1 X151.755 Y122.427 E0.01600
G1 X151.245 Y122.427 E0.01600
G1 X150.746 Y122.321 E0.01600
G1 X150.280 Y122.113 E0.01600
G1 X149.867 Y121.814 E0.01599
G1 X149.526 Y121.434 E0.01600
G1 X149.271 Y120.993 E0.01600
G1 X149.113 Y120.507 E0.01600
G1 X149.064 Y120.043 E0.01465
G1 X149.111 Y119.498 E0.01714
G1 X149.271 Y119.007 E0.01617
G1 X149.526 Y118.566 E0.01600
G1 X149.867 Y118.186 E0.01600
G1 X150.280 Y117.887 E0.01599
G1 X150.746 Y117.679 E0.01600
G1 X151.166 Y117.590 E0.01348
G1 X151.285 Y117.950 F7200.000
G1 F1800
G1 X151.715 Y117.950 E0.01351
G1 X152.137 Y118.040 E0.01351
