; generated by Slic3r Prusa Edition 1.39.2+win64 on 2018-07-24 at 07:06:13

; 

; external perimeters extrusion width = 0.45mm
; perimeters extrusion width = 0.45mm
; infill extrusion width = 0.45mm
; solid infill extrusion width = 0.45mm
; top infill extrusion width = 0.45mm
; first layer extrusion width = 0.42mm

M107
M115 U3.1.0 ; tell printer latest fw version
M83  ; extruder relative mode
M104 S205 ; set extruder temp
M140 S55 ; set bed temp
M190 S55 ; wait for bed temp
M109 S205 ; wait for extruder temp
G28 W ; home all without mesh bed level
G80 ; mesh bed leveling
G1 Y-3.0 F1000.0 ; go outside print area
G92 E0.0
G1 X60.0 E9.0  F1000.0 ; intro line
G1 X100.0 E12.5  F1000.0 ; intro line
G92 E0.0
M900 K30; Filament gcode
G21 ; set units to millimeters
G90 ; use absolute coordinates
M83 ; use relative distances for extrusion
;BEFORE_LAYER_CHANGE
;0.2


G1 E-0.80000 F2100.00000
G1 Z0.600 F7200.000
;AFTER_LAYER_CHANGE
;0.2
G1 X39.160 Y21.191
G1 Z0.200
G1 E0.80000 F2100.00000
M204 S1000
G1 F1800
G1 X39.526 Y20.853 E0.01562
G1 X39.957 Y20.597 E0.01574
G1 X40.433 Y20.437 E0.01574
G1 X40.932 Y20.381 E0.01574
G1 X157.951 Y20.381 E3.66907
G1 X158.617 Y20.477 E0.02107
G1 X159.228 Y20.755 E0.02107
G1 X159.737 Y21.194 E0.02107
G1 X160.105 Y21.760 E0.02119
G1 X184.349 Y77.245 E1.89849
G1 X184.521 Y77.847 E0.01965
G1 X184.546 Y195.205 E3.67965
G1 X184.392 Y196.035 E0.02649
G1 X183.957 Y196.760 E0.02649
G1 X183.594 Y197.095 E0.01550
G1 X183.167 Y197.351 E0.01562
G1 X182.699 Y197.510 E0.01550
G1 X182.204 Y197.570 E0.01562
G1 X130.933 Y197.558 E1.60757
G1 X19.273 Y180.756 E3.54044
G1 X18.634 Y180.562 E0.02095
G1 X18.070 Y180.196 E0.02107
G1 X17.501 Y179.455 E0.02931
G1 X17.262 Y178.551 E0.02931
G1 X15.083 Y130.935 E1.49452
G1 X15.102 Y87.549 E1.36033
G1 X15.223 Y87.054 E0.01598
G1 X38.713 Y21.948 E2.17017
G1 X39.129 Y21.243 E0.02567
G1 F5760
G1 X39.526 Y20.853 E-0.19251
G1 X39.957 Y20.597 E-0.17382
G1 X40.433 Y20.437 E-0.17382
G1 X40.932 Y20.381 E-0.17382
G1 X41.065 Y20.381 E-0.04604
G1 E-0.04000 F2100.00000
G1 Z0.800 F7200.000
G1 X23.929 Y171.602
G1 Z0.200
G1 E0.80000 F2100.00000
G1 F1800
G1 X24.506 Y171.725 E0.01848
G1 X25.044 Y171.965 E0.01848
G1 X25.521 Y172.311 E0.01848
G1 X25.916 Y172.749 E0.01848
G1 X26.216 Y173.270 E0.01885
G1 X26.399 Y173.882 E0.02003
G1 X26.454 Y174.406 E0.01654
G1 X26.392 Y174.992 E0.01848
G1 X26.210 Y175.553 E0.01848
G1 X25.916 Y176.063 E0.01848
G1 X25.521 Y176.501 E0.01848
G1 X25.044 Y176.848 E0.01848
G1 X24.506 Y177.088 E0.01848
G1 X23.929 Y177.210 E0.01848
G1 X23.340 Y177.210 E0.01848
G1 X22.763 Y177.088 E0.01848
G1 X22.225 Y176.848 E0.01848
G1 X21.748 Y176.501 E0.01848
G1 X21.354 Y176.063 E0.01848
G1 X21.059 Y175.553 E0.01848
G1 X20.877 Y174.992 E0.01848
G1 X20.820 Y174.452 E0.01703
G1 X20.874 Y173.829 E0.01963
G1 X21.059 Y173.259 E0.01876
G1 X21.354 Y172.749 E0.01848
G1 X21.748 Y172.311 E0.01848
G1 X22.225 Y171.965 E0.01848
G1 X22.763 Y171.725 E0.01848
G1 X23.340 Y171.602 E0.01848
G1 X23.869 Y171.602 E0.01660
G1 X23.869 Y171.979 F7200.000
G1 F1800
G1 X24.389 Y172.085 E0.01662
G1 X24.855 Y172.293 E0.01600
G1 X25.267 Y172.593 E0.01599
G1 X25.609 Y172.972 E0.01600
G1 X25.868 Y173.420 E0.01622
G1 X26.028 Y173.956 E0.01754
G1 X26.075 Y174.406 E0.01420
G1 X26.022 Y174.914 E0.01599
G1 X25.864 Y175.399 E0.01600
G1 X25.609 Y175.841 E0.01600
G1 X25.267 Y176.220 E0.01600
G1 X24.855 Y176.519 E0.01599
G1 X24.389 Y176.727 E0.01600
G1 X23.890 Y176.833 E0.01600
G1 X23.380 Y176.833 E0.01600
G1 X22.880 Y176.727 E0.01600
G1 X22.414 Y176.519 E0.01600
G1 X22.002 Y176.220 E0.01599
G1 X21.660 Y175.841 E0.01600
G1 X21.405 Y175.399 E0.01600
G1 X21.248 Y174.914 E0.01600
G1 X21.199 Y174.449 E0.01465
G1 X21.246 Y173.904 E0.01714
G1 X21.405 Y173.414 E0.01617
G1 X21.660 Y172.972 E0.01600
G1 X22.002 Y172.593 E0.01600
G1 X22.414 Y172.293 E0.01599
G1 X22.880 Y172.085 E0.01600
G1 X23.380 Y171.979 E0.01600
G1 X23.809 Y171.979 E0.01348
G1 X23.850 Y172.356 F7200.000
G1 F1800
G1 X24.272 Y172.446 E0.01351
G1 X24.665 Y172.621 E0.01351
G1 X25.014 Y172.874 E0.01351
G1 X25.302 Y173.195 E0.01351
G1 X25.519 Y173.570 E0.01359
G1 X25.656 Y174.030 E0.01506
G1 X25.696 Y174.406 E0.01186
G1 X25.651 Y174.835 E0.01351
G1 X25.518 Y175.245 E0.01351
G1 X25.302 Y175.618 E0.01351
G1 X25.014 Y175.938 E0.01351
G1 X24.665 Y176.191 E0.01351
G1 X24.272 Y176.367 E0.01351
G1 X23.850 Y176.456 E0.01351
G1 X23.419 Y176.456 E0.01351
G1 X22.998 Y176.367 E0.01351
G1 X22.604 Y176.191 E0.01351
G1 X22.255 Y175.938 E0.01351
G1 X21.967 Y175.618 E0.01351
G1 X21.752 Y175.245 E0.01351
G1 X21.619 Y174.835 E0.01351
G1 X21.578 Y174.445 E0.01227
G1 X21.618 Y173.980 E0.01466
G1 X21.752 Y173.568 E0.01357
G1 X21.967 Y173.195 E0.01351
G1 X22.255 Y172.874 E0.01351
G1 X22.604 Y172.621 E0.01351
G1 X22.998 Y172.446 E0.01351
G1 X23.419 Y172.356 E0.01351
G1 X23.790 Y172.356 E0.01163
G1 X24.085 Y172.033 F7200.000
G1 F5760
G1 X24.272 Y172.446 E-0.16963
G1 X24.665 Y172.621 E-0.14926
G1 X25.014 Y172.874 E-0.14923
G1 X25.302 Y173.195 E-0.14924
G1 X25.508 Y173.551 E-0.14264
G1 E-0.04000 F2100.00000
G1 Z0.800 F7200.000
G1 X23.930 Y142.210
G1 Z0.200
G1 E0.80000 F2100.00000
G1 F1800
G1 X23.339 Y142.210 E0.01853
G1 X22.763 Y142.087 E0.01847
G1 X22.225 Y141.848 E0.01844
G1 X21.748 Y141.502 E0.01850
G1 X21.353 Y141.063 E0.01851
G1 X21.059 Y140.553 E0.01846
G1 X20.877 Y139.993 E0.01846
G1 X20.815 Y139.406 E0.01850
G1 X20.877 Y138.819 E0.01850
G1 X21.059 Y138.260 E0.01846
G1 X21.353 Y137.750 E0.01846
G1 X21.748 Y137.311 E0.01851
G1 X22.225 Y136.964 E0.01850
G1 X22.763 Y136.725 E0.01844
G1 X23.339 Y136.602 E0.01847
G1 X23.930 Y136.602 E0.01853
G1 X24.506 Y136.725 E0.01847
G1 X25.044 Y136.964 E0.01844
G1 X25.521 Y137.311 E0.01850
G1 X25.916 Y137.750 E0.01851
G1 X26.210 Y138.260 E0.01846
G1 X26.392 Y138.819 E0.01846
G1 X26.454 Y139.406 E0.01850
G1 X26.392 Y139.993 E0.01850
G1 X26.210 Y140.553 E0.01846
G1 X25.916 Y141.063 E0.01846
G1 X25.521 Y141.502 E0.01851
G1 X25.044 Y141.848 E0.01850
G1 X24.506 Y142.087 E0.01844
G1 X23.989 Y142.198 E0.01659
G1 X23.910 Y141.829 F7200.000
G1 F1800
G1 X23.379 Y141.833 E0.01664
G1 X22.880 Y141.726 E0.01599
G1 X22.415 Y141.520 E0.01597
G1 X22.002 Y141.220 E0.01601
G1 X21.660 Y140.840 E0.01602
G1 X21.405 Y140.398 E0.01598
G1 X21.248 Y139.914 E0.01597
G1 X21.194 Y139.406 E0.01601
G1 X21.248 Y138.898 E0.01601
G1 X21.405 Y138.414 E0.01597
G1 X21.660 Y137.973 E0.01598
G1 X22.002 Y137.593 E0.01602
G1 X22.415 Y137.293 E0.01601
G1 X22.880 Y137.086 E0.01597
G1 X23.379 Y136.979 E0.01599
G1 X23.890 Y136.979 E0.01602
G1 X24.389 Y137.086 E0.01599
G1 X24.854 Y137.293 E0.01597
G1 X25.268 Y137.593 E0.01601
G1 X25.609 Y137.973 E0.01602
G1 X25.864 Y138.414 E0.01598
G1 X26.022 Y138.898 E0.01597
G1 X26.075 Y139.406 E0.01601
G1 X26.022 Y139.914 E0.01601
G1 X25.864 Y140.398 E0.01597
G1 X25.609 Y140.840 E0.01598
G1 X25.268 Y141.220 E0.01602
G1 X24.854 Y141.520 E0.01601
G1 X24.389 Y141.726 E0.01597
G1 X23.968 Y141.817 E0.01348
G1 X23.850 Y141.456 F7200.000
G1 F1800
G1 X23.419 Y141.456 E0.01352
G1 X22.998 Y141.366 E0.01351
G1 X22.604 Y141.191 E0.01350
G1 X22.255 Y140.938 E0.01351
G1 X21.967 Y140.617 E0.01353
G1 X21.752 Y140.244 E0.01351
G1 X21.619 Y139.835 E0.01349
G1 X21.573 Y139.406 E0.01352
G1 X21.619 Y138.977 E0.01352
G1 X21.752 Y138.568 E0.01349
G1 X21.967 Y138.195 E0.01351
G1 X22.255 Y137.874 E0.01353
G1 X22.604 Y137.621 E0.01351
G1 X22.998 Y137.446 E0.01350
G1 X23.419 Y137.356 E0.01351
G1 X23.850 Y137.356 E0.01352
G1 X24.272 Y137.446 E0.01351
G1 X24.665 Y137.621 E0.01350
G1 X25.014 Y137.874 E0.01351
G1 X25.302 Y138.195 E0.01353
G1 X25.518 Y138.568 E0.01351
G1 X25.651 Y138.977 E0.01349
G1 X25.696 Y139.406 E0.01352
G1 X25.651 Y139.835 E0.01352
G1 X25.518 Y140.244 E0.01349
G1 X25.302 Y140.617 E0.01351
G1 X25.014 Y140.938 E0.01353
G1 X24.665 Y141.191 E0.01351
G1 X24.272 Y141.366 E0.01350
G1 X23.909 Y141.444 E0.01163
G1 X23.688 Y141.822 F7200.000
G1 F5760
G1 X23.419 Y141.456 E-0.16973
G1 X22.998 Y141.366 E-0.14926
G1 X22.604 Y141.191 E-0.14912
G1 X22.255 Y140.938 E-0.14924
G1 X21.980 Y140.632 E-0.14265
G1 E-0.04000 F2100.00000
G1 Z0.800 F7200.000
G1 X29.080 Y152.442
G1 Z0.200
G1 E0.80000 F2100.00000
G1 F1800
G1 X53.170 Y152.442 E0.75533
G1 X53.170 Y149.529 E0.09133
G1 X59.099 Y149.529 E0.18588
G1 X59.099 Y152.442 E0.09133
G1 X83.109 Y152.442 E0.75282
G1 X83.109 Y154.942 E0.07839
G1 X86.666 Y154.942 E0.11155
G1 X86.666 Y161.870 E0.21723
G1 X83.109 Y161.870 E0.11155
G1 X83.109 Y164.370 E0.07839
G1 X29.080 Y164.370 E1.69402
G1 X29.080 Y161.870 E0.07839
G1 X26.133 Y161.870 E0.09240
G1 X26.133 Y154.942 E0.21723
G1 X29.080 Y154.942 E0.09240
G1 X29.080 Y152.502 E0.07650
G1 X29.458 Y152.819 F7200.000
G1 F1800
G1 X53.548 Y152.819 E0.75533
G1 X53.548 Y149.906 E0.09133
G1 X58.722 Y149.906 E0.16223
G1 X58.722 Y152.819 E0.09133
G1 X82.732 Y152.819 E0.75282
G1 X82.732 Y155.319 E0.07839
G1 X86.289 Y155.319 E0.11155
G1 X86.289 Y161.493 E0.19359
G1 X82.732 Y161.493 E0.11155
G1 X82.732 Y163.993 E0.07839
G1 X29.458 Y163.993 E1.67037
G1 X29.458 Y161.493 E0.07839
G1 X26.510 Y161.493 E0.09240
G1 X26.510 Y155.319 E0.19359
G1 X29.458 Y155.319 E0.09240
G1 X29.458 Y152.879 E0.07650
G1 X29.835 Y153.196 F7200.000
G1 F1800
G1 X53.925 Y153.196 E0.75533
G1 X53.925 Y150.283 E0.09133
G1 X58.345 Y150.283 E0.13859
G1 X58.345 Y153.196 E0.09133
G1 X82.355 Y153.196 E0.75282
G1 X82.355 Y155.696 E0.07839
G1 X85.912 Y155.696 E0.11155
G1 X85.912 Y161.116 E0.16994
G1 X82.355 Y161.116 E0.11155
G1 X82.355 Y163.616 E0.07839
G1 X29.835 Y163.616 E1.64673
G1 X29.835 Y161.116 E0.07839
G1 X26.888 Y161.116 E0.09240
G1 X26.888 Y155.696 E0.16994
G1 X29.835 Y155.696 E0.09240
G1 X29.835 Y153.256 E0.07650
G1 X29.949 Y152.813 F7200.000
G1 F5760
G1 X32.029 Y153.251 E-0.76000
G1 E-0.04000 F2100.00000
G1 Z0.800 F7200.000
G1 X91.670 Y155.942
G1 Z0.200
G1 E0.80000 F2100.00000
G1 F1800
G1 X94.780 Y155.942 E0.09751
G1 X94.780 Y153.442 E0.07839
G1 X101.670 Y153.442 E0.21603
G1 X101.670 Y150.529 E0.09133
G1 X107.599 Y150.529 E0.18588
G1 X107.599 Y153.442 E0.09133
G1 X115.409 Y153.442 E0.24488
G1 X115.409 Y155.942 E0.07839
G1 X118.266 Y155.942 E0.08959
G1 X118.266 Y162.870 E0.21723
G1 X115.409 Y162.870 E0.08959
G1 X115.409 Y165.370 E0.07839
G1 X94.780 Y165.370 E0.64679
G1 X94.780 Y162.870 E0.07839
G1 X91.670 Y162.870 E0.09751
G1 X91.670 Y156.002 E0.21535
G1 X92.048 Y156.319 F7200.000
G1 F1800
G1 X95.158 Y156.319 E0.09751
G1 X95.158 Y153.819 E0.07839
G1 X102.048 Y153.819 E0.21603
G1 X102.048 Y150.906 E0.09133
G1 X107.222 Y150.906 E0.16223
G1 X107.222 Y153.819 E0.09133
G1 X115.032 Y153.819 E0.24488
G1 X115.032 Y156.319 E0.07839
G1 X117.889 Y156.319 E0.08959
G1 X117.889 Y162.493 E0.19359
G1 X115.032 Y162.493 E0.08959
G1 X115.032 Y164.993 E0.07839
G1 X95.158 Y164.993 E0.62314
G1 X95.158 Y162.493 E0.07839
G1 X92.048 Y162.493 E0.09751
G1 X92.048 Y156.379 E0.19171
G1 X92.425 Y156.696 F7200.000
G1 F1800
G1 X95.535 Y156.696 E0.09751
G1 X95.535 Y154.196 E0.07839
G1 X102.425 Y154.196 E0.21603
G1 X102.425 Y151.283 E0.09133
G1 X106.845 Y151.283 E0.13859
G1 X106.845 Y154.196 E0.09133
G1 X114.655 Y154.196 E0.24488
G1 X114.655 Y156.696 E0.07839
G1 X117.512 Y156.696 E0.08959
G1 X117.512 Y162.116 E0.16994
G1 X114.655 Y162.116 E0.08959
G1 X114.655 Y164.616 E0.07839
G1 X95.535 Y164.616 E0.59949
G1 X95.535 Y162.116 E0.07839
G1 X92.425 Y162.116 E0.09751
G1 X92.425 Y156.756 E0.16806
G1 X92.356 Y156.302 F7200.000
G1 F5760
G1 X94.619 Y156.714 E-0.76000
G1 E-0.04000 F2100.00000
G1 Z0.800 F7200.000
G1 X121.059 Y140.553
G1 Z0.200
G1 E0.80000 F2100.00000
G1 F1800
G1 X120.877 Y139.993 E0.01846
G1 X120.815 Y139.406 E0.01850
G1 X120.877 Y138.819 E0.01850
G1 X121.059 Y138.260 E0.01846
G1 X121.353 Y137.750 E0.01846
G1 X121.748 Y137.311 E0.01851
G1 X122.225 Y136.964 E0.01850
G1 X122.763 Y136.725 E0.01844
G1 X123.339 Y136.602 E0.01847
G1 X123.930 Y136.602 E0.01853
G1 X124.506 Y136.725 E0.01847
G1 X125.044 Y136.964 E0.01844
G1 X125.521 Y137.311 E0.01850
G1 X125.916 Y137.750 E0.01853
G1 X126.210 Y138.260 E0.01844
G1 X126.393 Y138.819 E0.01846
G1 X126.454 Y139.406 E0.01850
G1 X126.393 Y139.993 E0.01850
G1 X126.210 Y140.553 E0.01846
G1 X125.916 Y141.062 E0.01844
G1 X125.521 Y141.502 E0.01853
G1 X125.044 Y141.848 E0.01850
G1 X124.506 Y142.087 E0.01844
G1 X123.930 Y142.210 E0.01847
G1 X123.339 Y142.210 E0.01853
G1 X122.763 Y142.087 E0.01847
G1 X122.225 Y141.848 E0.01844
G1 X121.748 Y141.502 E0.01850
G1 X121.353 Y141.063 E0.01851
G1 X121.089 Y140.605 E0.01658
G1 X121.416 Y140.416 F7200.000
G1 F1800
G1 X121.248 Y139.914 E0.01660
G1 X121.194 Y139.406 E0.01601
G1 X121.248 Y138.898 E0.01601
G1 X121.405 Y138.414 E0.01597
G1 X121.660 Y137.972 E0.01598
G1 X122.002 Y137.593 E0.01602
G1 X122.415 Y137.293 E0.01601
G1 X122.880 Y137.086 E0.01597
G1 X123.379 Y136.979 E0.01599
G1 X123.890 Y136.979 E0.01602
G1 X124.389 Y137.086 E0.01599
G1 X124.854 Y137.293 E0.01597
G1 X125.268 Y137.592 E0.01600
G1 X125.609 Y137.973 E0.01603
G1 X125.864 Y138.414 E0.01597
G1 X126.022 Y138.898 E0.01598
G1 X126.075 Y139.406 E0.01601
G1 X126.022 Y139.914 E0.01601
G1 X125.864 Y140.399 E0.01598
G1 X125.609 Y140.840 E0.01597
G1 X125.268 Y141.220 E0.01603
G1 X124.854 Y141.520 E0.01600
G1 X124.389 Y141.726 E0.01597
G1 X123.890 Y141.833 E0.01599
G1 X123.379 Y141.833 E0.01602
G1 X122.880 Y141.726 E0.01599
G1 X122.415 Y141.520 E0.01597
G1 X122.002 Y141.220 E0.01601
G1 X121.660 Y140.840 E0.01602
G1 X121.446 Y140.468 E0.01346
G1 X121.752 Y140.244 F7200.000
G1 F1800
G1 X121.618 Y139.835 E0.01349
G1 X121.573 Y139.406 E0.01352
G1 X121.618 Y138.977 E0.01352
G1 X121.752 Y138.568 E0.01349
G1 X121.967 Y138.195 E0.01351
G1 X122.255 Y137.874 E0.01353
G1 X122.604 Y137.621 E0.01351
G1 X122.998 Y137.446 E0.01350
G1 X123.419 Y137.356 E0.01351
G1 X123.850 Y137.356 E0.01352
G1 X124.272 Y137.446 E0.01351
G1 X124.665 Y137.621 E0.01350
G1 X125.014 Y137.874 E0.01351
G1 X125.303 Y138.195 E0.01353
G1 X125.517 Y138.568 E0.01350
G1 X125.651 Y138.977 E0.01349
G1 X125.696 Y139.406 E0.01352
G1 X125.651 Y139.835 E0.01352
G1 X125.517 Y140.244 E0.01349
G1 X125.303 Y140.617 E0.01350
G1 X125.014 Y140.938 E0.01353
G1 X124.665 Y141.191 E0.01351
G1 X124.272 Y141.366 E0.01350
G1 X123.850 Y141.456 E0.01351
G1 X123.419 Y141.456 E0.01352
G1 X122.998 Y141.366 E0.01351
G1 X122.604 Y141.191 E0.01350
G1 X122.255 Y140.938 E0.01351
G1 X121.967 Y140.617 E0.01353
G1 X121.782 Y140.296 E0.01163
G1 X121.354 Y140.202 F7200.000
G1 F5760
G1 X121.618 Y139.835 E-0.16936
G1 X121.573 Y139.406 E-0.14939
G1 X121.618 Y138.977 E-0.14939
G1 X121.752 Y138.568 E-0.14897
G1 X121.958 Y138.211 E-0.14290
G1 E-0.04000 F2100.00000
G1 Z0.800 F7200.000
G1 X123.340 Y171.602
G1 Z0.200
G1 E0.80000 F2100.00000
G1 F1800
G1 X123.929 Y171.602 E0.01848
G1 X124.506 Y171.725 E0.01849
G1 X125.044 Y171.965 E0.01848
G1 X125.521 Y172.311 E0.01847
G1 X125.916 Y172.749 E0.01850
G1 X126.210 Y173.259 E0.01846
G1 X126.393 Y173.820 E0.01849
G1 X126.454 Y174.406 E0.01848
G1 X126.393 Y174.992 E0.01848
G1 X126.210 Y175.553 E0.01849
G1 X125.916 Y176.063 E0.01846
G1 X125.521 Y176.502 E0.01850
G1 X125.044 Y176.848 E0.01847
G1 X124.506 Y177.088 E0.01848
G1 X123.929 Y177.210 E0.01849
G1 X123.340 Y177.210 E0.01848
G1 X122.763 Y177.088 E0.01849
G1 X122.225 Y176.848 E0.01848
G1 X121.748 Y176.502 E0.01848
G1 X121.354 Y176.064 E0.01848
G1 X121.059 Y175.553 E0.01848
G1 X120.877 Y174.992 E0.01848
G1 X120.820 Y174.452 E0.01703
G1 X120.874 Y173.829 E0.01963
G1 X121.059 Y173.259 E0.01876
G1 X121.354 Y172.749 E0.01848
G1 X121.748 Y172.311 E0.01848
G1 X122.225 Y171.965 E0.01848
G1 X122.763 Y171.725 E0.01848
G1 X123.281 Y171.615 E0.01660
G1 X123.360 Y171.983 F7200.000
G1 F1800
G1 X123.890 Y171.979 E0.01662
G1 X124.389 Y172.085 E0.01600
G1 X124.855 Y172.293 E0.01599
G1 X125.267 Y172.593 E0.01599
G1 X125.609 Y172.972 E0.01601
G1 X125.864 Y173.414 E0.01598
G1 X126.022 Y173.899 E0.01601
G1 X126.075 Y174.406 E0.01599
G1 X126.022 Y174.914 E0.01599
G1 X125.864 Y175.399 E0.01601
G1 X125.609 Y175.841 E0.01598
G1 X125.267 Y176.220 E0.01601
G1 X124.855 Y176.520 E0.01599
G1 X124.389 Y176.727 E0.01599
G1 X123.890 Y176.833 E0.01600
G1 X123.380 Y176.833 E0.01600
G1 X122.880 Y176.727 E0.01600
G1 X122.414 Y176.519 E0.01600
