; generated by Slic3r Prusa Edition 1.39.2+win64 on 2018-05-24 at 13:46:29

; 

; external perimeters extrusion width = 0.45mm
; perimeters extrusion width = 0.45mm
; infill extrusion width = 0.45mm
; solid infill extrusion width = 0.45mm
; top infill extrusion width = 0.45mm
; first layer extrusion width = 0.42mm

M107
M115 U3.1.0 ; tell printer latest fw version
M83  ; extruder relative mode
M104 S205 ; set extruder temp
M140 S55 ; set bed temp
M190 S55 ; wait for bed temp
M109 S205 ; wait for extruder temp
G28 W ; home all without mesh bed level
G80 ; mesh bed leveling
G1 Y-3.0 F1000.0 ; go outside print area
G92 E0.0
G1 X60.0 E9.0  F1000.0 ; intro line
G1 X100.0 E12.5  F1000.0 ; intro line
G92 E0.0
M900 K30; Filament gcode
G21 ; set units to millimeters
G90 ; use absolute coordinates
M83 ; use relative distances for extrusion
;BEFORE_LAYER_CHANGE
;0.2


G1 E-0.80000 F2100.00000
G1 Z0.600 F7200.000
;AFTER_LAYER_CHANGE
;0.2
G1 X92.565 Y72.815
G1 Z0.200
G1 E0.80000 F2100.00000
M204 S1000
G1 F1800
G1 X93.312 Y72.630 E0.02414
G1 X99.504 Y72.623 E0.19413
G1 X100.198 Y72.728 E0.02201
G1 X100.835 Y73.033 E0.02213
G1 X101.351 Y73.509 E0.02201
G1 X101.707 Y74.118 E0.02213
G1 X115.747 Y113.226 E1.30282
G1 X115.877 Y113.962 E0.02343
G1 X115.864 Y120.247 E0.19708
G1 X115.579 Y121.153 E0.02977
G1 X114.959 Y121.877 E0.02989
G1 X100.623 Y132.095 E0.55198
G1 X100.121 Y132.294 E0.01692
G1 X99.588 Y132.375 E0.01692
G1 X93.253 Y132.364 E0.19863
G1 X92.465 Y132.140 E0.02567
G1 X91.801 Y131.662 E0.02567
G1 X91.338 Y130.987 E0.02567
G1 X91.131 Y130.195 E0.02567
G1 X89.125 Y87.980 E1.32512
G1 X89.136 Y81.870 E0.19156
G1 X91.237 Y74.273 E0.24715
G1 X91.507 Y73.704 E0.01977
G1 X91.918 Y73.226 E0.01977
G1 X92.514 Y72.847 E0.02214
G1 F5760
G1 X93.312 Y72.630 E-0.28641
G1 X94.680 Y72.629 E-0.47359
G1 E-0.04000 F2100.00000
G1 Z0.800 F7200.000
G1 X94.464 Y75.964
G1 Z0.200
G1 E0.80000 F2100.00000
G1 F1800
G1 X98.536 Y75.964 E0.12766
G1 X98.536 Y114.964 E1.22282
G1 X112.536 Y114.964 E0.43896
G1 X112.536 Y119.036 E0.12766
G1 X98.536 Y119.036 E0.43896
G1 X98.536 Y129.036 E0.31354
G1 X94.464 Y129.036 E0.12766
G1 X94.464 Y86.918 E1.32056
G1 X92.464 Y86.918 E0.06271
G1 X92.464 Y83.082 E0.12030
G1 X94.464 Y83.082 E0.06271
G1 X94.464 Y76.024 E0.22128
G1 F5760
G1 X96.658 Y75.992 E-0.76000
G1 E-0.04000 F2100.00000
G1 Z0.800 F7200.000
G1 X98.913 Y114.587
G1 Z0.200
G1 E0.80000 F2100.00000
G1 F1800
G1 X112.913 Y114.587 E0.43896
G1 X112.913 Y119.413 E0.15131
G1 X98.913 Y119.413 E0.43896
G1 X98.913 Y129.413 E0.31354
G1 X94.087 Y129.413 E0.15131
G1 X94.087 Y87.295 E1.32056
G1 X92.087 Y87.295 E0.06271
G1 X92.087 Y82.705 E0.14394
G1 X94.087 Y82.705 E0.06271
G1 X94.087 Y75.587 E0.22316
G1 X98.913 Y75.587 E0.15131
G1 X98.913 Y114.527 E1.22094
G1 X99.290 Y114.210 F7200.000
G1 F1800
G1 X113.290 Y114.210 E0.43896
G1 X113.290 Y119.790 E0.17496
G1 X99.290 Y119.790 E0.43896
G1 X99.290 Y129.790 E0.31354
G1 X93.710 Y129.790 E0.17496
G1 X93.710 Y87.673 E1.32056
G1 X91.710 Y87.673 E0.06271
G1 X91.710 Y82.327 E0.16759
G1 X93.710 Y82.327 E0.06271
G1 X93.710 Y75.210 E0.22316
G1 X99.290 Y75.210 E0.17496
G1 X99.290 Y114.150 E1.22094
G1 X99.309 Y114.610 F7200.000
G1 F5760
G1 X101.484 Y114.159 E-0.76000
G1 E-0.04000 F2100.00000
G1 Z0.800 F7200.000
G1 X98.423 Y114.866
G1 Z0.200
G1 E0.80000 F2100.00000
G1 F1800
G1 X94.747 Y111.190 E0.16368
G1 X94.747 Y110.654 E0.01686
G1 X98.253 Y114.160 E0.15613
G1 X98.253 Y113.625 E0.01686
G1 X94.747 Y110.119 E0.15613
G1 X94.747 Y109.583 E0.01686
G1 X98.253 Y113.089 E0.15613
G1 X98.253 Y112.554 E0.01686
G1 X94.747 Y109.048 E0.15613
G1 X94.747 Y108.512 E0.01686
G1 X98.253 Y112.018 E0.15613
G1 X98.253 Y111.483 E0.01686
G1 X94.747 Y107.977 E0.15613
G1 X94.747 Y107.441 E0.01686
G1 X98.253 Y110.947 E0.15613
G1 X98.253 Y110.412 E0.01686
G1 X94.747 Y106.906 E0.15613
G1 X94.747 Y106.370 E0.01686
G1 X98.253 Y109.876 E0.15613
G1 X98.253 Y109.341 E0.01686
G1 X94.747 Y105.835 E0.15613
G1 X94.747 Y105.299 E0.01686
G1 X98.253 Y108.805 E0.15613
G1 X98.253 Y108.270 E0.01686
G1 X94.747 Y104.763 E0.15613
G1 X94.747 Y104.228 E0.01686
G1 X98.253 Y107.734 E0.15613
G1 X98.253 Y107.199 E0.01686
G1 X94.747 Y103.692 E0.15613
G1 X94.747 Y103.157 E0.01686
G1 X98.253 Y106.663 E0.15613
G1 X98.253 Y106.127 E0.01686
G1 X94.747 Y102.621 E0.15613
G1 X94.747 Y102.086 E0.01686
G1 X98.253 Y105.592 E0.15613
G1 X98.253 Y105.056 E0.01686
G1 X94.747 Y101.550 E0.15613
G1 X94.747 Y101.015 E0.01686
G1 X98.253 Y104.521 E0.15613
G1 X98.253 Y103.985 E0.01686
G1 X94.747 Y100.479 E0.15613
G1 X94.747 Y99.944 E0.01686
G1 X98.253 Y103.450 E0.15613
G1 X98.253 Y102.914 E0.01686
G1 X94.747 Y99.408 E0.15613
G1 X94.747 Y98.873 E0.01686
G1 X98.253 Y102.379 E0.15613
G1 X98.253 Y101.843 E0.01686
G1 X94.747 Y98.337 E0.15613
G1 X94.747 Y97.802 E0.01686
G1 X98.253 Y101.308 E0.15613
G1 X98.253 Y100.772 E0.01686
G1 X94.747 Y97.266 E0.15613
G1 X94.747 Y96.731 E0.01686
G1 X98.253 Y100.237 E0.15613
G1 X98.253 Y99.701 E0.01686
G1 X94.747 Y96.195 E0.15613
G1 X94.747 Y95.659 E0.01686
G1 X98.253 Y99.166 E0.15613
G1 X98.253 Y98.630 E0.01686
G1 X94.747 Y95.124 E0.15613
G1 X94.747 Y94.588 E0.01686
G1 X98.253 Y98.094 E0.15613
G1 X98.253 Y97.559 E0.01686
G1 X94.747 Y94.053 E0.15613
G1 X94.747 Y93.517 E0.01686
G1 X98.253 Y97.023 E0.15613
G1 X98.253 Y96.488 E0.01686
G1 X94.747 Y92.982 E0.15613
G1 X94.747 Y92.446 E0.01686
G1 X98.253 Y95.952 E0.15613
G1 X98.253 Y95.417 E0.01686
G1 X94.747 Y91.911 E0.15613
G1 X94.747 Y91.375 E0.01686
G1 X98.253 Y94.881 E0.15613
G1 X98.253 Y94.346 E0.01686
G1 X94.747 Y90.840 E0.15613
G1 X94.747 Y90.304 E0.01686
G1 X98.253 Y93.810 E0.15613
G1 X98.253 Y93.275 E0.01686
G1 X94.747 Y89.769 E0.15613
G1 X94.747 Y89.233 E0.01686
G1 X98.253 Y92.739 E0.15613
G1 X98.253 Y92.204 E0.01686
G1 X94.747 Y88.698 E0.15613
G1 X94.747 Y88.162 E0.01686
G1 X98.253 Y91.668 E0.15613
G1 X98.253 Y91.133 E0.01686
G1 X94.747 Y87.626 E0.15613
G1 X94.747 Y87.091 E0.01686
G1 X98.253 Y90.597 E0.15613
G1 X98.253 Y90.062 E0.01686
G1 X92.747 Y84.555 E0.24519
G1 X92.747 Y84.020 E0.01686
G1 X98.253 Y89.526 E0.24519
G1 X98.253 Y88.990 E0.01686
G1 X92.747 Y83.484 E0.24519
G1 X92.747 Y83.364 E0.00378
G1 X93.163 Y83.364 E0.01309
G1 X98.253 Y88.455 E0.22668
G1 X98.253 Y87.919 E0.01686
G1 X93.698 Y83.364 E0.20283
G1 X94.234 Y83.364 E0.01686
G1 X98.253 Y87.384 E0.17898
G1 X98.253 Y86.848 E0.01686
G1 X94.747 Y83.342 E0.15613
G1 X94.747 Y82.807 E0.01686
G1 X98.253 Y86.313 E0.15613
G1 X98.253 Y85.777 E0.01686
G1 X94.747 Y82.271 E0.15613
G1 X94.747 Y81.736 E0.01686
G1 X98.253 Y85.242 E0.15613
G1 X98.253 Y84.706 E0.01686
G1 X94.747 Y81.200 E0.15613
G1 X94.747 Y80.665 E0.01686
G1 X98.253 Y84.171 E0.15613
G1 X98.253 Y83.635 E0.01686
G1 X94.747 Y80.129 E0.15613
G1 X94.747 Y79.594 E0.01686
G1 X98.253 Y83.100 E0.15613
G1 X98.253 Y82.564 E0.01686
G1 X94.747 Y79.058 E0.15613
G1 X94.747 Y78.522 E0.01686
G1 X98.253 Y82.029 E0.15613
G1 X98.253 Y81.493 E0.01686
G1 X94.747 Y77.987 E0.15613
G1 X94.747 Y77.451 E0.01686
G1 X98.253 Y80.957 E0.15613
G1 X98.253 Y80.422 E0.01686
G1 X94.747 Y76.916 E0.15613
G1 X94.747 Y76.380 E0.01686
G1 X98.253 Y79.886 E0.15613
G1 X98.253 Y79.351 E0.01686
G1 X95.149 Y76.247 E0.13822
G1 X95.685 Y76.247 E0.01686
G1 X98.253 Y78.815 E0.11437
G1 X98.253 Y78.280 E0.01686
G1 X96.220 Y76.247 E0.09052
G1 X96.756 Y76.247 E0.01686
G1 X98.253 Y77.744 E0.06668
G1 X98.253 Y77.209 E0.01686
G1 X97.291 Y76.247 E0.04283
G1 X97.827 Y76.247 E0.01686
G1 X98.423 Y76.843 E0.02654
G1 F5760
G1 X97.827 Y76.247 E-0.29192
G1 X97.291 Y76.247 E-0.18548
G1 X97.868 Y76.824 E-0.28260
G1 E-0.04000 F2100.00000
G1 Z0.800 F7200.000
G1 X94.461 Y86.805
G1 Z0.200
G1 E0.80000 F2100.00000
G1 F1800
G1 X92.747 Y85.091 E0.07634
G1 X92.747 Y85.626 E0.01686
G1 X93.756 Y86.636 E0.04493
G1 X93.220 Y86.636 E0.01686
G1 X92.577 Y85.992 E0.02864
G1 F5760
G1 X93.220 Y86.636 E-0.31507
G1 X93.756 Y86.636 E-0.18548
G1 X93.226 Y86.106 E-0.25945
G1 E-0.04000 F2100.00000
G1 Z0.800 F7200.000
G1 X112.423 Y115.477
G1 Z0.200
G1 E0.80000 F2100.00000
G1 F1800
G1 X112.192 Y115.247 E0.01026
G1 X111.657 Y115.247 E0.01686
G1 X112.253 Y115.843 E0.02655
G1 X112.253 Y116.379 E0.01686
G1 X111.121 Y115.247 E0.05040
G1 X110.586 Y115.247 E0.01686
G1 X112.253 Y116.914 E0.07425
G1 X112.253 Y117.450 E0.01686
G1 X110.050 Y115.247 E0.09809
G1 X109.515 Y115.247 E0.01686
G1 X112.253 Y117.985 E0.12194
G1 X112.253 Y118.521 E0.01686
G1 X108.979 Y115.247 E0.14579
G1 X108.444 Y115.247 E0.01686
G1 X111.950 Y118.753 E0.15613
G1 X111.414 Y118.753 E0.01686
G1 X107.908 Y115.247 E0.15613
G1 X107.373 Y115.247 E0.01686
G1 X110.879 Y118.753 E0.15613
G1 X110.343 Y118.753 E0.01686
G1 X106.837 Y115.247 E0.15613
G1 X106.301 Y115.247 E0.01686
G1 X109.808 Y118.753 E0.15613
G1 X109.272 Y118.753 E0.01686
G1 X105.766 Y115.247 E0.15613
G1 X105.230 Y115.247 E0.01686
G1 X108.737 Y118.753 E0.15613
G1 X108.201 Y118.753 E0.01686
G1 X104.695 Y115.247 E0.15613
G1 X104.159 Y115.247 E0.01686
G1 X107.665 Y118.753 E0.15613
G1 X107.130 Y118.753 E0.01686
G1 X103.624 Y115.247 E0.15613
G1 X103.088 Y115.247 E0.01686
G1 X106.594 Y118.753 E0.15613
G1 X106.059 Y118.753 E0.01686
G1 X102.553 Y115.247 E0.15613
G1 X102.017 Y115.247 E0.01686
G1 X105.523 Y118.753 E0.15613
G1 X104.988 Y118.753 E0.01686
G1 X101.482 Y115.247 E0.15613
G1 X100.946 Y115.247 E0.01686
G1 X104.452 Y118.753 E0.15613
G1 X103.917 Y118.753 E0.01686
G1 X100.411 Y115.247 E0.15613
G1 X99.875 Y115.247 E0.01686
G1 X103.381 Y118.753 E0.15613
G1 X102.846 Y118.753 E0.01686
G1 X99.340 Y115.247 E0.15613
G1 X98.804 Y115.247 E0.01686
G1 X102.310 Y118.753 E0.15613
G1 X101.775 Y118.753 E0.01686
G1 X94.747 Y111.725 E0.31294
G1 X94.747 Y112.261 E0.01686
G1 X101.239 Y118.753 E0.28909
G1 X100.704 Y118.753 E0.01686
G1 X94.747 Y112.796 E0.26524
G1 X94.747 Y113.332 E0.01686
G1 X100.168 Y118.753 E0.24140
G1 X99.632 Y118.753 E0.01686
G1 X94.747 Y113.868 E0.21755
G1 X94.747 Y114.403 E0.01686
G1 X99.097 Y118.753 E0.19370
G1 X98.561 Y118.753 E0.01686
G1 X94.747 Y114.939 E0.16986
G1 X94.747 Y115.474 E0.01686
G1 X98.253 Y118.980 E0.15613
G1 X98.253 Y119.516 E0.01686
G1 X94.747 Y116.010 E0.15613
G1 X94.747 Y116.545 E0.01686
G1 X98.253 Y120.051 E0.15613
G1 X98.253 Y120.587 E0.01686
G1 X94.747 Y117.081 E0.15613
G1 X94.747 Y117.616 E0.01686
G1 X98.253 Y121.122 E0.15613
G1 X98.253 Y121.658 E0.01686
G1 X94.747 Y118.152 E0.15613
G1 X94.747 Y118.687 E0.01686
G1 X98.253 Y122.193 E0.15613
G1 X98.253 Y122.729 E0.01686
G1 X94.747 Y119.223 E0.15613
G1 X94.747 Y119.758 E0.01686
G1 X98.253 Y123.264 E0.15613
G1 X98.253 Y123.800 E0.01686
G1 X94.747 Y120.294 E0.15613
G1 X94.747 Y120.829 E0.01686
G1 X98.253 Y124.336 E0.15613
G1 X98.253 Y124.871 E0.01686
G1 X94.747 Y121.365 E0.15613
G1 X94.747 Y121.900 E0.01686
G1 X98.253 Y125.407 E0.15613
G1 X98.253 Y125.942 E0.01686
G1 X94.747 Y122.436 E0.15613
G1 X94.747 Y122.972 E0.01686
G1 X98.253 Y126.478 E0.15613
G1 X98.253 Y127.013 E0.01686
G1 X94.747 Y123.507 E0.15613
G1 X94.747 Y124.043 E0.01686
G1 X98.253 Y127.549 E0.15613
G1 X98.253 Y128.084 E0.01686
G1 X94.747 Y124.578 E0.15613
G1 X94.747 Y125.114 E0.01686
G1 X98.253 Y128.620 E0.15613
G1 X98.253 Y128.753 E0.00420
G1 X97.851 Y128.753 E0.01267
G1 X94.747 Y125.649 E0.13821
G1 X94.747 Y126.185 E0.01686
G1 X97.315 Y128.753 E0.11437
G1 X96.780 Y128.753 E0.01686
G1 X94.747 Y126.720 E0.09052
G1 X94.747 Y127.256 E0.01686
G1 X96.244 Y128.753 E0.06667
G1 X95.709 Y128.753 E0.01686
G1 X94.747 Y127.791 E0.04282
G1 X94.747 Y128.327 E0.01686
G1 X95.343 Y128.923 E0.02653
M106 S247.35
;BEFORE_LAYER_CHANGE
;0.35


G1 F5760
G1 X94.747 Y128.327 E-0.29187
G1 X94.747 Y127.791 E-0.18548
G1 X95.324 Y128.368 E-0.28265
G1 E-0.04000 F2100.00000
G1 Z0.800 F7200.000
;AFTER_LAYER_CHANGE
;0.35
G1 X92.465 Y132.140
G1 Z0.350
G1 E0.80000 F2100.00000
G1 F3000
G1 X91.801 Y131.662 E0.01980
G1 X91.338 Y130.987 E0.01980
G1 X91.131 Y130.195 E0.01980
G1 X89.125 Y87.980 E1.02212
G1 X89.136 Y81.870 E0.14776
G1 X91.237 Y74.273 E0.19064
G1 X91.507 Y73.704 E0.01525
G1 X91.918 Y73.226 E0.01525
G1 X92.565 Y72.815 E0.01853
G1 X93.312 Y72.630 E0.01862
G1 X99.504 Y72.623 E0.14974
G1 X100.198 Y72.728 E0.01698
G1 X100.835 Y73.033 E0.01707
G1 X101.351 Y73.509 E0.01698
G1 X101.707 Y74.118 E0.01707
G1 X115.747 Y113.226 E1.00492
G1 X115.877 Y113.962 E0.01807
G1 X115.864 Y120.247 E0.15202
G1 X115.579 Y121.153 E0.02297
G1 X114.959 Y121.877 E0.02306
G1 X100.623 Y132.095 E0.42576
G1 X100.121 Y132.294 E0.01305
G1 X99.588 Y132.375 E0.01305
G1 X93.253 Y132.364 E0.15321
G1 X92.523 Y132.157 E0.01835
G1 F5760
G1 X91.801 Y131.662 E-0.30317
G1 X91.338 Y130.987 E-0.28354
G1 X91.211 Y130.503 E-0.17329
G1 E-0.04000 F2100.00000
G1 Z0.950 F7200.000
G1 X94.561 Y128.939
G1 Z0.350
G1 E0.80000 F2100.00000
M204 S800
G1 F3000
G1 X94.561 Y86.822 E1.09740
G1 X92.561 Y86.822 E0.05211
G1 X92.561 Y83.178 E0.09494
G1 X94.561 Y83.178 E0.05211
G1 X94.561 Y76.061 E0.18545
G1 X98.439 Y76.061 E0.10106
G1 X98.439 Y115.061 E1.01617
G1 X112.439 Y115.061 E0.36478
G1 X112.439 Y118.939 E0.10106
G1 X98.439 Y118.939 E0.36478
G1 X98.439 Y128.939 E0.26056
G1 X94.621 Y128.939 E0.09950
M204 S1000
G1 F5760
G1 X94.617 Y126.745 E-0.76000
G1 E-0.04000 F2100.00000
G1 Z0.950 F7200.000
G1 X98.857 Y114.643
G1 Z0.350
G1 E0.80000 F2100.00000
M204 S800
G1 F3000
G1 X112.857 Y114.643 E0.36478
G1 X112.857 Y119.357 E0.12284
G1 X98.857 Y119.357 E0.36478
G1 X98.857 Y129.357 E0.26056
G1 X94.143 Y129.357 E0.12284
G1 X94.143 Y87.240 E1.09740
G1 X92.143 Y87.240 E0.05211
G1 X92.143 Y82.760 E0.11671
G1 X94.143 Y82.760 E0.05211
G1 X94.143 Y75.643 E0.18545
G1 X98.857 Y75.643 E0.12284
G1 X98.857 Y114.583 E1.01461
M204 S1000
G1 X99.275 Y114.225 F7200.000
M204 S800
G1 F2400
G1 X113.275 Y114.225 E0.36478
G1 X113.275 Y119.775 E0.14461
G1 X99.275 Y119.775 E0.36478
G1 X99.275 Y129.775 E0.26056
G1 X93.725 Y129.775 E0.14461
G1 X93.725 Y87.658 E1.09740
G1 X91.725 Y87.658 E0.05211
G1 X91.725 Y82.342 E0.13849
G1 X93.725 Y82.342 E0.05211
G1 X93.725 Y75.225 E0.18545
G1 X99.275 Y75.225 E0.14461
G1 X99.275 Y114.165 E1.01461
M204 S1000
G1 X99.294 Y114.625 F7200.000
G1 F5760
G1 X101.469 Y114.174 E-0.76000
G1 E-0.04000 F2100.00000
G1 Z0.950 F7200.000
G1 X94.686 Y121.399
G1 Z0.350
G1 E0.80000 F2100.00000
M204 S2000
G1 F3000
G1 X100.711 Y115.374 E0.22227
G1 X100.119 Y115.374 E0.01543
G1 X94.874 Y120.619 E0.19351
G1 X94.874 Y120.028 E0.01543
G1 X99.528 Y115.374 E0.17169
G1 X98.936 Y115.374 E0.01543
G1 X94.874 Y119.436 E0.14986
G1 X94.874 Y118.845 E0.01543
G1 X98.345 Y115.374 E0.12804
G1 X98.126 Y115.374 E0.00570
G1 X98.126 Y115.001 E0.00973
G1 X94.874 Y118.253 E0.11997
G1 X94.874 Y117.662 E0.01543
G1 X98.126 Y114.409 E0.11997
G1 X98.126 Y113.818 E0.01543
G1 X94.874 Y117.070 E0.11997
G1 X94.874 Y116.478 E0.01543
G1 X98.126 Y113.226 E0.11997
G1 X98.126 Y112.635 E0.01543
G1 X94.874 Y115.887 E0.11997
G1 X94.874 Y115.295 E0.01543
G1 X98.126 Y112.043 E0.11997
G1 X98.126 Y111.452 E0.01543
G1 X94.874 Y114.704 E0.11997
G1 X94.874 Y114.112 E0.01543
G1 X98.126 Y110.860 E0.11997
G1 X98.126 Y110.268 E0.01543
G1 X94.874 Y113.521 E0.11997
G1 X94.874 Y112.929 E0.01543
G1 X98.126 Y109.677 E0.11997
G1 X98.126 Y109.085 E0.01543
G1 X94.874 Y112.337 E0.11997
G1 X94.874 Y111.746 E0.01543
G1 X98.126 Y108.494 E0.11997
G1 X98.126 Y107.902 E0.01543
G1 X94.874 Y111.154 E0.11997
G1 X94.874 Y110.563 E0.01543
G1 X98.126 Y107.311 E0.11997
G1 X98.126 Y106.719 E0.01543
G1 X94.874 Y109.971 E0.11997
G1 X94.874 Y109.380 E0.01543
G1 X98.126 Y106.128 E0.11997
G1 X98.126 Y105.536 E0.01543
G1 X94.874 Y108.788 E0.11997
G1 X94.874 Y108.196 E0.01543
G1 X98.126 Y104.944 E0.11997
G1 X98.126 Y104.353 E0.01543
G1 X94.874 Y107.605 E0.11997
G1 X94.874 Y107.013 E0.01543
G1 X98.126 Y103.761 E0.11997
G1 X98.126 Y103.170 E0.01543
G1 X94.874 Y106.422 E0.11997
G1 X94.874 Y105.830 E0.01543
G1 X98.126 Y102.578 E0.11997
G1 X98.126 Y101.987 E0.01543
G1 X94.874 Y105.239 E0.11997
G1 X94.874 Y104.647 E0.01543
G1 X98.126 Y101.395 E0.11997
G1 X98.126 Y100.803 E0.01543
G1 X94.874 Y104.056 E0.11997
G1 X94.874 Y103.464 E0.01543
G1 X98.126 Y100.212 E0.11997
G1 X98.126 Y99.620 E0.01543
G1 X94.874 Y102.872 E0.11997
G1 X94.874 Y102.281 E0.01543
G1 X98.126 Y99.029 E0.11997
G1 X98.126 Y98.437 E0.01543
G1 X94.874 Y101.689 E0.11997
