; generated by Slic3r Prusa Edition 1.39.2+win64 on 2018-05-30 at 07:44:12

; 

; external perimeters extrusion width = 0.45mm
; perimeters extrusion width = 0.45mm
; infill extrusion width = 0.45mm
; solid infill extrusion width = 0.45mm
; top infill extrusion width = 0.45mm
; first layer extrusion width = 0.42mm

M107
M115 U3.1.0 ; tell printer latest fw version
M83  ; extruder relative mode
M104 S205 ; set extruder temp
M140 S55 ; set bed temp
M190 S55 ; wait for bed temp
M109 S205 ; wait for extruder temp
G28 W ; home all without mesh bed level
G80 ; mesh bed leveling
G1 Y-3.0 F1000.0 ; go outside print area
G92 E0.0
G1 X60.0 E9.0  F1000.0 ; intro line
G1 X100.0 E12.5  F1000.0 ; intro line
G92 E0.0
M900 K30; Filament gcode
G21 ; set units to millimeters
G90 ; use absolute coordinates
M83 ; use relative distances for extrusion
;BEFORE_LAYER_CHANGE
;0.2


G1 E-0.80000 F2100.00000
G1 Z0.600 F7200.000
;AFTER_LAYER_CHANGE
;0.2
G1 X47.086 Y78.806
G1 Z0.200
G1 E0.80000 F2100.00000
M204 S1000
G1 F1800
G1 X47.995 Y78.623 E0.02907
G1 X157.004 Y78.623 E3.41789
G1 X157.899 Y78.799 E0.02860
G1 X158.664 Y79.303 E0.02872
G1 X159.182 Y80.058 E0.02872
G1 X159.377 Y80.953 E0.02872
G1 X159.376 Y124.076 E1.35209
G1 X159.258 Y124.742 E0.02119
G1 X158.956 Y125.350 E0.02130
G1 X158.494 Y125.849 E0.02130
G1 X157.914 Y126.194 E0.02119
G1 X157.005 Y126.377 E0.02907
G1 X47.973 Y126.377 E3.41861
G1 X47.291 Y126.269 E0.02166
G1 X46.672 Y125.971 E0.02154
G1 X46.161 Y125.506 E0.02166
G1 X45.806 Y124.914 E0.02166
G1 X45.623 Y124.009 E0.02896
G1 X45.624 Y80.935 E1.35054
G1 X45.739 Y80.266 E0.02130
G1 X46.039 Y79.656 E0.02130
G1 X46.503 Y79.154 E0.02142
G1 X47.035 Y78.836 E0.01942
G1 F5760
G1 X47.995 Y78.623 E-0.34081
G1 X49.205 Y78.623 E-0.41919
G1 E-0.04000 F2100.00000
G1 Z0.800 F7200.000
G1 X101.083 Y118.299
G1 Z0.200
G1 E0.80000 F2100.00000
G1 F1800
G1 X101.415 Y117.931 E0.01553
G1 X101.815 Y117.640 E0.01553
G1 X102.268 Y117.438 E0.01553
G1 X102.752 Y117.336 E0.01553
G1 X103.248 Y117.336 E0.01552
G1 X103.732 Y117.438 E0.01553
G1 X104.185 Y117.640 E0.01553
G1 X104.586 Y117.931 E0.01553
G1 X104.917 Y118.299 E0.01553
G1 X105.165 Y118.728 E0.01553
G1 X105.318 Y119.199 E0.01553
G1 X105.369 Y119.692 E0.01553
G1 X105.318 Y120.185 E0.01553
G1 X105.165 Y120.656 E0.01553
G1 X104.917 Y121.085 E0.01553
G1 X104.586 Y121.453 E0.01553
G1 X104.185 Y121.744 E0.01553
G1 X103.732 Y121.946 E0.01553
G1 X103.248 Y122.048 E0.01553
G1 X102.752 Y122.048 E0.01552
G1 X102.268 Y121.946 E0.01553
G1 X101.815 Y121.744 E0.01553
G1 X101.415 Y121.453 E0.01553
G1 X101.083 Y121.085 E0.01553
G1 X100.835 Y120.656 E0.01553
G1 X100.682 Y120.185 E0.01553
G1 X100.631 Y119.692 E0.01553
G1 X100.682 Y119.199 E0.01553
G1 X100.835 Y118.728 E0.01553
G1 X101.053 Y118.351 E0.01365
G1 X101.380 Y118.540 F7200.000
G1 F1800
G1 X101.668 Y118.213 E0.01367
G1 X102.005 Y117.968 E0.01305
G1 X102.385 Y117.799 E0.01305
G1 X102.792 Y117.713 E0.01305
G1 X103.208 Y117.713 E0.01304
G1 X103.615 Y117.799 E0.01305
G1 X103.995 Y117.968 E0.01305
G1 X104.332 Y118.213 E0.01305
G1 X104.610 Y118.522 E0.01305
G1 X104.818 Y118.882 E0.01305
G1 X104.947 Y119.278 E0.01305
G1 X104.990 Y119.692 E0.01305
G1 X104.947 Y120.106 E0.01305
G1 X104.818 Y120.502 E0.01305
G1 X104.610 Y120.862 E0.01305
G1 X104.332 Y121.171 E0.01305
G1 X103.995 Y121.416 E0.01305
G1 X103.615 Y121.585 E0.01305
G1 X103.208 Y121.671 E0.01305
G1 X102.792 Y121.671 E0.01304
G1 X102.385 Y121.585 E0.01305
G1 X102.005 Y121.416 E0.01305
G1 X101.668 Y121.171 E0.01305
G1 X101.390 Y120.862 E0.01305
G1 X101.182 Y120.502 E0.01305
G1 X101.053 Y120.106 E0.01305
G1 X101.010 Y119.692 E0.01305
G1 X101.053 Y119.278 E0.01305
G1 X101.182 Y118.882 E0.01305
G1 X101.350 Y118.592 E0.01053
G1 X101.697 Y118.745 F7200.000
G1 F1800
G1 X101.922 Y118.495 E0.01056
G1 X102.194 Y118.297 E0.01056
G1 X102.502 Y118.160 E0.01056
G1 X102.832 Y118.090 E0.01056
G1 X103.168 Y118.090 E0.01056
G1 X103.498 Y118.160 E0.01056
G1 X103.806 Y118.297 E0.01056
G1 X104.078 Y118.495 E0.01056
G1 X104.303 Y118.745 E0.01056
G1 X104.472 Y119.037 E0.01056
G1 X104.576 Y119.357 E0.01056
G1 X104.611 Y119.692 E0.01056
G1 X104.576 Y120.027 E0.01056
G1 X104.472 Y120.347 E0.01056
G1 X104.303 Y120.639 E0.01056
G1 X104.078 Y120.889 E0.01056
G1 X103.806 Y121.087 E0.01056
G1 X103.498 Y121.224 E0.01056
G1 X103.168 Y121.294 E0.01056
G1 X102.832 Y121.294 E0.01056
G1 X102.502 Y121.224 E0.01056
G1 X102.194 Y121.087 E0.01056
G1 X101.922 Y120.889 E0.01056
G1 X101.697 Y120.639 E0.01056
G1 X101.528 Y120.347 E0.01056
G1 X101.424 Y120.027 E0.01056
G1 X101.389 Y119.692 E0.01056
G1 X101.424 Y119.357 E0.01056
G1 X101.528 Y119.037 E0.01056
G1 X101.667 Y118.797 E0.00868
G1 X101.560 Y118.437 F7200.000
G1 F5760
G1 X101.922 Y118.495 E-0.13705
G1 X102.194 Y118.297 E-0.11666
G1 X102.502 Y118.160 E-0.11668
G1 X102.832 Y118.090 E-0.11667
G1 X103.168 Y118.090 E-0.11662
G1 X103.498 Y118.160 E-0.11667
G1 X103.602 Y118.206 E-0.03967
G1 E-0.04000 F2100.00000
G1 Z0.800 F7200.000
G1 X102.969 Y111.620
G1 Z0.200
G1 E0.80000 F2100.00000
G1 F1800
G1 X102.311 Y111.480 E0.02110
G1 X101.696 Y111.206 E0.02110
G1 X101.152 Y110.811 E0.02110
G1 X100.701 Y110.310 E0.02110
G1 X100.365 Y109.727 E0.02110
G1 X100.157 Y109.087 E0.02110
G1 X100.087 Y108.418 E0.02110
G1 X100.157 Y107.749 E0.02110
G1 X100.366 Y107.105 E0.02121
G1 X100.714 Y106.512 E0.02159
G1 X101.152 Y106.025 E0.02051
G1 X101.696 Y105.630 E0.02110
G1 X102.311 Y105.356 E0.02110
G1 X102.969 Y105.216 E0.02110
G1 X103.643 Y105.216 E0.02110
G1 X104.301 Y105.356 E0.02110
G1 X104.916 Y105.630 E0.02110
G1 X105.460 Y106.025 E0.02110
G1 X105.911 Y106.526 E0.02110
G1 X106.247 Y107.109 E0.02110
G1 X106.455 Y107.749 E0.02110
G1 X106.525 Y108.418 E0.02110
G1 X106.455 Y109.087 E0.02110
G1 X106.246 Y109.731 E0.02121
G1 X105.898 Y110.324 E0.02159
G1 X105.460 Y110.811 E0.02051
G1 X104.916 Y111.206 E0.02110
G1 X104.301 Y111.480 E0.02110
G1 X103.643 Y111.620 E0.02110
G1 X103.029 Y111.620 E0.01922
G1 X103.029 Y111.243 F7200.000
G1 F1800
G1 X102.428 Y111.119 E0.01924
G1 X101.886 Y110.878 E0.01862
G1 X101.405 Y110.529 E0.01862
G1 X101.008 Y110.088 E0.01862
G1 X100.711 Y109.573 E0.01862
G1 X100.528 Y109.009 E0.01862
G1 X100.466 Y108.418 E0.01862
G1 X100.528 Y107.827 E0.01862
G1 X100.712 Y107.261 E0.01868
G1 X101.020 Y106.735 E0.01910
G1 X101.405 Y106.307 E0.01806
G1 X101.886 Y105.958 E0.01862
G1 X102.428 Y105.717 E0.01862
G1 X103.009 Y105.593 E0.01862
G1 X103.603 Y105.593 E0.01862
G1 X104.184 Y105.717 E0.01862
G1 X104.726 Y105.958 E0.01862
G1 X105.207 Y106.307 E0.01862
G1 X105.604 Y106.748 E0.01862
G1 X105.901 Y107.263 E0.01862
G1 X106.084 Y107.827 E0.01862
G1 X106.146 Y108.418 E0.01862
G1 X106.084 Y109.009 E0.01862
G1 X105.900 Y109.575 E0.01868
G1 X105.592 Y110.101 E0.01910
G1 X105.207 Y110.529 E0.01806
G1 X104.726 Y110.878 E0.01862
G1 X104.184 Y111.119 E0.01862
G1 X103.603 Y111.243 E0.01862
G1 X103.089 Y111.243 E0.01610
G1 X103.089 Y110.866 F7200.000
G1 F1800
G1 X102.545 Y110.759 E0.01738
G1 X102.075 Y110.549 E0.01613
G1 X101.659 Y110.247 E0.01613
G1 X101.315 Y109.865 E0.01613
G1 X101.058 Y109.419 E0.01613
G1 X100.899 Y108.930 E0.01613
G1 X100.845 Y108.418 E0.01613
G1 X100.899 Y107.906 E0.01613
G1 X101.058 Y107.416 E0.01616
G1 X101.326 Y106.959 E0.01661
G1 X101.659 Y106.589 E0.01562
G1 X102.075 Y106.287 E0.01613
G1 X102.545 Y106.077 E0.01613
G1 X103.049 Y105.970 E0.01613
G1 X103.563 Y105.970 E0.01613
G1 X104.067 Y106.077 E0.01613
G1 X104.537 Y106.287 E0.01613
G1 X104.953 Y106.589 E0.01613
G1 X105.297 Y106.971 E0.01613
G1 X105.554 Y107.417 E0.01613
G1 X105.713 Y107.906 E0.01613
G1 X105.767 Y108.418 E0.01613
G1 X105.713 Y108.930 E0.01613
G1 X105.554 Y109.420 E0.01616
G1 X105.286 Y109.877 E0.01661
G1 X104.953 Y110.247 E0.01562
G1 X104.537 Y110.549 E0.01613
G1 X104.067 Y110.759 E0.01613
G1 X103.563 Y110.866 E0.01613
G1 X103.149 Y110.866 E0.01297
G1 X102.858 Y111.192 F7200.000
G1 F5760
G1 X102.545 Y110.759 E-0.21246
G1 X102.075 Y110.549 E-0.17820
G1 X101.659 Y110.247 E-0.17820
G1 X101.315 Y109.865 E-0.17822
G1 X101.296 Y109.832 E-0.01292
G1 E-0.04000 F2100.00000
G1 Z0.800 F7200.000
G1 X102.969 Y97.620
G1 Z0.200
G1 E0.80000 F2100.00000
G1 F1800
G1 X102.311 Y97.480 E0.02110
G1 X101.696 Y97.206 E0.02110
G1 X101.152 Y96.811 E0.02110
G1 X100.701 Y96.310 E0.02110
G1 X100.365 Y95.727 E0.02111
G1 X100.157 Y95.087 E0.02110
G1 X100.087 Y94.418 E0.02110
G1 X100.157 Y93.749 E0.02110
G1 X100.366 Y93.105 E0.02120
G1 X100.714 Y92.512 E0.02159
G1 X101.152 Y92.025 E0.02051
G1 X101.696 Y91.630 E0.02110
G1 X102.311 Y91.356 E0.02110
G1 X102.969 Y91.216 E0.02110
G1 X103.643 Y91.216 E0.02110
G1 X104.301 Y91.356 E0.02110
G1 X104.916 Y91.630 E0.02110
G1 X105.460 Y92.025 E0.02110
G1 X105.911 Y92.526 E0.02110
G1 X106.247 Y93.109 E0.02111
G1 X106.455 Y93.749 E0.02110
G1 X106.525 Y94.418 E0.02110
G1 X106.455 Y95.087 E0.02110
G1 X106.247 Y95.727 E0.02110
G1 X105.911 Y96.310 E0.02111
G1 X105.460 Y96.811 E0.02110
G1 X104.916 Y97.206 E0.02110
G1 X104.301 Y97.480 E0.02110
G1 X103.643 Y97.620 E0.02110
G1 X103.029 Y97.620 E0.01922
G1 X103.029 Y97.243 F7200.000
G1 F1800
G1 X102.428 Y97.119 E0.01924
G1 X101.886 Y96.878 E0.01862
G1 X101.406 Y96.529 E0.01862
G1 X101.008 Y96.088 E0.01862
G1 X100.711 Y95.573 E0.01862
G1 X100.528 Y95.009 E0.01862
G1 X100.466 Y94.418 E0.01862
G1 X100.528 Y93.827 E0.01862
G1 X100.712 Y93.261 E0.01868
G1 X101.020 Y92.735 E0.01910
G1 X101.406 Y92.307 E0.01806
G1 X101.886 Y91.958 E0.01862
G1 X102.428 Y91.717 E0.01862
G1 X103.009 Y91.593 E0.01862
G1 X103.603 Y91.593 E0.01862
G1 X104.184 Y91.717 E0.01862
G1 X104.726 Y91.958 E0.01862
G1 X105.206 Y92.307 E0.01862
G1 X105.604 Y92.748 E0.01862
G1 X105.901 Y93.263 E0.01862
G1 X106.084 Y93.827 E0.01862
G1 X106.146 Y94.418 E0.01862
G1 X106.084 Y95.009 E0.01862
G1 X105.901 Y95.573 E0.01862
G1 X105.604 Y96.088 E0.01862
G1 X105.206 Y96.529 E0.01862
G1 X104.726 Y96.878 E0.01862
G1 X104.184 Y97.119 E0.01862
G1 X103.603 Y97.243 E0.01862
G1 X103.089 Y97.243 E0.01610
G1 X103.089 Y96.866 F7200.000
G1 F1800
G1 X102.545 Y96.759 E0.01738
G1 X102.075 Y96.549 E0.01613
G1 X101.659 Y96.247 E0.01613
G1 X101.315 Y95.865 E0.01613
G1 X101.058 Y95.419 E0.01613
G1 X100.899 Y94.930 E0.01613
G1 X100.845 Y94.418 E0.01613
G1 X100.899 Y93.906 E0.01613
G1 X101.058 Y93.416 E0.01615
G1 X101.326 Y92.959 E0.01661
G1 X101.659 Y92.589 E0.01562
G1 X102.075 Y92.287 E0.01613
G1 X102.545 Y92.077 E0.01613
G1 X103.049 Y91.970 E0.01613
G1 X103.563 Y91.970 E0.01613
G1 X104.067 Y92.077 E0.01613
G1 X104.537 Y92.287 E0.01613
G1 X104.953 Y92.589 E0.01613
G1 X105.297 Y92.971 E0.01613
G1 X105.554 Y93.417 E0.01613
G1 X105.713 Y93.906 E0.01613
G1 X105.767 Y94.418 E0.01613
G1 X105.713 Y94.930 E0.01613
G1 X105.554 Y95.419 E0.01613
G1 X105.297 Y95.865 E0.01613
G1 X104.953 Y96.247 E0.01613
G1 X104.537 Y96.549 E0.01613
G1 X104.067 Y96.759 E0.01613
G1 X103.563 Y96.866 E0.01613
G1 X103.149 Y96.866 E0.01297
G1 X102.858 Y97.192 F7200.000
G1 F5760
G1 X102.545 Y96.759 E-0.21246
G1 X102.075 Y96.549 E-0.17821
G1 X101.659 Y96.247 E-0.17819
G1 X101.315 Y95.865 E-0.17822
G1 X101.296 Y95.832 E-0.01293
G1 E-0.04000 F2100.00000
G1 Z0.800 F7200.000
G1 X103.248 Y87.048
G1 Z0.200
G1 E0.80000 F2100.00000
G1 F1800
G1 X102.752 Y87.048 E0.01553
G1 X102.268 Y86.946 E0.01553
G1 X101.815 Y86.744 E0.01553
G1 X101.414 Y86.453 E0.01553
G1 X101.083 Y86.085 E0.01553
G1 X100.835 Y85.656 E0.01553
G1 X100.682 Y85.185 E0.01553
G1 X100.631 Y84.692 E0.01553
G1 X100.682 Y84.199 E0.01553
G1 X100.835 Y83.728 E0.01553
G1 X101.083 Y83.299 E0.01553
G1 X101.414 Y82.931 E0.01553
G1 X101.815 Y82.640 E0.01553
G1 X102.268 Y82.438 E0.01553
G1 X102.752 Y82.336 E0.01553
G1 X103.248 Y82.336 E0.01553
G1 X103.732 Y82.438 E0.01553
G1 X104.185 Y82.640 E0.01553
G1 X104.586 Y82.931 E0.01553
G1 X104.917 Y83.299 E0.01553
G1 X105.165 Y83.728 E0.01553
G1 X105.318 Y84.199 E0.01553
G1 X105.369 Y84.692 E0.01553
G1 X105.318 Y85.185 E0.01553
G1 X105.165 Y85.656 E0.01553
G1 X104.917 Y86.085 E0.01553
G1 X104.586 Y86.453 E0.01553
G1 X104.185 Y86.744 E0.01553
G1 X103.732 Y86.946 E0.01553
G1 X103.306 Y87.036 E0.01365
G1 X103.228 Y86.667 F7200.000
G1 F1800
G1 X102.792 Y86.671 E0.01367
G1 X102.385 Y86.585 E0.01305
G1 X102.005 Y86.416 E0.01305
G1 X101.668 Y86.171 E0.01305
G1 X101.390 Y85.862 E0.01304
G1 X101.182 Y85.502 E0.01305
G1 X101.053 Y85.106 E0.01305
G1 X101.010 Y84.692 E0.01305
G1 X101.053 Y84.278 E0.01305
G1 X101.182 Y83.882 E0.01305
G1 X101.390 Y83.522 E0.01305
G1 X101.668 Y83.213 E0.01304
G1 X102.005 Y82.968 E0.01305
G1 X102.385 Y82.799 E0.01305
G1 X102.792 Y82.713 E0.01305
G1 X103.208 Y82.713 E0.01304
G1 X103.615 Y82.799 E0.01305
G1 X103.995 Y82.968 E0.01305
G1 X104.332 Y83.213 E0.01305
G1 X104.610 Y83.522 E0.01304
G1 X104.818 Y83.882 E0.01305
G1 X104.947 Y84.278 E0.01305
G1 X104.990 Y84.692 E0.01305
G1 X104.947 Y85.106 E0.01305
G1 X104.818 Y85.502 E0.01305
G1 X104.610 Y85.862 E0.01305
G1 X104.332 Y86.171 E0.01304
G1 X103.995 Y86.416 E0.01305
G1 X103.615 Y86.585 E0.01305
G1 X103.287 Y86.655 E0.01053
G1 X103.168 Y86.294 F7200.000
G1 F1800
G1 X102.832 Y86.294 E0.01056
G1 X102.502 Y86.224 E0.01056
G1 X102.194 Y86.087 E0.01056
G1 X101.922 Y85.889 E0.01056
G1 X101.697 Y85.639 E0.01056
G1 X101.528 Y85.347 E0.01056
G1 X101.424 Y85.027 E0.01056
G1 X101.389 Y84.692 E0.01056
G1 X101.424 Y84.357 E0.01056
G1 X101.528 Y84.037 E0.01056
G1 X101.697 Y83.745 E0.01056
G1 X101.922 Y83.495 E0.01056
G1 X102.194 Y83.297 E0.01056
G1 X102.502 Y83.160 E0.01056
G1 X102.832 Y83.090 E0.01056
G1 X103.168 Y83.090 E0.01056
G1 X103.498 Y83.160 E0.01056
G1 X103.806 Y83.297 E0.01056
G1 X104.078 Y83.495 E0.01056
G1 X104.303 Y83.745 E0.01056
G1 X104.472 Y84.037 E0.01056
G1 X104.576 Y84.357 E0.01056
G1 X104.611 Y84.692 E0.01056
G1 X104.576 Y85.027 E0.01056
G1 X104.472 Y85.347 E0.01056
G1 X104.303 Y85.639 E0.01056
G1 X104.078 Y85.889 E0.01056
G1 X103.806 Y86.087 E0.01056
G1 X103.498 Y86.224 E0.01056
G1 X103.227 Y86.282 E0.00868
G1 X103.031 Y86.602 F7200.000
G1 F5760
G1 X102.832 Y86.294 E-0.13703
G1 X102.502 Y86.224 E-0.11666
G1 X102.194 Y86.087 E-0.11667
G1 X101.922 Y85.889 E-0.11667
G1 X101.697 Y85.639 E-0.11664
G1 X101.528 Y85.347 E-0.11667
G1 X101.493 Y85.238 E-0.03965
G1 E-0.04000 F2100.00000
G1 Z0.800 F7200.000
G1 X66.455 Y93.749
G1 Z0.200
G1 E0.80000 F2100.00000
G1 F1800
G1 X66.525 Y94.418 E0.02110
G1 X66.455 Y95.087 E0.02110
G1 X66.247 Y95.727 E0.02110
G1 X65.911 Y96.310 E0.02111
G1 X65.460 Y96.811 E0.02110
G1 X64.916 Y97.206 E0.02110
G1 X64.301 Y97.480 E0.02110
G1 X63.643 Y97.620 E0.02110
G1 X62.969 Y97.620 E0.02110
G1 X62.311 Y97.480 E0.02110
G1 X61.696 Y97.206 E0.02110
G1 X61.152 Y96.811 E0.02110
G1 X60.701 Y96.310 E0.02110
G1 X60.365 Y95.727 E0.02110
G1 X60.157 Y95.087 E0.02110
G1 X60.087 Y94.418 E0.02110
G1 X60.157 Y93.749 E0.02110
G1 X60.365 Y93.109 E0.02110
G1 X60.701 Y92.526 E0.02110
G1 X61.152 Y92.025 E0.02110
G1 X61.696 Y91.630 E0.02110
G1 X62.311 Y91.356 E0.02110
G1 X62.969 Y91.216 E0.02110
G1 X63.643 Y91.216 E0.02110
G1 X64.301 Y91.356 E0.02110
G1 X64.916 Y91.630 E0.02110
G1 X65.460 Y92.025 E0.02110
G1 X65.911 Y92.526 E0.02110
G1 X66.247 Y93.109 E0.02111
G1 X66.437 Y93.692 E0.01922
G1 X66.078 Y93.808 F7200.000
G1 F1800
G1 X66.146 Y94.418 E0.01924
G1 X66.084 Y95.009 E0.01862
G1 X65.901 Y95.573 E0.01862
G1 X65.604 Y96.088 E0.01862
G1 X65.206 Y96.529 E0.01862
G1 X64.726 Y96.878 E0.01862
G1 X64.184 Y97.119 E0.01862
G1 X63.603 Y97.243 E0.01862
G1 X63.009 Y97.243 E0.01862
G1 X62.428 Y97.119 E0.01862
G1 X61.886 Y96.878 E0.01862
G1 X61.405 Y96.529 E0.01862
G1 X61.008 Y96.088 E0.01862
G1 X60.711 Y95.573 E0.01862
G1 X60.528 Y95.009 E0.01862
G1 X60.466 Y94.418 E0.01862
G1 X60.528 Y93.827 E0.01862
G1 X60.711 Y93.263 E0.01862
G1 X61.008 Y92.749 E0.01862
G1 X61.405 Y92.307 E0.01862
G1 X61.886 Y91.958 E0.01862
G1 X62.428 Y91.717 E0.01862
G1 X63.009 Y91.593 E0.01862
G1 X63.603 Y91.593 E0.01862
G1 X64.184 Y91.717 E0.01862
G1 X64.726 Y91.958 E0.01862
G1 X65.206 Y92.307 E0.01862
G1 X65.604 Y92.748 E0.01862
G1 X65.901 Y93.263 E0.01862
G1 X66.059 Y93.751 E0.01610
G1 X65.701 Y93.867 F7200.000
G1 F1800
G1 X65.767 Y94.418 E0.01739
G1 X65.713 Y94.930 E0.01613
G1 X65.554 Y95.419 E0.01613
G1 X65.297 Y95.865 E0.01613
