; generated by Slic3r Prusa Edition 1.39.2+win64 on 2018-05-24 at 07:54:43

; 

; external perimeters extrusion width = 0.45mm
; perimeters extrusion width = 0.45mm
; infill extrusion width = 0.45mm
; solid infill extrusion width = 0.45mm
; top infill extrusion width = 0.45mm
; first layer extrusion width = 0.42mm

M107
M115 U3.1.0 ; tell printer latest fw version
M83  ; extruder relative mode
M104 S205 ; set extruder temp
M140 S55 ; set bed temp
M190 S55 ; wait for bed temp
M109 S205 ; wait for extruder temp
G28 W ; home all without mesh bed level
G80 ; mesh bed leveling
G1 Y-3.0 F1000.0 ; go outside print area
G92 E0.0
G1 X60.0 E9.0  F1000.0 ; intro line
G1 X100.0 E12.5  F1000.0 ; intro line
G92 E0.0
M900 K30; Filament gcode
G21 ; set units to millimeters
G90 ; use absolute coordinates
M83 ; use relative distances for extrusion
;BEFORE_LAYER_CHANGE
;0.2


G1 E-0.80000 F2100.00000
G1 Z0.600 F7200.000
;AFTER_LAYER_CHANGE
;0.2
G1 X90.082 Y91.554
G1 Z0.200
G1 E0.80000 F2100.00000
M204 S1000
G1 F1800
G1 X90.891 Y91.164 E0.02813
G1 X111.641 Y85.830 E0.67177
G1 X114.787 Y85.174 E0.10075
G1 X117.967 Y85.161 E0.09972
G1 X118.455 Y85.213 E0.01538
G1 X121.759 Y85.961 E0.10622
G1 X124.687 Y87.278 E0.10068
G1 X127.265 Y89.135 E0.09960
G1 X129.749 Y91.834 E0.11502
G1 X131.550 Y95.033 E0.11510
G1 X132.519 Y98.055 E0.09952
G1 X132.866 Y101.232 E0.10020
G1 X132.512 Y104.899 E0.11550
G1 X131.466 Y108.111 E0.10593
G1 X129.875 Y110.896 E0.10055
G1 X127.286 Y113.774 E0.12139
G1 X124.690 Y115.644 E0.10032
G1 X121.793 Y116.948 E0.09960
G1 X118.424 Y117.717 E0.10835
G1 X96.721 Y119.828 E0.68369
G1 X74.405 Y119.837 E0.69972
G1 X73.879 Y119.756 E0.01668
G1 X73.387 Y119.562 E0.01657
G1 X72.951 Y119.265 E0.01657
G1 X72.591 Y118.878 E0.01657
G1 X72.248 Y118.222 E0.02319
G1 X72.123 Y117.493 E0.02319
G1 X72.127 Y112.321 E0.16218
G1 X72.239 Y111.727 E0.01894
G1 X72.497 Y111.181 E0.01894
G1 X90.042 Y91.598 E0.82440
G1 F5760
G1 X90.891 Y91.164 E-0.33010
G1 X92.093 Y90.855 E-0.42990
G1 E-0.04000 F2100.00000
G1 Z0.800 F7200.000
G1 X109.220 Y98.220
G1 Z0.200
G1 E0.80000 F2100.00000
G1 F1800
G1 X110.053 Y96.777 E0.05224
G1 X111.167 Y95.539 E0.05224
G1 X112.515 Y94.560 E0.05224
G1 X114.037 Y93.882 E0.05224
G1 X115.667 Y93.536 E0.05224
G1 X117.333 Y93.536 E0.05224
G1 X118.963 Y93.882 E0.05224
G1 X120.485 Y94.560 E0.05224
G1 X121.833 Y95.539 E0.05224
G1 X122.947 Y96.777 E0.05224
G1 X123.780 Y98.220 E0.05224
G1 X124.295 Y99.805 E0.05224
G1 X124.469 Y101.462 E0.05224
G1 X124.295 Y103.119 E0.05224
G1 X123.780 Y104.703 E0.05224
G1 X122.947 Y106.146 E0.05224
G1 X121.833 Y107.384 E0.05224
G1 X120.485 Y108.363 E0.05224
G1 X118.963 Y109.041 E0.05224
G1 X117.333 Y109.388 E0.05224
G1 X115.667 Y109.388 E0.05224
G1 X114.037 Y109.041 E0.05224
G1 X112.515 Y108.363 E0.05224
G1 X111.167 Y107.384 E0.05224
G1 X110.053 Y106.146 E0.05224
G1 X109.220 Y104.703 E0.05224
G1 X108.705 Y103.119 E0.05224
G1 X108.531 Y101.462 E0.05224
G1 X108.705 Y99.805 E0.05224
G1 X109.201 Y98.277 E0.05036
G1 X109.560 Y98.394 F7200.000
G1 F1800
G1 X110.359 Y97.000 E0.05038
G1 X111.421 Y95.821 E0.04975
G1 X112.705 Y94.888 E0.04975
G1 X114.154 Y94.243 E0.04975
G1 X115.707 Y93.913 E0.04975
G1 X117.293 Y93.913 E0.04975
G1 X118.846 Y94.243 E0.04975
G1 X120.295 Y94.888 E0.04975
G1 X121.579 Y95.821 E0.04975
G1 X122.641 Y97.000 E0.04975
G1 X123.434 Y98.374 E0.04975
G1 X123.924 Y99.884 E0.04975
G1 X124.090 Y101.462 E0.04975
G1 X123.924 Y103.040 E0.04975
G1 X123.434 Y104.549 E0.04975
G1 X122.641 Y105.923 E0.04975
G1 X121.579 Y107.102 E0.04975
G1 X120.295 Y108.035 E0.04975
G1 X118.846 Y108.680 E0.04975
G1 X117.293 Y109.010 E0.04975
G1 X115.707 Y109.010 E0.04975
G1 X114.154 Y108.680 E0.04975
G1 X112.705 Y108.035 E0.04975
G1 X111.421 Y107.102 E0.04975
G1 X110.359 Y105.923 E0.04975
G1 X109.566 Y104.549 E0.04975
G1 X109.076 Y103.040 E0.04975
G1 X108.910 Y101.462 E0.04975
G1 X109.076 Y99.884 E0.04975
G1 X109.541 Y98.451 E0.04723
G1 X109.900 Y98.567 F7200.000
G1 F1800
G1 X110.666 Y97.223 E0.04852
G1 X111.675 Y96.103 E0.04727
G1 X112.894 Y95.217 E0.04727
G1 X114.272 Y94.603 E0.04727
G1 X115.746 Y94.290 E0.04727
G1 X117.254 Y94.290 E0.04727
G1 X118.728 Y94.603 E0.04727
G1 X120.106 Y95.217 E0.04727
G1 X121.325 Y96.103 E0.04727
G1 X122.334 Y97.223 E0.04727
G1 X123.088 Y98.529 E0.04727
G1 X123.554 Y99.962 E0.04727
G1 X123.711 Y101.462 E0.04727
G1 X123.554 Y102.961 E0.04727
G1 X123.088 Y104.395 E0.04727
G1 X122.334 Y105.700 E0.04727
G1 X121.325 Y106.821 E0.04727
G1 X120.106 Y107.707 E0.04727
G1 X118.728 Y108.320 E0.04727
G1 X117.254 Y108.633 E0.04727
G1 X115.746 Y108.633 E0.04727
G1 X114.272 Y108.320 E0.04727
G1 X112.894 Y107.707 E0.04727
G1 X111.675 Y106.821 E0.04727
G1 X110.666 Y105.700 E0.04727
G1 X109.912 Y104.395 E0.04727
G1 X109.446 Y102.961 E0.04727
G1 X109.289 Y101.462 E0.04727
G1 X109.446 Y99.962 E0.04727
G1 X109.881 Y98.624 E0.04411
G1 X109.663 Y98.245 F7200.000
G1 F5760
G1 X110.666 Y97.223 E-0.55630
G1 X111.060 Y96.786 E-0.20370
G1 E-0.04000 F2100.00000
G1 Z0.800 F7200.000
G1 X105.598 Y94.426
G1 Z0.200
G1 E0.80000 F2100.00000
G1 F1800
G1 X105.958 Y93.803 E0.02257
G1 X107.781 Y91.778 E0.08542
G1 X109.985 Y90.177 E0.08541
G1 X112.473 Y89.069 E0.08541
G1 X115.137 Y88.503 E0.08537
G1 X117.897 Y88.510 E0.08654
G1 X120.527 Y89.069 E0.08430
G1 X123.015 Y90.177 E0.08541
G1 X125.219 Y91.778 E0.08541
G1 X127.042 Y93.802 E0.08541
G1 X128.404 Y96.162 E0.08541
G1 X129.246 Y98.752 E0.08541
G1 X129.531 Y101.462 E0.08541
G1 X129.250 Y104.136 E0.08431
G1 X128.403 Y106.763 E0.08653
G1 X127.042 Y109.121 E0.08537
G1 X125.219 Y111.145 E0.08541
G1 X123.015 Y112.746 E0.08541
G1 X120.527 Y113.854 E0.08541
G1 X117.862 Y114.421 E0.08541
G1 X115.138 Y114.421 E0.08541
G1 X112.473 Y113.854 E0.08541
G1 X109.985 Y112.746 E0.08541
G1 X109.642 Y112.497 E0.01328
G1 X95.536 Y112.497 E0.44229
G1 X95.536 Y116.497 E0.12542
G1 X75.464 Y116.497 E0.62933
G1 X75.464 Y113.426 E0.09631
G1 X92.464 Y113.426 E0.53302
G1 X92.464 Y94.426 E0.59573
G1 X105.538 Y94.426 E0.40992
G1 X105.380 Y94.049 F7200.000
G1 F1800
G1 X105.651 Y93.580 E0.01698
G1 X107.527 Y91.496 E0.08790
G1 X109.795 Y89.848 E0.08790
G1 X112.356 Y88.708 E0.08790
G1 X115.098 Y88.126 E0.08787
G1 X117.937 Y88.133 E0.08902
G1 X120.644 Y88.708 E0.08677
G1 X123.205 Y89.848 E0.08790
G1 X125.473 Y91.496 E0.08790
G1 X127.349 Y93.580 E0.08790
G1 X128.750 Y96.007 E0.08790
G1 X129.617 Y98.674 E0.08790
G1 X129.910 Y101.462 E0.08790
G1 X129.620 Y104.214 E0.08678
G1 X128.750 Y106.917 E0.08902
G1 X127.349 Y109.344 E0.08787
G1 X125.473 Y111.427 E0.08790
G1 X123.205 Y113.075 E0.08790
G1 X120.644 Y114.215 E0.08790
G1 X117.902 Y114.798 E0.08790
G1 X115.098 Y114.798 E0.08790
G1 X112.356 Y114.215 E0.08790
G1 X109.795 Y113.075 E0.08790
G1 X109.520 Y112.875 E0.01068
G1 X95.913 Y112.875 E0.42663
G1 X95.913 Y116.875 E0.12542
G1 X75.087 Y116.875 E0.65298
G1 X75.087 Y113.049 E0.11996
G1 X92.087 Y113.049 E0.53302
G1 X92.087 Y94.049 E0.59573
G1 X105.320 Y94.049 E0.41492
G1 X105.163 Y93.672 F7200.000
G1 F1800
G1 X105.345 Y93.357 E0.01140
G1 X107.273 Y91.215 E0.09038
G1 X109.606 Y89.520 E0.09038
G1 X112.239 Y88.348 E0.09038
G1 X115.058 Y87.748 E0.09037
G1 X117.977 Y87.756 E0.09151
G1 X120.761 Y88.348 E0.08924
G1 X123.394 Y89.520 E0.09038
G1 X125.727 Y91.215 E0.09038
G1 X127.655 Y93.357 E0.09038
G1 X129.097 Y95.853 E0.09038
G1 X129.988 Y98.595 E0.09038
G1 X130.289 Y101.462 E0.09038
G1 X129.991 Y104.292 E0.08925
G1 X129.097 Y107.070 E0.09151
G1 X127.655 Y109.567 E0.09038
G1 X125.727 Y111.709 E0.09038
G1 X123.394 Y113.403 E0.09038
G1 X120.761 Y114.576 E0.09038
G1 X117.941 Y115.175 E0.09038
G1 X115.059 Y115.175 E0.09038
G1 X112.239 Y114.576 E0.09038
G1 X109.606 Y113.403 E0.09038
G1 X109.397 Y113.252 E0.00808
G1 X96.290 Y113.252 E0.41096
G1 X96.290 Y117.252 E0.12542
G1 X74.710 Y117.252 E0.67663
G1 X74.710 Y112.672 E0.14360
G1 X91.710 Y112.672 E0.53302
G1 X91.710 Y93.672 E0.59573
G1 X105.103 Y93.672 E0.41992
G1 X105.526 Y93.683 F7200.000
G1 F5760
G1 X105.345 Y93.357 E-0.13752
G1 X106.547 Y92.021 E-0.62248
G1 E-0.04000 F2100.00000
G1 Z0.800 F7200.000
G1 X109.563 Y105.863
G1 Z0.200
G1 E0.80000 F2100.00000
G1 F1800
G1 X98.408 Y94.709 E0.49479
G1 X98.942 Y94.709 E0.01673
G1 X108.915 Y104.682 E0.44241
G1 X108.659 Y103.892 E0.02606
G1 X99.475 Y94.709 E0.40736
G1 X100.009 Y94.709 E0.01673
G1 X108.421 Y103.120 E0.37313
G1 X108.358 Y102.524 E0.01880
G1 X100.542 Y94.709 E0.34669
G1 X101.076 Y94.709 E0.01673
G1 X108.295 Y101.928 E0.32025
G1 X108.246 Y101.462 E0.01472
G1 X108.257 Y101.357 E0.00331
G1 X101.609 Y94.709 E0.29490
G1 X102.143 Y94.709 E0.01673
G1 X108.308 Y100.874 E0.27349
G1 X108.359 Y100.391 E0.01522
G1 X102.676 Y94.709 E0.25207
G1 X103.209 Y94.709 E0.01673
G1 X108.409 Y99.909 E0.23066
G1 X108.427 Y99.746 E0.00514
G1 X108.513 Y99.479 E0.00879
G1 X103.743 Y94.709 E0.21160
G1 X104.276 Y94.709 E0.01673
G1 X108.644 Y99.076 E0.19374
G1 X108.775 Y98.674 E0.01328
G1 X104.810 Y94.709 E0.17588
G1 X105.343 Y94.709 E0.01673
G1 X108.906 Y98.271 E0.15802
G1 X108.960 Y98.104 E0.00549
G1 X109.074 Y97.906 E0.00718
G1 X105.804 Y94.635 E0.14509
G1 X105.999 Y94.297 E0.01225
G1 X109.270 Y97.568 E0.14508
G1 X109.465 Y97.230 E0.01225
G1 X106.196 Y93.961 E0.14500
G1 X106.449 Y93.680 E0.01185
G1 X109.660 Y96.892 E0.14245
G1 X109.865 Y96.563 E0.01215
G1 X106.702 Y93.399 E0.14033
G1 X106.954 Y93.119 E0.01185
G1 X110.118 Y96.282 E0.14033
G1 X110.371 Y96.002 E0.01185
G1 X107.207 Y92.838 E0.14033
G1 X107.460 Y92.557 E0.01185
G1 X110.623 Y95.721 E0.14033
G1 X110.876 Y95.440 E0.01185
G1 X107.713 Y92.277 E0.14033
G1 X107.965 Y91.996 E0.01185
G1 X111.163 Y95.193 E0.14182
G1 X111.472 Y94.969 E0.01198
G1 X108.273 Y91.770 E0.14188
G1 X108.582 Y91.546 E0.01198
G1 X111.781 Y94.744 E0.14188
G1 X112.089 Y94.520 E0.01198
G1 X108.891 Y91.321 E0.14188
G1 X109.200 Y91.097 E0.01198
G1 X112.403 Y94.300 E0.14210
G1 X112.773 Y94.136 E0.01267
G1 X109.509 Y90.872 E0.14477
G1 X109.818 Y90.648 E0.01198
G1 X113.142 Y93.971 E0.14744
G1 X113.511 Y93.807 E0.01267
G1 X110.127 Y90.423 E0.15010
G1 X110.496 Y90.259 E0.01267
G1 X113.880 Y93.643 E0.15011
G1 X113.949 Y93.612 E0.00239
G1 X114.307 Y93.536 E0.01145
G1 X110.865 Y90.094 E0.15266
G1 X111.234 Y89.930 E0.01267
G1 X114.746 Y93.442 E0.15580
G1 X115.186 Y93.349 E0.01411
G1 X111.603 Y89.766 E0.15894
G1 X111.972 Y89.601 E0.01267
G1 X115.626 Y93.255 E0.16208
G1 X116.157 Y93.253 E0.01666
G1 X112.342 Y89.437 E0.16927
G1 X112.561 Y89.339 E0.00754
G1 X112.739 Y89.301 E0.00571
G1 X116.691 Y93.253 E0.17528
G1 X117.224 Y93.253 E0.01673
G1 X113.179 Y89.208 E0.17943
G1 X113.619 Y89.114 E0.01411
G1 X117.865 Y93.360 E0.18831
G1 X118.542 Y93.504 E0.02173
G1 X114.059 Y89.021 E0.19885
G1 X114.499 Y88.927 E0.01411
G1 X119.290 Y93.719 E0.21253
G1 X120.252 Y94.147 E0.03301
G1 X114.939 Y88.834 E0.23567
G1 X115.166 Y88.786 E0.00728
G1 X115.425 Y88.786 E0.00812
G1 X129.137 Y102.498 E0.60824
G1 X129.188 Y102.016 E0.01522
G1 X115.960 Y88.788 E0.58677
G1 X116.495 Y88.789 E0.01678
G1 X129.239 Y101.533 E0.56530
G1 X129.246 Y101.462 E0.00225
G1 X129.193 Y100.954 E0.01602
G1 X117.030 Y88.790 E0.53954
G1 X117.564 Y88.792 E0.01678
G1 X129.130 Y100.358 E0.51303
G1 X129.068 Y99.761 E0.01880
G1 X118.161 Y88.855 E0.48378
G1 X118.839 Y88.999 E0.02172
G1 X129.005 Y99.165 E0.45095
G1 X128.968 Y98.812 E0.01116
G1 X128.863 Y98.490 E0.01060
G1 X119.516 Y89.143 E0.41462
G1 X120.194 Y89.287 E0.02172
G1 X128.606 Y97.700 E0.37317
G1 X128.350 Y96.910 E0.02606
G1 X121.052 Y89.613 E0.32369
G1 X122.014 Y90.041 E0.03301
G1 X128.357 Y96.384 E0.28137
G1 F5760
G1 X126.806 Y94.832 E-0.76000
G1 E-0.04000 F2100.00000
G1 Z0.800 F7200.000
G1 X127.733 Y95.227
G1 Z0.200
G1 E0.80000 F2100.00000
G1 F1800
G1 X122.641 Y90.134 E0.22590
G1 F5760
G1 X124.192 Y91.686 E-0.76000
G1 E-0.04000 F2100.00000
G1 Z0.800 F7200.000
G1 X129.241 Y103.136
G1 Z0.200
G1 E0.80000 F2100.00000
G1 F1800
G1 X123.809 Y97.703 E0.24097
G1 X124.040 Y98.104 E0.01453
G1 X124.215 Y98.644 E0.01778
G1 X129.036 Y103.464 E0.21382
G1 X128.985 Y103.947 E0.01522
G1 X124.472 Y99.434 E0.20018
G1 X124.573 Y99.746 E0.01028
G1 X124.611 Y100.106 E0.01138
G1 X128.876 Y104.372 E0.18919
G1 X128.746 Y104.775 E0.01330
G1 X124.674 Y100.703 E0.18065
G1 X124.737 Y101.299 E0.01880
G1 X128.617 Y105.179 E0.17210
G1 X128.487 Y105.582 E0.01330
G1 X124.717 Y101.812 E0.16721
G1 X124.666 Y102.295 E0.01522
G1 X128.357 Y105.986 E0.16370
G1 X128.227 Y106.389 E0.01330
G1 X124.615 Y102.778 E0.16018
G1 X124.573 Y103.178 E0.01261
G1 X124.551 Y103.247 E0.00228
G1 X128.073 Y106.769 E0.15624
G1 X127.878 Y107.107 E0.01225
G1 X124.420 Y103.650 E0.15338
G1 X124.289 Y104.052 E0.01328
G1 X127.683 Y107.445 E0.15052
G1 X127.487 Y107.784 E0.01225
G1 X124.158 Y104.455 E0.14766
G1 X124.021 Y104.851 E0.01316
G1 X127.292 Y108.122 E0.14508
G1 X127.097 Y108.460 E0.01225
G1 X123.826 Y105.189 E0.14508
G1 X123.631 Y105.528 E0.01225
G1 X126.902 Y108.798 E0.14508
G1 X126.812 Y108.954 E0.00563
G1 X126.675 Y109.105 E0.00640
G1 X123.436 Y105.866 E0.14370
G1 X123.240 Y106.204 E0.01225
G1 X126.422 Y109.386 E0.14115
G1 X126.170 Y109.667 E0.01185
G1 X123.006 Y106.503 E0.14033
G1 X122.753 Y106.784 E0.01185
G1 X125.917 Y109.948 E0.14033
G1 X125.664 Y110.228 E0.01185
G1 X122.501 Y107.065 E0.14033
G1 X122.248 Y107.345 E0.01185
G1 X125.411 Y110.509 E0.14033
G1 X125.159 Y110.790 E0.01185
G1 X121.989 Y107.620 E0.14060
G1 X121.680 Y107.844 E0.01198
G1 X124.879 Y111.043 E0.14188
G1 X124.570 Y111.268 E0.01198
G1 X121.371 Y108.069 E0.14188
G1 X121.062 Y108.293 E0.01198
G1 X124.261 Y111.492 E0.14188
G1 X123.952 Y111.717 E0.01198
G1 X120.753 Y108.518 E0.14188
G1 X120.627 Y108.610 E0.00489
G1 X120.409 Y108.707 E0.00750
G1 X123.643 Y111.941 E0.14346
G1 X123.334 Y112.166 E0.01198
G1 X120.039 Y108.871 E0.14613
G1 X119.670 Y109.036 E0.01267
G1 X123.025 Y112.390 E0.14880
G1 X122.873 Y112.500 E0.00588
G1 X122.685 Y112.584 E0.00645
G1 X119.301 Y109.200 E0.15011
G1 X119.051 Y109.311 E0.00860
G1 X118.909 Y109.342 E0.00453
G1 X122.316 Y112.748 E0.15111
G1 X121.947 Y112.913 E0.01267
G1 X118.469 Y109.435 E0.15426
G1 X118.029 Y109.529 E0.01411
G1 X121.578 Y113.077 E0.15740
G1 X121.209 Y113.241 E0.01267
G1 X117.590 Y109.622 E0.16054
G1 X117.363 Y109.670 E0.00727
G1 X117.104 Y109.670 E0.00811
G1 X120.840 Y113.406 E0.16569
G1 X120.470 Y113.570 E0.01267
G1 X116.571 Y109.670 E0.17298
G1 X116.037 Y109.670 E0.01673
G1 X120.037 Y113.670 E0.17740
G1 X119.597 Y113.763 E0.01411
G1 X115.468 Y109.634 E0.18314
G1 X114.790 Y109.490 E0.02173
G1 X119.157 Y113.857 E0.19368
G1 X118.717 Y113.950 E0.01411
G1 X114.113 Y109.346 E0.20422
G1 X113.949 Y109.311 E0.00524
G1 X113.220 Y108.987 E0.02505
G1 X118.277 Y114.044 E0.22431
G1 X117.837 Y114.137 E0.01411
G1 X112.140 Y108.440 E0.25270
G1 F5760
G1 X113.692 Y109.992 E-0.76000
G1 E-0.04000 F2100.00000
G1 Z0.800 F7200.000
G1 X117.474 Y114.308
G1 Z0.200
G1 E0.80000 F2100.00000
G1 F1800
G1 X97.875 Y94.709 E0.86938
G1 X97.341 Y94.709 E0.01673
G1 X116.771 Y114.138 E0.86185
G1 X116.237 Y114.138 E0.01673
G1 X96.808 Y94.709 E0.86185
G1 X96.274 Y94.709 E0.01673
G1 X115.704 Y114.138 E0.86185
G1 X115.170 Y114.138 E0.01673
G1 X95.741 Y94.709 E0.86185
G1 X95.207 Y94.709 E0.01673
G1 X114.494 Y113.995 E0.85549
G1 X113.816 Y113.851 E0.02172
G1 X94.674 Y94.709 E0.84911
G1 X94.141 Y94.709 E0.01673
G1 X113.139 Y113.707 E0.84272
G1 X112.561 Y113.584 E0.01852
G1 X112.419 Y113.521 E0.00487
G1 X93.607 Y94.709 E0.83447
G1 X93.074 Y94.709 E0.01673
G1 X111.458 Y113.093 E0.81548
G1 X110.496 Y112.665 E0.03301
G1 X92.747 Y94.915 E0.78732
G1 X92.747 Y95.449 E0.01673
G1 X109.513 Y112.215 E0.74370
G1 X108.979 Y112.215 E0.01673
G1 X92.747 Y95.982 E0.72003
G1 X92.747 Y96.516 E0.01673
G1 X108.446 Y112.215 E0.69637
G1 X107.912 Y112.215 E0.01673
G1 X92.747 Y97.049 E0.67271
G1 X92.747 Y97.583 E0.01673
G1 X107.379 Y112.215 E0.64904
G1 X106.845 Y112.215 E0.01673
G1 X92.747 Y98.116 E0.62538
G1 X92.747 Y98.650 E0.01673
G1 X106.312 Y112.215 E0.60172
G1 X105.779 Y112.215 E0.01673
G1 X92.747 Y99.183 E0.57805
G1 X92.747 Y99.717 E0.01673
G1 X105.245 Y112.215 E0.55439
G1 X104.712 Y112.215 E0.01673
G1 X92.747 Y100.250 E0.53073
G1 X92.747 Y100.784 E0.01673
G1 X104.178 Y112.215 E0.50706
G1 X103.645 Y112.215 E0.01673
