; generated by Slic3r Prusa Edition 1.39.2+win64 on 2018-08-02 at 06:34:51

; 

; external perimeters extrusion width = 0.45mm
; perimeters extrusion width = 0.45mm
; infill extrusion width = 0.45mm
; solid infill extrusion width = 0.45mm
; top infill extrusion width = 0.45mm
; first layer extrusion width = 0.42mm

M107
M115 U3.1.0 ; tell printer latest fw version
M83  ; extruder relative mode
M104 S205 ; set extruder temp
M140 S55 ; set bed temp
M190 S55 ; wait for bed temp
M109 S205 ; wait for extruder temp
G28 W ; home all without mesh bed level
G80 ; mesh bed leveling
G1 Y-3.0 F1000.0 ; go outside print area
G92 E0.0
G1 X60.0 E9.0  F1000.0 ; intro line
G1 X100.0 E12.5  F1000.0 ; intro line
G92 E0.0
M900 K30; Filament gcode
G21 ; set units to millimeters
G90 ; use absolute coordinates
M83 ; use relative distances for extrusion
;BEFORE_LAYER_CHANGE
;0.2


G1 E-0.80000 F2100.00000
G1 Z0.600 F7200.000
;AFTER_LAYER_CHANGE
;0.2
G1 X86.935 Y127.066
G1 Z0.200
G1 E0.80000 F2100.00000
M204 S1000
G1 F1800
G1 X86.528 Y126.228 E0.02919
G1 X81.209 Y105.537 E0.66986
G1 X80.568 Y102.524 E0.09658
G1 X80.539 Y98.946 E0.11219
G1 X81.198 Y95.769 E0.10174
G1 X82.771 Y92.247 E0.12092
G1 X84.665 Y89.664 E0.10044
G1 X87.189 Y87.391 E0.10651
G1 X90.398 Y85.581 E0.11549
G1 X93.438 Y84.608 E0.10007
G1 X96.832 Y84.253 E0.10700
G1 X121.330 Y85.976 E0.77004
G1 X122.099 Y86.166 E0.02484
G1 X122.732 Y86.571 E0.02355
G1 X142.046 Y103.910 E0.81381
G1 X142.449 Y104.737 E0.02884
G1 X147.783 Y125.488 E0.67177
G1 X148.439 Y128.633 E0.10075
G1 X148.452 Y131.821 E0.09996
G1 X147.734 Y135.384 E0.11395
G1 X146.345 Y138.517 E0.10747
G1 X144.325 Y141.301 E0.10783
G1 X141.816 Y143.568 E0.10604
G1 X138.590 Y145.394 E0.11621
G1 X135.551 Y146.367 E0.10007
G1 X132.244 Y146.722 E0.10426
G1 X107.658 Y145.001 E0.77277
G1 X107.146 Y144.907 E0.01633
G1 X106.676 Y144.709 E0.01597
G1 X106.257 Y144.413 E0.01609
G1 X86.979 Y127.106 E0.81229
G1 F5760
G1 X86.528 Y126.228 E-0.34177
G1 X86.228 Y125.059 E-0.41823
G1 E-0.04000 F2100.00000
G1 Z0.800 F7200.000
G1 X126.861 Y129.790
G1 Z0.200
G1 E0.80000 F2100.00000
G1 F1800
G1 X127.092 Y128.703 E0.03487
G1 X127.545 Y127.687 E0.03487
G1 X128.198 Y126.787 E0.03487
G1 X129.025 Y126.043 E0.03487
G1 X129.990 Y125.486 E0.03493
G1 X131.066 Y125.141 E0.03543
G1 X132.152 Y125.027 E0.03424
G1 X133.258 Y125.143 E0.03487
G1 X134.315 Y125.487 E0.03487
G1 X135.278 Y126.043 E0.03487
G1 X136.105 Y126.787 E0.03487
G1 X136.758 Y127.687 E0.03487
G1 X137.211 Y128.703 E0.03487
G1 X137.442 Y129.790 E0.03487
G1 X137.442 Y130.902 E0.03487
G1 X137.211 Y131.990 E0.03487
G1 X136.758 Y133.006 E0.03487
G1 X136.104 Y133.907 E0.03493
G1 X135.261 Y134.660 E0.03543
G1 X134.315 Y135.206 E0.03424
G1 X133.258 Y135.550 E0.03487
G1 X132.152 Y135.666 E0.03487
G1 X131.046 Y135.550 E0.03487
G1 X129.988 Y135.206 E0.03487
G1 X129.025 Y134.650 E0.03487
G1 X128.198 Y133.906 E0.03487
G1 X127.545 Y133.006 E0.03487
G1 X127.092 Y131.990 E0.03487
G1 X126.861 Y130.902 E0.03487
G1 X126.861 Y129.850 E0.03299
G1 X127.238 Y129.850 F7200.000
G1 F1800
G1 X127.453 Y128.820 E0.03301
G1 X127.873 Y127.876 E0.03238
G1 X128.480 Y127.041 E0.03238
G1 X129.248 Y126.350 E0.03238
G1 X130.143 Y125.833 E0.03242
G1 X131.144 Y125.512 E0.03294
G1 X132.152 Y125.406 E0.03177
G1 X133.179 Y125.514 E0.03238
G1 X134.161 Y125.833 E0.03238
G1 X135.055 Y126.350 E0.03238
G1 X135.823 Y127.041 E0.03238
G1 X136.430 Y127.876 E0.03238
G1 X136.850 Y128.820 E0.03238
G1 X137.065 Y129.830 E0.03238
G1 X137.065 Y130.863 E0.03238
G1 X136.850 Y131.873 E0.03238
G1 X136.430 Y132.817 E0.03238
G1 X135.822 Y133.653 E0.03242
G1 X135.039 Y134.353 E0.03294
G1 X134.161 Y134.860 E0.03178
G1 X133.179 Y135.179 E0.03238
G1 X132.152 Y135.287 E0.03238
G1 X131.124 Y135.179 E0.03238
G1 X130.142 Y134.860 E0.03238
G1 X129.248 Y134.343 E0.03238
G1 X128.480 Y133.652 E0.03238
G1 X127.873 Y132.817 E0.03238
G1 X127.453 Y131.873 E0.03238
G1 X127.238 Y130.863 E0.03238
G1 X127.238 Y129.910 E0.02986
G1 X127.615 Y129.910 F7200.000
G1 F1800
G1 X127.814 Y128.937 E0.03115
G1 X128.201 Y128.066 E0.02990
G1 X128.762 Y127.294 E0.02990
G1 X129.471 Y126.656 E0.02990
G1 X130.297 Y126.179 E0.02991
G1 X131.222 Y125.883 E0.03046
G1 X132.152 Y125.785 E0.02931
G1 X133.100 Y125.885 E0.02990
G1 X134.007 Y126.180 E0.02990
G1 X134.833 Y126.656 E0.02990
G1 X135.541 Y127.294 E0.02990
G1 X136.102 Y128.066 E0.02990
G1 X136.489 Y128.937 E0.02990
G1 X136.688 Y129.870 E0.02990
G1 X136.688 Y130.823 E0.02990
G1 X136.489 Y131.756 E0.02990
G1 X136.102 Y132.627 E0.02990
G1 X135.541 Y133.399 E0.02991
G1 X134.816 Y134.046 E0.03046
G1 X134.007 Y134.513 E0.02931
G1 X133.100 Y134.808 E0.02990
G1 X132.152 Y134.908 E0.02990
G1 X131.203 Y134.808 E0.02990
G1 X130.296 Y134.513 E0.02990
G1 X129.471 Y134.036 E0.02990
G1 X128.762 Y133.398 E0.02990
G1 X128.201 Y132.627 E0.02990
G1 X127.814 Y131.756 E0.02990
G1 X127.615 Y130.823 E0.02990
G1 X127.615 Y129.970 E0.02674
G1 X127.290 Y129.677 F7200.000
G1 F5760
G1 X127.814 Y128.937 E-0.36445
G1 X128.201 Y128.066 E-0.33027
G1 X128.312 Y127.913 E-0.06528
G1 E-0.04000 F2100.00000
G1 Z0.800 F7200.000
G1 X120.187 Y106.311
G1 Z0.200
G1 E0.80000 F2100.00000
G1 F1800
G1 X139.187 Y106.311 E0.59573
G1 X139.187 Y119.445 E0.41181
G1 X139.811 Y119.805 E0.02257
G1 X141.835 Y121.627 E0.08541
G1 X143.436 Y123.831 E0.08541
G1 X144.544 Y126.320 E0.08541
G1 X145.111 Y128.984 E0.08541
G1 X145.111 Y131.708 E0.08541
G1 X144.544 Y134.373 E0.08541
G1 X143.436 Y136.862 E0.08541
G1 X141.835 Y139.065 E0.08541
G1 X139.837 Y140.865 E0.08430
G1 X137.450 Y142.251 E0.08654
G1 X134.861 Y143.092 E0.08537
G1 X132.152 Y143.377 E0.08541
G1 X129.442 Y143.092 E0.08541
G1 X126.852 Y142.250 E0.08541
G1 X124.492 Y140.888 E0.08541
G1 X122.468 Y139.065 E0.08541
G1 X120.867 Y136.862 E0.08541
G1 X119.759 Y134.373 E0.08541
G1 X119.192 Y131.708 E0.08541
G1 X119.192 Y128.984 E0.08541
G1 X119.759 Y126.320 E0.08541
G1 X120.867 Y123.831 E0.08541
G1 X121.116 Y123.488 E0.01328
G1 X121.116 Y109.382 E0.44229
G1 X117.116 Y109.382 E0.12542
G1 X117.116 Y89.311 E0.62933
G1 X120.187 Y89.311 E0.09631
G1 X120.187 Y106.251 E0.53114
G1 X120.564 Y105.933 F7200.000
G1 F1800
G1 X139.564 Y105.933 E0.59573
G1 X139.564 Y119.227 E0.41681
G1 X140.034 Y119.498 E0.01698
G1 X142.117 Y121.374 E0.08790
G1 X143.765 Y123.642 E0.08790
G1 X144.905 Y126.203 E0.08790
G1 X145.488 Y128.945 E0.08790
G1 X145.488 Y131.748 E0.08790
G1 X144.905 Y134.490 E0.08790
G1 X143.765 Y137.051 E0.08790
G1 X142.117 Y139.319 E0.08790
G1 X140.060 Y141.171 E0.08677
G1 X137.605 Y142.597 E0.08902
G1 X134.940 Y143.463 E0.08787
G1 X132.152 Y143.756 E0.08790
G1 X129.363 Y143.463 E0.08790
G1 X126.697 Y142.597 E0.08790
G1 X124.270 Y141.195 E0.08790
G1 X122.186 Y139.319 E0.08790
G1 X120.538 Y137.051 E0.08790
G1 X119.398 Y134.490 E0.08790
G1 X118.815 Y131.748 E0.08790
G1 X118.815 Y128.945 E0.08790
G1 X119.398 Y126.203 E0.08790
G1 X120.538 Y123.642 E0.08790
G1 X120.739 Y123.366 E0.01068
G1 X120.739 Y109.759 E0.42663
G1 X116.739 Y109.759 E0.12542
G1 X116.739 Y88.933 E0.65298
G1 X120.564 Y88.933 E0.11996
G1 X120.564 Y105.873 E0.53114
G1 X120.942 Y105.556 F7200.000
G1 F1800
G1 X139.942 Y105.556 E0.59573
G1 X139.942 Y119.009 E0.42180
G1 X140.256 Y119.191 E0.01140
G1 X142.399 Y121.120 E0.09038
G1 X144.093 Y123.452 E0.09038
G1 X145.266 Y126.085 E0.09038
G1 X145.865 Y128.905 E0.09038
G1 X145.865 Y131.788 E0.09038
G1 X145.266 Y134.607 E0.09038
G1 X144.093 Y137.241 E0.09038
G1 X142.399 Y139.573 E0.09038
G1 X140.283 Y141.477 E0.08924
G1 X137.760 Y142.943 E0.09151
G1 X135.018 Y143.834 E0.09037
G1 X132.152 Y144.135 E0.09038
G1 X129.285 Y143.834 E0.09038
G1 X126.543 Y142.943 E0.09038
G1 X124.047 Y141.502 E0.09038
G1 X121.904 Y139.573 E0.09038
G1 X120.210 Y137.241 E0.09038
G1 X119.038 Y134.607 E0.09038
G1 X118.438 Y131.788 E0.09038
G1 X118.438 Y128.905 E0.09038
G1 X119.038 Y126.085 E0.09038
G1 X120.210 Y123.452 E0.09038
G1 X120.362 Y123.243 E0.00808
G1 X120.362 Y110.136 E0.41096
G1 X116.362 Y110.136 E0.12542
G1 X116.362 Y88.556 E0.67663
G1 X120.942 Y88.556 E0.14360
G1 X120.942 Y105.496 E0.53114
G1 X120.977 Y105.955 F7200.000
G1 F5760
G1 X123.136 Y105.503 E-0.76000
G1 E-0.04000 F2100.00000
G1 Z0.800 F7200.000
G1 X117.649 Y109.269
G1 Z0.200
G1 E0.80000 F2100.00000
G1 F1800
G1 X117.399 Y109.019 E0.01111
G1 X117.399 Y108.485 E0.01678
G1 X118.013 Y109.099 E0.02731
G1 X118.547 Y109.099 E0.01678
G1 X117.399 Y107.951 E0.05104
G1 X117.399 Y107.416 E0.01678
G1 X119.082 Y109.099 E0.07477
G1 X119.616 Y109.099 E0.01678
G1 X117.399 Y106.882 E0.09851
G1 X117.399 Y106.348 E0.01678
G1 X120.150 Y109.099 E0.12224
G1 X120.684 Y109.099 E0.01678
G1 X117.399 Y105.813 E0.14597
G1 X117.399 Y105.279 E0.01678
G1 X144.647 Y132.528 E1.21050
G1 X144.741 Y132.087 E0.01415
G1 X117.399 Y104.745 E1.21466
G1 X117.399 Y104.211 E0.01678
G1 X144.978 Y131.790 E1.22518
G1 F5760
G1 X143.426 Y130.238 E-0.76000
G1 E-0.04000 F2100.00000
G1 Z0.800 F7200.000
G1 X144.697 Y133.112
G1 Z0.200
G1 E0.80000 F2100.00000
G1 F1800
G1 X121.399 Y109.813 E1.03500
G1 X121.399 Y110.348 E0.01678
G1 X144.460 Y133.409 E1.02449
G1 X144.366 Y133.850 E0.01415
G1 X121.399 Y110.882 E1.02032
G1 X121.399 Y111.416 E0.01678
G1 X144.272 Y134.290 E1.01613
G1 X144.107 Y134.659 E0.01271
G1 X137.014 Y127.566 E0.31510
G1 X137.443 Y128.529 E0.03311
G1 X143.943 Y135.029 E0.28874
G1 X143.778 Y135.399 E0.01271
G1 X137.613 Y129.233 E0.27390
G1 X137.725 Y129.761 E0.01694
G1 X137.725 Y129.880 E0.00373
G1 X143.614 Y135.768 E0.26161
G1 X143.449 Y136.138 E0.01271
G1 X137.725 Y130.414 E0.25429
G1 X137.722 Y130.945 E0.01670
G1 X143.284 Y136.508 E0.24711
G1 X143.190 Y136.719 E0.00728
G1 X143.094 Y136.852 E0.00513
G1 X137.628 Y131.386 E0.24281
G1 X137.535 Y131.826 E0.01415
G1 X142.869 Y137.161 E0.23699
G1 X142.644 Y137.471 E0.01201
G1 X137.411 Y132.237 E0.23251
G1 X137.246 Y132.606 E0.01271
G1 X142.420 Y137.780 E0.22984
G1 X142.195 Y138.089 E0.01201
G1 X137.081 Y132.976 E0.22716
G1 X137.005 Y133.148 E0.00593
G1 X136.885 Y133.313 E0.00641
G1 X141.970 Y138.399 E0.22591
G1 X141.745 Y138.708 E0.01201
G1 X136.660 Y133.623 E0.22591
G1 X136.435 Y133.932 E0.01201
G1 X141.494 Y138.992 E0.22476
G1 X141.213 Y139.245 E0.01188
G1 X136.183 Y134.215 E0.22344
G1 X135.901 Y134.467 E0.01189
G1 X140.932 Y139.498 E0.22349
G1 X140.651 Y139.751 E0.01188
G1 X135.619 Y134.719 E0.22354
G1 X135.427 Y134.890 E0.00807
G1 X135.319 Y134.953 E0.00395
G1 X140.370 Y140.004 E0.22439
G1 X140.089 Y140.257 E0.01188
G1 X134.980 Y135.149 E0.22695
G1 X134.641 Y135.344 E0.01229
G1 X139.808 Y140.511 E0.22951
G1 X139.670 Y140.635 E0.00583
G1 X139.498 Y140.735 E0.00625
G1 X134.278 Y135.515 E0.23187
G1 X133.875 Y135.646 E0.01332
G1 X139.160 Y140.931 E0.23477
G1 X138.822 Y141.127 E0.01228
G1 X133.472 Y135.777 E0.23767
G1 X133.317 Y135.828 E0.00512
G1 X133.019 Y135.859 E0.00940
G1 X138.484 Y141.324 E0.24276
G1 X138.146 Y141.520 E0.01228
G1 X132.536 Y135.910 E0.24922
G1 X132.152 Y135.950 E0.01213
G1 X132.029 Y135.937 E0.00388
G1 X137.808 Y141.716 E0.25672
G1 X137.470 Y141.912 E0.01228
G1 X131.432 Y135.875 E0.26823
G1 X130.986 Y135.828 E0.01406
G1 X130.785 Y135.762 E0.00664
G1 X137.093 Y142.070 E0.28020
G1 X136.689 Y142.201 E0.01332
G1 X129.603 Y135.114 E0.31481
G1 F5760
G1 X131.155 Y136.666 E-0.76000
G1 E-0.04000 F2100.00000
G1 Z0.800 F7200.000
G1 X125.919 Y141.581
G1 Z0.200
G1 E0.80000 F2100.00000
G1 F1800
G1 X120.823 Y136.485 E0.22639
G1 F5760
G1 X122.375 Y138.037 E-0.76000
G1 E-0.04000 F2100.00000
G1 Z0.800 F7200.000
G1 X120.394 Y135.522
G1 Z0.200
G1 E0.80000 F2100.00000
G1 F1800
G1 X126.720 Y141.848 E0.28100
G1 X126.967 Y141.991 E0.00898
G1 X127.604 Y142.197 E0.02102
G1 X120.300 Y134.894 E0.32444
G1 X120.029 Y134.285 E0.02094
G1 X119.976 Y134.036 E0.00801
G1 X128.395 Y142.455 E0.37400
G1 X129.187 Y142.712 E0.02614
G1 X119.832 Y133.357 E0.41557
G1 X119.688 Y132.679 E0.02179
G1 X129.861 Y142.852 E0.45193
G1 X130.458 Y142.915 E0.01886
G1 X119.544 Y132.000 E0.48486
G1 X119.475 Y131.679 E0.01032
G1 X119.475 Y131.398 E0.00883
G1 X131.055 Y142.977 E0.51442
G1 X131.652 Y143.040 E0.01886
G1 X119.475 Y130.863 E0.54094
G1 X119.475 Y130.329 E0.01678
G1 X132.230 Y143.084 E0.56663
G1 X132.714 Y143.033 E0.01527
G1 X119.475 Y129.795 E0.58811
G1 X119.475 Y129.261 E0.01678
G1 X133.197 Y142.983 E0.60959
G1 X133.681 Y142.932 E0.01527
G1 X119.526 Y128.777 E0.62883
G1 X119.619 Y128.336 E0.01415
G1 X134.164 Y142.881 E0.64614
G1 X134.648 Y142.830 E0.01527
G1 X119.713 Y127.896 E0.66346
G1 X119.807 Y127.455 E0.01415
G1 X135.076 Y142.725 E0.67835
G1 X135.480 Y142.594 E0.01332
G1 X119.900 Y127.014 E0.69210
G1 X119.994 Y126.574 E0.01415
G1 X135.883 Y142.463 E0.70585
G1 X136.286 Y142.332 E0.01332
G1 X120.132 Y126.177 E0.71764
G1 X120.296 Y125.808 E0.01271
G1 X127.027 Y132.538 E0.29900
G1 X126.822 Y132.078 E0.01582
G1 X126.747 Y131.724 E0.01138
G1 X120.461 Y125.438 E0.27924
G1 X120.625 Y125.068 E0.01271
G1 X126.602 Y131.045 E0.26552
G1 X126.578 Y130.932 E0.00363
G1 X126.578 Y130.487 E0.01399
G1 X120.790 Y124.699 E0.25714
G1 X120.955 Y124.329 E0.01271
G1 X126.578 Y129.953 E0.24983
G1 X126.578 Y129.761 E0.00603
G1 X126.638 Y129.478 E0.00906
G1 X121.122 Y123.962 E0.24508
G1 X121.346 Y123.652 E0.01201
G1 X126.732 Y129.038 E0.23925
G1 X126.829 Y128.600 E0.01408
G1 X121.399 Y123.170 E0.24122
G1 X121.399 Y122.636 E0.01678
G1 X126.993 Y128.230 E0.24854
G1 X127.158 Y127.861 E0.01271
G1 X121.399 Y122.101 E0.25585
G1 X121.399 Y121.567 E0.01678
G1 X127.331 Y127.500 E0.26355
G1 X127.556 Y127.190 E0.01201
G1 X121.399 Y121.033 E0.27353
G1 X121.399 Y120.499 E0.01678
G1 X127.781 Y126.881 E0.28352
G1 X128.010 Y126.576 E0.01198
G1 X121.399 Y119.964 E0.29371
G1 X121.399 Y119.430 E0.01678
G1 X128.291 Y126.323 E0.30620
G1 X128.572 Y126.070 E0.01188
G1 X121.399 Y118.896 E0.31869
G1 X121.399 Y118.362 E0.01678
G1 X128.853 Y125.817 E0.33118
G1 X129.191 Y125.620 E0.01228
G1 X121.399 Y117.827 E0.34619
G1 X121.399 Y117.293 E0.01678
G1 X129.530 Y125.425 E0.36123
G1 X129.869 Y125.229 E0.01229
G1 X121.399 Y116.759 E0.37628
G1 X121.399 Y116.225 E0.01678
G1 X130.272 Y125.098 E0.39421
G1 X130.677 Y124.969 E0.01335
G1 X121.399 Y115.690 E0.41218
G1 X121.399 Y115.156 E0.01678
G1 X131.096 Y124.854 E0.43080
G1 X131.579 Y124.803 E0.01527
G1 X121.399 Y114.622 E0.45228
G1 X121.399 Y114.088 E0.01678
G1 X132.063 Y124.752 E0.47375
G1 X132.152 Y124.743 E0.00280
G1 X132.639 Y124.794 E0.01540
G1 X121.399 Y113.553 E0.49935
G1 X121.399 Y113.019 E0.01678
G1 X133.236 Y124.857 E0.52587
G1 X133.317 Y124.865 E0.00255
G1 X134.001 Y125.087 E0.02261
G1 X121.399 Y112.485 E0.55986
G1 X121.399 Y111.951 E0.01678
G1 X135.884 Y126.436 E0.64352
G1 F5760
G1 X134.333 Y124.885 E-0.76000
G1 E-0.04000 F2100.00000
G1 Z0.800 F7200.000
G1 X142.942 Y123.343
G1 Z0.200
G1 E0.80000 F2100.00000
G1 F1800
G1 X139.620 Y120.021 E0.14759
G1 X138.905 Y119.608 E0.02593
G1 X138.905 Y119.306 E0.00949
G1 X126.192 Y106.593 E0.56473
G1 X126.727 Y106.593 E0.01678
G1 X138.905 Y118.771 E0.54100
G1 X138.905 Y118.237 E0.01678
G1 X127.261 Y106.593 E0.51727
G1 X127.795 Y106.593 E0.01678
G1 X138.905 Y117.703 E0.49353
G1 X138.905 Y117.169 E0.01678
G1 X128.329 Y106.593 E0.46980
G1 X128.864 Y106.593 E0.01678
G1 X138.905 Y116.634 E0.44606
G1 X138.905 Y116.100 E0.01678
G1 X129.398 Y106.593 E0.42233
G1 X129.932 Y106.593 E0.01678
G1 X138.905 Y115.566 E0.39860
G1 X138.905 Y115.032 E0.01678
G1 X130.466 Y106.593 E0.37486
G1 X131.001 Y106.593 E0.01678
G1 X138.905 Y114.497 E0.35113
G1 X138.905 Y113.963 E0.01678
G1 X131.535 Y106.593 E0.32739
G1 X132.069 Y106.593 E0.01678
G1 X138.905 Y113.429 E0.30366
G1 X138.905 Y112.895 E0.01678
G1 X132.603 Y106.593 E0.27993
G1 X133.138 Y106.593 E0.01678
G1 X138.905 Y112.360 E0.25619
G1 X138.905 Y111.826 E0.01678
G1 X133.672 Y106.593 E0.23246
G1 X134.206 Y106.593 E0.01678
G1 X138.905 Y111.292 E0.20872
G1 X138.905 Y110.758 E0.01678
G1 X134.740 Y106.593 E0.18499
G1 X135.275 Y106.593 E0.01678
G1 X138.905 Y110.223 E0.16126
G1 X138.905 Y109.689 E0.01678
G1 X135.809 Y106.593 E0.13752
G1 X136.343 Y106.593 E0.01678
G1 X138.905 Y109.155 E0.11379
G1 X138.905 Y108.620 E0.01678
G1 X136.877 Y106.593 E0.09005
G1 X137.412 Y106.593 E0.01678
G1 X138.905 Y108.086 E0.06632
G1 X138.905 Y107.552 E0.01678
