; generated by Slic3r Prusa Edition 1.39.2+win64 on 2018-07-15 at 20:24:53

; 

; external perimeters extrusion width = 0.45mm
; perimeters extrusion width = 0.45mm
; infill extrusion width = 0.45mm
; solid infill extrusion width = 0.45mm
; top infill extrusion width = 0.45mm
; first layer extrusion width = 0.42mm

M107
M115 U3.1.0 ; tell printer latest fw version
M83  ; extruder relative mode
M104 S205 ; set extruder temp
M140 S55 ; set bed temp
M190 S55 ; wait for bed temp
M109 S205 ; wait for extruder temp
G28 W ; home all without mesh bed level
G80 ; mesh bed leveling
G1 Y-3.0 F1000.0 ; go outside print area
G92 E0.0
G1 X60.0 E9.0  F1000.0 ; intro line
G1 X100.0 E12.5  F1000.0 ; intro line
G92 E0.0
M900 K30; Filament gcode
G21 ; set units to millimeters
G90 ; use absolute coordinates
M83 ; use relative distances for extrusion
;BEFORE_LAYER_CHANGE
;0.2


G1 E-0.80000 F2100.00000
G1 Z0.600 F7200.000
;AFTER_LAYER_CHANGE
;0.2
G1 X91.105 Y82.832
G1 Z0.200
G1 E0.80000 F2100.00000
M204 S1000
G1 F1800
G1 X91.582 Y82.359 E0.02107
G1 X92.172 Y82.038 E0.02107
G1 X92.829 Y81.895 E0.02107
G1 X112.004 Y81.889 E0.60122
G1 X112.709 Y81.997 E0.02237
G1 X113.353 Y82.312 E0.02249
G1 X113.875 Y82.805 E0.02249
G1 X114.225 Y83.430 E0.02249
G1 X121.621 Y106.785 E0.76811
G1 X121.870 Y108.219 E0.04565
G1 X121.830 Y109.242 E0.03208
G1 X121.593 Y110.305 E0.03417
G1 X114.220 Y132.351 E0.72885
G1 X113.891 Y132.941 E0.02119
G1 X113.409 Y133.415 E0.02119
G1 X112.810 Y133.735 E0.02130
G1 X112.148 Y133.872 E0.02119
G1 X92.981 Y133.877 E0.60097
G1 X92.151 Y133.720 E0.02649
G1 X91.697 Y133.488 E0.01597
G1 X91.303 Y133.165 E0.01597
G1 X90.988 Y132.765 E0.01597
G1 X90.764 Y132.307 E0.01597
G1 X83.415 Y110.330 E0.72659
G1 X83.210 Y109.506 E0.02663
G1 X83.125 Y108.661 E0.02663
G1 X83.179 Y107.689 E0.03051
G1 X83.375 Y106.797 E0.02862
G1 X90.780 Y83.416 E0.76900
G1 X91.075 Y82.884 E0.01907
G1 F5760
G1 X91.582 Y82.359 E-0.25275
G1 X92.172 Y82.038 E-0.23273
G1 X92.829 Y81.895 E-0.23273
G1 X92.950 Y81.895 E-0.04179
G1 E-0.04000 F2100.00000
G1 Z0.800 F7200.000
G1 X89.362 Y106.058
G1 Z0.200
G1 E0.80000 F2100.00000
G1 F1800
G1 X89.832 Y106.176 E0.01517
G1 X90.269 Y106.382 E0.01518
G1 X90.658 Y106.671 E0.01518
G1 X90.983 Y107.029 E0.01517
G1 X91.232 Y107.444 E0.01518
G1 X91.395 Y107.900 E0.01517
G1 X91.466 Y108.379 E0.01517
G1 X91.442 Y108.862 E0.01518
G1 X91.324 Y109.332 E0.01517
G1 X91.118 Y109.769 E0.01518
G1 X90.829 Y110.158 E0.01518
G1 X90.471 Y110.483 E0.01517
G1 X90.056 Y110.732 E0.01518
G1 X89.600 Y110.895 E0.01517
G1 X89.121 Y110.966 E0.01517
G1 X88.638 Y110.942 E0.01518
G1 X88.168 Y110.824 E0.01517
G1 X87.731 Y110.618 E0.01518
G1 X87.342 Y110.329 E0.01518
G1 X87.017 Y109.971 E0.01517
G1 X86.768 Y109.556 E0.01518
G1 X86.605 Y109.100 E0.01517
G1 X86.534 Y108.621 E0.01517
G1 X86.558 Y108.138 E0.01518
G1 X86.676 Y107.668 E0.01517
G1 X86.882 Y107.231 E0.01518
G1 X87.171 Y106.842 E0.01518
G1 X87.529 Y106.517 E0.01517
G1 X87.944 Y106.268 E0.01518
G1 X88.400 Y106.105 E0.01517
G1 X88.879 Y106.034 E0.01517
G1 X89.302 Y106.055 E0.01330
G1 X89.284 Y106.432 F7200.000
G1 F1800
G1 X89.704 Y106.532 E0.01355
G1 X90.075 Y106.707 E0.01285
G1 X90.404 Y106.952 E0.01285
G1 X90.679 Y107.255 E0.01284
G1 X90.889 Y107.606 E0.01285
G1 X91.027 Y107.992 E0.01284
G1 X91.087 Y108.397 E0.01284
G1 X91.067 Y108.807 E0.01285
G1 X90.968 Y109.204 E0.01284
G1 X90.793 Y109.575 E0.01285
G1 X90.548 Y109.904 E0.01285
G1 X90.245 Y110.179 E0.01284
G1 X89.894 Y110.389 E0.01285
G1 X89.508 Y110.527 E0.01284
G1 X89.103 Y110.587 E0.01284
G1 X88.693 Y110.567 E0.01285
G1 X88.296 Y110.468 E0.01284
G1 X87.925 Y110.293 E0.01285
G1 X87.596 Y110.048 E0.01285
G1 X87.321 Y109.745 E0.01284
G1 X87.111 Y109.394 E0.01285
G1 X86.973 Y109.008 E0.01284
G1 X86.913 Y108.603 E0.01285
G1 X86.933 Y108.193 E0.01285
G1 X87.032 Y107.796 E0.01284
G1 X87.207 Y107.425 E0.01285
G1 X87.452 Y107.096 E0.01285
G1 X87.755 Y106.821 E0.01284
G1 X88.106 Y106.611 E0.01285
G1 X88.492 Y106.473 E0.01284
G1 X88.897 Y106.413 E0.01284
G1 X89.224 Y106.429 E0.01025
G1 X89.251 Y106.807 F7200.000
G1 F1800
G1 X89.576 Y106.889 E0.01052
G1 X89.880 Y107.032 E0.01052
G1 X90.149 Y107.232 E0.01052
G1 X90.374 Y107.481 E0.01052
G1 X90.547 Y107.768 E0.01052
G1 X90.660 Y108.084 E0.01051
G1 X90.709 Y108.416 E0.01052
G1 X90.693 Y108.751 E0.01052
G1 X90.611 Y109.076 E0.01052
G1 X90.468 Y109.380 E0.01052
G1 X90.268 Y109.649 E0.01052
G1 X90.019 Y109.874 E0.01052
G1 X89.732 Y110.047 E0.01052
G1 X89.416 Y110.160 E0.01051
G1 X89.084 Y110.209 E0.01052
G1 X88.749 Y110.193 E0.01052
G1 X88.424 Y110.111 E0.01052
G1 X88.120 Y109.968 E0.01052
G1 X87.851 Y109.768 E0.01052
G1 X87.626 Y109.519 E0.01052
G1 X87.453 Y109.232 E0.01052
G1 X87.340 Y108.916 E0.01051
G1 X87.291 Y108.584 E0.01052
G1 X87.307 Y108.249 E0.01052
G1 X87.389 Y107.924 E0.01052
G1 X87.532 Y107.620 E0.01052
G1 X87.732 Y107.351 E0.01052
G1 X87.981 Y107.126 E0.01052
G1 X88.268 Y106.953 E0.01052
G1 X88.584 Y106.840 E0.01051
G1 X88.916 Y106.791 E0.01052
G1 X89.191 Y106.805 E0.00864
G1 X89.460 Y106.545 F7200.000
G1 F5760
G1 X89.576 Y106.889 E-0.13660
G1 X89.880 Y107.032 E-0.11620
G1 X90.149 Y107.232 E-0.11616
G1 X90.374 Y107.481 E-0.11617
G1 X90.547 Y107.768 E-0.11618
G1 X90.660 Y108.084 E-0.11614
G1 X90.678 Y108.206 E-0.04254
G1 E-0.04000 F2100.00000
G1 Z0.800 F7200.000
G1 X113.558 Y108.138
G1 Z0.200
G1 E0.80000 F2100.00000
G1 F1800
G1 X113.676 Y107.668 E0.01517
G1 X113.882 Y107.231 E0.01518
G1 X114.171 Y106.842 E0.01518
G1 X114.529 Y106.517 E0.01517
G1 X114.944 Y106.268 E0.01518
G1 X115.400 Y106.105 E0.01517
G1 X115.879 Y106.034 E0.01517
G1 X116.362 Y106.058 E0.01518
G1 X116.832 Y106.176 E0.01517
G1 X117.269 Y106.382 E0.01518
G1 X117.658 Y106.671 E0.01518
G1 X117.983 Y107.029 E0.01517
G1 X118.232 Y107.444 E0.01518
G1 X118.395 Y107.900 E0.01517
G1 X118.466 Y108.379 E0.01517
G1 X118.442 Y108.862 E0.01518
G1 X118.324 Y109.332 E0.01517
G1 X118.118 Y109.769 E0.01518
G1 X117.829 Y110.158 E0.01518
G1 X117.471 Y110.483 E0.01517
G1 X117.056 Y110.732 E0.01518
G1 X116.600 Y110.895 E0.01517
G1 X116.121 Y110.966 E0.01517
G1 X115.638 Y110.942 E0.01518
G1 X115.168 Y110.824 E0.01517
G1 X114.731 Y110.618 E0.01518
G1 X114.342 Y110.329 E0.01518
G1 X114.017 Y109.971 E0.01517
G1 X113.768 Y109.556 E0.01518
G1 X113.605 Y109.100 E0.01517
G1 X113.534 Y108.621 E0.01517
G1 X113.555 Y108.198 E0.01330
G1 X113.932 Y108.216 F7200.000
G1 F1800
G1 X114.032 Y107.796 E0.01355
G1 X114.207 Y107.425 E0.01285
G1 X114.452 Y107.096 E0.01285
G1 X114.755 Y106.821 E0.01284
G1 X115.106 Y106.611 E0.01285
G1 X115.492 Y106.473 E0.01284
G1 X115.897 Y106.413 E0.01284
G1 X116.307 Y106.433 E0.01285
G1 X116.704 Y106.532 E0.01284
G1 X117.075 Y106.707 E0.01285
G1 X117.404 Y106.952 E0.01285
G1 X117.679 Y107.255 E0.01284
G1 X117.889 Y107.606 E0.01285
G1 X118.027 Y107.992 E0.01284
G1 X118.087 Y108.397 E0.01284
G1 X118.067 Y108.807 E0.01285
G1 X117.968 Y109.204 E0.01284
G1 X117.793 Y109.575 E0.01285
G1 X117.548 Y109.904 E0.01285
G1 X117.245 Y110.179 E0.01284
G1 X116.894 Y110.389 E0.01285
G1 X116.508 Y110.527 E0.01284
G1 X116.103 Y110.587 E0.01284
G1 X115.693 Y110.567 E0.01285
G1 X115.296 Y110.468 E0.01284
G1 X114.925 Y110.293 E0.01285
G1 X114.596 Y110.048 E0.01285
G1 X114.321 Y109.745 E0.01284
G1 X114.111 Y109.394 E0.01285
G1 X113.973 Y109.008 E0.01284
G1 X113.913 Y108.603 E0.01285
G1 X113.929 Y108.276 E0.01025
G1 X114.307 Y108.249 F7200.000
G1 F1800
G1 X114.389 Y107.924 E0.01052
G1 X114.532 Y107.620 E0.01052
G1 X114.732 Y107.351 E0.01052
G1 X114.981 Y107.126 E0.01052
G1 X115.268 Y106.953 E0.01052
G1 X115.584 Y106.840 E0.01051
G1 X115.916 Y106.791 E0.01052
G1 X116.251 Y106.807 E0.01052
G1 X116.576 Y106.889 E0.01052
G1 X116.880 Y107.032 E0.01052
G1 X117.149 Y107.232 E0.01052
G1 X117.374 Y107.481 E0.01052
G1 X117.547 Y107.768 E0.01052
G1 X117.660 Y108.084 E0.01051
G1 X117.709 Y108.416 E0.01052
G1 X117.693 Y108.751 E0.01052
G1 X117.611 Y109.076 E0.01052
G1 X117.468 Y109.380 E0.01052
G1 X117.268 Y109.649 E0.01052
G1 X117.019 Y109.874 E0.01052
G1 X116.732 Y110.047 E0.01052
G1 X116.416 Y110.160 E0.01051
G1 X116.084 Y110.209 E0.01052
G1 X115.749 Y110.193 E0.01052
G1 X115.424 Y110.111 E0.01052
G1 X115.120 Y109.968 E0.01052
G1 X114.851 Y109.768 E0.01052
G1 X114.626 Y109.519 E0.01052
G1 X114.453 Y109.232 E0.01052
G1 X114.340 Y108.916 E0.01051
G1 X114.291 Y108.584 E0.01052
G1 X114.305 Y108.309 E0.00864
G1 X114.045 Y108.040 F7200.000
G1 F5760
G1 X114.389 Y107.924 E-0.13660
G1 X114.532 Y107.620 E-0.11620
G1 X114.732 Y107.351 E-0.11616
G1 X114.981 Y107.126 E-0.11617
G1 X115.268 Y106.953 E-0.11618
G1 X115.584 Y106.840 E-0.11614
G1 X115.706 Y106.822 E-0.04254
G1 E-0.04000 F2100.00000
G1 Z0.800 F7200.000
G1 X111.036 Y105.963
G1 Z0.200
G1 E0.80000 F2100.00000
G1 F1800
G1 X116.124 Y105.968 E0.15953
G1 X116.372 Y105.993 E0.00782
G1 X116.854 Y106.114 E0.01558
G1 X117.073 Y106.204 E0.00742
G1 X117.407 Y106.394 E0.01206
G1 X117.701 Y106.623 E0.01170
G1 X117.960 Y106.894 E0.01175
G1 X118.141 Y107.145 E0.00969
G1 X118.288 Y107.411 E0.00955
G1 X118.424 Y107.765 E0.01187
G1 X118.506 Y108.128 E0.01169
G1 X118.533 Y108.500 E0.01169
G1 X118.506 Y108.872 E0.01170
G1 X118.425 Y109.232 E0.01156
G1 X118.288 Y109.589 E0.01200
G1 X118.141 Y109.856 E0.00955
G1 X117.962 Y110.103 E0.00956
G1 X117.701 Y110.377 E0.01187
G1 X117.407 Y110.606 E0.01169
G1 X117.073 Y110.796 E0.01206
G1 X116.854 Y110.886 E0.00742
G1 X116.372 Y111.007 E0.01558
G1 X116.124 Y111.032 E0.00782
G1 X111.036 Y111.037 E0.15953
G1 X111.036 Y130.536 E0.61138
G1 X93.964 Y130.536 E0.53527
G1 X93.964 Y111.037 E0.61138
G1 X88.876 Y111.032 E0.15953
G1 X88.628 Y111.007 E0.00782
G1 X88.146 Y110.886 E0.01558
G1 X87.927 Y110.796 E0.00742
G1 X87.593 Y110.606 E0.01206
G1 X87.299 Y110.377 E0.01169
G1 X87.038 Y110.103 E0.01187
G1 X86.859 Y109.856 E0.00956
G1 X86.712 Y109.589 E0.00956
G1 X86.576 Y109.235 E0.01187
G1 X86.494 Y108.872 E0.01169
G1 X86.467 Y108.500 E0.01169
G1 X86.494 Y108.128 E0.01169
G1 X86.576 Y107.765 E0.01169
G1 X86.712 Y107.411 E0.01187
G1 X86.859 Y107.144 E0.00956
G1 X87.038 Y106.897 E0.00956
G1 X87.299 Y106.623 E0.01187
G1 X87.593 Y106.394 E0.01169
G1 X87.927 Y106.204 E0.01206
G1 X88.146 Y106.114 E0.00742
G1 X88.628 Y105.993 E0.01558
G1 X88.876 Y105.968 E0.00782
G1 X93.964 Y105.963 E0.15953
G1 X93.964 Y85.409 E0.64446
G1 X111.036 Y85.409 E0.53527
G1 X111.036 Y105.903 E0.64258
G1 X111.413 Y105.586 F7200.000
G1 F1800
G1 X116.143 Y105.591 E0.14829
G1 X116.427 Y105.619 E0.00897
G1 X116.708 Y105.675 E0.00896
G1 X116.981 Y105.758 E0.00896
G1 X117.238 Y105.865 E0.00873
G1 X117.617 Y106.079 E0.01366
G1 X117.955 Y106.343 E0.01344
G1 X118.250 Y106.653 E0.01341
G1 X118.460 Y106.942 E0.01121
G1 X118.631 Y107.252 E0.01108
G1 X118.786 Y107.655 E0.01354
G1 X118.880 Y108.073 E0.01343
G1 X118.911 Y108.500 E0.01343
G1 X118.880 Y108.927 E0.01344
G1 X118.787 Y109.341 E0.01330
G1 X118.630 Y109.748 E0.01367
G1 X118.460 Y110.058 E0.01108
G1 X118.253 Y110.344 E0.01109
G1 X117.955 Y110.657 E0.01354
G1 X117.617 Y110.921 E0.01343
G1 X117.238 Y111.135 E0.01366
G1 X116.981 Y111.242 E0.00873
G1 X116.708 Y111.325 E0.00896
G1 X116.427 Y111.381 E0.00896
G1 X116.143 Y111.409 E0.00897
G1 X111.413 Y111.414 E0.14829
G1 X111.413 Y130.913 E0.61139
G1 X93.587 Y130.913 E0.55892
G1 X93.587 Y111.414 E0.61139
G1 X88.857 Y111.409 E0.14829
G1 X88.573 Y111.381 E0.00897
G1 X88.292 Y111.325 E0.00896
G1 X88.019 Y111.242 E0.00896
G1 X87.762 Y111.135 E0.00873
G1 X87.383 Y110.921 E0.01366
G1 X87.045 Y110.657 E0.01343
G1 X86.747 Y110.344 E0.01354
G1 X86.540 Y110.058 E0.01109
G1 X86.369 Y109.748 E0.01108
G1 X86.214 Y109.345 E0.01354
G1 X86.120 Y108.927 E0.01343
G1 X86.089 Y108.500 E0.01343
G1 X86.120 Y108.073 E0.01343
G1 X86.214 Y107.655 E0.01343
G1 X86.369 Y107.252 E0.01354
G1 X86.540 Y106.942 E0.01108
G1 X86.747 Y106.656 E0.01109
G1 X87.045 Y106.343 E0.01354
G1 X87.383 Y106.079 E0.01343
G1 X87.762 Y105.865 E0.01366
G1 X88.019 Y105.758 E0.00873
G1 X88.292 Y105.675 E0.00896
G1 X88.573 Y105.619 E0.00896
G1 X88.857 Y105.591 E0.00897
G1 X93.587 Y105.586 E0.14829
G1 X93.587 Y85.032 E0.64447
G1 X111.413 Y85.032 E0.55892
G1 X111.413 Y105.526 E0.64259
G1 X111.790 Y105.210 F7200.000
G1 F1800
G1 X116.161 Y105.214 E0.13706
G1 X116.483 Y105.246 E0.01013
G1 X116.799 Y105.309 E0.01012
G1 X117.108 Y105.403 E0.01012
G1 X117.404 Y105.525 E0.01004
G1 X117.828 Y105.765 E0.01526
G1 X118.209 Y106.063 E0.01518
G1 X118.541 Y106.411 E0.01508
G1 X118.779 Y106.740 E0.01274
G1 X118.973 Y107.092 E0.01261
G1 X119.148 Y107.545 E0.01521
G1 X119.254 Y108.017 E0.01517
G1 X119.289 Y108.500 E0.01518
G1 X119.254 Y108.983 E0.01518
G1 X119.149 Y109.451 E0.01504
G1 X118.973 Y109.908 E0.01535
G1 X118.779 Y110.260 E0.01261
G1 X118.544 Y110.586 E0.01261
G1 X118.209 Y110.937 E0.01521
G1 X117.828 Y111.235 E0.01518
G1 X117.404 Y111.475 E0.01526
G1 X117.108 Y111.597 E0.01004
G1 X116.799 Y111.691 E0.01012
G1 X116.483 Y111.754 E0.01012
G1 X116.161 Y111.786 E0.01013
G1 X111.790 Y111.790 E0.13706
G1 X111.790 Y131.290 E0.61140
G1 X93.210 Y131.290 E0.58256
G1 X93.210 Y111.790 E0.61140
G1 X88.839 Y111.786 E0.13706
G1 X88.517 Y111.754 E0.01013
G1 X88.201 Y111.691 E0.01012
G1 X87.892 Y111.597 E0.01012
G1 X87.596 Y111.475 E0.01004
G1 X87.172 Y111.235 E0.01526
G1 X86.791 Y110.937 E0.01518
G1 X86.456 Y110.586 E0.01521
G1 X86.221 Y110.260 E0.01261
G1 X86.027 Y109.908 E0.01261
G1 X85.852 Y109.455 E0.01521
G1 X85.746 Y108.983 E0.01517
G1 X85.711 Y108.500 E0.01518
G1 X85.746 Y108.017 E0.01518
G1 X85.852 Y107.545 E0.01517
G1 X86.027 Y107.092 E0.01521
G1 X86.221 Y106.740 E0.01261
G1 X86.456 Y106.414 E0.01261
G1 X86.791 Y106.063 E0.01521
G1 X87.172 Y105.765 E0.01518
G1 X87.596 Y105.525 E0.01526
G1 X87.892 Y105.403 E0.01004
G1 X88.201 Y105.309 E0.01012
G1 X88.517 Y105.246 E0.01012
G1 X88.839 Y105.214 E0.01013
G1 X93.210 Y105.210 E0.13706
G1 X93.210 Y84.655 E0.64448
G1 X111.790 Y84.655 E0.58256
G1 X111.790 Y105.150 E0.64260
G1 X111.887 Y105.598 F7200.000
G1 F5760
G1 X113.984 Y105.182 E-0.76000
G1 E-0.04000 F2100.00000
G1 Z0.800 F7200.000
G1 X114.425 Y106.459
G1 Z0.200
G1 E0.80000 F2100.00000
G1 F1800
G1 X114.216 Y106.249 E0.00936
G1 X113.678 Y106.249 E0.01701
G1 X114.023 Y106.594 E0.01544
G1 X113.960 Y106.651 E0.00269
G1 X113.783 Y106.891 E0.00943
G1 X113.140 Y106.248 E0.02873
G1 X112.602 Y106.248 E0.01701
G1 X113.575 Y107.220 E0.04348
G1 X113.404 Y107.588 E0.01280
G1 X112.064 Y106.247 E0.05993
G1 X111.525 Y106.246 E0.01701
G1 X113.296 Y108.017 E0.07916
G1 X113.277 Y108.096 E0.00256
G1 X113.256 Y108.515 E0.01325
G1 X94.247 Y89.506 E0.84971
G1 X94.247 Y88.968 E0.01699
G1 X110.753 Y105.474 E0.73782
G1 X110.753 Y104.936 E0.01699
G1 X94.247 Y88.430 E0.73782
G1 X94.247 Y87.893 E0.01699
G1 X110.753 Y104.399 E0.73782
G1 X110.753 Y103.861 E0.01699
G1 X94.247 Y87.355 E0.73782
G1 X94.247 Y86.818 E0.01699
G1 X110.753 Y103.324 E0.73782
G1 X110.753 Y102.786 E0.01699
G1 X94.247 Y86.280 E0.73782
G1 X94.247 Y85.742 E0.01699
G1 X110.753 Y102.249 E0.73782
G1 X110.753 Y101.711 E0.01699
G1 X94.734 Y85.692 E0.71605
G1 X95.272 Y85.692 E0.01699
G1 X110.753 Y101.173 E0.69202
G1 X110.753 Y100.636 E0.01699
G1 X95.809 Y85.692 E0.66799
G1 X96.347 Y85.692 E0.01699
G1 X110.753 Y100.098 E0.64396
G1 X110.753 Y99.561 E0.01699
G1 X96.884 Y85.692 E0.61993
G1 X97.422 Y85.692 E0.01699
G1 X110.753 Y99.023 E0.59590
G1 X110.753 Y98.486 E0.01699
G1 X97.959 Y85.692 E0.57187
G1 X98.497 Y85.692 E0.01699
G1 X110.753 Y97.948 E0.54784
G1 X110.753 Y97.410 E0.01699
G1 X99.035 Y85.692 E0.52381
G1 X99.572 Y85.692 E0.01699
G1 X110.753 Y96.873 E0.49978
G1 X110.753 Y96.335 E0.01699
G1 X100.110 Y85.692 E0.47575
G1 X100.647 Y85.692 E0.01699
G1 X110.753 Y95.798 E0.45172
G1 X110.753 Y95.260 E0.01699
G1 X101.185 Y85.692 E0.42769
G1 X101.722 Y85.692 E0.01699
G1 X110.753 Y94.723 E0.40366
G1 X110.753 Y94.185 E0.01699
G1 X102.260 Y85.692 E0.37963
G1 X102.798 Y85.692 E0.01699
G1 X110.753 Y93.647 E0.35561
G1 X110.753 Y93.110 E0.01699
G1 X103.335 Y85.692 E0.33158
G1 X103.873 Y85.692 E0.01699
G1 X110.753 Y92.572 E0.30755
G1 X110.753 Y92.035 E0.01699
G1 X104.410 Y85.692 E0.28352
G1 X104.948 Y85.692 E0.01699
G1 X110.753 Y91.497 E0.25949
G1 X110.753 Y90.959 E0.01699
