; generated by Slic3r Prusa Edition 1.39.2+win64 on 2018-05-27 at 06:50:03

; 

; external perimeters extrusion width = 0.45mm
; perimeters extrusion width = 0.45mm
; infill extrusion width = 0.45mm
; solid infill extrusion width = 0.45mm
; top infill extrusion width = 0.45mm
; first layer extrusion width = 0.42mm

M107
M115 U3.1.0 ; tell printer latest fw version
M83  ; extruder relative mode
M104 S205 ; set extruder temp
M140 S55 ; set bed temp
M190 S55 ; wait for bed temp
M109 S205 ; wait for extruder temp
G28 W ; home all without mesh bed level
G80 ; mesh bed leveling
G1 Y-3.0 F1000.0 ; go outside print area
G92 E0.0
G1 X60.0 E9.0  F1000.0 ; intro line
G1 X100.0 E12.5  F1000.0 ; intro line
G92 E0.0
M900 K30; Filament gcode
G21 ; set units to millimeters
G90 ; use absolute coordinates
M83 ; use relative distances for extrusion
;BEFORE_LAYER_CHANGE
;0.2


G1 E-0.80000 F2100.00000
G1 Z0.600 F7200.000
;AFTER_LAYER_CHANGE
;0.2
G1 X92.440 Y83.983
G1 Z0.200
G1 E0.80000 F2100.00000
M204 S1000
G1 F1800
G1 X92.808 Y83.332 E0.02345
G1 X93.341 Y82.801 E0.02358
G1 X93.998 Y82.435 E0.02358
G1 X94.729 Y82.259 E0.02358
G1 X110.004 Y82.246 E0.47894
G1 X111.013 Y82.439 E0.03221
G1 X111.884 Y82.991 E0.03233
G1 X112.491 Y83.825 E0.03233
G1 X112.748 Y84.819 E0.03221
G1 X112.754 Y120.012 E1.10346
G1 X112.560 Y121.017 E0.03208
G1 X112.184 Y121.678 E0.02383
G1 X111.642 Y122.211 E0.02383
G1 X110.975 Y122.576 E0.02383
G1 X110.230 Y122.745 E0.02396
G1 X94.967 Y122.754 E0.47856
G1 X93.983 Y122.560 E0.03145
G1 X93.300 Y122.167 E0.02473
G1 X92.753 Y121.593 E0.02485
G1 X92.392 Y120.887 E0.02485
G1 X92.248 Y120.111 E0.02473
G1 X92.246 Y84.988 E1.10128
G1 X92.429 Y84.042 E0.03020
G1 X92.794 Y84.115 F7200.000
G1 F1800
G1 X93.118 Y83.548 E0.02048
G1 X93.584 Y83.091 E0.02048
G1 X94.157 Y82.777 E0.02048
G1 X94.793 Y82.632 E0.02048
G1 X110.004 Y82.623 E0.47691
G1 X110.881 Y82.792 E0.02802
G1 X111.631 Y83.271 E0.02790
G1 X112.154 Y83.995 E0.02802
G1 X112.373 Y84.862 E0.02802
G1 X112.377 Y120.011 E1.10209
G1 X112.206 Y120.885 E0.02790
G1 X111.878 Y121.458 E0.02071
G1 X111.404 Y121.918 E0.02071
G1 X110.822 Y122.231 E0.02071
G1 X110.172 Y122.371 E0.02083
G1 X94.977 Y122.377 E0.47643
G1 X94.115 Y122.206 E0.02755
G1 X93.524 Y121.864 E0.02142
G1 X93.055 Y121.367 E0.02142
G1 X92.747 Y120.757 E0.02142
G1 X92.624 Y120.081 E0.02154
G1 X92.623 Y84.989 E1.10030
G1 X92.782 Y84.174 E0.02602
G1 F5760
G1 X93.118 Y83.548 E-0.24597
G1 X93.584 Y83.091 E-0.22620
G1 X94.157 Y82.777 E-0.22620
G1 X94.330 Y82.738 E-0.06164
G1 E-0.04000 F2100.00000
G1 Z0.800 F7200.000
G1 X101.333 Y111.379
G1 Z0.200
G1 E0.80000 F2100.00000
G1 F1800
G1 X101.903 Y111.193 E0.01881
G1 X102.492 Y111.131 E0.01855
G1 X103.095 Y111.193 E0.01901
G1 X103.667 Y111.379 E0.01886
G1 X104.187 Y111.679 E0.01881
G1 X104.632 Y112.080 E0.01881
G1 X104.985 Y112.565 E0.01881
G1 X105.229 Y113.113 E0.01881
G1 X105.354 Y113.700 E0.01881
G1 X105.354 Y114.300 E0.01881
G1 X105.229 Y114.887 E0.01881
G1 X104.985 Y115.435 E0.01881
G1 X104.632 Y115.920 E0.01881
G1 X104.187 Y116.321 E0.01881
G1 X103.667 Y116.621 E0.01881
G1 X103.097 Y116.807 E0.01881
G1 X102.500 Y116.869 E0.01881
G1 X101.903 Y116.807 E0.01881
G1 X101.333 Y116.621 E0.01881
G1 X100.813 Y116.321 E0.01881
G1 X100.368 Y115.920 E0.01881
G1 X100.015 Y115.435 E0.01881
G1 X99.771 Y114.887 E0.01881
G1 X99.646 Y114.300 E0.01881
G1 X99.646 Y113.700 E0.01881
G1 X99.771 Y113.113 E0.01881
G1 X100.015 Y112.565 E0.01881
G1 X100.368 Y112.080 E0.01881
G1 X100.813 Y111.679 E0.01881
G1 X101.281 Y111.409 E0.01693
G1 X101.469 Y111.735 F7200.000
G1 F1800
G1 X101.982 Y111.564 E0.01695
G1 X102.492 Y111.510 E0.01608
G1 X103.017 Y111.564 E0.01653
G1 X103.513 Y111.725 E0.01636
G1 X103.964 Y111.985 E0.01632
G1 X104.351 Y112.334 E0.01633
G1 X104.657 Y112.755 E0.01632
G1 X104.868 Y113.230 E0.01632
G1 X104.977 Y113.740 E0.01632
G1 X104.977 Y114.260 E0.01632
G1 X104.868 Y114.770 E0.01632
G1 X104.657 Y115.245 E0.01632
G1 X104.351 Y115.666 E0.01632
G1 X103.964 Y116.015 E0.01633
G1 X103.513 Y116.275 E0.01632
G1 X103.018 Y116.436 E0.01633
G1 X102.500 Y116.490 E0.01632
G1 X101.982 Y116.436 E0.01632
G1 X101.487 Y116.275 E0.01632
G1 X101.036 Y116.015 E0.01632
G1 X100.649 Y115.666 E0.01633
G1 X100.343 Y115.245 E0.01632
G1 X100.132 Y114.770 E0.01632
G1 X100.023 Y114.260 E0.01632
G1 X100.023 Y113.740 E0.01632
G1 X100.132 Y113.230 E0.01632
G1 X100.343 Y112.755 E0.01632
G1 X100.649 Y112.334 E0.01632
G1 X101.036 Y111.985 E0.01633
G1 X101.417 Y111.765 E0.01380
G1 X101.641 Y112.071 F7200.000
G1 F1800
G1 X102.061 Y111.935 E0.01384
G1 X102.493 Y111.890 E0.01362
G1 X102.939 Y111.935 E0.01404
G1 X103.359 Y112.071 E0.01385
G1 X103.741 Y112.292 E0.01384
G1 X104.069 Y112.587 E0.01384
G1 X104.328 Y112.944 E0.01384
G1 X104.508 Y113.348 E0.01384
G1 X104.600 Y113.779 E0.01384
G1 X104.600 Y114.221 E0.01384
G1 X104.508 Y114.652 E0.01384
G1 X104.328 Y115.056 E0.01384
G1 X104.069 Y115.413 E0.01384
G1 X103.741 Y115.708 E0.01384
G1 X103.359 Y115.929 E0.01384
G1 X102.939 Y116.065 E0.01384
G1 X102.500 Y116.111 E0.01384
G1 X102.061 Y116.065 E0.01384
G1 X101.641 Y115.929 E0.01384
G1 X101.259 Y115.708 E0.01384
G1 X100.931 Y115.413 E0.01384
G1 X100.672 Y115.056 E0.01384
G1 X100.492 Y114.652 E0.01384
G1 X100.400 Y114.221 E0.01384
G1 X100.400 Y113.779 E0.01384
G1 X100.492 Y113.348 E0.01384
G1 X100.672 Y112.944 E0.01384
G1 X100.931 Y112.587 E0.01384
G1 X101.259 Y112.292 E0.01384
G1 X101.589 Y112.101 E0.01196
G1 X101.683 Y111.674 F7200.000
G1 F5760
G1 X102.061 Y111.935 E-0.17326
G1 X102.493 Y111.890 E-0.15044
G1 X102.939 Y111.935 E-0.15509
G1 X103.359 Y112.071 E-0.15301
G1 X103.679 Y112.256 E-0.12820
G1 E-0.04000 F2100.00000
G1 Z0.800 F7200.000
G1 X102.500 Y106.719
G1 Z0.200
G1 E0.80000 F2100.00000
G1 F1800
G1 X101.623 Y106.627 E0.02766
G1 X100.784 Y106.355 E0.02766
G1 X100.020 Y105.914 E0.02766
G1 X99.364 Y105.323 E0.02766
G1 X98.846 Y104.610 E0.02766
G1 X98.487 Y103.804 E0.02766
G1 X98.304 Y102.941 E0.02766
G1 X98.304 Y102.059 E0.02766
G1 X98.487 Y101.196 E0.02766
G1 X98.846 Y100.390 E0.02766
G1 X99.364 Y99.677 E0.02766
G1 X100.020 Y99.086 E0.02766
G1 X100.784 Y98.645 E0.02766
G1 X101.623 Y98.373 E0.02766
G1 X102.480 Y98.283 E0.02703
G1 X103.375 Y98.372 E0.02819
G1 X104.216 Y98.645 E0.02774
G1 X104.980 Y99.086 E0.02766
G1 X105.636 Y99.677 E0.02766
G1 X106.154 Y100.390 E0.02766
G1 X106.513 Y101.196 E0.02766
G1 X106.696 Y102.059 E0.02766
G1 X106.696 Y102.941 E0.02766
G1 X106.513 Y103.804 E0.02766
G1 X106.154 Y104.610 E0.02766
G1 X105.636 Y105.323 E0.02766
G1 X104.980 Y105.914 E0.02766
G1 X104.216 Y106.355 E0.02766
G1 X103.377 Y106.627 E0.02766
G1 X102.560 Y106.713 E0.02578
G1 X102.520 Y106.338 F7200.000
G1 F1800
G1 X101.702 Y106.256 E0.02580
G1 X100.938 Y106.008 E0.02517
G1 X100.243 Y105.607 E0.02517
G1 X99.646 Y105.070 E0.02517
G1 X99.174 Y104.420 E0.02517
G1 X98.848 Y103.687 E0.02517
G1 X98.681 Y102.901 E0.02517
G1 X98.681 Y102.099 E0.02517
G1 X98.848 Y101.313 E0.02517
G1 X99.174 Y100.580 E0.02517
G1 X99.646 Y99.930 E0.02517
G1 X100.243 Y99.393 E0.02517
G1 X100.938 Y98.992 E0.02517
G1 X101.702 Y98.744 E0.02517
G1 X102.481 Y98.662 E0.02458
G1 X103.297 Y98.743 E0.02571
G1 X104.062 Y98.992 E0.02522
G1 X104.757 Y99.393 E0.02517
G1 X105.354 Y99.930 E0.02517
G1 X105.826 Y100.580 E0.02517
G1 X106.152 Y101.313 E0.02517
G1 X106.319 Y102.099 E0.02517
G1 X106.319 Y102.901 E0.02517
G1 X106.152 Y103.687 E0.02517
G1 X105.826 Y104.420 E0.02517
G1 X105.354 Y105.070 E0.02517
G1 X104.757 Y105.607 E0.02517
G1 X104.062 Y106.008 E0.02517
G1 X103.298 Y106.256 E0.02517
G1 X102.580 Y106.332 E0.02265
G1 X102.541 Y105.957 F7200.000
G1 F1800
G1 X101.780 Y105.886 E0.02394
G1 X101.092 Y105.662 E0.02269
G1 X100.466 Y105.300 E0.02269
G1 X99.928 Y104.816 E0.02269
G1 X99.503 Y104.231 E0.02269
G1 X99.208 Y103.570 E0.02269
G1 X99.058 Y102.862 E0.02269
G1 X99.058 Y102.138 E0.02269
G1 X99.208 Y101.430 E0.02269
G1 X99.503 Y100.769 E0.02269
G1 X99.928 Y100.184 E0.02269
G1 X100.466 Y99.700 E0.02269
G1 X101.092 Y99.338 E0.02269
G1 X101.780 Y99.114 E0.02269
G1 X102.482 Y99.041 E0.02212
G1 X103.219 Y99.114 E0.02322
G1 X103.908 Y99.338 E0.02271
G1 X104.534 Y99.700 E0.02269
G1 X105.072 Y100.184 E0.02269
G1 X105.497 Y100.769 E0.02269
G1 X105.792 Y101.430 E0.02269
G1 X105.942 Y102.138 E0.02269
G1 X105.942 Y102.862 E0.02269
G1 X105.792 Y103.570 E0.02269
G1 X105.497 Y104.231 E0.02269
G1 X105.072 Y104.816 E0.02269
G1 X104.534 Y105.300 E0.02269
G1 X103.908 Y105.662 E0.02269
G1 X103.220 Y105.886 E0.02269
G1 X102.600 Y105.951 E0.01953
G1 X102.343 Y106.305 F7200.000
G1 F5760
G1 X101.780 Y105.886 E-0.28484
G1 X101.092 Y105.662 E-0.25062
G1 X100.531 Y105.338 E-0.22454
G1 E-0.04000 F2100.00000
G1 Z0.800 F7200.000
G1 X102.500 Y92.869
G1 Z0.200
G1 E0.80000 F2100.00000
G1 F1800
G1 X101.903 Y92.807 E0.01881
G1 X101.333 Y92.621 E0.01881
G1 X100.813 Y92.321 E0.01881
G1 X100.368 Y91.920 E0.01881
G1 X100.015 Y91.435 E0.01881
G1 X99.771 Y90.887 E0.01881
G1 X99.646 Y90.300 E0.01881
G1 X99.646 Y89.700 E0.01881
G1 X99.771 Y89.113 E0.01881
G1 X100.015 Y88.565 E0.01881
G1 X100.368 Y88.080 E0.01881
G1 X100.813 Y87.679 E0.01881
G1 X101.333 Y87.379 E0.01881
G1 X101.903 Y87.193 E0.01881
G1 X102.492 Y87.131 E0.01855
G1 X103.095 Y87.193 E0.01901
G1 X103.667 Y87.379 E0.01886
G1 X104.187 Y87.679 E0.01881
G1 X104.632 Y88.080 E0.01881
G1 X104.985 Y88.565 E0.01881
G1 X105.229 Y89.113 E0.01881
G1 X105.354 Y89.700 E0.01881
G1 X105.354 Y90.300 E0.01881
G1 X105.229 Y90.887 E0.01881
G1 X104.985 Y91.435 E0.01881
G1 X104.632 Y91.920 E0.01881
G1 X104.187 Y92.321 E0.01881
G1 X103.667 Y92.621 E0.01881
G1 X103.097 Y92.807 E0.01881
G1 X102.560 Y92.863 E0.01693
G1 X102.520 Y92.488 F7200.000
G1 F1800
G1 X101.982 Y92.436 E0.01695
G1 X101.487 Y92.275 E0.01632
G1 X101.036 Y92.015 E0.01632
G1 X100.649 Y91.666 E0.01633
G1 X100.343 Y91.245 E0.01632
G1 X100.132 Y90.770 E0.01632
G1 X100.023 Y90.260 E0.01632
G1 X100.023 Y89.740 E0.01632
G1 X100.132 Y89.230 E0.01632
G1 X100.343 Y88.755 E0.01632
G1 X100.649 Y88.334 E0.01632
G1 X101.036 Y87.985 E0.01633
G1 X101.487 Y87.725 E0.01632
G1 X101.982 Y87.564 E0.01632
G1 X102.492 Y87.510 E0.01608
G1 X103.017 Y87.564 E0.01653
G1 X103.513 Y87.725 E0.01636
G1 X103.964 Y87.985 E0.01632
G1 X104.351 Y88.334 E0.01633
G1 X104.657 Y88.755 E0.01632
G1 X104.868 Y89.230 E0.01632
G1 X104.977 Y89.740 E0.01632
G1 X104.977 Y90.260 E0.01632
G1 X104.868 Y90.770 E0.01632
G1 X104.657 Y91.245 E0.01632
G1 X104.351 Y91.666 E0.01632
G1 X103.964 Y92.015 E0.01633
G1 X103.513 Y92.275 E0.01632
G1 X103.018 Y92.436 E0.01633
G1 X102.580 Y92.482 E0.01380
G1 X102.500 Y92.111 F7200.000
G1 F1800
G1 X102.061 Y92.065 E0.01384
G1 X101.641 Y91.929 E0.01384
G1 X101.259 Y91.708 E0.01384
G1 X100.931 Y91.413 E0.01384
G1 X100.672 Y91.056 E0.01384
G1 X100.492 Y90.652 E0.01384
G1 X100.400 Y90.221 E0.01384
G1 X100.400 Y89.779 E0.01384
G1 X100.492 Y89.348 E0.01384
G1 X100.672 Y88.944 E0.01384
G1 X100.931 Y88.587 E0.01384
G1 X101.259 Y88.292 E0.01384
G1 X101.641 Y88.071 E0.01384
G1 X102.061 Y87.935 E0.01384
G1 X102.493 Y87.890 E0.01362
G1 X102.939 Y87.935 E0.01404
G1 X103.359 Y88.071 E0.01385
G1 X103.741 Y88.292 E0.01384
G1 X104.069 Y88.587 E0.01384
G1 X104.328 Y88.944 E0.01384
G1 X104.508 Y89.348 E0.01384
G1 X104.600 Y89.779 E0.01384
G1 X104.600 Y90.221 E0.01384
G1 X104.508 Y90.652 E0.01384
G1 X104.328 Y91.056 E0.01384
G1 X104.069 Y91.413 E0.01384
G1 X103.741 Y91.708 E0.01384
G1 X103.359 Y91.929 E0.01384
G1 X102.939 Y92.065 E0.01384
G1 X102.560 Y92.105 E0.01196
G1 X102.300 Y92.458 F7200.000
G1 F5760
G1 X102.061 Y92.065 E-0.17324
G1 X101.641 Y91.929 E-0.15288
G1 X101.259 Y91.708 E-0.15287
G1 X100.931 Y91.413 E-0.15288
G1 X100.714 Y91.113 E-0.12814
G1 E-0.04000 F2100.00000
G1 Z0.800 F7200.000
G1 X109.036 Y85.964
G1 Z0.200
G1 E0.80000 F2100.00000
G1 F1800
G1 X109.036 Y119.036 E1.03694
G1 X95.964 Y119.036 E0.40985
G1 X95.964 Y85.964 E1.03694
G1 X108.976 Y85.964 E0.40797
G1 X109.413 Y85.587 F7200.000
G1 F1800
G1 X109.413 Y119.413 E1.06059
G1 X95.587 Y119.413 E0.43350
G1 X95.587 Y85.587 E1.06059
G1 X109.353 Y85.587 E0.43162
G1 X109.790 Y85.210 F7200.000
G1 F1800
G1 X109.790 Y119.790 E1.08423
G1 X95.210 Y119.790 E0.45715
G1 X95.210 Y85.210 E1.08423
G1 X109.730 Y85.210 E0.45526
G1 X109.737 Y85.606 F7200.000
G1 F5760
G1 X109.734 Y87.404 E-0.76000
G1 E-0.04000 F2100.00000
G1 Z0.800 F7200.000
G1 X108.923 Y86.847
G1 Z0.200
G1 E0.80000 F2100.00000
G1 F1800
G1 X108.322 Y86.247 E0.02688
G1 X107.784 Y86.247 E0.01705
G1 X108.753 Y87.216 E0.04339
G1 X108.753 Y87.754 E0.01705
G1 X107.246 Y86.247 E0.06749
G1 X106.707 Y86.247 E0.01705
G1 X108.753 Y88.293 E0.09160
G1 X108.753 Y88.831 E0.01705
G1 X106.169 Y86.247 E0.11570
G1 X105.630 Y86.247 E0.01705
G1 X108.753 Y89.370 E0.13981
G1 X108.753 Y89.908 E0.01705
G1 X105.092 Y86.247 E0.16391
G1 X104.553 Y86.247 E0.01705
G1 X108.753 Y90.447 E0.18802
G1 X108.753 Y90.985 E0.01705
G1 X104.015 Y86.247 E0.21213
G1 X103.477 Y86.247 E0.01705
G1 X108.753 Y91.523 E0.23623
G1 X108.753 Y92.062 E0.01705
G1 X105.325 Y88.634 E0.15347
G1 X105.499 Y89.025 E0.01357
G1 X105.586 Y89.433 E0.01321
G1 X108.753 Y92.600 E0.14178
G1 X108.753 Y93.139 E0.01705
G1 X105.637 Y90.022 E0.13953
G1 X105.637 Y90.330 E0.00973
G1 X105.596 Y90.520 E0.00616
G1 X108.753 Y93.677 E0.14134
G1 X108.753 Y94.216 E0.01705
G1 X105.502 Y90.964 E0.14557
G1 X105.337 Y91.338 E0.01294
G1 X108.753 Y94.754 E0.15292
G1 X108.753 Y95.292 E0.01705
G1 X105.150 Y91.689 E0.16132
G1 X104.923 Y92.001 E0.01220
G1 X108.753 Y95.831 E0.17147
G1 X108.753 Y96.369 E0.01705
G1 X104.660 Y92.276 E0.18326
G1 X104.376 Y92.531 E0.01207
G1 X108.753 Y96.908 E0.19594
G1 X108.753 Y97.446 E0.01705
G1 X104.040 Y92.733 E0.21102
G1 X103.783 Y92.881 E0.00939
G1 X103.682 Y92.914 E0.00335
G1 X108.753 Y97.985 E0.22702
G1 X108.753 Y98.523 E0.01705
G1 X103.276 Y93.046 E0.24521
G1 X103.156 Y93.085 E0.00400
G1 X102.813 Y93.121 E0.01092
G1 X108.753 Y99.061 E0.26596
G1 X108.753 Y99.600 E0.01705
G1 X102.284 Y93.131 E0.28961
G1 X101.844 Y93.085 E0.01401
G1 X101.630 Y93.015 E0.00713
G1 X108.753 Y100.138 E0.31890
G1 X108.753 Y100.677 E0.01705
G1 X96.247 Y88.171 E0.55990
G1 X96.247 Y87.632 E0.01705
G1 X99.477 Y90.862 E0.14459
G1 X99.363 Y90.330 E0.01722
G1 X99.363 Y90.210 E0.00378
G1 X96.247 Y87.094 E0.13953
G1 X96.247 Y86.555 E0.01705
G1 X99.363 Y89.672 E0.13953
G1 X99.458 Y89.228 E0.01438
G1 X96.477 Y86.247 E0.13344
G1 X97.015 Y86.247 E0.01705
G1 X99.591 Y88.822 E0.11531
G1 X99.757 Y88.450 E0.01291
G1 X97.554 Y86.247 E0.09863
G1 X98.092 Y86.247 E0.01705
G1 X99.979 Y88.134 E0.08447
G1 X100.156 Y87.890 E0.00954
G1 X100.218 Y87.834 E0.00263
G1 X98.631 Y86.247 E0.07106
G1 X99.169 Y86.247 E0.01705
G1 X100.501 Y87.579 E0.05964
G1 X100.646 Y87.449 E0.00618
G1 X100.813 Y87.352 E0.00609
G1 X99.708 Y86.247 E0.04949
G1 X100.246 Y86.247 E0.01705
G1 X101.154 Y87.155 E0.04066
G1 X101.217 Y87.119 E0.00230
G1 X101.549 Y87.011 E0.01103
G1 X100.784 Y86.247 E0.03421
G1 X101.323 Y86.247 E0.01705
G1 X101.977 Y86.901 E0.02929
G1 X102.464 Y86.850 E0.01551
G1 X101.861 Y86.247 E0.02700
G1 X102.400 Y86.247 E0.01705
G1 X103.057 Y86.905 E0.02945
G1 X103.154 Y86.914 E0.00306
G1 X103.783 Y87.119 E0.02094
G1 X103.847 Y87.156 E0.00236
G1 X102.768 Y86.077 E0.04830
G1 F5760
G1 X103.847 Y87.156 E-0.52848
G1 X103.783 Y87.119 E-0.02582
G1 X103.218 Y86.935 E-0.20570
G1 E-0.04000 F2100.00000
G1 Z0.800 F7200.000
G1 X108.923 Y101.385
G1 Z0.200
G1 E0.80000 F2100.00000
G1 F1800
G1 X96.247 Y88.709 E0.56750
G1 X96.247 Y89.247 E0.01705
G1 X108.753 Y101.754 E0.55990
G1 X108.753 Y102.292 E0.01705
G1 X96.247 Y89.786 E0.55990
G1 X96.247 Y90.324 E0.01705
G1 X104.297 Y98.374 E0.36040
G1 X103.499 Y98.115 E0.02655
G1 X96.247 Y90.863 E0.32469
G1 X96.247 Y91.401 E0.01705
G1 X102.885 Y98.039 E0.29717
G1 X102.479 Y97.998 E0.01289
G1 X102.322 Y98.015 E0.00500
G1 X96.247 Y91.940 E0.27199
G1 X96.247 Y92.478 E0.01705
G1 X101.835 Y98.066 E0.25018
G1 X101.564 Y98.095 E0.00864
G1 X101.384 Y98.153 E0.00599
G1 X96.247 Y93.016 E0.22997
G1 X96.247 Y93.555 E0.01705
G1 X100.977 Y98.285 E0.21178
G1 X100.668 Y98.386 E0.01029
G1 X100.586 Y98.433 E0.00299
G1 X96.247 Y94.093 E0.19428
G1 X96.247 Y94.632 E0.01705
G1 X100.245 Y98.630 E0.17900
