; generated by Slic3r Prusa Edition 1.39.2+win64 on 2018-05-29 at 15:52:04

; 

; external perimeters extrusion width = 0.45mm
; perimeters extrusion width = 0.45mm
; infill extrusion width = 0.45mm
; solid infill extrusion width = 0.45mm
; top infill extrusion width = 0.45mm
; first layer extrusion width = 0.42mm

M107
M115 U3.1.0 ; tell printer latest fw version
M83  ; extruder relative mode
M104 S205 ; set extruder temp
M140 S55 ; set bed temp
M190 S55 ; wait for bed temp
M109 S205 ; wait for extruder temp
G28 W ; home all without mesh bed level
G80 ; mesh bed leveling
G1 Y-3.0 F1000.0 ; go outside print area
G92 E0.0
G1 X60.0 E9.0  F1000.0 ; intro line
G1 X100.0 E12.5  F1000.0 ; intro line
G92 E0.0
M900 K30; Filament gcode
G21 ; set units to millimeters
G90 ; use absolute coordinates
M83 ; use relative distances for extrusion
;BEFORE_LAYER_CHANGE
;0.2


G1 E-0.80000 F2100.00000
G1 Z0.600 F7200.000
;AFTER_LAYER_CHANGE
;0.2
G1 X70.847 Y80.579
G1 Z0.200
G1 E0.80000 F2100.00000
M204 S1000
G1 F1800
G1 X71.534 Y80.473 E0.02178
G1 X133.454 Y80.473 E1.94146
G1 X134.345 Y80.648 E0.02849
G1 X135.106 Y81.145 E0.02849
G1 X135.625 Y81.891 E0.02849
G1 X135.826 Y82.777 E0.02849
G1 X135.826 Y122.211 E1.23644
G1 X135.745 Y122.768 E0.01763
G1 X135.534 Y123.293 E0.01775
G1 X135.207 Y123.751 E0.01763
G1 X134.779 Y124.121 E0.01775
G1 X134.153 Y124.421 E0.02178
G1 X133.466 Y124.527 E0.02178
G1 X71.527 Y124.527 E1.94206
G1 X70.958 Y124.452 E0.01799
G1 X70.424 Y124.243 E0.01799
G1 X69.955 Y123.913 E0.01799
G1 X69.579 Y123.479 E0.01799
G1 X69.280 Y122.856 E0.02166
G1 X69.173 Y122.174 E0.02166
G1 X69.173 Y82.816 E1.23405
G1 X69.250 Y82.251 E0.01787
G1 X69.458 Y81.721 E0.01787
G1 X69.787 Y81.255 E0.01787
G1 X70.221 Y80.879 E0.01799
G1 X70.793 Y80.605 E0.01990
G1 F5760
G1 X71.534 Y80.473 E-0.26053
G1 X72.976 Y80.473 E-0.49947
G1 E-0.04000 F2100.00000
G1 Z0.800 F7200.000
G1 X125.977 Y114.508
G1 Z0.200
G1 E0.80000 F2100.00000
G1 F1800
G1 X126.357 Y114.085 E0.01783
G1 X126.817 Y113.751 E0.01783
G1 X127.337 Y113.520 E0.01782
G1 X127.893 Y113.401 E0.01783
G1 X128.461 Y113.401 E0.01783
G1 X129.017 Y113.520 E0.01783
G1 X129.537 Y113.751 E0.01782
G1 X129.999 Y114.087 E0.01793
G1 X130.385 Y114.521 E0.01820
G1 X130.661 Y115.000 E0.01734
G1 X130.837 Y115.541 E0.01783
G1 X130.896 Y116.106 E0.01782
G1 X130.837 Y116.671 E0.01782
G1 X130.661 Y117.212 E0.01783
G1 X130.377 Y117.704 E0.01782
G1 X129.997 Y118.127 E0.01783
G1 X129.537 Y118.461 E0.01783
G1 X129.017 Y118.692 E0.01782
G1 X128.461 Y118.811 E0.01783
G1 X127.893 Y118.811 E0.01783
G1 X127.337 Y118.692 E0.01783
G1 X126.817 Y118.461 E0.01782
G1 X126.357 Y118.127 E0.01783
G1 X125.977 Y117.704 E0.01783
G1 X125.693 Y117.212 E0.01782
G1 X125.517 Y116.671 E0.01783
G1 X125.458 Y116.106 E0.01782
G1 X125.517 Y115.541 E0.01782
G1 X125.693 Y115.000 E0.01783
G1 X125.947 Y114.560 E0.01594
G1 X126.273 Y114.748 F7200.000
G1 F1800
G1 X126.611 Y114.367 E0.01597
G1 X127.007 Y114.079 E0.01534
G1 X127.454 Y113.880 E0.01534
G1 X127.932 Y113.779 E0.01534
G1 X128.422 Y113.779 E0.01534
G1 X128.900 Y113.880 E0.01534
G1 X129.347 Y114.079 E0.01534
G1 X129.745 Y114.368 E0.01540
G1 X130.077 Y114.743 E0.01572
G1 X130.315 Y115.154 E0.01489
G1 X130.466 Y115.619 E0.01534
G1 X130.517 Y116.106 E0.01534
G1 X130.466 Y116.593 E0.01534
G1 X130.315 Y117.058 E0.01534
G1 X130.070 Y117.482 E0.01534
G1 X129.743 Y117.845 E0.01534
G1 X129.347 Y118.133 E0.01534
G1 X128.900 Y118.332 E0.01534
G1 X128.422 Y118.433 E0.01534
G1 X127.932 Y118.433 E0.01534
G1 X127.454 Y118.332 E0.01534
G1 X127.007 Y118.133 E0.01534
G1 X126.611 Y117.845 E0.01534
G1 X126.284 Y117.482 E0.01534
G1 X126.039 Y117.058 E0.01534
G1 X125.888 Y116.593 E0.01534
G1 X125.837 Y116.106 E0.01534
G1 X125.888 Y115.619 E0.01534
G1 X126.039 Y115.154 E0.01534
G1 X126.243 Y114.800 E0.01282
G1 X126.590 Y114.953 F7200.000
G1 F1800
G1 X126.865 Y114.649 E0.01286
G1 X127.196 Y114.408 E0.01285
G1 X127.571 Y114.241 E0.01285
G1 X127.972 Y114.156 E0.01286
G1 X128.382 Y114.156 E0.01285
G1 X128.783 Y114.241 E0.01286
G1 X129.158 Y114.408 E0.01285
G1 X129.490 Y114.649 E0.01288
G1 X129.770 Y114.964 E0.01323
G1 X129.969 Y115.308 E0.01245
G1 X130.095 Y115.698 E0.01286
G1 X130.138 Y116.106 E0.01285
G1 X130.095 Y116.514 E0.01285
G1 X129.969 Y116.904 E0.01286
G1 X129.764 Y117.259 E0.01285
G1 X129.489 Y117.563 E0.01286
G1 X129.158 Y117.804 E0.01285
G1 X128.783 Y117.971 E0.01285
G1 X128.382 Y118.056 E0.01286
G1 X127.972 Y118.056 E0.01285
G1 X127.571 Y117.971 E0.01286
G1 X127.196 Y117.804 E0.01285
G1 X126.865 Y117.563 E0.01285
G1 X126.590 Y117.259 E0.01286
G1 X126.385 Y116.904 E0.01285
G1 X126.259 Y116.514 E0.01286
G1 X126.216 Y116.106 E0.01285
G1 X126.259 Y115.698 E0.01285
G1 X126.385 Y115.308 E0.01286
G1 X126.560 Y115.005 E0.01097
G1 X126.428 Y114.588 F7200.000
G1 F5760
G1 X126.865 Y114.649 E-0.16240
G1 X127.196 Y114.408 E-0.14200
G1 X127.571 Y114.241 E-0.14199
G1 X127.972 Y114.156 E-0.14202
G1 X128.382 Y114.156 E-0.14199
G1 X128.466 Y114.173 E-0.02960
G1 E-0.04000 F2100.00000
G1 Z0.800 F7200.000
G1 X124.461 Y108.115
G1 Z0.200
G1 E0.80000 F2100.00000
G1 F1800
G1 X123.684 Y108.155 E0.02438
G1 X122.916 Y108.034 E0.02438
G1 X122.190 Y107.755 E0.02438
G1 X121.538 Y107.332 E0.02438
G1 X120.988 Y106.782 E0.02438
G1 X120.565 Y106.130 E0.02438
G1 X120.286 Y105.404 E0.02438
G1 X120.165 Y104.636 E0.02438
G1 X120.205 Y103.859 E0.02438
G1 X120.407 Y103.108 E0.02438
G1 X120.760 Y102.415 E0.02438
G1 X121.249 Y101.811 E0.02438
G1 X121.853 Y101.322 E0.02438
G1 X122.546 Y100.969 E0.02438
G1 X123.297 Y100.767 E0.02438
G1 X124.051 Y100.728 E0.02368
G1 X124.839 Y100.847 E0.02497
G1 X125.568 Y101.127 E0.02448
G1 X126.220 Y101.550 E0.02438
G1 X126.770 Y102.100 E0.02438
G1 X127.193 Y102.752 E0.02438
G1 X127.472 Y103.478 E0.02438
G1 X127.593 Y104.246 E0.02438
G1 X127.553 Y105.023 E0.02438
G1 X127.351 Y105.774 E0.02438
G1 X126.998 Y106.467 E0.02438
G1 X126.509 Y107.071 E0.02438
G1 X125.905 Y107.560 E0.02438
G1 X125.212 Y107.913 E0.02438
G1 X124.519 Y108.099 E0.02250
G1 X124.421 Y107.735 F7200.000
G1 F1800
G1 X123.704 Y107.777 E0.02252
G1 X123.014 Y107.668 E0.02190
G1 X122.363 Y107.417 E0.02190
G1 X121.777 Y107.037 E0.02189
G1 X121.283 Y106.543 E0.02190
G1 X120.903 Y105.957 E0.02189
G1 X120.652 Y105.306 E0.02190
G1 X120.543 Y104.616 E0.02190
G1 X120.580 Y103.918 E0.02189
G1 X120.761 Y103.244 E0.02189
G1 X121.078 Y102.622 E0.02190
G1 X121.517 Y102.079 E0.02189
G1 X122.060 Y101.640 E0.02189
G1 X122.682 Y101.323 E0.02190
G1 X123.356 Y101.142 E0.02189
G1 X124.033 Y101.106 E0.02123
G1 X124.742 Y101.214 E0.02249
G1 X125.395 Y101.465 E0.02196
G1 X125.981 Y101.845 E0.02189
G1 X126.475 Y102.339 E0.02190
G1 X126.855 Y102.925 E0.02189
G1 X127.106 Y103.576 E0.02190
G1 X127.215 Y104.266 E0.02190
G1 X127.178 Y104.964 E0.02189
G1 X126.997 Y105.638 E0.02189
G1 X126.680 Y106.260 E0.02190
G1 X126.241 Y106.803 E0.02189
G1 X125.698 Y107.242 E0.02189
G1 X125.076 Y107.559 E0.02190
G1 X124.479 Y107.719 E0.01937
G1 X124.382 Y107.355 F7200.000
G1 F1800
G1 X123.724 Y107.398 E0.02066
G1 X123.113 Y107.301 E0.01941
G1 X122.535 Y107.079 E0.01941
G1 X122.016 Y106.742 E0.01941
G1 X121.578 Y106.304 E0.01941
G1 X121.241 Y105.785 E0.01941
G1 X121.019 Y105.207 E0.01941
G1 X120.922 Y104.596 E0.01941
G1 X120.954 Y103.978 E0.01941
G1 X121.115 Y103.380 E0.01941
G1 X121.396 Y102.828 E0.01941
G1 X121.785 Y102.347 E0.01941
G1 X122.266 Y101.958 E0.01941
G1 X122.818 Y101.677 E0.01941
G1 X123.416 Y101.516 E0.01941
G1 X124.014 Y101.485 E0.01879
G1 X124.645 Y101.580 E0.02000
G1 X125.223 Y101.803 E0.01943
G1 X125.742 Y102.140 E0.01941
G1 X126.180 Y102.578 E0.01941
G1 X126.517 Y103.097 E0.01941
G1 X126.739 Y103.675 E0.01941
G1 X126.836 Y104.286 E0.01941
G1 X126.804 Y104.904 E0.01941
G1 X126.643 Y105.502 E0.01941
G1 X126.362 Y106.054 E0.01941
G1 X125.973 Y106.535 E0.01941
G1 X125.492 Y106.924 E0.01941
G1 X124.940 Y107.205 E0.01941
G1 X124.440 Y107.340 E0.01625
G1 X124.242 Y107.730 F7200.000
G1 F5760
G1 X123.724 Y107.398 E-0.24864
G1 X123.113 Y107.301 E-0.21443
G1 X122.535 Y107.079 E-0.21440
G1 X122.335 Y106.950 E-0.08253
G1 E-0.04000 F2100.00000
G1 Z0.800 F7200.000
G1 X128.667 Y91.474
G1 Z0.200
G1 E0.80000 F2100.00000
G1 F1800
G1 X128.147 Y91.243 E0.01783
G1 X127.687 Y90.909 E0.01783
G1 X127.307 Y90.486 E0.01783
G1 X127.023 Y89.994 E0.01782
G1 X126.847 Y89.453 E0.01783
G1 X126.788 Y88.888 E0.01783
G1 X126.847 Y88.323 E0.01783
G1 X127.023 Y87.782 E0.01783
G1 X127.307 Y87.290 E0.01782
G1 X127.687 Y86.867 E0.01783
G1 X128.147 Y86.533 E0.01783
G1 X128.667 Y86.302 E0.01783
G1 X129.223 Y86.183 E0.01783
G1 X129.791 Y86.183 E0.01782
G1 X130.347 Y86.302 E0.01783
G1 X130.867 Y86.533 E0.01783
G1 X131.327 Y86.867 E0.01783
G1 X131.707 Y87.290 E0.01783
G1 X131.991 Y87.782 E0.01782
G1 X132.167 Y88.323 E0.01783
G1 X132.226 Y88.888 E0.01783
G1 X132.167 Y89.453 E0.01783
G1 X131.991 Y89.994 E0.01783
G1 X131.707 Y90.486 E0.01782
G1 X131.327 Y90.909 E0.01783
G1 X130.867 Y91.243 E0.01783
G1 X130.347 Y91.474 E0.01783
G1 X129.791 Y91.593 E0.01783
G1 X129.223 Y91.593 E0.01782
G1 X128.725 Y91.487 E0.01595
G1 X128.804 Y91.118 F7200.000
G1 F1800
G1 X128.337 Y90.915 E0.01596
G1 X127.941 Y90.627 E0.01534
G1 X127.614 Y90.264 E0.01534
G1 X127.369 Y89.840 E0.01534
G1 X127.218 Y89.375 E0.01534
G1 X127.167 Y88.888 E0.01534
G1 X127.218 Y88.401 E0.01534
G1 X127.369 Y87.936 E0.01534
G1 X127.614 Y87.512 E0.01534
G1 X127.941 Y87.149 E0.01534
G1 X128.337 Y86.861 E0.01534
G1 X128.784 Y86.662 E0.01534
G1 X129.262 Y86.561 E0.01534
G1 X129.752 Y86.561 E0.01534
G1 X130.230 Y86.662 E0.01534
G1 X130.677 Y86.861 E0.01534
G1 X131.073 Y87.149 E0.01534
G1 X131.400 Y87.512 E0.01534
G1 X131.645 Y87.936 E0.01534
G1 X131.796 Y88.401 E0.01534
G1 X131.847 Y88.888 E0.01534
G1 X131.796 Y89.375 E0.01534
G1 X131.645 Y89.840 E0.01534
G1 X131.400 Y90.264 E0.01534
G1 X131.073 Y90.627 E0.01534
G1 X130.677 Y90.915 E0.01534
G1 X130.230 Y91.114 E0.01534
G1 X129.752 Y91.215 E0.01534
G1 X129.262 Y91.215 E0.01534
G1 X128.862 Y91.130 E0.01282
G1 X128.901 Y90.753 F7200.000
G1 F1800
G1 X128.526 Y90.586 E0.01285
G1 X128.195 Y90.345 E0.01286
G1 X127.920 Y90.041 E0.01286
G1 X127.715 Y89.686 E0.01285
G1 X127.589 Y89.296 E0.01286
G1 X127.546 Y88.888 E0.01285
G1 X127.589 Y88.480 E0.01286
G1 X127.715 Y88.090 E0.01286
G1 X127.920 Y87.735 E0.01285
G1 X128.195 Y87.431 E0.01286
G1 X128.526 Y87.190 E0.01286
G1 X128.901 Y87.023 E0.01285
G1 X129.302 Y86.938 E0.01286
G1 X129.712 Y86.938 E0.01285
G1 X130.113 Y87.023 E0.01286
G1 X130.488 Y87.190 E0.01285
G1 X130.819 Y87.431 E0.01286
G1 X131.094 Y87.735 E0.01286
G1 X131.299 Y88.090 E0.01285
G1 X131.425 Y88.480 E0.01286
G1 X131.468 Y88.888 E0.01286
G1 X131.425 Y89.296 E0.01285
G1 X131.299 Y89.686 E0.01286
G1 X131.094 Y90.041 E0.01285
G1 X130.819 Y90.345 E0.01286
G1 X130.488 Y90.586 E0.01286
G1 X130.113 Y90.753 E0.01285
G1 X129.712 Y90.838 E0.01286
G1 X129.302 Y90.838 E0.01285
G1 X128.960 Y90.766 E0.01098
G1 X128.604 Y91.021 F7200.000
G1 F5760
G1 X128.526 Y90.586 E-0.16238
G1 X128.195 Y90.345 E-0.14201
G1 X127.920 Y90.041 E-0.14201
G1 X127.715 Y89.686 E-0.14199
G1 X127.589 Y89.296 E-0.14201
G1 X127.580 Y89.211 E-0.02960
G1 E-0.04000 F2100.00000
G1 Z0.800 F7200.000
G1 X109.491 Y102.752
G1 Z0.200
G1 E0.80000 F2100.00000
G1 F1800
G1 X109.770 Y103.478 E0.02438
G1 X109.891 Y104.246 E0.02438
G1 X109.851 Y105.023 E0.02438
G1 X109.649 Y105.774 E0.02438
G1 X109.296 Y106.467 E0.02438
G1 X108.807 Y107.071 E0.02438
G1 X108.203 Y107.560 E0.02438
G1 X107.510 Y107.913 E0.02438
G1 X106.759 Y108.115 E0.02438
G1 X105.982 Y108.155 E0.02438
G1 X105.214 Y108.034 E0.02438
G1 X104.488 Y107.755 E0.02438
G1 X103.836 Y107.332 E0.02438
G1 X103.286 Y106.782 E0.02438
G1 X102.863 Y106.130 E0.02438
G1 X102.584 Y105.404 E0.02438
G1 X102.463 Y104.636 E0.02438
G1 X102.503 Y103.859 E0.02438
G1 X102.705 Y103.108 E0.02438
G1 X103.058 Y102.415 E0.02438
G1 X103.547 Y101.811 E0.02438
G1 X104.151 Y101.322 E0.02438
G1 X104.844 Y100.969 E0.02438
G1 X105.595 Y100.767 E0.02438
G1 X106.349 Y100.728 E0.02368
G1 X107.137 Y100.847 E0.02497
G1 X107.866 Y101.127 E0.02448
G1 X108.518 Y101.550 E0.02438
G1 X109.068 Y102.100 E0.02438
G1 X109.458 Y102.702 E0.02250
G1 X109.142 Y102.907 F7200.000
G1 F1800
G1 X109.404 Y103.576 E0.02252
G1 X109.513 Y104.266 E0.02190
G1 X109.476 Y104.964 E0.02189
G1 X109.295 Y105.638 E0.02189
G1 X108.978 Y106.260 E0.02190
G1 X108.539 Y106.803 E0.02189
G1 X107.996 Y107.242 E0.02189
G1 X107.374 Y107.559 E0.02190
G1 X106.700 Y107.740 E0.02189
G1 X106.002 Y107.777 E0.02189
G1 X105.312 Y107.668 E0.02190
G1 X104.661 Y107.417 E0.02190
G1 X104.075 Y107.037 E0.02189
G1 X103.581 Y106.543 E0.02190
G1 X103.201 Y105.957 E0.02189
G1 X102.950 Y105.306 E0.02190
G1 X102.841 Y104.616 E0.02190
G1 X102.878 Y103.918 E0.02189
G1 X103.059 Y103.244 E0.02189
G1 X103.376 Y102.622 E0.02190
G1 X103.815 Y102.079 E0.02189
G1 X104.358 Y101.640 E0.02189
G1 X104.980 Y101.323 E0.02190
G1 X105.654 Y101.142 E0.02189
G1 X106.331 Y101.106 E0.02123
G1 X107.040 Y101.214 E0.02249
G1 X107.693 Y101.465 E0.02196
G1 X108.279 Y101.845 E0.02189
G1 X108.773 Y102.339 E0.02190
G1 X109.110 Y102.857 E0.01937
G1 X108.793 Y103.062 F7200.000
G1 F1800
G1 X109.037 Y103.675 E0.02066
G1 X109.134 Y104.286 E0.01941
G1 X109.102 Y104.904 E0.01941
G1 X108.941 Y105.502 E0.01941
G1 X108.660 Y106.054 E0.01941
G1 X108.271 Y106.535 E0.01941
G1 X107.790 Y106.924 E0.01941
G1 X107.238 Y107.205 E0.01941
G1 X106.640 Y107.366 E0.01941
G1 X106.022 Y107.398 E0.01941
G1 X105.411 Y107.301 E0.01941
G1 X104.833 Y107.079 E0.01941
G1 X104.314 Y106.742 E0.01941
G1 X103.876 Y106.304 E0.01941
G1 X103.539 Y105.785 E0.01941
G1 X103.317 Y105.207 E0.01941
G1 X103.220 Y104.596 E0.01941
G1 X103.252 Y103.978 E0.01941
G1 X103.413 Y103.380 E0.01941
G1 X103.694 Y102.828 E0.01941
G1 X104.083 Y102.347 E0.01941
G1 X104.564 Y101.958 E0.01941
G1 X105.116 Y101.677 E0.01941
G1 X105.714 Y101.516 E0.01941
G1 X106.312 Y101.485 E0.01879
G1 X106.943 Y101.580 E0.02000
G1 X107.521 Y101.803 E0.01943
G1 X108.040 Y102.140 E0.01941
G1 X108.478 Y102.578 E0.01941
G1 X108.761 Y103.012 E0.01625
G1 X109.193 Y103.080 F7200.000
G1 F5760
G1 X109.037 Y103.675 E-0.24863
G1 X109.134 Y104.286 E-0.21443
G1 X109.102 Y104.904 E-0.21440
G1 X109.040 Y105.134 E-0.08254
G1 E-0.04000 F2100.00000
G1 Z0.800 F7200.000
G1 X92.198 Y103.439
G1 Z0.200
G1 E0.80000 F2100.00000
G1 F1800
G1 X92.138 Y104.581 E0.03585
G1 X91.842 Y105.685 E0.03585
G1 X91.323 Y106.704 E0.03585
G1 X90.604 Y107.593 E0.03585
G1 X89.715 Y108.312 E0.03585
G1 X88.696 Y108.831 E0.03585
G1 X87.592 Y109.127 E0.03585
G1 X86.450 Y109.187 E0.03585
G1 X85.320 Y109.008 E0.03585
G1 X84.250 Y108.597 E0.03596
G1 X83.270 Y107.951 E0.03681
G1 X82.485 Y107.167 E0.03477
G1 X81.863 Y106.208 E0.03585
G1 X81.453 Y105.141 E0.03585
G1 X81.274 Y104.011 E0.03585
G1 X81.334 Y102.869 E0.03585
G1 X81.630 Y101.765 E0.03585
G1 X82.149 Y100.746 E0.03585
G1 X82.868 Y99.857 E0.03585
G1 X83.757 Y99.138 E0.03585
G1 X84.776 Y98.619 E0.03585
G1 X85.880 Y98.323 E0.03585
G1 X86.988 Y98.265 E0.03477
G1 X88.149 Y98.441 E0.03681
G1 X89.219 Y98.852 E0.03596
G1 X90.178 Y99.474 E0.03585
G1 X90.987 Y100.283 E0.03586
G1 X91.609 Y101.242 E0.03585
G1 X92.019 Y102.309 E0.03585
G1 X92.189 Y103.380 E0.03397
G1 X91.816 Y103.438 F7200.000
G1 F1800
G1 X91.764 Y104.521 E0.03399
G1 X91.488 Y105.549 E0.03337
G1 X91.005 Y106.497 E0.03337
G1 X90.335 Y107.324 E0.03337
G1 X89.508 Y107.994 E0.03337
G1 X88.560 Y108.477 E0.03337
G1 X87.532 Y108.753 E0.03337
G1 X86.470 Y108.808 E0.03337
G1 X85.419 Y108.642 E0.03337
G1 X84.423 Y108.260 E0.03343
G1 X83.509 Y107.657 E0.03432
G1 X82.780 Y106.928 E0.03232
G1 X82.201 Y106.036 E0.03336
G1 X81.819 Y105.042 E0.03337
G1 X81.653 Y103.991 E0.03337
G1 X81.708 Y102.929 E0.03337
G1 X81.984 Y101.901 E0.03337
G1 X82.467 Y100.953 E0.03337
G1 X83.137 Y100.126 E0.03337
G1 X83.964 Y99.456 E0.03337
G1 X84.912 Y98.973 E0.03337
G1 X85.940 Y98.697 E0.03337
G1 X86.969 Y98.643 E0.03232
G1 X88.052 Y98.807 E0.03433
G1 X89.047 Y99.190 E0.03343
G1 X89.939 Y99.769 E0.03336
G1 X90.692 Y100.522 E0.03337
G1 X91.271 Y101.414 E0.03336
G1 X91.653 Y102.408 E0.03337
G1 X91.807 Y103.379 E0.03085
G1 X91.434 Y103.438 F7200.000
G1 F1800
