; generated by Slic3r Prusa Edition 1.39.2+win64 on 2018-08-19 at 10:12:03

; 

; external perimeters extrusion width = 0.45mm
; perimeters extrusion width = 0.45mm
; infill extrusion width = 0.45mm
; solid infill extrusion width = 0.45mm
; top infill extrusion width = 0.45mm
; first layer extrusion width = 0.42mm

M107
M115 U3.1.0 ; tell printer latest fw version
M83  ; extruder relative mode
M104 S205 ; set extruder temp
M140 S55 ; set bed temp
M190 S55 ; wait for bed temp
M109 S205 ; wait for extruder temp
G28 W ; home all without mesh bed level
G80 ; mesh bed leveling
G1 Y-3.0 F1000.0 ; go outside print area
G92 E0.0
G1 X60.0 E9.0  F1000.0 ; intro line
G1 X100.0 E12.5  F1000.0 ; intro line
G92 E0.0
M900 K30; Filament gcode
G21 ; set units to millimeters
G90 ; use absolute coordinates
M83 ; use relative distances for extrusion
;BEFORE_LAYER_CHANGE
;0.2


G1 E-0.80000 F2100.00000
G1 Z0.600 F7200.000
;AFTER_LAYER_CHANGE
;0.2
G1 X121.045 Y78.540
G1 Z0.200
G1 E0.80000 F2100.00000
M204 S1000
G1 F1800
G1 X121.965 Y78.338 E0.02954
G1 X164.435 Y78.337 E1.33160
G1 X165.323 Y78.511 E0.02837
G1 X166.082 Y79.004 E0.02837
G1 X166.601 Y79.744 E0.02837
G1 X166.806 Y80.626 E0.02837
G1 X166.808 Y123.175 E1.33410
G1 X166.633 Y124.036 E0.02755
G1 X166.157 Y124.775 E0.02755
G1 X165.373 Y125.323 E0.03001
G1 X164.436 Y125.518 E0.03001
G1 X121.970 Y125.518 E1.33148
G1 X121.109 Y125.343 E0.02755
G1 X120.371 Y124.867 E0.02755
G1 X119.822 Y124.083 E0.03001
G1 X119.628 Y123.146 E0.03001
G1 X119.628 Y80.680 E1.33148
G1 X119.803 Y79.819 E0.02755
G1 X120.278 Y79.080 E0.02755
G1 X120.996 Y78.574 E0.02754
G1 F5760
G1 X121.965 Y78.338 E-0.34557
G1 X123.162 Y78.338 E-0.41443
G1 E-0.04000 F2100.00000
G1 Z0.800 F7200.000
G1 X122.969 Y81.679
G1 Z0.200
G1 E0.80000 F2100.00000
G1 F1800
G1 X163.467 Y81.679 E1.26979
G1 X163.467 Y122.177 E1.26979
G1 X122.969 Y122.177 E1.26979
G1 X122.969 Y81.739 E1.26791
G1 X122.592 Y81.301 F7200.000
G1 F1800
G1 X163.844 Y81.301 E1.29344
G1 X163.844 Y122.554 E1.29344
G1 X122.592 Y122.554 E1.29344
G1 X122.592 Y81.361 E1.29155
G1 X122.215 Y80.924 F7200.000
G1 F1800
G1 X164.221 Y80.924 E1.31708
G1 X164.221 Y122.931 E1.31708
G1 X122.215 Y122.931 E1.31708
G1 X122.215 Y80.984 E1.31520
G1 X122.601 Y81.028 F7200.000
G1 F5760
G1 X124.409 Y80.981 E-0.76000
G1 E-0.04000 F2100.00000
G1 Z0.800 F7200.000
G1 X123.082 Y121.300
G1 Z0.200
G1 E0.80000 F2100.00000
G1 F1800
G1 X123.675 Y121.894 E0.02635
G1 X124.209 Y121.894 E0.01676
G1 X123.252 Y120.936 E0.04252
G1 X123.252 Y120.402 E0.01676
G1 X124.743 Y121.894 E0.06622
G1 X125.277 Y121.894 E0.01676
G1 X123.252 Y119.868 E0.08992
G1 X123.252 Y119.334 E0.01676
G1 X125.811 Y121.894 E0.11362
G1 X126.345 Y121.894 E0.01676
G1 X123.252 Y118.800 E0.13733
G1 X123.252 Y118.267 E0.01676
G1 X126.879 Y121.894 E0.16103
G1 X127.413 Y121.894 E0.01676
G1 X123.252 Y117.733 E0.18473
G1 X123.252 Y117.199 E0.01676
G1 X127.947 Y121.894 E0.20843
G1 X128.481 Y121.894 E0.01676
G1 X123.252 Y116.665 E0.23213
G1 X123.252 Y116.131 E0.01676
G1 X129.014 Y121.894 E0.25584
G1 X129.548 Y121.894 E0.01676
G1 X123.252 Y115.597 E0.27954
G1 X123.252 Y115.063 E0.01676
G1 X130.082 Y121.894 E0.30324
G1 X130.616 Y121.894 E0.01676
G1 X123.252 Y114.529 E0.32694
G1 X123.252 Y113.995 E0.01676
G1 X131.150 Y121.894 E0.35064
G1 X131.684 Y121.894 E0.01676
G1 X123.252 Y113.461 E0.37435
G1 X123.252 Y112.928 E0.01676
G1 X132.218 Y121.894 E0.39805
G1 X132.752 Y121.894 E0.01676
G1 X123.252 Y112.394 E0.42175
G1 X123.252 Y111.860 E0.01676
G1 X133.286 Y121.894 E0.44545
G1 X133.820 Y121.894 E0.01676
G1 X123.252 Y111.326 E0.46915
G1 X123.252 Y110.792 E0.01676
G1 X134.353 Y121.894 E0.49286
G1 X134.887 Y121.894 E0.01676
G1 X123.252 Y110.258 E0.51656
G1 X123.252 Y109.724 E0.01676
G1 X135.421 Y121.894 E0.54026
G1 X135.955 Y121.894 E0.01676
G1 X123.252 Y109.190 E0.56396
G1 X123.252 Y108.656 E0.01676
G1 X136.489 Y121.894 E0.58766
G1 X137.023 Y121.894 E0.01676
G1 X123.252 Y108.122 E0.61137
G1 X123.252 Y107.589 E0.01676
G1 X137.557 Y121.894 E0.63507
G1 X138.091 Y121.894 E0.01676
G1 X123.252 Y107.055 E0.65877
G1 X123.252 Y106.521 E0.01676
G1 X138.625 Y121.894 E0.68247
G1 X139.159 Y121.894 E0.01676
G1 X123.252 Y105.987 E0.70617
G1 X123.252 Y105.453 E0.01676
G1 X139.692 Y121.894 E0.72988
G1 X140.226 Y121.894 E0.01676
G1 X123.252 Y104.919 E0.75358
G1 X123.252 Y104.385 E0.01676
G1 X140.760 Y121.894 E0.77728
G1 X141.294 Y121.894 E0.01676
G1 X123.252 Y103.851 E0.80098
G1 X123.252 Y103.317 E0.01676
G1 X141.828 Y121.894 E0.82468
G1 X142.362 Y121.894 E0.01676
G1 X123.252 Y102.783 E0.84839
G1 X123.252 Y102.250 E0.01676
G1 X142.896 Y121.894 E0.87209
G1 X143.430 Y121.894 E0.01676
G1 X123.252 Y101.716 E0.89579
G1 X123.252 Y101.182 E0.01676
G1 X143.964 Y121.894 E0.91949
G1 X144.498 Y121.894 E0.01676
G1 X123.252 Y100.648 E0.94319
G1 X123.252 Y100.114 E0.01676
G1 X145.031 Y121.894 E0.96690
G1 X145.565 Y121.894 E0.01676
G1 X123.252 Y99.580 E0.99060
G1 X123.252 Y99.046 E0.01676
G1 X146.099 Y121.894 E1.01430
G1 X146.633 Y121.894 E0.01676
G1 X123.252 Y98.512 E1.03800
G1 X123.252 Y97.978 E0.01676
G1 X147.167 Y121.894 E1.06170
G1 X147.701 Y121.894 E0.01676
G1 X123.252 Y97.444 E1.08541
G1 X123.252 Y96.911 E0.01676
G1 X148.235 Y121.894 E1.10911
G1 X148.769 Y121.894 E0.01676
G1 X123.252 Y96.377 E1.13281
G1 X123.252 Y95.843 E0.01676
G1 X149.303 Y121.894 E1.15651
G1 X149.837 Y121.894 E0.01676
G1 X123.252 Y95.309 E1.18021
G1 X123.252 Y94.775 E0.01676
G1 X150.370 Y121.894 E1.20392
G1 X150.904 Y121.894 E0.01676
G1 X123.252 Y94.241 E1.22762
G1 X123.252 Y93.707 E0.01676
G1 X151.438 Y121.894 E1.25132
G1 X151.972 Y121.894 E0.01676
G1 X123.252 Y93.173 E1.27502
G1 X123.252 Y92.639 E0.01676
G1 X152.506 Y121.894 E1.29872
G1 X153.040 Y121.894 E0.01676
G1 X123.252 Y92.105 E1.32243
G1 X123.252 Y91.572 E0.01676
G1 X153.574 Y121.894 E1.34613
G1 X154.108 Y121.894 E0.01676
G1 X123.252 Y91.038 E1.36983
G1 X123.252 Y90.504 E0.01676
G1 X154.642 Y121.894 E1.39353
G1 X155.176 Y121.894 E0.01676
G1 X123.252 Y89.970 E1.41724
G1 X123.252 Y89.436 E0.01676
G1 X155.709 Y121.894 E1.44094
G1 X156.243 Y121.894 E0.01676
G1 X123.252 Y88.902 E1.46464
G1 X123.252 Y88.368 E0.01676
G1 X156.777 Y121.894 E1.48834
G1 X157.311 Y121.894 E0.01676
G1 X123.252 Y87.834 E1.51204
G1 X123.252 Y87.300 E0.01676
G1 X157.845 Y121.894 E1.53575
G1 X158.379 Y121.894 E0.01676
G1 X123.252 Y86.766 E1.55945
G1 X123.252 Y86.233 E0.01676
G1 X158.913 Y121.894 E1.58315
G1 X159.447 Y121.894 E0.01676
G1 X123.252 Y85.699 E1.60685
G1 X123.252 Y85.165 E0.01676
G1 X159.981 Y121.894 E1.63055
G1 X160.515 Y121.894 E0.01676
G1 X123.252 Y84.631 E1.65426
G1 X123.252 Y84.097 E0.01676
G1 X161.049 Y121.894 E1.67796
G1 X161.582 Y121.894 E0.01676
G1 X123.252 Y83.563 E1.70166
G1 X123.252 Y83.029 E0.01676
G1 X162.116 Y121.894 E1.72536
G1 X162.650 Y121.894 E0.01676
G1 X123.252 Y82.495 E1.74906
G1 X123.252 Y81.961 E0.01676
G1 X163.184 Y121.894 E1.77277
G1 X163.184 Y121.360 E0.01676
G1 X123.785 Y81.961 E1.74906
G1 X124.319 Y81.961 E0.01676
G1 X163.184 Y120.826 E1.72536
G1 X163.184 Y120.292 E0.01676
G1 X124.853 Y81.961 E1.70166
G1 X125.387 Y81.961 E0.01676
G1 X163.184 Y119.758 E1.67796
G1 X163.184 Y119.224 E0.01676
G1 X125.921 Y81.961 E1.65426
G1 X126.455 Y81.961 E0.01676
G1 X163.184 Y118.690 E1.63055
G1 X163.184 Y118.157 E0.01676
G1 X126.989 Y81.961 E1.60685
G1 X127.523 Y81.961 E0.01676
G1 X163.184 Y117.623 E1.58315
G1 X163.184 Y117.089 E0.01676
G1 X128.057 Y81.961 E1.55945
G1 X128.591 Y81.961 E0.01676
G1 X163.184 Y116.555 E1.53575
G1 X163.184 Y116.021 E0.01676
G1 X129.125 Y81.961 E1.51204
G1 X129.658 Y81.961 E0.01676
G1 X163.184 Y115.487 E1.48834
G1 X163.184 Y114.953 E0.01676
G1 X130.192 Y81.961 E1.46464
G1 X130.726 Y81.961 E0.01676
G1 X163.184 Y114.419 E1.44094
G1 X163.184 Y113.885 E0.01676
G1 X131.260 Y81.961 E1.41724
G1 X131.794 Y81.961 E0.01676
G1 X163.184 Y113.351 E1.39353
G1 X163.184 Y112.817 E0.01676
G1 X132.328 Y81.961 E1.36983
G1 X132.862 Y81.961 E0.01676
G1 X163.184 Y112.284 E1.34613
G1 X163.184 Y111.750 E0.01676
G1 X133.396 Y81.961 E1.32243
G1 X133.930 Y81.961 E0.01676
G1 X163.184 Y111.216 E1.29873
G1 X163.184 Y110.682 E0.01676
G1 X134.464 Y81.961 E1.27502
G1 X134.997 Y81.961 E0.01676
G1 X163.184 Y110.148 E1.25132
G1 X163.184 Y109.614 E0.01676
G1 X135.531 Y81.961 E1.22762
G1 X136.065 Y81.961 E0.01676
G1 X163.184 Y109.080 E1.20392
G1 X163.184 Y108.546 E0.01676
G1 X136.599 Y81.961 E1.18022
G1 X137.133 Y81.961 E0.01676
G1 X163.184 Y108.012 E1.15651
G1 X163.184 Y107.478 E0.01676
G1 X137.667 Y81.961 E1.13281
G1 X138.201 Y81.961 E0.01676
G1 X163.184 Y106.945 E1.10911
G1 X163.184 Y106.411 E0.01676
G1 X138.735 Y81.961 E1.08541
G1 X139.269 Y81.961 E0.01676
G1 X163.184 Y105.877 E1.06171
G1 X163.184 Y105.343 E0.01676
G1 X139.803 Y81.961 E1.03800
G1 X140.336 Y81.961 E0.01676
G1 X163.184 Y104.809 E1.01430
G1 X163.184 Y104.275 E0.01676
G1 X140.870 Y81.961 E0.99060
G1 X141.404 Y81.961 E0.01676
G1 X163.184 Y103.741 E0.96690
G1 X163.184 Y103.207 E0.01676
G1 X141.938 Y81.961 E0.94320
G1 X142.472 Y81.961 E0.01676
G1 X163.184 Y102.673 E0.91949
G1 X163.184 Y102.139 E0.01676
G1 X143.006 Y81.961 E0.89579
G1 X143.540 Y81.961 E0.01676
G1 X163.184 Y101.606 E0.87209
G1 X163.184 Y101.072 E0.01676
G1 X144.074 Y81.961 E0.84839
G1 X144.608 Y81.961 E0.01676
G1 X163.184 Y100.538 E0.82469
G1 X163.184 Y100.004 E0.01676
G1 X145.142 Y81.961 E0.80098
G1 X145.675 Y81.961 E0.01676
G1 X163.184 Y99.470 E0.77728
G1 X163.184 Y98.936 E0.01676
G1 X146.209 Y81.961 E0.75358
G1 X146.743 Y81.961 E0.01676
G1 X163.184 Y98.402 E0.72988
G1 X163.184 Y97.868 E0.01676
G1 X147.277 Y81.961 E0.70617
G1 X147.811 Y81.961 E0.01676
G1 X163.184 Y97.334 E0.68247
G1 X163.184 Y96.800 E0.01676
G1 X148.345 Y81.961 E0.65877
G1 X148.879 Y81.961 E0.01676
G1 X163.184 Y96.267 E0.63507
G1 X163.184 Y95.733 E0.01676
G1 X149.413 Y81.961 E0.61137
G1 X149.947 Y81.961 E0.01676
G1 X163.184 Y95.199 E0.58766
G1 X163.184 Y94.665 E0.01676
G1 X150.481 Y81.961 E0.56396
G1 X151.014 Y81.961 E0.01676
G1 X163.184 Y94.131 E0.54026
G1 X163.184 Y93.597 E0.01676
G1 X151.548 Y81.961 E0.51656
G1 X152.082 Y81.961 E0.01676
G1 X163.184 Y93.063 E0.49286
G1 X163.184 Y92.529 E0.01676
G1 X152.616 Y81.961 E0.46915
G1 X153.150 Y81.961 E0.01676
G1 X163.184 Y91.995 E0.44545
G1 X163.184 Y91.461 E0.01676
G1 X153.684 Y81.961 E0.42175
G1 X154.218 Y81.961 E0.01676
G1 X163.184 Y90.928 E0.39805
G1 X163.184 Y90.394 E0.01676
G1 X154.752 Y81.961 E0.37435
G1 X155.286 Y81.961 E0.01676
G1 X163.184 Y89.860 E0.35064
G1 X163.184 Y89.326 E0.01676
G1 X155.820 Y81.961 E0.32694
G1 X156.353 Y81.961 E0.01676
G1 X163.184 Y88.792 E0.30324
G1 X163.184 Y88.258 E0.01676
G1 X156.887 Y81.961 E0.27954
G1 X157.421 Y81.961 E0.01676
G1 X163.184 Y87.724 E0.25584
G1 X163.184 Y87.190 E0.01676
G1 X157.955 Y81.961 E0.23213
G1 X158.489 Y81.961 E0.01676
G1 X163.184 Y86.656 E0.20843
G1 X163.184 Y86.122 E0.01676
G1 X159.023 Y81.961 E0.18473
G1 X159.557 Y81.961 E0.01676
G1 X163.184 Y85.589 E0.16103
G1 X163.184 Y85.055 E0.01676
G1 X160.091 Y81.961 E0.13733
G1 X160.625 Y81.961 E0.01676
G1 X163.184 Y84.521 E0.11362
G1 X163.184 Y83.987 E0.01676
G1 X161.159 Y81.961 E0.08992
G1 X161.692 Y81.961 E0.01676
G1 X163.184 Y83.453 E0.06622
G1 X163.184 Y82.919 E0.01676
G1 X162.226 Y81.961 E0.04252
G1 X162.760 Y81.961 E0.01676
G1 X163.354 Y82.555 E0.02635
M106 S219.3
;BEFORE_LAYER_CHANGE
;0.35


G1 F5760
G1 X162.760 Y81.961 E-0.29072
G1 X162.226 Y81.961 E-0.18492
G1 X162.807 Y82.542 E-0.28436
G1 E-0.04000 F2100.00000
G1 Z0.800 F7200.000
;AFTER_LAYER_CHANGE
;0.35
G1 X166.601 Y79.744
G1 Z0.350
G1 E0.80000 F2100.00000
G1 F3000
G1 X166.806 Y80.626 E0.02188
G1 X166.808 Y123.175 E1.02905
G1 X166.633 Y124.036 E0.02125
G1 X166.157 Y124.775 E0.02125
G1 X165.373 Y125.323 E0.02315
G1 X164.436 Y125.518 E0.02315
G1 X121.970 Y125.518 E1.02702
G1 X121.109 Y125.343 E0.02125
G1 X120.371 Y124.867 E0.02125
G1 X119.822 Y124.083 E0.02315
G1 X119.628 Y123.146 E0.02315
G1 X119.628 Y80.680 E1.02702
G1 X119.803 Y79.819 E0.02125
G1 X120.278 Y79.080 E0.02125
G1 X121.045 Y78.540 E0.02270
G1 X121.965 Y78.338 E0.02279
G1 X164.435 Y78.337 E1.02712
G1 X165.323 Y78.511 E0.02188
G1 X166.082 Y79.004 E0.02188
G1 X166.567 Y79.695 E0.02043
G1 F5760
G1 X166.806 Y80.626 E-0.33275
G1 X166.807 Y81.859 E-0.42725
G1 E-0.04000 F2100.00000
G1 Z0.950 F7200.000
G1 X163.370 Y81.775
G1 Z0.350
G1 E0.80000 F2100.00000
M204 S800
G1 F3000
G1 X163.370 Y122.080 E1.05018
G1 X123.065 Y122.080 E1.05018
G1 X123.065 Y81.775 E1.05018
G1 X163.310 Y81.775 E1.04862
M204 S1000
G1 X163.788 Y81.357 F7200.000
M204 S800
G1 F3000
G1 X163.788 Y122.498 E1.07195
G1 X122.647 Y122.498 E1.07195
G1 X122.647 Y81.357 E1.07195
G1 X163.728 Y81.357 E1.07039
M204 S1000
G1 X164.206 Y80.939 F7200.000
M204 S800
G1 F2400
G1 X164.206 Y122.916 E1.09373
G1 X122.230 Y122.916 E1.09373
G1 X122.230 Y80.939 E1.09373
G1 X164.146 Y80.939 E1.09216
M204 S1000
G1 X164.103 Y81.326 F7200.000
G1 F5760
G1 X164.149 Y83.134 E-0.76000
G1 E-0.04000 F2100.00000
G1 Z0.950 F7200.000
G1 X124.040 Y81.900
G1 Z0.350
G1 E0.80000 F2100.00000
M204 S2000
G1 F3000
G1 X123.379 Y82.562 E0.02450
G1 X123.379 Y83.156 E0.01556
G1 X124.446 Y82.088 E0.03954
G1 X125.040 Y82.088 E0.01556
G1 X123.379 Y83.750 E0.06154
G1 X123.379 Y84.344 E0.01556
G1 X125.634 Y82.088 E0.08355
G1 X126.228 Y82.088 E0.01556
G1 X123.379 Y84.938 E0.10555
G1 X123.379 Y85.532 E0.01556
G1 X126.822 Y82.088 E0.12756
G1 X127.416 Y82.088 E0.01556
G1 X123.379 Y86.126 E0.14956
G1 X123.379 Y86.720 E0.01556
G1 X128.010 Y82.088 E0.17157
G1 X128.604 Y82.088 E0.01556
G1 X123.379 Y87.314 E0.19357
G1 X123.379 Y87.908 E0.01556
G1 X129.198 Y82.088 E0.21558
G1 X129.792 Y82.088 E0.01556
G1 X123.379 Y88.502 E0.23759
G1 X123.379 Y89.096 E0.01556
G1 X130.386 Y82.088 E0.25959
G1 X130.980 Y82.088 E0.01556
G1 X123.379 Y89.690 E0.28160
G1 X123.379 Y90.284 E0.01556
G1 X131.574 Y82.088 E0.30360
G1 X132.168 Y82.088 E0.01556
G1 X123.379 Y90.878 E0.32561
G1 X123.379 Y91.472 E0.01556
G1 X132.762 Y82.088 E0.34761
G1 X133.356 Y82.088 E0.01556
G1 X123.379 Y92.066 E0.36962
G1 X123.379 Y92.660 E0.01556
G1 X133.950 Y82.088 E0.39162
G1 X134.544 Y82.088 E0.01556
G1 X123.379 Y93.254 E0.41363
G1 X123.379 Y93.848 E0.01556
G1 X135.138 Y82.088 E0.43563
G1 X135.732 Y82.088 E0.01556
G1 X123.379 Y94.442 E0.45764
G1 X123.379 Y95.036 E0.01556
G1 X136.326 Y82.088 E0.47964
G1 X136.920 Y82.088 E0.01556
G1 X123.379 Y95.630 E0.50165
G1 X123.379 Y96.224 E0.01556
G1 X137.514 Y82.088 E0.52365
G1 X138.108 Y82.088 E0.01556
G1 X123.379 Y96.818 E0.54566
G1 X123.379 Y97.412 E0.01556
G1 X138.702 Y82.088 E0.56766
G1 X139.296 Y82.088 E0.01556
G1 X123.379 Y98.006 E0.58967
G1 X123.379 Y98.600 E0.01556
G1 X139.890 Y82.088 E0.61167
G1 X140.484 Y82.088 E0.01556
G1 X123.379 Y99.194 E0.63368
G1 X123.379 Y99.788 E0.01556
G1 X141.078 Y82.088 E0.65568
G1 X141.672 Y82.088 E0.01556
G1 X123.379 Y100.382 E0.67769
G1 X123.379 Y100.976 E0.01556
G1 X142.266 Y82.088 E0.69969
G1 X142.861 Y82.088 E0.01556
G1 X123.379 Y101.570 E0.72170
G1 X123.379 Y102.164 E0.01556
G1 X143.455 Y82.088 E0.74370
G1 X144.049 Y82.088 E0.01556
G1 X123.379 Y102.758 E0.76571
G1 X123.379 Y103.352 E0.01556
G1 X144.643 Y82.088 E0.78771
G1 X145.237 Y82.088 E0.01556
G1 X123.379 Y103.946 E0.80972
G1 X123.379 Y104.540 E0.01556
G1 X145.831 Y82.088 E0.83172
G1 X146.425 Y82.088 E0.01556
G1 X123.379 Y105.134 E0.85373
G1 X123.379 Y105.728 E0.01556
G1 X147.019 Y82.088 E0.87573
G1 X147.613 Y82.088 E0.01556
G1 X123.379 Y106.322 E0.89774
G1 X123.379 Y106.916 E0.01556
G1 X148.207 Y82.088 E0.91974
G1 X148.801 Y82.088 E0.01556
G1 X123.379 Y107.510 E0.94175
G1 X123.379 Y108.104 E0.01556
G1 X149.395 Y82.088 E0.96375
G1 X149.989 Y82.088 E0.01556
G1 X123.379 Y108.698 E0.98576
G1 X123.379 Y109.292 E0.01556
G1 X150.583 Y82.088 E1.00777
G1 X151.177 Y82.088 E0.01556
G1 X123.379 Y109.886 E1.02977
G1 X123.379 Y110.480 E0.01556
G1 X151.771 Y82.088 E1.05178
G1 X152.365 Y82.088 E0.01556
G1 X123.379 Y111.074 E1.07378
G1 X123.379 Y111.668 E0.01556
G1 X152.959 Y82.088 E1.09579
G1 X153.553 Y82.088 E0.01556
G1 X123.379 Y112.263 E1.11779
G1 X123.379 Y112.857 E0.01556
G1 X154.147 Y82.088 E1.13980
G1 X154.741 Y82.088 E0.01556
G1 X123.379 Y113.451 E1.16180
G1 X123.379 Y114.045 E0.01556
