; generated by Slic3r Prusa Edition 1.39.2+win64 on 2018-08-23 at 14:46:48

; 

; external perimeters extrusion width = 0.45mm
; perimeters extrusion width = 0.45mm
; infill extrusion width = 0.45mm
; solid infill extrusion width = 0.45mm
; top infill extrusion width = 0.45mm
; first layer extrusion width = 0.42mm

M107
M115 U3.1.0 ; tell printer latest fw version
M83  ; extruder relative mode
M104 S205 ; set extruder temp
M140 S55 ; set bed temp
M190 S55 ; wait for bed temp
M109 S205 ; wait for extruder temp
G28 W ; home all without mesh bed level
G80 ; mesh bed leveling
G1 Y-3.0 F1000.0 ; go outside print area
G92 E0.0
G1 X60.0 E9.0  F1000.0 ; intro line
G1 X100.0 E12.5  F1000.0 ; intro line
G92 E0.0
M900 K30; Filament gcode
G21 ; set units to millimeters
G90 ; use absolute coordinates
M83 ; use relative distances for extrusion
;BEFORE_LAYER_CHANGE
;0.2


G1 E-0.80000 F2100.00000
G1 Z0.600 F7200.000
;AFTER_LAYER_CHANGE
;0.2
G1 X100.270 Y57.707
G1 Z0.200
G1 E0.80000 F2100.00000
M204 S1000
G1 F1800
G1 X100.725 Y57.234 E0.02060
G1 X101.293 Y56.904 E0.02060
G1 X101.937 Y56.741 E0.02083
G1 X135.701 Y53.167 E1.06457
G1 X150.883 Y53.161 E0.47602
G1 X151.768 Y53.333 E0.02825
G1 X152.522 Y53.819 E0.02813
G1 X153.042 Y54.551 E0.02813
G1 X153.254 Y55.422 E0.02813
G1 X153.247 Y69.751 E0.44925
G1 X153.101 Y70.383 E0.02036
G1 X152.792 Y70.950 E0.02024
G1 X152.341 Y71.412 E0.02024
G1 X151.779 Y71.738 E0.02036
G1 X151.135 Y71.901 E0.02083
G1 X117.299 Y75.479 E1.06684
G1 X101.991 Y75.473 E0.47996
G1 X101.358 Y75.330 E0.02036
G1 X100.787 Y75.021 E0.02036
G1 X100.318 Y74.566 E0.02048
G1 X99.993 Y74.004 E0.02036
G1 X99.816 Y73.132 E0.02790
G1 X99.823 Y58.925 E0.44544
G1 X99.961 Y58.287 E0.02048
G1 X100.241 Y57.760 E0.01871
G1 F5760
G1 X100.725 Y57.234 E-0.24756
G1 X101.293 Y56.904 E-0.22750
G1 X101.937 Y56.741 E-0.23012
G1 X102.095 Y56.724 E-0.05483
G1 E-0.04000 F2100.00000
G1 Z0.800 F7200.000
G1 X143.510 Y62.538
G1 Z0.200
G1 E0.80000 F2100.00000
G1 F1800
G1 X143.562 Y62.045 E0.01553
G1 X143.715 Y61.574 E0.01553
G1 X143.963 Y61.145 E0.01553
G1 X144.294 Y60.777 E0.01553
G1 X144.695 Y60.486 E0.01553
G1 X145.147 Y60.284 E0.01553
G1 X145.632 Y60.181 E0.01554
G1 X146.127 Y60.181 E0.01553
G1 X146.612 Y60.284 E0.01553
G1 X147.064 Y60.486 E0.01553
G1 X147.465 Y60.777 E0.01553
G1 X147.798 Y61.147 E0.01560
G1 X148.047 Y61.582 E0.01574
G1 X148.197 Y62.045 E0.01525
G1 X148.249 Y62.538 E0.01553
G1 X148.197 Y63.030 E0.01553
G1 X148.044 Y63.502 E0.01553
G1 X147.797 Y63.930 E0.01553
G1 X147.465 Y64.299 E0.01553
G1 X147.064 Y64.590 E0.01553
G1 X146.612 Y64.791 E0.01553
G1 X146.127 Y64.894 E0.01554
G1 X145.632 Y64.894 E0.01553
G1 X145.147 Y64.791 E0.01553
G1 X144.695 Y64.590 E0.01553
G1 X144.294 Y64.299 E0.01553
G1 X143.961 Y63.929 E0.01560
G1 X143.712 Y63.493 E0.01574
G1 X143.562 Y63.030 E0.01525
G1 X143.516 Y62.597 E0.01365
G1 X143.891 Y62.558 F7200.000
G1 F1800
G1 X143.933 Y62.124 E0.01367
G1 X144.061 Y61.728 E0.01305
G1 X144.269 Y61.368 E0.01305
G1 X144.548 Y61.059 E0.01305
G1 X144.884 Y60.814 E0.01305
G1 X145.265 Y60.645 E0.01305
G1 X145.672 Y60.558 E0.01305
G1 X146.088 Y60.558 E0.01305
G1 X146.495 Y60.645 E0.01304
G1 X146.875 Y60.814 E0.01305
G1 X147.211 Y61.059 E0.01305
G1 X147.491 Y61.369 E0.01309
G1 X147.700 Y61.736 E0.01325
G1 X147.826 Y62.124 E0.01280
G1 X147.870 Y62.538 E0.01305
G1 X147.826 Y62.952 E0.01305
G1 X147.698 Y63.347 E0.01305
G1 X147.490 Y63.708 E0.01305
G1 X147.211 Y64.017 E0.01305
G1 X146.875 Y64.261 E0.01305
G1 X146.495 Y64.431 E0.01305
G1 X146.088 Y64.517 E0.01305
G1 X145.671 Y64.517 E0.01305
G1 X145.265 Y64.431 E0.01304
G1 X144.884 Y64.261 E0.01305
G1 X144.548 Y64.017 E0.01305
G1 X144.269 Y63.707 E0.01309
G1 X144.059 Y63.340 E0.01325
G1 X143.933 Y62.952 E0.01280
G1 X143.898 Y62.618 E0.01053
G1 X144.268 Y62.538 F7200.000
G1 F1800
G1 X144.304 Y62.203 E0.01056
G1 X144.408 Y61.882 E0.01056
G1 X144.576 Y61.591 E0.01056
G1 X144.802 Y61.340 E0.01056
G1 X145.074 Y61.142 E0.01056
G1 X145.382 Y61.005 E0.01056
G1 X145.711 Y60.935 E0.01056
G1 X146.048 Y60.935 E0.01056
G1 X146.377 Y61.005 E0.01056
G1 X146.685 Y61.142 E0.01056
G1 X146.958 Y61.340 E0.01056
G1 X147.183 Y61.591 E0.01058
G1 X147.354 Y61.889 E0.01076
G1 X147.456 Y62.203 E0.01034
G1 X147.491 Y62.538 E0.01056
G1 X147.456 Y62.873 E0.01056
G1 X147.352 Y63.193 E0.01056
G1 X147.183 Y63.485 E0.01056
G1 X146.958 Y63.735 E0.01056
G1 X146.685 Y63.933 E0.01056
G1 X146.377 Y64.070 E0.01056
G1 X146.048 Y64.140 E0.01056
G1 X145.711 Y64.140 E0.01056
G1 X145.382 Y64.070 E0.01056
G1 X145.074 Y63.933 E0.01056
G1 X144.802 Y63.735 E0.01056
G1 X144.576 Y63.484 E0.01058
G1 X144.406 Y63.186 E0.01076
G1 X144.304 Y62.873 E0.01034
G1 X144.275 Y62.597 E0.00868
G1 X143.977 Y62.369 F7200.000
G1 F5760
G1 X144.304 Y62.203 E-0.13706
G1 X144.408 Y61.882 E-0.11664
G1 X144.576 Y61.591 E-0.11668
G1 X144.802 Y61.340 E-0.11665
G1 X145.074 Y61.142 E-0.11666
G1 X145.382 Y61.005 E-0.11667
G1 X145.494 Y60.982 E-0.03964
G1 E-0.04000 F2100.00000
G1 Z0.800 F7200.000
G1 X149.915 Y68.574
G1 Z0.200
G1 E0.80000 F2100.00000
G1 F1800
G1 X136.844 Y68.574 E0.40985
G1 X136.844 Y56.502 E0.37850
G1 X149.915 Y56.502 E0.40985
G1 X149.915 Y68.514 E0.37662
G1 X150.293 Y68.951 F7200.000
G1 F1800
G1 X136.467 Y68.951 E0.43350
G1 X136.467 Y56.125 E0.40215
G1 X150.293 Y56.125 E0.43350
G1 X150.293 Y68.891 E0.40026
G1 X150.670 Y69.328 F7200.000
G1 F1800
G1 X136.090 Y69.328 E0.45715
G1 X136.090 Y55.748 E0.42579
G1 X150.670 Y55.748 E0.45715
G1 X150.670 Y69.268 E0.42391
G1 X150.282 Y69.229 F7200.000
G1 F5760
G1 X148.475 Y69.277 E-0.76000
G1 E-0.04000 F2100.00000
G1 Z0.800 F7200.000
G1 X147.956 Y68.460
G1 Z0.200
G1 E0.80000 F2100.00000
G1 F1800
G1 X137.127 Y57.631 E0.48483
G1 X137.127 Y58.169 E0.01704
G1 X147.248 Y68.291 E0.45313
G1 X146.710 Y68.291 E0.01704
G1 X137.127 Y58.708 E0.42902
G1 X137.127 Y59.246 E0.01704
G1 X146.171 Y68.291 E0.40492
G1 X145.633 Y68.291 E0.01704
G1 X137.127 Y59.784 E0.38082
G1 X137.127 Y60.323 E0.01704
G1 X145.095 Y68.291 E0.35672
G1 X144.556 Y68.291 E0.01704
G1 X137.127 Y60.861 E0.33261
G1 X137.127 Y61.400 E0.01704
G1 X144.018 Y68.291 E0.30851
G1 X143.479 Y68.291 E0.01704
G1 X137.127 Y61.938 E0.28441
G1 X137.127 Y62.476 E0.01704
G1 X142.941 Y68.291 E0.26030
G1 X142.403 Y68.291 E0.01704
G1 X137.127 Y63.015 E0.23620
G1 X137.127 Y63.553 E0.01704
G1 X141.864 Y68.291 E0.21210
G1 X141.326 Y68.291 E0.01704
G1 X137.127 Y64.092 E0.18799
G1 X137.127 Y64.630 E0.01704
G1 X140.787 Y68.291 E0.16389
G1 X140.249 Y68.291 E0.01704
G1 X137.127 Y65.168 E0.13979
G1 X137.127 Y65.707 E0.01704
G1 X139.711 Y68.291 E0.11569
G1 X139.172 Y68.291 E0.01704
G1 X137.127 Y66.245 E0.09158
G1 X137.127 Y66.784 E0.01704
G1 X138.634 Y68.291 E0.06748
G1 X138.095 Y68.291 E0.01704
G1 X137.127 Y67.322 E0.04338
G1 X137.127 Y67.860 E0.01704
G1 X137.727 Y68.460 E0.02687
G1 F5760
G1 X137.127 Y67.860 E-0.29399
G1 X137.127 Y67.322 E-0.18648
G1 X137.697 Y67.893 E-0.27954
G1 E-0.04000 F2100.00000
G1 Z0.800 F7200.000
G1 X143.361 Y63.327
G1 Z0.200
G1 E0.80000 F2100.00000
G1 F1800
G1 X137.127 Y57.092 E0.27910
G1 X137.127 Y56.785 E0.00974
G1 X137.357 Y56.785 E0.00730
G1 X143.239 Y62.667 E0.26333
G1 X143.226 Y62.538 E0.00411
G1 X143.266 Y62.155 E0.01218
G1 X137.896 Y56.785 E0.24042
G1 X138.434 Y56.785 E0.01704
G1 X143.370 Y61.721 E0.22097
G1 X143.455 Y61.458 E0.00873
G1 X143.525 Y61.337 E0.00443
G1 X138.973 Y56.785 E0.20381
G1 X139.511 Y56.785 E0.01704
G1 X143.722 Y60.996 E0.18853
G1 X143.974 Y60.710 E0.01208
G1 X140.049 Y56.785 E0.17571
G1 X140.588 Y56.785 E0.01704
G1 X144.257 Y60.454 E0.16428
G1 X144.572 Y60.231 E0.01223
G1 X141.126 Y56.785 E0.15428
G1 X141.665 Y56.785 E0.01704
G1 X144.945 Y60.065 E0.14685
G1 X145.060 Y60.014 E0.00398
G1 X145.367 Y59.949 E0.00994
G1 X142.203 Y56.785 E0.14164
G1 X142.741 Y56.785 E0.01704
G1 X145.855 Y59.899 E0.13940
G1 X146.157 Y59.899 E0.00956
G1 X146.457 Y59.962 E0.00971
G1 X143.280 Y56.785 E0.14226
G1 X143.818 Y56.785 E0.01704
G1 X149.633 Y62.599 E0.26031
G1 X149.633 Y62.061 E0.01704
G1 X144.357 Y56.785 E0.23620
G1 X144.895 Y56.785 E0.01704
G1 X149.633 Y61.522 E0.21210
G1 X149.633 Y60.984 E0.01704
G1 X145.433 Y56.785 E0.18800
G1 X145.972 Y56.785 E0.01704
G1 X149.633 Y60.446 E0.16389
G1 X149.633 Y59.907 E0.01704
G1 X146.510 Y56.785 E0.13979
G1 X147.049 Y56.785 E0.01704
G1 X149.633 Y59.369 E0.11569
G1 X149.633 Y58.830 E0.01704
G1 X147.587 Y56.785 E0.09159
G1 X148.125 Y56.785 E0.01704
G1 X149.633 Y58.292 E0.06748
G1 X149.633 Y57.754 E0.01704
G1 X148.664 Y56.785 E0.04338
G1 X149.202 Y56.785 E0.01704
G1 X149.802 Y57.385 E0.02687
G1 F5760
G1 X149.202 Y56.785 E-0.29403
G1 X148.664 Y56.785 E-0.18648
G1 X149.234 Y57.355 E-0.27950
G1 E-0.04000 F2100.00000
G1 Z0.800 F7200.000
G1 X149.802 Y63.307
G1 Z0.200
G1 E0.80000 F2100.00000
G1 F1800
G1 X148.473 Y61.978 E0.05952
G1 X148.530 Y62.573 E0.01893
G1 X149.633 Y63.676 E0.04938
G1 X149.633 Y64.214 E0.01704
G1 X148.479 Y63.060 E0.05167
G1 X148.351 Y63.472 E0.01363
G1 X149.633 Y64.753 E0.05736
G1 X149.633 Y65.291 E0.01704
G1 X148.178 Y63.836 E0.06514
G1 X148.027 Y64.098 E0.00956
G1 X147.967 Y64.164 E0.00282
G1 X149.633 Y65.830 E0.07457
G1 X149.633 Y66.368 E0.01704
G1 X147.712 Y64.447 E0.08599
G1 X147.655 Y64.510 E0.00267
G1 X147.413 Y64.686 E0.00950
G1 X149.633 Y66.906 E0.09939
G1 X149.633 Y67.445 E0.01704
G1 X147.080 Y64.892 E0.11427
G1 X146.708 Y65.058 E0.01291
G1 X149.633 Y67.983 E0.13095
G1 X149.633 Y68.291 E0.00974
G1 X149.402 Y68.291 E0.00731
G1 X146.265 Y65.154 E0.14043
G1 X146.157 Y65.177 E0.00350
G1 X145.750 Y65.177 E0.01289
G1 X148.863 Y68.291 E0.13940
G1 X148.325 Y68.291 E0.01704
G1 X145.106 Y65.072 E0.14412
G1 F5760
G1 X146.657 Y66.623 E-0.76000
G1 E-0.04000 F2100.00000
G1 Z0.800 F7200.000
G1 X114.562 Y66.104
G1 Z0.200
G1 E0.80000 F2100.00000
G1 F1800
G1 X114.511 Y66.597 E0.01553
G1 X114.358 Y67.068 E0.01553
G1 X114.110 Y67.497 E0.01553
G1 X113.778 Y67.865 E0.01553
G1 X113.378 Y68.156 E0.01553
G1 X112.925 Y68.358 E0.01553
G1 X112.440 Y68.461 E0.01554
G1 X111.945 Y68.461 E0.01553
G1 X111.461 Y68.358 E0.01553
G1 X111.008 Y68.156 E0.01553
G1 X110.607 Y67.865 E0.01553
G1 X110.275 Y67.495 E0.01560
G1 X110.026 Y67.059 E0.01574
G1 X109.875 Y66.597 E0.01525
G1 X109.823 Y66.104 E0.01553
G1 X109.875 Y65.611 E0.01553
G1 X110.028 Y65.140 E0.01553
G1 X110.276 Y64.711 E0.01553
G1 X110.607 Y64.343 E0.01553
G1 X111.008 Y64.052 E0.01553
G1 X111.461 Y63.851 E0.01553
G1 X111.945 Y63.748 E0.01554
G1 X112.441 Y63.748 E0.01553
G1 X112.925 Y63.851 E0.01553
G1 X113.378 Y64.052 E0.01553
G1 X113.778 Y64.343 E0.01553
G1 X114.111 Y64.713 E0.01560
G1 X114.360 Y65.149 E0.01574
G1 X114.511 Y65.611 E0.01525
G1 X114.556 Y66.044 E0.01365
G1 X114.181 Y66.084 F7200.000
G1 F1800
G1 X114.140 Y66.518 E0.01367
G1 X114.011 Y66.914 E0.01305
G1 X113.803 Y67.274 E0.01305
G1 X113.525 Y67.583 E0.01305
G1 X113.188 Y67.828 E0.01305
G1 X112.808 Y67.997 E0.01305
G1 X112.401 Y68.083 E0.01305
G1 X111.985 Y68.083 E0.01305
G1 X111.578 Y67.997 E0.01304
G1 X111.198 Y67.828 E0.01305
G1 X110.861 Y67.583 E0.01305
G1 X110.582 Y67.273 E0.01309
G1 X110.372 Y66.906 E0.01325
G1 X110.246 Y66.518 E0.01280
G1 X110.203 Y66.104 E0.01305
G1 X110.246 Y65.690 E0.01305
G1 X110.375 Y65.295 E0.01305
G1 X110.583 Y64.934 E0.01305
G1 X110.861 Y64.625 E0.01305
G1 X111.198 Y64.380 E0.01305
G1 X111.578 Y64.211 E0.01305
G1 X111.985 Y64.125 E0.01305
G1 X112.401 Y64.125 E0.01305
G1 X112.808 Y64.211 E0.01304
G1 X113.188 Y64.380 E0.01305
G1 X113.525 Y64.625 E0.01305
G1 X113.804 Y64.935 E0.01309
G1 X114.014 Y65.302 E0.01325
G1 X114.140 Y65.690 E0.01280
G1 X114.175 Y66.024 E0.01053
G1 X113.804 Y66.104 F7200.000
G1 F1800
G1 X113.769 Y66.439 E0.01056
G1 X113.665 Y66.759 E0.01056
G1 X113.496 Y67.051 E0.01056
G1 X113.271 Y67.301 E0.01056
G1 X112.999 Y67.499 E0.01056
G1 X112.691 Y67.636 E0.01056
G1 X112.361 Y67.706 E0.01056
G1 X112.024 Y67.706 E0.01056
G1 X111.695 Y67.636 E0.01056
G1 X111.387 Y67.499 E0.01056
G1 X111.115 Y67.301 E0.01056
G1 X110.889 Y67.051 E0.01058
G1 X110.719 Y66.753 E0.01076
G1 X110.617 Y66.439 E0.01034
G1 X110.582 Y66.104 E0.01056
G1 X110.617 Y65.769 E0.01056
G1 X110.721 Y65.449 E0.01056
G1 X110.889 Y65.157 E0.01056
G1 X111.115 Y64.907 E0.01056
G1 X111.387 Y64.709 E0.01056
G1 X111.695 Y64.572 E0.01056
G1 X112.025 Y64.502 E0.01056
G1 X112.361 Y64.502 E0.01056
G1 X112.691 Y64.572 E0.01056
G1 X112.999 Y64.709 E0.01056
G1 X113.271 Y64.907 E0.01056
G1 X113.497 Y65.157 E0.01058
G1 X113.667 Y65.456 E0.01076
G1 X113.769 Y65.769 E0.01034
G1 X113.798 Y66.044 E0.00868
G1 X114.096 Y66.273 F7200.000
G1 F5760
G1 X113.769 Y66.439 E-0.13706
G1 X113.665 Y66.759 E-0.11664
G1 X113.496 Y67.051 E-0.11667
G1 X113.271 Y67.301 E-0.11665
G1 X112.999 Y67.499 E-0.11666
G1 X112.691 Y67.636 E-0.11668
G1 X112.579 Y67.660 E-0.03964
G1 E-0.04000 F2100.00000
G1 Z0.800 F7200.000
G1 X116.229 Y60.068
G1 Z0.200
G1 E0.80000 F2100.00000
G1 F1800
G1 X116.229 Y72.140 E0.37850
G1 X103.157 Y72.140 E0.40985
G1 X103.157 Y60.068 E0.37850
G1 X116.169 Y60.068 E0.40797
G1 X116.606 Y59.691 F7200.000
G1 F1800
G1 X116.606 Y72.517 E0.40215
G1 X102.780 Y72.517 E0.43350
G1 X102.780 Y59.691 E0.40215
G1 X116.546 Y59.691 E0.43162
G1 X116.983 Y59.314 F7200.000
G1 F1800
G1 X116.983 Y72.894 E0.42579
G1 X102.403 Y72.894 E0.45715
G1 X102.403 Y59.314 E0.42579
G1 X116.923 Y59.314 E0.45526
G1 X116.875 Y59.699 F7200.000
G1 F5760
G1 X116.933 Y61.508 E-0.76000
G1 E-0.04000 F2100.00000
G1 Z0.800 F7200.000
G1 X116.116 Y60.951
G1 Z0.200
G1 E0.80000 F2100.00000
G1 F1800
G1 X115.515 Y60.351 E0.02687
G1 X114.977 Y60.351 E0.01704
G1 X115.946 Y61.320 E0.04338
G1 X115.946 Y61.858 E0.01704
G1 X114.439 Y60.351 E0.06748
G1 X113.900 Y60.351 E0.01704
G1 X115.946 Y62.397 E0.09159
G1 X115.946 Y62.935 E0.01704
G1 X113.362 Y60.351 E0.11569
G1 X112.823 Y60.351 E0.01704
G1 X115.946 Y63.474 E0.13979
G1 X115.946 Y64.012 E0.01704
G1 X112.285 Y60.351 E0.16389
G1 X111.747 Y60.351 E0.01704
G1 X115.946 Y64.550 E0.18800
G1 X115.946 Y65.089 E0.01704
G1 X111.208 Y60.351 E0.21210
G1 X110.670 Y60.351 E0.01704
G1 X115.946 Y65.627 E0.23620
G1 X115.946 Y66.166 E0.01704
G1 X110.131 Y60.351 E0.26031
G1 X109.593 Y60.351 E0.01704
G1 X112.771 Y63.529 E0.14226
G1 X112.470 Y63.465 E0.00971
G1 X112.168 Y63.465 E0.00956
G1 X109.055 Y60.351 E0.13940
G1 X108.516 Y60.351 E0.01704
G1 X111.680 Y63.515 E0.14164
G1 X111.373 Y63.580 E0.00994
G1 X111.258 Y63.631 E0.00398
G1 X107.978 Y60.351 E0.14685
G1 X107.439 Y60.351 E0.01704
G1 X110.886 Y63.797 E0.15428
G1 X110.571 Y64.021 E0.01223
G1 X106.901 Y60.351 E0.16428
G1 X106.363 Y60.351 E0.01704
G1 X110.288 Y64.276 E0.17571
G1 X110.036 Y64.562 E0.01208
G1 X105.824 Y60.351 E0.18853
G1 X105.286 Y60.351 E0.01704
G1 X109.838 Y64.904 E0.20381
G1 X109.769 Y65.025 E0.00443
G1 X109.683 Y65.287 E0.00873
G1 X104.747 Y60.351 E0.22097
G1 X104.209 Y60.351 E0.01704
G1 X109.579 Y65.721 E0.24042
G1 X109.539 Y66.104 E0.01218
G1 X109.553 Y66.233 E0.00411
G1 X103.671 Y60.351 E0.26333
G1 X103.440 Y60.351 E0.00730
G1 X103.440 Y60.659 E0.00974
G1 X109.674 Y66.893 E0.27910
G1 F5760
G1 X108.123 Y65.341 E-0.76000
G1 E-0.04000 F2100.00000
G1 Z0.800 F7200.000
G1 X111.419 Y68.638
G1 Z0.200
G1 E0.80000 F2100.00000
G1 F1800
G1 X114.638 Y71.857 E0.14412
G1 X115.177 Y71.857 E0.01704
G1 X112.063 Y68.743 E0.13940
G1 X112.470 Y68.743 E0.01289
G1 X112.578 Y68.720 E0.00350
G1 X115.715 Y71.857 E0.14043
G1 X115.946 Y71.857 E0.00731
G1 X115.946 Y71.550 E0.00974
G1 X113.021 Y68.625 E0.13095
G1 X113.393 Y68.459 E0.01291
G1 X115.946 Y71.011 E0.11427
G1 X115.946 Y70.473 E0.01704
G1 X113.726 Y68.253 E0.09939
G1 X113.969 Y68.076 E0.00950
G1 X114.025 Y68.014 E0.00267
G1 X115.946 Y69.934 E0.08599
G1 X115.946 Y69.396 E0.01704
G1 X114.280 Y67.730 E0.07457
G1 X114.340 Y67.664 E0.00282
G1 X114.491 Y67.403 E0.00956
G1 X115.946 Y68.858 E0.06514
G1 X115.946 Y68.319 E0.01704
G1 X114.665 Y67.038 E0.05736
G1 X114.792 Y66.627 E0.01363
G1 X115.946 Y67.781 E0.05167
G1 X115.946 Y67.242 E0.01704
G1 X114.843 Y66.139 E0.04938
G1 X114.786 Y65.544 E0.01893
G1 X116.116 Y66.874 E0.05952
G1 F5760
G1 X114.786 Y65.544 E-0.65127
G1 X114.816 Y65.857 E-0.10873
G1 E-0.04000 F2100.00000
G1 Z0.800 F7200.000
G1 X114.270 Y72.027
G1 Z0.200
G1 E0.80000 F2100.00000
G1 F1800
