; generated by Slic3r Prusa Edition 1.39.2+win64 on 2018-06-02 at 08:15:14

; 

; external perimeters extrusion width = 0.45mm
; perimeters extrusion width = 0.45mm
; infill extrusion width = 0.45mm
; solid infill extrusion width = 0.45mm
; top infill extrusion width = 0.45mm
; first layer extrusion width = 0.42mm

M107
M115 U3.1.0 ; tell printer latest fw version
M83  ; extruder relative mode
M104 S205 ; set extruder temp
M140 S55 ; set bed temp
M190 S55 ; wait for bed temp
M109 S205 ; wait for extruder temp
G28 W ; home all without mesh bed level
G80 ; mesh bed leveling
G1 Y-3.0 F1000.0 ; go outside print area
G92 E0.0
G1 X60.0 E9.0  F1000.0 ; intro line
G1 X100.0 E12.5  F1000.0 ; intro line
G92 E0.0
M900 K30; Filament gcode
G21 ; set units to millimeters
G90 ; use absolute coordinates
M83 ; use relative distances for extrusion
;BEFORE_LAYER_CHANGE
;0.2


G1 E-0.80000 F2100.00000
G1 Z0.600 F7200.000
;AFTER_LAYER_CHANGE
;0.2
G1 X92.450 Y94.460
G1 Z0.200
G1 E0.80000 F2100.00000
M204 S1000
G1 F1800
G1 X92.949 Y93.661 E0.02955
G1 X93.348 Y93.296 E0.01694
G1 X93.810 Y93.016 E0.01694
G1 X94.318 Y92.832 E0.01694
G1 X94.852 Y92.750 E0.01694
G1 X110.004 Y92.746 E0.47509
G1 X110.986 Y92.928 E0.03132
G1 X111.839 Y93.449 E0.03132
G1 X112.449 Y94.240 E0.03132
G1 X112.737 Y95.197 E0.03132
G1 X112.752 Y109.615 E0.45207
G1 X112.552 Y110.536 E0.02955
G1 X112.051 Y111.339 E0.02968
G1 X111.629 Y111.721 E0.01784
G1 X111.138 Y112.008 E0.01784
G1 X110.599 Y112.188 E0.01784
G1 X110.029 Y112.254 E0.01796
G1 X94.885 Y112.252 E0.47484
G1 X93.964 Y112.052 E0.02955
G1 X93.161 Y111.551 E0.02968
G1 X92.779 Y111.129 E0.01784
G1 X92.492 Y110.638 E0.01784
G1 X92.312 Y110.099 E0.01784
G1 X92.246 Y109.534 E0.01784
G1 X92.249 Y95.377 E0.44387
G1 X92.437 Y94.519 E0.02754
G1 F5760
G1 X92.949 Y93.661 E-0.34606
G1 X93.348 Y93.296 E-0.18715
G1 X93.810 Y93.016 E-0.18715
G1 X93.917 Y92.977 E-0.03965
G1 E-0.04000 F2100.00000
G1 Z0.800 F7200.000
G1 X93.992 Y93.347
G1 Z0.200
G1 E0.80000 F2100.00000
G1 F1800
G1 X94.888 Y93.126 E0.02896
G1 X110.004 Y93.123 E0.47393
G1 X110.860 Y93.284 E0.02731
G1 X111.598 Y93.740 E0.02720
G1 X112.125 Y94.434 E0.02731
G1 X112.366 Y95.271 E0.02731
G1 X112.375 Y109.591 E0.44901
G1 X112.199 Y110.402 E0.02602
G1 X111.752 Y111.106 E0.02614
G1 X110.966 Y111.672 E0.03036
G1 X110.020 Y111.877 E0.03036
G1 X94.912 Y111.875 E0.47369
G1 X94.098 Y111.699 E0.02614
G1 X93.394 Y111.252 E0.02614
G1 X92.828 Y110.466 E0.03036
G1 X92.623 Y109.520 E0.03036
G1 X92.625 Y95.405 E0.44258
G1 X92.802 Y94.594 E0.02602
G1 X93.248 Y93.894 E0.02602
G1 X93.944 Y93.383 E0.02707
G1 F5760
G1 X94.888 Y93.126 E-0.33916
G1 X96.104 Y93.125 E-0.42084
G1 E-0.04000 F2100.00000
G1 Z0.800 F7200.000
G1 X103.002 Y101.048
G1 Z0.200
G1 E0.80000 F2100.00000
G1 F1800
G1 X103.348 Y100.665 E0.01619
G1 X103.765 Y100.361 E0.01618
G1 X104.237 Y100.151 E0.01619
G1 X104.742 Y100.044 E0.01619
G1 X105.258 Y100.044 E0.01619
G1 X105.763 Y100.151 E0.01619
G1 X106.235 Y100.361 E0.01619
G1 X106.652 Y100.665 E0.01619
G1 X106.998 Y101.049 E0.01619
G1 X107.256 Y101.496 E0.01618
G1 X107.415 Y101.986 E0.01618
G1 X107.469 Y102.500 E0.01619
G1 X107.415 Y103.013 E0.01619
G1 X107.256 Y103.504 E0.01618
G1 X106.998 Y103.952 E0.01619
G1 X106.652 Y104.335 E0.01619
G1 X106.235 Y104.639 E0.01619
G1 X105.763 Y104.849 E0.01619
G1 X105.258 Y104.956 E0.01619
G1 X104.742 Y104.956 E0.01619
G1 X104.237 Y104.849 E0.01619
G1 X103.765 Y104.639 E0.01619
G1 X103.348 Y104.335 E0.01619
G1 X103.002 Y103.951 E0.01619
G1 X102.744 Y103.504 E0.01618
G1 X102.585 Y103.013 E0.01618
G1 X102.531 Y102.500 E0.01619
G1 X102.585 Y101.986 E0.01619
G1 X102.744 Y101.496 E0.01618
G1 X102.972 Y101.100 E0.01431
G1 X103.299 Y101.289 F7200.000
G1 F1800
G1 X103.601 Y100.947 E0.01433
G1 X103.955 Y100.690 E0.01370
G1 X104.354 Y100.512 E0.01370
G1 X104.781 Y100.421 E0.01370
G1 X105.219 Y100.421 E0.01370
G1 X105.646 Y100.512 E0.01370
G1 X106.045 Y100.690 E0.01370
G1 X106.399 Y100.947 E0.01370
G1 X106.691 Y101.272 E0.01371
G1 X106.910 Y101.650 E0.01370
G1 X107.045 Y102.065 E0.01370
G1 X107.090 Y102.500 E0.01370
G1 X107.045 Y102.935 E0.01370
G1 X106.910 Y103.350 E0.01370
G1 X106.691 Y103.729 E0.01370
G1 X106.399 Y104.053 E0.01370
G1 X106.045 Y104.310 E0.01370
G1 X105.646 Y104.488 E0.01370
G1 X105.219 Y104.579 E0.01370
G1 X104.781 Y104.579 E0.01370
G1 X104.354 Y104.488 E0.01370
G1 X103.955 Y104.310 E0.01370
G1 X103.601 Y104.053 E0.01370
G1 X103.309 Y103.728 E0.01371
G1 X103.090 Y103.350 E0.01370
G1 X102.955 Y102.935 E0.01370
G1 X102.910 Y102.500 E0.01370
G1 X102.955 Y102.065 E0.01370
G1 X103.090 Y101.650 E0.01370
G1 X103.269 Y101.341 E0.01118
G1 X103.616 Y101.494 F7200.000
G1 F1800
G1 X103.855 Y101.228 E0.01122
G1 X104.144 Y101.018 E0.01122
G1 X104.471 Y100.873 E0.01122
G1 X104.821 Y100.798 E0.01122
G1 X105.179 Y100.798 E0.01122
G1 X105.529 Y100.873 E0.01122
G1 X105.856 Y101.018 E0.01122
G1 X106.145 Y101.228 E0.01122
G1 X106.384 Y101.494 E0.01122
G1 X106.563 Y101.804 E0.01121
G1 X106.674 Y102.144 E0.01121
G1 X106.711 Y102.500 E0.01122
G1 X106.674 Y102.856 E0.01122
G1 X106.563 Y103.196 E0.01122
G1 X106.384 Y103.506 E0.01122
G1 X106.145 Y103.772 E0.01122
G1 X105.856 Y103.982 E0.01122
G1 X105.529 Y104.127 E0.01122
G1 X105.179 Y104.202 E0.01122
G1 X104.821 Y104.202 E0.01122
G1 X104.471 Y104.127 E0.01122
G1 X104.144 Y103.982 E0.01122
G1 X103.855 Y103.772 E0.01122
G1 X103.616 Y103.506 E0.01122
G1 X103.437 Y103.196 E0.01121
G1 X103.326 Y102.856 E0.01122
G1 X103.289 Y102.500 E0.01122
G1 X103.326 Y102.144 E0.01122
G1 X103.437 Y101.804 E0.01121
G1 X103.586 Y101.546 E0.00934
G1 X103.470 Y101.167 F7200.000
G1 F5760
G1 X103.855 Y101.228 E-0.14428
G1 X104.144 Y101.018 E-0.12389
G1 X104.471 Y100.873 E-0.12391
G1 X104.821 Y100.798 E-0.12390
G1 X105.179 Y100.798 E-0.12391
G1 X105.518 Y100.870 E-0.12011
G1 E-0.04000 F2100.00000
G1 Z0.800 F7200.000
G1 X109.036 Y96.464
G1 Z0.200
G1 E0.80000 F2100.00000
G1 F1800
G1 X109.036 Y108.536 E0.37850
G1 X95.964 Y108.536 E0.40985
G1 X95.964 Y96.464 E0.37850
G1 X108.976 Y96.464 E0.40797
G1 X109.413 Y96.087 F7200.000
G1 F1800
G1 X109.413 Y108.913 E0.40215
G1 X95.587 Y108.913 E0.43350
G1 X95.587 Y96.087 E0.40215
G1 X109.353 Y96.087 E0.43162
G1 X109.790 Y95.710 F7200.000
G1 F1800
G1 X109.790 Y109.290 E0.42579
G1 X95.210 Y109.290 E0.45715
G1 X95.210 Y95.710 E0.42579
G1 X109.730 Y95.710 E0.45526
G1 X109.682 Y96.095 F7200.000
G1 F5760
G1 X109.740 Y97.904 E-0.76000
G1 E-0.04000 F2100.00000
G1 Z0.800 F7200.000
G1 X108.923 Y97.347
G1 Z0.200
G1 E0.80000 F2100.00000
G1 F1800
G1 X108.322 Y96.747 E0.02687
G1 X107.784 Y96.747 E0.01704
G1 X108.753 Y97.716 E0.04338
G1 X108.753 Y98.254 E0.01704
G1 X107.246 Y96.747 E0.06748
G1 X106.707 Y96.747 E0.01704
G1 X108.753 Y98.793 E0.09159
G1 X108.753 Y99.331 E0.01704
G1 X106.169 Y96.747 E0.11569
G1 X105.630 Y96.747 E0.01704
G1 X108.753 Y99.870 E0.13979
G1 X108.753 Y100.408 E0.01704
G1 X105.092 Y96.747 E0.16389
G1 X104.554 Y96.747 E0.01704
G1 X108.753 Y100.946 E0.18800
G1 X108.753 Y101.485 E0.01704
G1 X104.015 Y96.747 E0.21210
G1 X103.477 Y96.747 E0.01704
G1 X108.753 Y102.023 E0.23620
G1 X108.753 Y102.562 E0.01704
G1 X102.938 Y96.747 E0.26031
G1 X102.400 Y96.747 E0.01704
G1 X105.449 Y99.795 E0.13647
G1 X105.288 Y99.761 E0.00520
G1 X104.876 Y99.761 E0.01304
G1 X101.862 Y96.747 E0.13494
G1 X101.323 Y96.747 E0.01704
G1 X104.403 Y99.827 E0.13788
G1 X104.149 Y99.881 E0.00823
G1 X103.990 Y99.952 E0.00552
G1 X100.785 Y96.747 E0.14348
G1 X100.246 Y96.747 E0.01704
G1 X103.618 Y100.119 E0.15095
G1 X103.306 Y100.345 E0.01220
G1 X99.708 Y96.747 E0.16109
G1 X99.170 Y96.747 E0.01704
G1 X103.024 Y100.601 E0.17256
G1 X102.770 Y100.885 E0.01207
G1 X98.631 Y96.747 E0.18527
G1 X98.093 Y96.747 E0.01704
G1 X102.573 Y101.227 E0.20055
G1 X102.484 Y101.380 E0.00560
G1 X102.411 Y101.604 E0.00746
G1 X97.555 Y96.747 E0.21744
G1 X97.016 Y96.747 E0.01704
G1 X102.296 Y102.027 E0.23637
G1 X102.248 Y102.517 E0.01560
G1 X96.478 Y96.747 E0.25832
G1 X96.247 Y96.747 E0.00730
G1 X96.247 Y97.055 E0.00974
G1 X102.591 Y103.398 E0.28399
G1 F5760
G1 X101.039 Y101.847 E-0.76000
G1 E-0.04000 F2100.00000
G1 Z0.800 F7200.000
G1 X104.107 Y104.915
G1 Z0.200
G1 E0.80000 F2100.00000
G1 F1800
G1 X107.445 Y108.253 E0.14946
G1 X107.984 Y108.253 E0.01704
G1 X104.970 Y105.239 E0.13494
G1 X105.288 Y105.239 E0.01008
G1 X105.469 Y105.200 E0.00587
G1 X108.522 Y108.253 E0.13667
G1 X108.753 Y108.253 E0.00731
G1 X108.753 Y107.945 E0.00974
G1 X105.903 Y105.096 E0.12758
G1 X106.276 Y104.930 E0.01291
G1 X108.753 Y107.407 E0.11090
G1 X108.753 Y106.869 E0.01704
G1 X106.604 Y104.720 E0.09620
G1 X106.843 Y104.546 E0.00933
G1 X106.903 Y104.480 E0.00284
G1 X108.753 Y106.330 E0.08284
G1 X108.753 Y105.792 E0.01704
G1 X107.158 Y104.197 E0.07142
G1 X107.228 Y104.119 E0.00332
G1 X107.371 Y103.871 E0.00905
G1 X108.753 Y105.254 E0.06188
G1 X108.753 Y104.715 E0.01704
G1 X107.551 Y103.513 E0.05383
G1 X107.683 Y103.106 E0.01353
G1 X108.753 Y104.177 E0.04792
G1 X108.753 Y103.638 E0.01704
G1 X107.741 Y102.626 E0.04533
G1 X107.754 Y102.500 E0.00401
G1 X107.707 Y102.054 E0.01420
G1 X108.923 Y103.270 E0.05443
G1 F5760
G1 X107.707 Y102.054 E-0.59555
G1 X107.754 Y102.500 E-0.15541
G1 X107.751 Y102.526 E-0.00904
G1 E-0.04000 F2100.00000
G1 Z0.800 F7200.000
G1 X107.077 Y108.423
G1 Z0.200
G1 E0.80000 F2100.00000
G1 F1800
G1 X96.247 Y97.593 E0.48483
G1 X96.247 Y98.131 E0.01704
G1 X106.369 Y108.253 E0.45313
G1 X105.830 Y108.253 E0.01704
G1 X96.247 Y98.670 E0.42902
G1 X96.247 Y99.208 E0.01704
G1 X105.292 Y108.253 E0.40492
G1 X104.753 Y108.253 E0.01704
G1 X96.247 Y99.747 E0.38082
G1 X96.247 Y100.285 E0.01704
G1 X104.215 Y108.253 E0.35672
G1 X103.677 Y108.253 E0.01704
G1 X96.247 Y100.823 E0.33261
G1 X96.247 Y101.362 E0.01704
G1 X103.138 Y108.253 E0.30851
G1 X102.600 Y108.253 E0.01704
G1 X96.247 Y101.900 E0.28441
G1 X96.247 Y102.439 E0.01704
G1 X102.061 Y108.253 E0.26030
G1 X101.523 Y108.253 E0.01704
G1 X96.247 Y102.977 E0.23620
G1 X96.247 Y103.515 E0.01704
G1 X100.985 Y108.253 E0.21210
G1 X100.446 Y108.253 E0.01704
G1 X96.247 Y104.054 E0.18799
G1 X96.247 Y104.592 E0.01704
G1 X99.908 Y108.253 E0.16389
G1 X99.369 Y108.253 E0.01704
G1 X96.247 Y105.131 E0.13979
G1 X96.247 Y105.669 E0.01704
G1 X98.831 Y108.253 E0.11569
G1 X98.293 Y108.253 E0.01704
G1 X96.247 Y106.207 E0.09158
G1 X96.247 Y106.746 E0.01704
G1 X97.754 Y108.253 E0.06748
G1 X97.216 Y108.253 E0.01704
G1 X96.247 Y107.284 E0.04338
G1 X96.247 Y107.823 E0.01704
G1 X96.847 Y108.423 E0.02687
M106 S252.45
;BEFORE_LAYER_CHANGE
;0.35


G1 F5760
G1 X96.247 Y107.823 E-0.29399
G1 X96.247 Y107.284 E-0.18648
G1 X96.818 Y107.855 E-0.27954
G1 E-0.04000 F2100.00000
G1 Z0.800 F7200.000
;AFTER_LAYER_CHANGE
;0.35
G1 X93.964 Y112.052
G1 Z0.350
G1 E0.80000 F2100.00000
G1 F3000
G1 X93.161 Y111.551 E0.02289
G1 X92.779 Y111.129 E0.01376
G1 X92.492 Y110.638 E0.01376
G1 X92.312 Y110.099 E0.01376
G1 X92.246 Y109.534 E0.01376
G1 X92.249 Y95.377 E0.34237
G1 X92.450 Y94.460 E0.02270
G1 X92.949 Y93.661 E0.02279
G1 X93.348 Y93.296 E0.01307
G1 X93.810 Y93.016 E0.01307
G1 X94.318 Y92.832 E0.01307
G1 X94.852 Y92.750 E0.01307
G1 X110.004 Y92.746 E0.36646
G1 X110.986 Y92.928 E0.02416
G1 X111.839 Y93.449 E0.02416
G1 X112.449 Y94.240 E0.02416
G1 X112.737 Y95.197 E0.02416
G1 X112.752 Y109.615 E0.34870
G1 X112.552 Y110.536 E0.02279
G1 X112.051 Y111.339 E0.02289
G1 X111.629 Y111.721 E0.01376
G1 X111.138 Y112.008 E0.01376
G1 X110.599 Y112.188 E0.01376
G1 X110.029 Y112.254 E0.01386
G1 X94.885 Y112.252 E0.36626
G1 X94.023 Y112.065 E0.02134
G1 F5760
G1 X93.161 Y111.551 E-0.34745
G1 X92.779 Y111.129 E-0.19704
G1 X92.492 Y110.638 E-0.19704
G1 X92.475 Y110.588 E-0.01848
G1 E-0.04000 F2100.00000
G1 Z0.950 F7200.000
G1 X102.944 Y104.032
G1 Z0.350
G1 E0.80000 F2100.00000
M204 S800
G1 F1200
G1 X102.655 Y103.544 E0.01477
G1 X102.490 Y103.034 E0.01398
G1 X102.434 Y102.500 E0.01398
G1 X102.490 Y101.966 E0.01398
G1 X102.655 Y101.456 E0.01398
G1 X102.924 Y100.991 E0.01398
G1 X103.283 Y100.593 E0.01398
G1 X103.717 Y100.277 E0.01398
G1 X104.207 Y100.059 E0.01398
G1 X104.732 Y99.948 E0.01398
G1 X105.268 Y99.948 E0.01398
G1 X105.793 Y100.059 E0.01398
G1 X106.283 Y100.277 E0.01398
G1 X106.717 Y100.593 E0.01398
G1 X107.076 Y100.991 E0.01398
G1 X107.345 Y101.456 E0.01398
G1 X107.510 Y101.966 E0.01398
G1 X107.566 Y102.500 E0.01398
G1 X107.510 Y103.034 E0.01398
G1 X107.345 Y103.544 E0.01398
G1 X107.076 Y104.009 E0.01398
G1 X106.717 Y104.407 E0.01398
G1 X106.283 Y104.723 E0.01398
G1 X105.793 Y104.941 E0.01398
G1 X105.268 Y105.052 E0.01398
G1 X104.732 Y105.052 E0.01398
G1 X104.207 Y104.941 E0.01398
G1 X103.717 Y104.723 E0.01398
G1 X103.283 Y104.407 E0.01398
G1 X102.985 Y104.076 E0.01161
M204 S1000
G1 X103.264 Y103.762 F7200.000
M204 S800
G1 F1200
G1 X103.039 Y103.373 E0.01169
G1 X102.901 Y102.946 E0.01169
G1 X102.854 Y102.500 E0.01169
G1 X102.901 Y102.054 E0.01169
G1 X103.039 Y101.627 E0.01169
G1 X103.264 Y101.238 E0.01169
G1 X103.564 Y100.905 E0.01169
G1 X103.927 Y100.641 E0.01169
G1 X104.337 Y100.459 E0.01169
G1 X104.776 Y100.365 E0.01169
G1 X105.224 Y100.365 E0.01169
G1 X105.663 Y100.459 E0.01169
G1 X106.073 Y100.641 E0.01169
G1 X106.436 Y100.905 E0.01169
G1 X106.736 Y101.238 E0.01169
G1 X106.961 Y101.627 E0.01169
G1 X107.099 Y102.054 E0.01169
G1 X107.146 Y102.500 E0.01169
G1 X107.099 Y102.946 E0.01169
G1 X106.961 Y103.373 E0.01169
G1 X106.736 Y103.762 E0.01169
G1 X106.436 Y104.095 E0.01169
G1 X106.073 Y104.359 E0.01169
G1 X105.663 Y104.541 E0.01169
G1 X105.224 Y104.635 E0.01169
G1 X104.776 Y104.635 E0.01169
G1 X104.337 Y104.541 E0.01169
G1 X103.927 Y104.359 E0.01169
G1 X103.564 Y104.095 E0.01169
G1 X103.304 Y103.806 E0.01012
M204 S1000
G1 X103.614 Y103.527 F7200.000
M204 S800
G1 F1200
G1 X103.423 Y103.202 E0.00981
G1 X103.312 Y102.859 E0.00940
G1 X103.274 Y102.500 E0.00940
G1 X103.312 Y102.141 E0.00940
G1 X103.423 Y101.798 E0.00940
G1 X103.603 Y101.485 E0.00940
G1 X103.845 Y101.217 E0.00940
G1 X104.137 Y101.005 E0.00940
G1 X104.467 Y100.858 E0.00940
G1 X104.820 Y100.783 E0.00940
G1 X105.180 Y100.783 E0.00940
G1 X105.533 Y100.858 E0.00940
G1 X105.863 Y101.005 E0.00940
G1 X106.155 Y101.217 E0.00941
G1 X106.397 Y101.485 E0.00940
G1 X106.577 Y101.798 E0.00940
G1 X106.688 Y102.141 E0.00940
G1 X106.726 Y102.500 E0.00940
G1 X106.688 Y102.859 E0.00940
G1 X106.577 Y103.202 E0.00940
G1 X106.397 Y103.515 E0.00940
G1 X106.155 Y103.783 E0.00940
G1 X105.863 Y103.995 E0.00940
G1 X105.533 Y104.142 E0.00940
G1 X105.180 Y104.217 E0.00940
G1 X104.820 Y104.217 E0.00940
G1 X104.467 Y104.142 E0.00940
G1 X104.137 Y103.995 E0.00940
G1 X103.845 Y103.783 E0.00941
G1 X103.654 Y103.571 E0.00742
M204 S1000
G1 X103.240 Y103.568 F7200.000
G1 F5760
G1 X103.423 Y103.202 E-0.15087
G1 X103.312 Y102.859 E-0.12498
G1 X103.274 Y102.500 E-0.12501
G1 X103.312 Y102.141 E-0.12501
G1 X103.423 Y101.798 E-0.12497
G1 X103.581 Y101.525 E-0.10916
G1 E-0.04000 F2100.00000
G1 Z0.950 F7200.000
G1 X108.939 Y108.439
G1 Z0.350
G1 E0.80000 F2100.00000
M204 S800
G1 F3000
G1 X96.061 Y108.439 E0.33557
G1 X96.061 Y96.561 E0.30951
G1 X108.939 Y96.561 E0.33557
G1 X108.939 Y108.379 E0.30795
M204 S1000
G1 X109.357 Y108.857 F7200.000
M204 S800
G1 F3000
G1 X95.643 Y108.857 E0.35734
G1 X95.643 Y96.143 E0.33128
G1 X109.357 Y96.143 E0.35734
G1 X109.357 Y108.797 E0.32972
M204 S1000
G1 X109.775 Y109.275 F7200.000
M204 S800
G1 F2400
G1 X95.225 Y109.275 E0.37911
G1 X95.225 Y95.725 E0.35306
G1 X109.775 Y95.725 E0.37911
G1 X109.775 Y109.215 E0.35149
M204 S1000
G1 X109.387 Y109.176 F7200.000
G1 F5760
G1 X107.581 Y109.224 E-0.76000
G1 E-0.04000 F2100.00000
G1 Z0.950 F7200.000
G1 X107.965 Y108.314
G1 Z0.350
G1 E0.80000 F2100.00000
M204 S2000
G1 F3000
G1 X108.626 Y107.653 E0.02446
G1 X108.626 Y107.060 E0.01554
G1 X107.560 Y108.126 E0.03948
G1 X106.966 Y108.126 E0.01554
G1 X108.626 Y106.466 E0.06146
G1 X108.626 Y105.872 E0.01554
G1 X106.372 Y108.126 E0.08344
G1 X105.779 Y108.126 E0.01554
G1 X108.626 Y105.279 E0.10541
G1 X108.626 Y104.685 E0.01554
G1 X105.185 Y108.126 E0.12739
G1 X104.591 Y108.126 E0.01554
G1 X108.626 Y104.091 E0.14937
G1 X108.626 Y103.498 E0.01554
G1 X103.998 Y108.126 E0.17135
G1 X103.404 Y108.126 E0.01554
G1 X108.626 Y102.904 E0.19333
