; generated by Slic3r Prusa Edition 1.39.2+win64 on 2018-06-02 at 08:15:27

; 

; external perimeters extrusion width = 0.45mm
; perimeters extrusion width = 0.45mm
; infill extrusion width = 0.45mm
; solid infill extrusion width = 0.45mm
; top infill extrusion width = 0.45mm
; first layer extrusion width = 0.42mm

M107
M115 U3.1.0 ; tell printer latest fw version
M83  ; extruder relative mode
M104 S205 ; set extruder temp
M140 S55 ; set bed temp
M190 S55 ; wait for bed temp
M109 S205 ; wait for extruder temp
G28 W ; home all without mesh bed level
G80 ; mesh bed leveling
G1 Y-3.0 F1000.0 ; go outside print area
G92 E0.0
G1 X60.0 E9.0  F1000.0 ; intro line
G1 X100.0 E12.5  F1000.0 ; intro line
G92 E0.0
M900 K30; Filament gcode
G21 ; set units to millimeters
G90 ; use absolute coordinates
M83 ; use relative distances for extrusion
;BEFORE_LAYER_CHANGE
;0.2


G1 E-0.80000 F2100.00000
G1 Z0.600 F7200.000
;AFTER_LAYER_CHANGE
;0.2
G1 X89.937 Y91.491
G1 Z0.200
G1 E0.80000 F2100.00000
M204 S1000
G1 F1800
G1 X90.430 Y90.683 E0.02968
G1 X90.835 Y90.306 E0.01733
G1 X91.310 Y90.016 E0.01745
G1 X91.834 Y89.828 E0.01745
G1 X92.385 Y89.748 E0.01745
G1 X112.504 Y89.746 E0.63084
G1 X113.505 Y89.936 E0.03195
G1 X114.366 Y90.474 E0.03183
G1 X114.973 Y91.288 E0.03183
G1 X115.245 Y92.270 E0.03195
G1 X115.253 Y112.586 E0.63700
G1 X115.063 Y113.509 E0.02955
G1 X114.570 Y114.317 E0.02968
G1 X114.146 Y114.708 E0.01809
G1 X113.649 Y115.003 E0.01809
G1 X113.103 Y115.187 E0.01809
G1 X112.529 Y115.254 E0.01809
G1 X92.414 Y115.253 E0.63071
G1 X91.491 Y115.063 E0.02955
G1 X90.683 Y114.570 E0.02968
G1 X90.292 Y114.146 E0.01809
G1 X89.997 Y113.649 E0.01809
G1 X89.813 Y113.103 E0.01809
G1 X89.746 Y112.529 E0.01809
G1 X89.747 Y92.414 E0.63071
G1 X89.925 Y91.550 E0.02767
G1 F5760
G1 X90.430 Y90.683 E-0.34745
G1 X90.835 Y90.306 E-0.19138
G1 X91.310 Y90.016 E-0.19280
G1 X91.387 Y89.989 E-0.02837
G1 E-0.04000 F2100.00000
G1 Z0.800 F7200.000
G1 X91.489 Y90.349
G1 Z0.200
G1 E0.80000 F2100.00000
G1 F1800
G1 X92.411 Y90.125 E0.02977
G1 X112.504 Y90.123 E0.62999
G1 X113.371 Y90.288 E0.02767
G1 X114.117 Y90.758 E0.02767
G1 X114.641 Y91.468 E0.02767
G1 X114.871 Y92.324 E0.02778
G1 X114.876 Y112.565 E0.63464
G1 X114.709 Y113.378 E0.02602
G1 X114.273 Y114.084 E0.02602
G1 X113.907 Y114.416 E0.01550
G1 X113.480 Y114.666 E0.01550
G1 X113.011 Y114.821 E0.01550
G1 X112.520 Y114.877 E0.01550
G1 X92.435 Y114.876 E0.62975
G1 X91.622 Y114.709 E0.02602
G1 X90.916 Y114.273 E0.02602
G1 X90.584 Y113.907 E0.01550
G1 X90.334 Y113.480 E0.01550
G1 X90.179 Y113.011 E0.01550
G1 X90.123 Y112.520 E0.01550
G1 X90.124 Y92.435 E0.62975
G1 X90.291 Y91.622 E0.02602
G1 X90.727 Y90.916 E0.02602
G1 X91.440 Y90.385 E0.02789
G1 F5760
G1 X92.411 Y90.125 E-0.34813
G1 X93.601 Y90.124 E-0.41187
G1 E-0.04000 F2100.00000
G1 Z0.800 F7200.000
G1 X99.944 Y99.662
G1 Z0.200
G1 E0.80000 F2100.00000
G1 F1800
G1 X100.590 Y99.192 E0.02504
G1 X101.320 Y98.867 E0.02504
G1 X102.101 Y98.701 E0.02504
G1 X102.899 Y98.701 E0.02504
G1 X103.680 Y98.867 E0.02504
G1 X104.410 Y99.192 E0.02504
G1 X105.056 Y99.662 E0.02504
G1 X105.590 Y100.255 E0.02504
G1 X105.989 Y100.947 E0.02504
G1 X106.236 Y101.706 E0.02504
G1 X106.319 Y102.500 E0.02503
G1 X106.236 Y103.294 E0.02503
G1 X105.988 Y104.057 E0.02514
G1 X105.575 Y104.762 E0.02565
G1 X105.056 Y105.338 E0.02431
G1 X104.410 Y105.808 E0.02504
G1 X103.680 Y106.133 E0.02504
G1 X102.899 Y106.299 E0.02504
G1 X102.101 Y106.299 E0.02504
G1 X101.320 Y106.133 E0.02504
G1 X100.590 Y105.808 E0.02504
G1 X99.944 Y105.338 E0.02504
G1 X99.410 Y104.745 E0.02504
G1 X99.011 Y104.053 E0.02504
G1 X98.764 Y103.294 E0.02504
G1 X98.681 Y102.500 E0.02503
G1 X98.764 Y101.706 E0.02503
G1 X99.012 Y100.943 E0.02514
G1 X99.425 Y100.238 E0.02565
G1 X99.904 Y99.706 E0.02243
G1 X100.184 Y99.958 F7200.000
G1 F1800
G1 X100.780 Y99.521 E0.02318
G1 X101.437 Y99.228 E0.02255
G1 X102.140 Y99.079 E0.02255
G1 X102.860 Y99.079 E0.02255
G1 X103.563 Y99.228 E0.02255
G1 X104.220 Y99.521 E0.02255
G1 X104.802 Y99.943 E0.02255
G1 X105.283 Y100.478 E0.02255
G1 X105.643 Y101.101 E0.02255
G1 X105.865 Y101.785 E0.02255
G1 X105.940 Y102.500 E0.02255
G1 X105.865 Y103.215 E0.02255
G1 X105.642 Y103.901 E0.02261
G1 X105.269 Y104.538 E0.02316
G1 X104.802 Y105.057 E0.02187
G1 X104.220 Y105.479 E0.02255
G1 X103.563 Y105.772 E0.02255
G1 X102.860 Y105.921 E0.02255
G1 X102.140 Y105.921 E0.02255
G1 X101.437 Y105.772 E0.02255
G1 X100.780 Y105.479 E0.02255
G1 X100.198 Y105.057 E0.02255
G1 X99.717 Y104.522 E0.02255
G1 X99.357 Y103.899 E0.02255
G1 X99.135 Y103.215 E0.02255
G1 X99.060 Y102.500 E0.02255
G1 X99.135 Y101.785 E0.02255
G1 X99.358 Y101.099 E0.02261
G1 X99.731 Y100.462 E0.02316
G1 X100.144 Y100.003 E0.01935
G1 X100.424 Y100.255 F7200.000
G1 F1800
G1 X100.969 Y99.849 E0.02132
G1 X101.554 Y99.589 E0.02006
G1 X102.180 Y99.456 E0.02007
G1 X102.820 Y99.456 E0.02007
G1 X103.446 Y99.589 E0.02007
G1 X104.031 Y99.849 E0.02006
G1 X104.548 Y100.225 E0.02006
G1 X104.977 Y100.701 E0.02007
G1 X105.297 Y101.255 E0.02007
G1 X105.494 Y101.864 E0.02007
G1 X105.561 Y102.500 E0.02006
G1 X105.494 Y103.136 E0.02006
G1 X105.296 Y103.746 E0.02009
G1 X104.963 Y104.315 E0.02068
G1 X104.548 Y104.775 E0.01942
G1 X104.031 Y105.151 E0.02006
G1 X103.446 Y105.411 E0.02006
G1 X102.820 Y105.544 E0.02007
G1 X102.180 Y105.544 E0.02006
G1 X101.554 Y105.411 E0.02007
G1 X100.969 Y105.151 E0.02006
G1 X100.452 Y104.775 E0.02006
G1 X100.023 Y104.299 E0.02007
G1 X99.703 Y103.745 E0.02007
G1 X99.506 Y103.136 E0.02007
G1 X99.439 Y102.500 E0.02006
G1 X99.506 Y101.864 E0.02006
G1 X99.704 Y101.254 E0.02009
G1 X100.037 Y100.685 E0.02068
G1 X100.384 Y100.300 E0.01626
G1 X100.338 Y99.865 F7200.000
G1 F5760
G1 X100.969 Y99.849 E-0.25588
G1 X101.554 Y99.589 E-0.22165
G1 X102.180 Y99.456 E-0.22165
G1 X102.356 Y99.456 E-0.06082
G1 E-0.04000 F2100.00000
G1 Z0.800 F7200.000
G1 X93.464 Y93.464
G1 Z0.200
G1 E0.80000 F2100.00000
G1 F1800
G1 X111.536 Y93.464 E0.56663
G1 X111.536 Y111.536 E0.56663
G1 X93.464 Y111.536 E0.56663
G1 X93.464 Y93.524 E0.56474
G1 X93.087 Y93.087 F7200.000
G1 F1800
G1 X111.913 Y93.087 E0.59027
G1 X111.913 Y111.913 E0.59027
G1 X93.087 Y111.913 E0.59027
G1 X93.087 Y93.147 E0.58839
G1 X92.710 Y92.710 F7200.000
G1 F1800
G1 X112.290 Y92.710 E0.61392
G1 X112.290 Y112.290 E0.61392
G1 X92.710 Y112.290 E0.61392
G1 X92.710 Y92.770 E0.61204
G1 X93.096 Y92.814 F7200.000
G1 F5760
G1 X94.904 Y92.763 E-0.76000
G1 E-0.04000 F2100.00000
G1 Z0.800 F7200.000
G1 X98.915 Y93.577
G1 Z0.200
G1 E0.80000 F2100.00000
G1 F1800
G1 X104.069 Y98.731 E0.22877
G1 X103.768 Y98.597 E0.01035
G1 X103.302 Y98.498 E0.01494
G1 X98.551 Y93.747 E0.21089
G1 X98.017 Y93.747 E0.01676
G1 X102.689 Y98.419 E0.20737
G1 X102.155 Y98.419 E0.01676
G1 X97.484 Y93.747 E0.20737
G1 X96.950 Y93.747 E0.01676
G1 X101.700 Y98.497 E0.21086
G1 X101.260 Y98.591 E0.01413
G1 X96.416 Y93.747 E0.21502
G1 X95.882 Y93.747 E0.01676
G1 X100.886 Y98.751 E0.22212
G1 X100.517 Y98.915 E0.01269
G1 X95.348 Y93.747 E0.22942
G1 X94.815 Y93.747 E0.01676
G1 X100.196 Y99.129 E0.23889
G1 X99.887 Y99.353 E0.01200
G1 X94.281 Y93.747 E0.24886
G1 X93.747 Y93.747 E0.01675
G1 X99.610 Y99.610 E0.26025
G1 X99.357 Y99.891 E0.01186
G1 X93.747 Y94.281 E0.24902
G1 X93.747 Y94.815 E0.01676
G1 X99.124 Y100.192 E0.23869
G1 X98.927 Y100.529 E0.01224
G1 X93.747 Y95.348 E0.22994
G1 X93.747 Y95.882 E0.01676
G1 X98.737 Y100.873 E0.22151
G1 X98.606 Y101.276 E0.01330
G1 X93.747 Y96.416 E0.21570
G1 X93.747 Y96.950 E0.01676
G1 X98.482 Y101.685 E0.21017
G1 X98.431 Y102.168 E0.01524
G1 X93.747 Y97.484 E0.20792
G1 X93.747 Y98.018 E0.01676
G1 X98.416 Y102.686 E0.20724
G1 X98.479 Y103.283 E0.01883
G1 X93.747 Y98.551 E0.21002
G1 X93.747 Y99.085 E0.01676
G1 X98.713 Y104.051 E0.22041
G1 F5760
G1 X97.161 Y102.499 E-0.76000
G1 E-0.04000 F2100.00000
G1 Z0.800 F7200.000
G1 X100.930 Y106.269
G1 Z0.200
G1 E0.80000 F2100.00000
G1 F1800
G1 X105.915 Y111.253 E0.22124
G1 X106.449 Y111.253 E0.01676
G1 X101.697 Y106.502 E0.21089
G1 X102.071 Y106.581 E0.01199
G1 X102.311 Y106.581 E0.00752
G1 X106.982 Y111.253 E0.20737
G1 X107.516 Y111.253 E0.01676
G1 X102.845 Y106.581 E0.20737
G1 X102.929 Y106.581 E0.00265
G1 X103.300 Y106.503 E0.01189
G1 X108.050 Y111.253 E0.21086
G1 X108.584 Y111.253 E0.01676
G1 X103.740 Y106.409 E0.21502
G1 X104.114 Y106.249 E0.01276
G1 X109.118 Y111.253 E0.22211
G1 X109.652 Y111.253 E0.01676
G1 X104.483 Y106.085 E0.22941
G1 X104.552 Y106.054 E0.00236
G1 X104.804 Y105.871 E0.00976
G1 X110.185 Y111.253 E0.23889
G1 X110.719 Y111.253 E0.01676
G1 X105.113 Y105.647 E0.24886
G1 X105.246 Y105.550 E0.00517
G1 X105.390 Y105.390 E0.00675
G1 X111.253 Y111.253 E0.26025
G1 X111.253 Y110.719 E0.01675
G1 X105.643 Y105.109 E0.24903
G1 X105.804 Y104.930 E0.00756
G1 X105.876 Y104.808 E0.00444
G1 X111.253 Y110.185 E0.23870
G1 X111.253 Y109.652 E0.01676
G1 X106.073 Y104.471 E0.22994
G1 X106.263 Y104.127 E0.01233
G1 X111.253 Y109.118 E0.22152
G1 X111.253 Y108.584 E0.01676
G1 X106.394 Y103.724 E0.21570
G1 X106.518 Y103.315 E0.01343
G1 X111.253 Y108.050 E0.21017
G1 X111.253 Y107.516 E0.01676
G1 X106.569 Y102.832 E0.20792
G1 X106.604 Y102.500 E0.01048
G1 X106.584 Y102.314 E0.00588
G1 X111.253 Y106.983 E0.20724
G1 X111.253 Y106.449 E0.01676
G1 X106.521 Y101.717 E0.21002
G1 X106.514 Y101.647 E0.00222
G1 X106.288 Y100.949 E0.02302
G1 X111.253 Y105.915 E0.22041
G1 X111.253 Y105.381 E0.01676
G1 X99.619 Y93.747 E0.51641
G1 X100.153 Y93.747 E0.01676
G1 X111.253 Y104.847 E0.49272
G1 X111.253 Y104.313 E0.01676
G1 X100.687 Y93.747 E0.46902
G1 X101.220 Y93.747 E0.01676
G1 X111.253 Y103.780 E0.44533
G1 X111.253 Y103.246 E0.01676
G1 X101.754 Y93.747 E0.42163
G1 X102.288 Y93.747 E0.01676
G1 X111.253 Y102.712 E0.39793
G1 X111.253 Y102.178 E0.01676
G1 X102.822 Y93.747 E0.37424
G1 X103.356 Y93.747 E0.01676
G1 X111.253 Y101.644 E0.35054
G1 X111.253 Y101.110 E0.01676
G1 X103.890 Y93.747 E0.32685
G1 X104.423 Y93.747 E0.01676
G1 X111.253 Y100.577 E0.30315
G1 X111.253 Y100.043 E0.01676
G1 X104.957 Y93.747 E0.27946
G1 X105.491 Y93.747 E0.01676
G1 X111.253 Y99.509 E0.25576
G1 X111.253 Y98.975 E0.01676
G1 X106.025 Y93.747 E0.23207
G1 X106.559 Y93.747 E0.01676
G1 X111.253 Y98.441 E0.20837
G1 X111.253 Y97.907 E0.01676
G1 X107.093 Y93.747 E0.18468
G1 X107.626 Y93.747 E0.01676
G1 X111.253 Y97.374 E0.16098
G1 X111.253 Y96.840 E0.01676
G1 X108.160 Y93.747 E0.13729
G1 X108.694 Y93.747 E0.01676
G1 X111.253 Y96.306 E0.11359
G1 X111.253 Y95.772 E0.01676
G1 X109.228 Y93.747 E0.08989
G1 X109.762 Y93.747 E0.01676
G1 X111.253 Y95.238 E0.06620
G1 X111.253 Y94.705 E0.01676
G1 X110.295 Y93.747 E0.04250
G1 X110.829 Y93.747 E0.01676
G1 X111.423 Y94.340 E0.02634
G1 F5760
G1 X110.829 Y93.747 E-0.29067
G1 X110.295 Y93.747 E-0.18489
G1 X110.876 Y94.328 E-0.28444
G1 E-0.04000 F2100.00000
G1 Z0.800 F7200.000
G1 X105.551 Y111.423
G1 Z0.200
G1 E0.80000 F2100.00000
G1 F1800
G1 X93.747 Y99.619 E0.52394
G1 X93.747 Y100.153 E0.01676
G1 X104.847 Y111.253 E0.49271
G1 X104.313 Y111.253 E0.01676
G1 X93.747 Y100.687 E0.46902
G1 X93.747 Y101.221 E0.01676
G1 X103.779 Y111.253 E0.44532
G1 X103.246 Y111.253 E0.01676
G1 X93.747 Y101.754 E0.42163
G1 X93.747 Y102.288 E0.01676
G1 X102.712 Y111.253 E0.39793
G1 X102.178 Y111.253 E0.01676
G1 X93.747 Y102.822 E0.37423
G1 X93.747 Y103.356 E0.01676
G1 X101.644 Y111.253 E0.35054
G1 X101.110 Y111.253 E0.01676
G1 X93.747 Y103.890 E0.32684
G1 X93.747 Y104.424 E0.01676
G1 X100.576 Y111.253 E0.30315
G1 X100.043 Y111.253 E0.01676
G1 X93.747 Y104.957 E0.27945
G1 X93.747 Y105.491 E0.01676
G1 X99.509 Y111.253 E0.25576
G1 X98.975 Y111.253 E0.01676
G1 X93.747 Y106.025 E0.23206
G1 X93.747 Y106.559 E0.01676
G1 X98.441 Y111.253 E0.20837
G1 X97.907 Y111.253 E0.01676
G1 X93.747 Y107.093 E0.18467
G1 X93.747 Y107.626 E0.01676
G1 X97.374 Y111.253 E0.16098
G1 X96.840 Y111.253 E0.01676
G1 X93.747 Y108.160 E0.13728
G1 X93.747 Y108.694 E0.01676
G1 X96.306 Y111.253 E0.11359
G1 X95.772 Y111.253 E0.01676
G1 X93.747 Y109.228 E0.08989
G1 X93.747 Y109.762 E0.01676
G1 X95.238 Y111.253 E0.06619
G1 X94.704 Y111.253 E0.01676
G1 X93.747 Y110.296 E0.04250
G1 X93.747 Y110.829 E0.01676
G1 X94.340 Y111.423 E0.02634
M106 S247.35
;BEFORE_LAYER_CHANGE
;0.35


G1 F5760
G1 X93.747 Y110.829 E-0.29061
G1 X93.747 Y110.296 E-0.18489
G1 X94.328 Y110.876 E-0.28449
G1 E-0.04000 F2100.00000
G1 Z0.800 F7200.000
;AFTER_LAYER_CHANGE
;0.35
G1 X91.491 Y115.063
G1 Z0.350
G1 E0.80000 F2100.00000
G1 F3000
G1 X90.683 Y114.570 E0.02289
G1 X90.292 Y114.146 E0.01396
G1 X89.997 Y113.649 E0.01396
G1 X89.813 Y113.103 E0.01396
G1 X89.746 Y112.529 E0.01396
G1 X89.747 Y92.414 E0.48649
G1 X89.937 Y91.491 E0.02279
G1 X90.430 Y90.683 E0.02289
G1 X90.835 Y90.306 E0.01336
G1 X91.310 Y90.016 E0.01346
G1 X91.834 Y89.828 E0.01346
G1 X92.385 Y89.748 E0.01346
G1 X112.504 Y89.746 E0.48659
G1 X113.505 Y89.936 E0.02465
G1 X114.366 Y90.474 E0.02455
G1 X114.973 Y91.288 E0.02455
G1 X115.245 Y92.270 E0.02465
G1 X115.253 Y112.586 E0.49134
G1 X115.063 Y113.509 E0.02279
G1 X114.570 Y114.317 E0.02289
G1 X114.146 Y114.708 E0.01396
G1 X113.649 Y115.003 E0.01396
G1 X113.103 Y115.187 E0.01396
G1 X112.529 Y115.254 E0.01396
G1 X92.414 Y115.253 E0.48649
G1 X91.550 Y115.075 E0.02134
G1 F5760
G1 X90.683 Y114.570 E-0.34745
G1 X90.292 Y114.146 E-0.19986
G1 X89.997 Y113.649 E-0.19986
G1 X89.985 Y113.614 E-0.01283
G1 E-0.04000 F2100.00000
G1 Z0.950 F7200.000
G1 X99.879 Y105.411
G1 Z0.350
G1 E0.80000 F2100.00000
M204 S800
G1 F1200
G1 X99.332 Y104.802 E0.02133
G1 X98.922 Y104.093 E0.02133
G1 X98.669 Y103.314 E0.02133
G1 X98.584 Y102.500 E0.02133
G1 X98.669 Y101.686 E0.02133
G1 X98.922 Y100.907 E0.02133
G1 X99.332 Y100.198 E0.02133
G1 X99.879 Y99.589 E0.02133
G1 X100.542 Y99.108 E0.02133
G1 X101.290 Y98.775 E0.02133
G1 X102.091 Y98.605 E0.02133
G1 X102.909 Y98.605 E0.02133
G1 X103.710 Y98.775 E0.02133
G1 X104.458 Y99.108 E0.02133
G1 X105.121 Y99.589 E0.02133
G1 X105.668 Y100.198 E0.02133
G1 X106.078 Y100.907 E0.02133
G1 X106.331 Y101.686 E0.02133
G1 X106.416 Y102.500 E0.02133
G1 X106.331 Y103.314 E0.02133
G1 X106.075 Y104.102 E0.02158
G1 X105.626 Y104.850 E0.02273
G1 X105.121 Y105.411 E0.01967
G1 X104.458 Y105.892 E0.02133
G1 X103.710 Y106.225 E0.02133
G1 X102.909 Y106.395 E0.02133
G1 X102.091 Y106.395 E0.02133
G1 X101.290 Y106.225 E0.02133
G1 X100.542 Y105.892 E0.02133
G1 X99.928 Y105.446 E0.01977
M204 S1000
G1 X100.174 Y105.108 F7200.000
M204 S800
G1 F1200
G1 X99.671 Y104.555 E0.01946
G1 X99.306 Y103.922 E0.01905
G1 X99.080 Y103.227 E0.01905
G1 X99.004 Y102.500 E0.01904
G1 X99.080 Y101.773 E0.01904
G1 X99.306 Y101.078 E0.01905
G1 X99.671 Y100.445 E0.01905
G1 X100.161 Y99.902 E0.01905
G1 X100.752 Y99.472 E0.01904
G1 X101.420 Y99.175 E0.01904
G1 X102.135 Y99.023 E0.01904
G1 X102.865 Y99.023 E0.01905
G1 X103.580 Y99.175 E0.01904
G1 X104.248 Y99.472 E0.01904
G1 X104.839 Y99.902 E0.01904
G1 X105.329 Y100.445 E0.01905
G1 X105.694 Y101.078 E0.01905
G1 X105.920 Y101.773 E0.01905
G1 X105.996 Y102.500 E0.01904
G1 X105.920 Y103.227 E0.01904
G1 X105.692 Y103.927 E0.01919
G1 X105.288 Y104.600 E0.02044
G1 X104.839 Y105.098 E0.01747
G1 X104.248 Y105.528 E0.01904
G1 X103.580 Y105.825 E0.01904
G1 X102.865 Y105.977 E0.01904
G1 X102.135 Y105.977 E0.01905
G1 X101.420 Y105.825 E0.01904
G1 X100.752 Y105.528 E0.01904
G1 X100.222 Y105.143 E0.01706
M204 S1000
G1 X100.468 Y104.805 F7200.000
M204 S800
G1 F1200
G1 X100.011 Y104.308 E0.01758
G1 X99.690 Y103.751 E0.01676
G1 X99.491 Y103.140 E0.01676
G1 X99.424 Y102.500 E0.01676
G1 X99.491 Y101.860 E0.01676
G1 X99.690 Y101.249 E0.01676
G1 X100.011 Y100.692 E0.01676
G1 X100.442 Y100.214 E0.01676
G1 X100.962 Y99.836 E0.01676
G1 X101.549 Y99.574 E0.01676
G1 X102.178 Y99.441 E0.01676
G1 X102.822 Y99.441 E0.01676
G1 X103.451 Y99.574 E0.01676
G1 X104.038 Y99.836 E0.01676
G1 X104.558 Y100.214 E0.01676
G1 X104.989 Y100.692 E0.01676
G1 X105.310 Y101.249 E0.01676
G1 X105.509 Y101.860 E0.01676
G1 X105.576 Y102.500 E0.01676
G1 X105.509 Y103.140 E0.01676
G1 X105.310 Y103.753 E0.01681
G1 X104.951 Y104.350 E0.01815
G1 X104.558 Y104.786 E0.01528
G1 X104.038 Y105.164 E0.01676
G1 X103.451 Y105.426 E0.01676
G1 X102.822 Y105.559 E0.01676
G1 X102.178 Y105.559 E0.01676
G1 X101.549 Y105.426 E0.01676
