; generated by Slic3r Prusa Edition 1.39.2+win64 on 2018-05-25 at 16:33:46

; 

; external perimeters extrusion width = 0.45mm
; perimeters extrusion width = 0.45mm
; infill extrusion width = 0.45mm
; solid infill extrusion width = 0.45mm
; top infill extrusion width = 0.45mm
; first layer extrusion width = 0.42mm

M107
M115 U3.1.0 ; tell printer latest fw version
M83  ; extruder relative mode
M104 S205 ; set extruder temp
M140 S55 ; set bed temp
M190 S55 ; wait for bed temp
M109 S205 ; wait for extruder temp
G28 W ; home all without mesh bed level
G80 ; mesh bed leveling
G1 Y-3.0 F1000.0 ; go outside print area
G92 E0.0
G1 X60.0 E9.0  F1000.0 ; intro line
G1 X100.0 E12.5  F1000.0 ; intro line
G92 E0.0
M900 K30; Filament gcode
G21 ; set units to millimeters
G90 ; use absolute coordinates
M83 ; use relative distances for extrusion
;BEFORE_LAYER_CHANGE
;0.2


G1 E-0.80000 F2100.00000
G1 Z0.600 F7200.000
;AFTER_LAYER_CHANGE
;0.2
G1 X63.671 Y90.529
G1 Z0.200
G1 E0.80000 F2100.00000
M204 S1000
G1 F1800
G1 X64.319 Y90.223 E0.02249
G1 X64.995 Y90.123 E0.02142
G1 X140.004 Y90.123 E2.35185
G1 X140.895 Y90.298 E0.02849
G1 X141.659 Y90.797 E0.02860
G1 X142.176 Y91.544 E0.02849
G1 X142.376 Y92.434 E0.02860
G1 X142.370 Y112.679 E0.63476
G1 X142.211 Y113.374 E0.02237
G1 X141.852 Y113.991 E0.02237
G1 X141.326 Y114.473 E0.02237
G1 X140.681 Y114.777 E0.02237
G1 X140.005 Y114.877 E0.02142
G1 X64.950 Y114.877 E2.35328
G1 X64.219 Y114.745 E0.02331
G1 X63.560 Y114.392 E0.02343
G1 X63.046 Y113.854 E0.02331
G1 X62.723 Y113.181 E0.02343
G1 X62.623 Y112.513 E0.02119
G1 X62.629 Y92.336 E0.63261
G1 X62.785 Y91.637 E0.02249
G1 X63.144 Y91.015 E0.02249
G1 X63.627 Y90.570 E0.02060
G1 F5760
G1 X64.319 Y90.223 E-0.26830
G1 X64.995 Y90.123 E-0.23665
G1 X65.732 Y90.123 E-0.25506
G1 E-0.04000 F2100.00000
G1 Z0.800 F7200.000
G1 X129.263 Y101.708
G1 Z0.200
G1 E0.80000 F2100.00000
G1 F1800
G1 X129.511 Y100.947 E0.02510
G1 X129.910 Y100.255 E0.02504
G1 X130.444 Y99.662 E0.02504
G1 X131.090 Y99.192 E0.02504
G1 X131.820 Y98.867 E0.02504
G1 X132.601 Y98.701 E0.02504
G1 X133.399 Y98.701 E0.02504
G1 X134.180 Y98.867 E0.02504
G1 X134.910 Y99.192 E0.02504
G1 X135.556 Y99.662 E0.02504
G1 X136.090 Y100.255 E0.02504
G1 X136.489 Y100.947 E0.02504
G1 X136.736 Y101.706 E0.02504
G1 X136.819 Y102.500 E0.02503
G1 X136.736 Y103.294 E0.02503
G1 X136.489 Y104.053 E0.02504
G1 X136.090 Y104.745 E0.02504
G1 X135.556 Y105.338 E0.02504
G1 X134.910 Y105.808 E0.02504
G1 X134.180 Y106.133 E0.02504
G1 X133.399 Y106.299 E0.02504
G1 X132.601 Y106.299 E0.02504
G1 X131.820 Y106.133 E0.02504
G1 X131.090 Y105.808 E0.02504
G1 X130.444 Y105.338 E0.02504
G1 X129.910 Y104.745 E0.02504
G1 X129.511 Y104.053 E0.02504
G1 X129.264 Y103.294 E0.02504
G1 X129.182 Y102.514 E0.02460
G1 X129.257 Y101.768 E0.02352
G1 X129.633 Y101.805 F7200.000
G1 F1800
G1 X129.857 Y101.101 E0.02319
G1 X130.217 Y100.478 E0.02255
G1 X130.698 Y99.943 E0.02255
G1 X131.280 Y99.521 E0.02255
G1 X131.937 Y99.228 E0.02255
G1 X132.640 Y99.079 E0.02255
G1 X133.360 Y99.079 E0.02255
G1 X134.063 Y99.228 E0.02255
G1 X134.720 Y99.521 E0.02255
G1 X135.302 Y99.943 E0.02255
G1 X135.783 Y100.478 E0.02255
G1 X136.143 Y101.101 E0.02255
G1 X136.365 Y101.785 E0.02255
G1 X136.440 Y102.500 E0.02255
G1 X136.365 Y103.215 E0.02255
G1 X136.143 Y103.899 E0.02255
G1 X135.783 Y104.522 E0.02255
G1 X135.302 Y105.057 E0.02255
G1 X134.720 Y105.479 E0.02255
G1 X134.063 Y105.772 E0.02255
G1 X133.360 Y105.921 E0.02255
G1 X132.640 Y105.921 E0.02255
G1 X131.937 Y105.772 E0.02255
G1 X131.280 Y105.479 E0.02255
G1 X130.698 Y105.057 E0.02255
G1 X130.217 Y104.522 E0.02255
G1 X129.857 Y103.899 E0.02255
G1 X129.635 Y103.215 E0.02255
G1 X129.561 Y102.513 E0.02214
G1 X129.627 Y101.865 E0.02042
G1 X130.002 Y101.903 F7200.000
G1 F1800
G1 X130.203 Y101.255 E0.02128
G1 X130.523 Y100.701 E0.02007
G1 X130.952 Y100.225 E0.02007
G1 X131.469 Y99.849 E0.02006
G1 X132.054 Y99.589 E0.02006
G1 X132.680 Y99.456 E0.02007
G1 X133.320 Y99.456 E0.02006
G1 X133.946 Y99.589 E0.02007
G1 X134.531 Y99.849 E0.02006
G1 X135.048 Y100.225 E0.02006
G1 X135.477 Y100.701 E0.02007
G1 X135.797 Y101.255 E0.02007
G1 X135.994 Y101.864 E0.02007
G1 X136.061 Y102.500 E0.02006
G1 X135.994 Y103.136 E0.02006
G1 X135.797 Y103.745 E0.02007
G1 X135.477 Y104.299 E0.02007
G1 X135.048 Y104.775 E0.02007
G1 X134.531 Y105.151 E0.02006
G1 X133.946 Y105.411 E0.02006
G1 X133.320 Y105.544 E0.02007
G1 X132.680 Y105.544 E0.02006
G1 X132.054 Y105.411 E0.02007
G1 X131.469 Y105.151 E0.02006
G1 X130.952 Y104.775 E0.02006
G1 X130.523 Y104.299 E0.02007
G1 X130.203 Y103.745 E0.02007
G1 X130.006 Y103.136 E0.02007
G1 X129.940 Y102.512 E0.01968
G1 X129.996 Y101.963 E0.01732
G1 X129.702 Y101.638 F7200.000
G1 F5760
G1 X130.203 Y101.255 E-0.25550
G1 X130.523 Y100.701 E-0.22166
G1 X130.952 Y100.225 E-0.22166
G1 X131.095 Y100.121 E-0.06118
G1 E-0.04000 F2100.00000
G1 Z0.800 F7200.000
G1 X119.569 Y102.500
G1 Z0.200
G1 E0.80000 F2100.00000
G1 F1800
G1 X119.491 Y103.242 E0.02340
G1 X119.261 Y103.952 E0.02340
G1 X118.888 Y104.598 E0.02339
G1 X118.388 Y105.153 E0.02340
G1 X117.785 Y105.591 E0.02340
G1 X117.103 Y105.895 E0.02340
G1 X116.373 Y106.050 E0.02340
G1 X115.627 Y106.050 E0.02340
G1 X114.895 Y105.894 E0.02346
G1 X114.205 Y105.584 E0.02373
G1 X113.612 Y105.153 E0.02300
G1 X113.112 Y104.598 E0.02340
G1 X112.739 Y103.952 E0.02339
G1 X112.509 Y103.242 E0.02340
G1 X112.431 Y102.500 E0.02340
G1 X112.509 Y101.758 E0.02340
G1 X112.739 Y101.048 E0.02340
G1 X113.112 Y100.402 E0.02339
G1 X113.612 Y99.847 E0.02340
G1 X114.215 Y99.409 E0.02340
G1 X114.897 Y99.105 E0.02339
G1 X115.627 Y98.950 E0.02340
G1 X116.373 Y98.950 E0.02340
G1 X117.103 Y99.105 E0.02340
G1 X117.785 Y99.409 E0.02340
G1 X118.388 Y99.847 E0.02340
G1 X118.888 Y100.402 E0.02340
G1 X119.262 Y101.050 E0.02346
G1 X119.493 Y101.771 E0.02373
G1 X119.563 Y102.440 E0.02111
G1 X119.188 Y102.480 F7200.000
G1 F1800
G1 X119.121 Y103.163 E0.02154
G1 X118.914 Y103.798 E0.02091
G1 X118.581 Y104.375 E0.02091
G1 X118.135 Y104.871 E0.02091
G1 X117.595 Y105.263 E0.02091
G1 X116.986 Y105.534 E0.02091
G1 X116.334 Y105.673 E0.02091
G1 X115.666 Y105.673 E0.02091
G1 X115.013 Y105.534 E0.02095
G1 X114.395 Y105.256 E0.02124
G1 X113.865 Y104.871 E0.02054
G1 X113.419 Y104.375 E0.02091
G1 X113.086 Y103.798 E0.02091
G1 X112.879 Y103.163 E0.02091
G1 X112.810 Y102.500 E0.02091
G1 X112.879 Y101.837 E0.02091
G1 X113.086 Y101.202 E0.02091
G1 X113.419 Y100.625 E0.02091
G1 X113.865 Y100.129 E0.02091
G1 X114.405 Y99.737 E0.02091
G1 X115.014 Y99.466 E0.02091
G1 X115.666 Y99.327 E0.02091
G1 X116.334 Y99.327 E0.02091
G1 X116.986 Y99.466 E0.02091
G1 X117.595 Y99.737 E0.02091
G1 X118.135 Y100.129 E0.02091
G1 X118.581 Y100.625 E0.02091
G1 X118.915 Y101.203 E0.02095
G1 X119.122 Y101.849 E0.02125
G1 X119.182 Y102.420 E0.01801
G1 X118.807 Y102.459 F7200.000
G1 F1800
G1 X118.750 Y103.085 E0.01968
G1 X118.568 Y103.643 E0.01843
G1 X118.274 Y104.152 E0.01843
G1 X117.881 Y104.589 E0.01843
G1 X117.406 Y104.935 E0.01843
G1 X116.869 Y105.174 E0.01843
G1 X116.294 Y105.296 E0.01843
G1 X115.706 Y105.296 E0.01843
G1 X115.131 Y105.173 E0.01844
G1 X114.585 Y104.928 E0.01876
G1 X114.119 Y104.589 E0.01807
G1 X113.726 Y104.152 E0.01843
G1 X113.432 Y103.643 E0.01843
G1 X113.250 Y103.085 E0.01843
G1 X113.189 Y102.500 E0.01843
G1 X113.250 Y101.915 E0.01843
G1 X113.432 Y101.357 E0.01843
G1 X113.726 Y100.848 E0.01843
G1 X114.119 Y100.411 E0.01843
G1 X114.594 Y100.065 E0.01843
G1 X115.131 Y99.826 E0.01843
G1 X115.706 Y99.704 E0.01843
G1 X116.294 Y99.704 E0.01843
G1 X116.869 Y99.826 E0.01843
G1 X117.406 Y100.065 E0.01843
G1 X117.881 Y100.411 E0.01843
G1 X118.274 Y100.848 E0.01843
G1 X118.568 Y101.357 E0.01844
G1 X118.751 Y101.927 E0.01876
G1 X118.801 Y102.400 E0.01491
G1 X119.155 Y102.656 F7200.000
G1 F5760
G1 X118.750 Y103.085 E-0.23781
G1 X118.568 Y103.643 E-0.20354
G1 X118.274 Y104.152 E-0.20354
G1 X118.052 Y104.399 E-0.11511
G1 E-0.04000 F2100.00000
G1 Z0.800 F7200.000
G1 X139.036 Y93.464
G1 Z0.200
G1 E0.80000 F2100.00000
G1 F1800
G1 X139.036 Y111.536 E0.56663
G1 X65.964 Y111.536 E2.29111
G1 X65.964 Y93.464 E0.56663
G1 X138.976 Y93.464 E2.28923
G1 X139.413 Y93.087 F7200.000
G1 F1800
G1 X139.413 Y111.913 E0.59027
G1 X65.587 Y111.913 E2.31476
G1 X65.587 Y93.087 E0.59027
G1 X139.353 Y93.087 E2.31288
G1 X139.790 Y92.710 F7200.000
G1 F1800
G1 X139.790 Y112.290 E0.61392
G1 X65.210 Y112.290 E2.33840
G1 X65.210 Y92.710 E0.61392
G1 X139.730 Y92.710 E2.33652
G1 X139.620 Y93.072 F7200.000
G1 F5760
G1 X139.737 Y94.904 E-0.76000
G1 E-0.04000 F2100.00000
G1 Z0.800 F7200.000
G1 X138.923 Y94.341
G1 Z0.200
G1 E0.80000 F2100.00000
G1 F1800
G1 X138.329 Y93.747 E0.02635
G1 X137.795 Y93.747 E0.01676
G1 X138.753 Y94.705 E0.04252
G1 X138.753 Y95.239 E0.01676
G1 X137.261 Y93.747 E0.06623
G1 X136.727 Y93.747 E0.01676
G1 X138.753 Y95.773 E0.08993
G1 X138.753 Y96.306 E0.01676
G1 X136.194 Y93.747 E0.11363
G1 X135.660 Y93.747 E0.01676
G1 X138.753 Y96.840 E0.13734
G1 X138.753 Y97.374 E0.01676
G1 X135.126 Y93.747 E0.16104
G1 X134.592 Y93.747 E0.01676
G1 X138.753 Y97.908 E0.18474
G1 X138.753 Y98.442 E0.01676
G1 X134.058 Y93.747 E0.20845
G1 X133.524 Y93.747 E0.01676
G1 X138.753 Y98.976 E0.23215
G1 X138.753 Y99.510 E0.01676
G1 X132.990 Y93.747 E0.25585
G1 X132.456 Y93.747 E0.01676
G1 X138.753 Y100.044 E0.27956
G1 X138.753 Y100.578 E0.01676
G1 X131.922 Y93.747 E0.30326
G1 X131.388 Y93.747 E0.01676
G1 X138.753 Y101.112 E0.32697
G1 X138.753 Y101.646 E0.01676
G1 X130.854 Y93.747 E0.35067
G1 X130.320 Y93.747 E0.01676
G1 X138.753 Y102.180 E0.37437
G1 X138.753 Y102.714 E0.01676
G1 X136.583 Y100.544 E0.09633
G1 X136.749 Y100.831 E0.01041
G1 X136.948 Y101.442 E0.02017
G1 X138.753 Y103.247 E0.08016
G1 X138.753 Y103.781 E0.01676
G1 X137.061 Y102.089 E0.07514
G1 X137.104 Y102.500 E0.01298
G1 X137.088 Y102.650 E0.00474
G1 X138.753 Y104.315 E0.07392
G1 X138.753 Y104.849 E0.01676
G1 X137.037 Y103.133 E0.07618
G1 X137.014 Y103.353 E0.00694
G1 X136.943 Y103.573 E0.00725
G1 X138.753 Y105.383 E0.08037
G1 X138.753 Y105.917 E0.01676
G1 X136.812 Y103.976 E0.08618
G1 X136.749 Y104.169 E0.00638
G1 X136.647 Y104.345 E0.00638
G1 X138.753 Y106.451 E0.09348
G1 X138.753 Y106.985 E0.01676
G1 X136.452 Y104.684 E0.10216
G1 X136.320 Y104.912 E0.00828
G1 X136.238 Y105.004 E0.00386
G1 X138.753 Y107.519 E0.11167
G1 X138.753 Y108.053 E0.01676
G1 X135.985 Y105.284 E0.12290
G1 X135.729 Y105.562 E0.01186
G1 X138.753 Y108.587 E0.13427
G1 X138.753 Y109.121 E0.01676
G1 X135.419 Y105.787 E0.14800
G1 X135.110 Y106.012 E0.01200
G1 X138.753 Y109.654 E0.16173
G1 X138.753 Y110.188 E0.01676
G1 X134.752 Y106.187 E0.17762
G1 X134.383 Y106.352 E0.01270
G1 X138.753 Y110.722 E0.19403
G1 X138.753 Y111.253 E0.01666
G1 X133.964 Y106.468 E0.21253
G1 X133.524 Y106.561 E0.01413
G1 X138.216 Y111.253 E0.20830
G1 X137.682 Y111.253 E0.01676
G1 X133.010 Y106.581 E0.20740
G1 X132.571 Y106.581 E0.01379
G1 X132.451 Y106.556 E0.00386
G1 X137.148 Y111.253 E0.20854
G1 X136.614 Y111.253 E0.01676
G1 X131.455 Y106.094 E0.22904
G1 F5760
G1 X133.007 Y107.646 E-0.76000
G1 E-0.04000 F2100.00000
G1 Z0.800 F7200.000
G1 X129.843 Y111.423
G1 Z0.200
G1 E0.80000 F2100.00000
G1 F1800
G1 X119.601 Y101.180 E0.45471
G1 X119.771 Y101.712 E0.01752
G1 X119.791 Y101.905 E0.00609
G1 X129.139 Y111.253 E0.41501
G1 X128.605 Y111.253 E0.01676
G1 X119.854 Y102.501 E0.38854
G1 X119.803 Y102.984 E0.01525
G1 X128.071 Y111.253 E0.36709
G1 X127.538 Y111.253 E0.01676
G1 X119.725 Y103.440 E0.34686
G1 X119.594 Y103.843 E0.01330
G1 X127.004 Y111.253 E0.32897
G1 X126.470 Y111.253 E0.01676
G1 X119.434 Y104.217 E0.31235
G1 X119.239 Y104.556 E0.01227
G1 X125.936 Y111.253 E0.29733
G1 X125.402 Y111.253 E0.01676
G1 X119.021 Y104.872 E0.28327
G1 X118.768 Y105.153 E0.01187
G1 X124.868 Y111.253 E0.27080
G1 X124.334 Y111.253 E0.01676
G1 X118.501 Y105.420 E0.25895
G1 X118.192 Y105.645 E0.01200
G1 X123.800 Y111.253 E0.24898
G1 X123.266 Y111.253 E0.01676
G1 X117.874 Y105.861 E0.23938
G1 X117.505 Y106.025 E0.01270
G1 X122.732 Y111.253 E0.23208
G1 X122.198 Y111.253 E0.01676
G1 X117.125 Y106.179 E0.22526
G1 X116.684 Y106.273 E0.01413
G1 X121.664 Y111.253 E0.22110
G1 X121.131 Y111.253 E0.01676
G1 X116.210 Y106.333 E0.21844
G1 X115.676 Y106.333 E0.01676
G1 X120.597 Y111.253 E0.21844
G1 X120.063 Y111.253 E0.01676
G1 X114.773 Y105.963 E0.23484
G1 F5760
G1 X116.325 Y107.515 E-0.76000
G1 E-0.04000 F2100.00000
G1 Z0.800 F7200.000
G1 X112.552 Y103.743
G1 Z0.200
G1 E0.80000 F2100.00000
G1 F1800
G1 X102.557 Y93.747 E0.44376
G1 X103.091 Y93.747 E0.01676
G1 X112.182 Y102.838 E0.40361
G1 X112.146 Y102.500 E0.01067
G1 X112.168 Y102.291 E0.00661
G1 X103.624 Y93.747 E0.37931
G1 X104.158 Y93.747 E0.01676
G1 X112.219 Y101.808 E0.35786
G1 X112.230 Y101.699 E0.00344
G1 X112.332 Y101.387 E0.01030
G1 X104.692 Y93.747 E0.33916
G1 X105.226 Y93.747 E0.01676
G1 X112.463 Y100.984 E0.32127
G1 X112.650 Y100.637 E0.01237
G1 X105.760 Y93.747 E0.30588
G1 X106.294 Y93.747 E0.01676
G1 X112.845 Y100.298 E0.29086
G1 X113.088 Y100.007 E0.01190
G1 X106.828 Y93.747 E0.27790
G1 X107.362 Y93.747 E0.01676
G1 X113.341 Y99.726 E0.26543
G1 X113.421 Y99.636 E0.00378
G1 X113.632 Y99.483 E0.00817
G1 X107.896 Y93.747 E0.25466
G1 X108.430 Y93.747 E0.01676
G1 X113.941 Y99.258 E0.24468
G1 X114.073 Y99.162 E0.00512
G1 X114.285 Y99.068 E0.00727
G1 X108.964 Y93.747 E0.23624
G1 X109.498 Y93.747 E0.01676
G1 X114.654 Y98.904 E0.22894
G1 X114.809 Y98.835 E0.00532
G1 X115.065 Y98.780 E0.00821
G1 X110.031 Y93.747 E0.22347
G1 X110.565 Y93.747 E0.01676
G1 X115.505 Y98.687 E0.21931
G1 X115.597 Y98.667 E0.00295
G1 X116.020 Y98.667 E0.01326
G1 X111.099 Y93.747 E0.21844
G1 X111.633 Y93.747 E0.01676
G1 X116.594 Y98.708 E0.22025
G1 X117.191 Y98.835 E0.01915
G1 X117.307 Y98.886 E0.00397
G1 X112.167 Y93.747 E0.22817
G1 X112.701 Y93.747 E0.01676
G1 X130.207 Y111.253 E0.77719
G1 X130.741 Y111.253 E0.01676
G1 X113.235 Y93.747 E0.77719
G1 X113.769 Y93.747 E0.01676
G1 X131.275 Y111.253 E0.77719
G1 X131.809 Y111.253 E0.01676
G1 X114.303 Y93.747 E0.77719
G1 X114.837 Y93.747 E0.01676
G1 X132.343 Y111.253 E0.77719
G1 X132.877 Y111.253 E0.01676
G1 X115.371 Y93.747 E0.77719
G1 X115.905 Y93.747 E0.01676
G1 X133.411 Y111.253 E0.77719
G1 X133.945 Y111.253 E0.01676
G1 X116.438 Y93.747 E0.77719
G1 X116.972 Y93.747 E0.01676
G1 X134.479 Y111.253 E0.77719
G1 X135.012 Y111.253 E0.01676
G1 X117.506 Y93.747 E0.77719
G1 X118.040 Y93.747 E0.01676
G1 X135.546 Y111.253 E0.77719
G1 X136.080 Y111.253 E0.01676
G1 X118.574 Y93.747 E0.77719
G1 X119.108 Y93.747 E0.01676
G1 X129.117 Y103.755 E0.44433
G1 X128.986 Y103.353 E0.01328
G1 X128.955 Y103.060 E0.00925
G1 X119.642 Y93.747 E0.41346
G1 X120.176 Y93.747 E0.01676
G1 X128.902 Y102.473 E0.38739
G1 X128.951 Y101.988 E0.01530
G1 X120.710 Y93.747 E0.36587
G1 X121.244 Y93.747 E0.01676
G1 X129.025 Y101.528 E0.34543
G1 X129.155 Y101.125 E0.01330
G1 X121.778 Y93.747 E0.32754
G1 X122.312 Y93.747 E0.01676
G1 X129.304 Y100.739 E0.31043
G1 X129.499 Y100.401 E0.01227
G1 X122.846 Y93.747 E0.29540
G1 X123.379 Y93.747 E0.01676
G1 X129.699 Y100.067 E0.28056
G1 X129.952 Y99.786 E0.01187
G1 X123.913 Y93.747 E0.26809
G1 X124.447 Y93.747 E0.01676
G1 X130.205 Y99.505 E0.25562
G1 X130.503 Y99.269 E0.01193
G1 X124.981 Y93.747 E0.24516
G1 X125.515 Y93.747 E0.01676
G1 X130.813 Y99.044 E0.23518
G1 X130.948 Y98.946 E0.00526
G1 X131.156 Y98.854 E0.00713
G1 X126.049 Y93.747 E0.22671
G1 X126.583 Y93.747 E0.01676
G1 X131.525 Y98.689 E0.21941
G1 X131.732 Y98.597 E0.00710
G1 X131.926 Y98.556 E0.00622
G1 X127.117 Y93.747 E0.21349
G1 X127.651 Y93.747 E0.01676
G1 X132.366 Y98.462 E0.20934
G1 X132.571 Y98.419 E0.00658
G1 X132.856 Y98.419 E0.00896
G1 X128.185 Y93.747 E0.20740
G1 X128.719 Y93.747 E0.01676
G1 X133.390 Y98.419 E0.20740
G1 X134.058 Y98.552 E0.02138
G1 X129.253 Y93.747 E0.21334
G1 X129.786 Y93.747 E0.01676
G1 X135.576 Y99.537 E0.25703
G1 F5760
G1 X134.024 Y97.985 E-0.76000
G1 E-0.04000 F2100.00000
G1 Z0.800 F7200.000
G1 X119.698 Y111.423
G1 Z0.200
G1 E0.80000 F2100.00000
G1 F1800
G1 X102.023 Y93.747 E0.78473
G1 X101.489 Y93.747 E0.01676
G1 X118.995 Y111.253 E0.77719
G1 X118.461 Y111.253 E0.01676
G1 X100.955 Y93.747 E0.77719
G1 X100.421 Y93.747 E0.01676
