; generated by Slic3r Prusa Edition 1.39.2+win64 on 2018-05-25 at 16:37:31

; 

; external perimeters extrusion width = 0.45mm
; perimeters extrusion width = 0.45mm
; infill extrusion width = 0.45mm
; solid infill extrusion width = 0.45mm
; top infill extrusion width = 0.45mm
; first layer extrusion width = 0.42mm

M107
M115 U3.1.0 ; tell printer latest fw version
M83  ; extruder relative mode
M104 S205 ; set extruder temp
M140 S55 ; set bed temp
M190 S55 ; wait for bed temp
M109 S205 ; wait for extruder temp
G28 W ; home all without mesh bed level
G80 ; mesh bed leveling
G1 Y-3.0 F1000.0 ; go outside print area
G92 E0.0
G1 X60.0 E9.0  F1000.0 ; intro line
G1 X100.0 E12.5  F1000.0 ; intro line
G92 E0.0
M900 K30; Filament gcode
G21 ; set units to millimeters
G90 ; use absolute coordinates
M83 ; use relative distances for extrusion
;BEFORE_LAYER_CHANGE
;0.2


G1 E-0.80000 F2100.00000
G1 Z0.600 F7200.000
;AFTER_LAYER_CHANGE
;0.2
G1 X53.712 Y94.002
G1 Z0.200
G1 E0.80000 F2100.00000
M204 S1000
G1 F1800
G1 X54.341 Y93.716 E0.02166
G1 X129.628 Y78.652 E2.40734
G1 X150.004 Y78.623 E0.63888
G1 X150.902 Y78.801 E0.02872
G1 X151.670 Y79.308 E0.02884
G1 X152.187 Y80.069 E0.02884
G1 X152.377 Y80.968 E0.02884
G1 X152.375 Y124.091 E1.35209
G1 X152.232 Y124.817 E0.02319
G1 X151.873 Y125.464 E0.02319
G1 X151.329 Y125.971 E0.02331
G1 X150.659 Y126.284 E0.02319
G1 X150.005 Y126.377 E0.02071
G1 X129.535 Y126.331 E0.64184
G1 X54.412 Y108.303 E2.42229
G1 X53.840 Y108.075 E0.01929
G1 X53.347 Y107.708 E0.01929
G1 X52.962 Y107.223 E0.01941
G1 X52.716 Y106.659 E0.01929
G1 X52.623 Y106.016 E0.02036
G1 X52.641 Y95.704 E0.32335
G1 X52.826 Y95.038 E0.02166
G1 X53.195 Y94.454 E0.02166
G1 X53.667 Y94.041 E0.01966
G1 F5760
G1 X54.341 Y93.716 E-0.25923
G1 X55.759 Y93.432 E-0.50077
G1 E-0.04000 F2100.00000
G1 Z0.800 F7200.000
G1 X137.556 Y118.206
G1 Z0.200
G1 E0.80000 F2100.00000
G1 F1800
G1 X137.775 Y117.715 E0.01685
G1 X138.091 Y117.281 E0.01684
G1 X138.490 Y116.921 E0.01684
G1 X138.957 Y116.652 E0.01691
G1 X139.474 Y116.486 E0.01705
G1 X140.000 Y116.431 E0.01657
G1 X140.534 Y116.487 E0.01684
G1 X141.045 Y116.653 E0.01684
G1 X141.510 Y116.921 E0.01685
G1 X141.909 Y117.281 E0.01684
G1 X142.225 Y117.715 E0.01684
G1 X142.444 Y118.206 E0.01685
G1 X142.555 Y118.732 E0.01684
G1 X142.555 Y119.268 E0.01683
G1 X142.443 Y119.796 E0.01691
G1 X142.220 Y120.292 E0.01705
G1 X141.909 Y120.719 E0.01657
G1 X141.510 Y121.079 E0.01684
G1 X141.045 Y121.347 E0.01685
G1 X140.534 Y121.513 E0.01684
G1 X140.000 Y121.569 E0.01684
G1 X139.466 Y121.513 E0.01684
G1 X138.955 Y121.347 E0.01684
G1 X138.490 Y121.079 E0.01685
G1 X138.091 Y120.719 E0.01684
G1 X137.775 Y120.285 E0.01684
G1 X137.556 Y119.794 E0.01685
G1 X137.445 Y119.268 E0.01684
G1 X137.445 Y118.732 E0.01683
G1 X137.544 Y118.265 E0.01496
G1 X137.913 Y118.343 F7200.000
G1 F1800
G1 X138.103 Y117.905 E0.01498
G1 X138.372 Y117.534 E0.01436
G1 X138.712 Y117.228 E0.01435
G1 X139.110 Y116.998 E0.01440
G1 X139.552 Y116.857 E0.01456
G1 X140.000 Y116.810 E0.01411
G1 X140.455 Y116.858 E0.01436
G1 X140.891 Y116.999 E0.01436
G1 X141.288 Y117.228 E0.01436
G1 X141.628 Y117.534 E0.01435
G1 X141.897 Y117.905 E0.01435
G1 X142.083 Y118.323 E0.01436
G1 X142.178 Y118.771 E0.01436
G1 X142.178 Y119.229 E0.01435
G1 X142.083 Y119.678 E0.01440
G1 X141.892 Y120.102 E0.01457
G1 X141.628 Y120.466 E0.01411
G1 X141.288 Y120.772 E0.01435
G1 X140.891 Y121.001 E0.01436
G1 X140.455 Y121.142 E0.01436
G1 X140.000 Y121.190 E0.01436
G1 X139.545 Y121.142 E0.01436
G1 X139.109 Y121.001 E0.01436
G1 X138.712 Y120.772 E0.01436
G1 X138.372 Y120.466 E0.01435
G1 X138.103 Y120.095 E0.01436
G1 X137.917 Y119.677 E0.01436
G1 X137.822 Y119.229 E0.01436
G1 X137.822 Y118.771 E0.01435
G1 X137.900 Y118.402 E0.01184
G1 X138.277 Y118.440 F7200.000
G1 F1800
G1 X138.432 Y118.094 E0.01187
G1 X138.654 Y117.788 E0.01187
G1 X138.935 Y117.535 E0.01187
G1 X139.264 Y117.345 E0.01189
G1 X139.630 Y117.228 E0.01208
G1 X140.000 Y117.189 E0.01165
G1 X140.377 Y117.228 E0.01187
G1 X140.737 Y117.345 E0.01187
G1 X141.065 Y117.535 E0.01187
G1 X141.346 Y117.788 E0.01187
G1 X141.568 Y118.094 E0.01187
G1 X141.723 Y118.440 E0.01187
G1 X141.801 Y118.811 E0.01187
G1 X141.801 Y119.189 E0.01187
G1 X141.722 Y119.560 E0.01189
G1 X141.564 Y119.911 E0.01208
G1 X141.346 Y120.212 E0.01165
G1 X141.065 Y120.465 E0.01187
G1 X140.737 Y120.655 E0.01187
G1 X140.377 Y120.772 E0.01187
G1 X140.000 Y120.811 E0.01187
G1 X139.623 Y120.772 E0.01187
G1 X139.263 Y120.655 E0.01187
G1 X138.935 Y120.465 E0.01187
G1 X138.654 Y120.212 E0.01187
G1 X138.432 Y119.906 E0.01187
G1 X138.277 Y119.560 E0.01187
G1 X138.199 Y119.189 E0.01187
G1 X138.199 Y118.811 E0.01187
G1 X138.265 Y118.499 E0.00999
G1 X138.024 Y118.159 F7200.000
G1 F5760
G1 X138.432 Y118.094 E-0.15155
G1 X138.654 Y117.788 E-0.13113
G1 X138.935 Y117.535 E-0.13111
G1 X139.264 Y117.345 E-0.13131
G1 X139.630 Y117.228 E-0.13340
G1 X139.864 Y117.203 E-0.08149
G1 E-0.04000 F2100.00000
G1 Z0.800 F7200.000
G1 X140.000 Y89.569
G1 Z0.200
G1 E0.80000 F2100.00000
G1 F1800
G1 X139.466 Y89.513 E0.01684
G1 X138.955 Y89.347 E0.01684
G1 X138.490 Y89.079 E0.01684
G1 X138.091 Y88.719 E0.01684
G1 X137.775 Y88.285 E0.01684
G1 X137.556 Y87.794 E0.01685
G1 X137.445 Y87.269 E0.01684
G1 X137.445 Y86.731 E0.01684
G1 X137.556 Y86.206 E0.01684
G1 X137.775 Y85.715 E0.01685
G1 X138.091 Y85.281 E0.01684
G1 X138.490 Y84.921 E0.01684
G1 X138.957 Y84.652 E0.01691
G1 X139.474 Y84.486 E0.01705
G1 X140.000 Y84.431 E0.01657
G1 X140.534 Y84.487 E0.01684
G1 X141.045 Y84.653 E0.01684
G1 X141.510 Y84.921 E0.01684
G1 X141.909 Y85.281 E0.01684
G1 X142.225 Y85.715 E0.01684
G1 X142.444 Y86.206 E0.01684
G1 X142.555 Y86.731 E0.01684
G1 X142.555 Y87.269 E0.01684
G1 X142.443 Y87.796 E0.01691
G1 X142.220 Y88.292 E0.01705
G1 X141.909 Y88.719 E0.01657
G1 X141.510 Y89.079 E0.01684
G1 X141.045 Y89.347 E0.01684
G1 X140.534 Y89.513 E0.01684
G1 X140.060 Y89.563 E0.01496
G1 X140.020 Y89.188 F7200.000
G1 F1800
G1 X139.545 Y89.142 E0.01498
G1 X139.109 Y89.001 E0.01436
G1 X138.713 Y88.772 E0.01436
G1 X138.372 Y88.466 E0.01436
G1 X138.103 Y88.095 E0.01435
G1 X137.917 Y87.677 E0.01436
G1 X137.822 Y87.229 E0.01436
G1 X137.822 Y86.771 E0.01435
G1 X137.917 Y86.323 E0.01436
G1 X138.103 Y85.905 E0.01436
G1 X138.372 Y85.534 E0.01435
G1 X138.713 Y85.228 E0.01436
G1 X139.110 Y84.998 E0.01440
G1 X139.552 Y84.857 E0.01456
G1 X140.000 Y84.810 E0.01411
G1 X140.455 Y84.858 E0.01436
G1 X140.891 Y84.999 E0.01436
G1 X141.287 Y85.228 E0.01436
G1 X141.628 Y85.534 E0.01436
G1 X141.897 Y85.905 E0.01435
G1 X142.083 Y86.323 E0.01436
G1 X142.178 Y86.771 E0.01436
G1 X142.178 Y87.229 E0.01435
G1 X142.083 Y87.678 E0.01440
G1 X141.892 Y88.102 E0.01456
G1 X141.628 Y88.466 E0.01411
G1 X141.287 Y88.772 E0.01436
G1 X140.891 Y89.001 E0.01436
G1 X140.455 Y89.142 E0.01436
G1 X140.080 Y89.182 E0.01184
G1 X140.000 Y88.811 F7200.000
G1 F1800
G1 X139.623 Y88.772 E0.01187
G1 X139.263 Y88.655 E0.01187
G1 X138.935 Y88.465 E0.01187
G1 X138.654 Y88.212 E0.01187
G1 X138.432 Y87.906 E0.01187
G1 X138.277 Y87.560 E0.01187
G1 X138.199 Y87.189 E0.01187
G1 X138.199 Y86.811 E0.01187
G1 X138.277 Y86.440 E0.01187
G1 X138.432 Y86.094 E0.01187
G1 X138.654 Y85.788 E0.01187
G1 X138.935 Y85.535 E0.01187
G1 X139.264 Y85.345 E0.01189
G1 X139.630 Y85.228 E0.01208
G1 X140.000 Y85.189 E0.01165
G1 X140.377 Y85.228 E0.01187
G1 X140.737 Y85.345 E0.01187
G1 X141.065 Y85.535 E0.01187
G1 X141.346 Y85.788 E0.01187
G1 X141.568 Y86.094 E0.01187
G1 X141.723 Y86.440 E0.01187
G1 X141.801 Y86.811 E0.01187
G1 X141.801 Y87.189 E0.01187
G1 X141.722 Y87.560 E0.01189
G1 X141.564 Y87.911 E0.01208
G1 X141.346 Y88.212 E0.01165
G1 X141.065 Y88.465 E0.01187
G1 X140.737 Y88.655 E0.01187
G1 X140.377 Y88.772 E0.01187
G1 X140.060 Y88.805 E0.00999
G1 X139.811 Y89.139 F7200.000
G1 F5760
G1 X139.623 Y88.772 E-0.15155
G1 X139.263 Y88.655 E-0.13113
G1 X138.935 Y88.465 E-0.13115
G1 X138.654 Y88.212 E-0.13113
G1 X138.432 Y87.906 E-0.13113
G1 X138.333 Y87.684 E-0.08391
G1 E-0.04000 F2100.00000
G1 Z0.800 F7200.000
G1 X130.964 Y105.036
G1 Z0.200
G1 E0.80000 F2100.00000
G1 F1800
G1 X55.964 Y105.036 E2.35157
G1 X55.964 Y96.964 E0.25308
G1 X130.964 Y96.964 E2.35157
G1 X130.964 Y81.964 E0.47031
G1 X149.036 Y81.964 E0.56663
G1 X149.036 Y123.036 E1.28777
G1 X130.964 Y123.036 E0.56663
G1 X130.964 Y105.096 E0.56250
G1 X130.587 Y105.413 F7200.000
G1 F1800
G1 X55.587 Y105.413 E2.35157
G1 X55.587 Y96.587 E0.27673
G1 X130.587 Y96.587 E2.35157
G1 X130.587 Y81.587 E0.47031
G1 X149.413 Y81.587 E0.59027
G1 X149.413 Y123.413 E1.31142
G1 X130.587 Y123.413 E0.59027
G1 X130.587 Y105.473 E0.56250
G1 X130.210 Y105.790 F7200.000
G1 F1800
G1 X55.210 Y105.790 E2.35157
G1 X55.210 Y96.210 E0.30037
G1 X130.210 Y96.210 E2.35157
G1 X130.210 Y81.210 E0.47031
G1 X149.790 Y81.210 E0.61392
G1 X149.790 Y123.790 E1.33507
G1 X130.210 Y123.790 E0.61392
G1 X130.210 Y105.850 E0.56250
G1 X130.101 Y105.405 F7200.000
G1 F5760
G1 X128.016 Y105.848 E-0.76000
G1 E-0.04000 F2100.00000
G1 Z0.800 F7200.000
G1 X130.994 Y104.923
G1 Z0.200
G1 E0.80000 F2100.00000
G1 F1800
G1 X123.318 Y97.247 E0.34049
G1 X122.785 Y97.247 E0.01673
G1 X130.291 Y104.753 E0.33297
G1 X129.758 Y104.753 E0.01673
G1 X122.251 Y97.247 E0.33297
G1 X121.718 Y97.247 E0.01673
G1 X129.224 Y104.753 E0.33297
G1 X128.691 Y104.753 E0.01673
G1 X121.185 Y97.247 E0.33297
G1 X120.651 Y97.247 E0.01673
G1 X128.157 Y104.753 E0.33297
G1 X127.624 Y104.753 E0.01673
G1 X120.118 Y97.247 E0.33297
G1 X119.584 Y97.247 E0.01673
G1 X127.090 Y104.753 E0.33297
G1 X126.557 Y104.753 E0.01673
G1 X119.051 Y97.247 E0.33297
G1 X118.517 Y97.247 E0.01673
G1 X126.023 Y104.753 E0.33297
G1 X125.490 Y104.753 E0.01673
G1 X117.984 Y97.247 E0.33297
G1 X117.450 Y97.247 E0.01673
G1 X124.956 Y104.753 E0.33297
G1 X124.423 Y104.753 E0.01673
G1 X116.917 Y97.247 E0.33297
G1 X116.383 Y97.247 E0.01673
G1 X123.889 Y104.753 E0.33297
G1 X123.356 Y104.753 E0.01673
G1 X115.850 Y97.247 E0.33297
G1 X115.316 Y97.247 E0.01673
G1 X122.822 Y104.753 E0.33297
G1 X122.289 Y104.753 E0.01673
G1 X114.783 Y97.247 E0.33297
G1 X114.249 Y97.247 E0.01673
G1 X121.755 Y104.753 E0.33297
G1 X121.222 Y104.753 E0.01673
G1 X113.716 Y97.247 E0.33297
G1 X113.182 Y97.247 E0.01673
G1 X120.688 Y104.753 E0.33297
G1 X120.155 Y104.753 E0.01673
G1 X112.649 Y97.247 E0.33297
G1 X112.115 Y97.247 E0.01673
G1 X119.621 Y104.753 E0.33297
G1 X119.088 Y104.753 E0.01673
G1 X111.582 Y97.247 E0.33297
G1 X111.048 Y97.247 E0.01673
G1 X118.554 Y104.753 E0.33297
G1 X118.021 Y104.753 E0.01673
G1 X110.515 Y97.247 E0.33297
G1 X109.981 Y97.247 E0.01673
G1 X117.487 Y104.753 E0.33297
G1 X116.954 Y104.753 E0.01673
G1 X109.448 Y97.247 E0.33297
G1 X108.914 Y97.247 E0.01673
G1 X116.420 Y104.753 E0.33297
G1 X115.887 Y104.753 E0.01673
G1 X108.381 Y97.247 E0.33297
G1 X107.847 Y97.247 E0.01673
G1 X115.353 Y104.753 E0.33297
G1 X114.820 Y104.753 E0.01673
G1 X107.314 Y97.247 E0.33297
G1 X106.780 Y97.247 E0.01673
G1 X114.287 Y104.753 E0.33297
G1 X113.753 Y104.753 E0.01673
G1 X106.247 Y97.247 E0.33297
G1 X105.713 Y97.247 E0.01673
G1 X113.220 Y104.753 E0.33297
G1 X112.686 Y104.753 E0.01673
G1 X105.180 Y97.247 E0.33297
G1 X104.646 Y97.247 E0.01673
G1 X112.153 Y104.753 E0.33297
G1 X111.619 Y104.753 E0.01673
G1 X104.113 Y97.247 E0.33297
G1 X103.579 Y97.247 E0.01673
G1 X111.086 Y104.753 E0.33297
G1 X110.552 Y104.753 E0.01673
G1 X103.046 Y97.247 E0.33297
G1 X102.513 Y97.247 E0.01673
G1 X110.019 Y104.753 E0.33297
G1 X109.485 Y104.753 E0.01673
G1 X101.979 Y97.247 E0.33297
G1 X101.446 Y97.247 E0.01673
G1 X108.952 Y104.753 E0.33297
G1 X108.418 Y104.753 E0.01673
G1 X100.912 Y97.247 E0.33297
G1 X100.379 Y97.247 E0.01673
G1 X107.885 Y104.753 E0.33297
G1 X107.351 Y104.753 E0.01673
G1 X99.845 Y97.247 E0.33297
G1 X99.312 Y97.247 E0.01673
G1 X106.818 Y104.753 E0.33297
G1 X106.284 Y104.753 E0.01673
G1 X98.778 Y97.247 E0.33297
G1 X98.245 Y97.247 E0.01673
G1 X105.751 Y104.753 E0.33297
G1 X105.217 Y104.753 E0.01673
G1 X97.711 Y97.247 E0.33297
G1 X97.178 Y97.247 E0.01673
G1 X104.684 Y104.753 E0.33297
G1 X104.150 Y104.753 E0.01673
G1 X96.644 Y97.247 E0.33297
G1 X96.111 Y97.247 E0.01673
G1 X103.617 Y104.753 E0.33297
G1 X103.083 Y104.753 E0.01673
G1 X95.577 Y97.247 E0.33297
G1 X95.044 Y97.247 E0.01673
G1 X102.550 Y104.753 E0.33297
G1 X102.016 Y104.753 E0.01673
G1 X94.510 Y97.247 E0.33297
G1 X93.977 Y97.247 E0.01673
G1 X101.483 Y104.753 E0.33297
G1 X100.949 Y104.753 E0.01673
G1 X93.443 Y97.247 E0.33297
G1 X92.910 Y97.247 E0.01673
G1 X100.416 Y104.753 E0.33297
G1 X99.882 Y104.753 E0.01673
G1 X92.376 Y97.247 E0.33297
G1 X91.843 Y97.247 E0.01673
G1 X99.349 Y104.753 E0.33297
G1 X98.815 Y104.753 E0.01673
G1 X91.309 Y97.247 E0.33297
G1 X90.776 Y97.247 E0.01673
G1 X98.282 Y104.753 E0.33297
G1 X97.748 Y104.753 E0.01673
G1 X90.242 Y97.247 E0.33297
G1 X89.709 Y97.247 E0.01673
G1 X97.215 Y104.753 E0.33297
G1 X96.682 Y104.753 E0.01673
G1 X89.175 Y97.247 E0.33297
G1 X88.642 Y97.247 E0.01673
G1 X96.148 Y104.753 E0.33297
G1 X95.615 Y104.753 E0.01673
G1 X88.108 Y97.247 E0.33297
G1 X87.575 Y97.247 E0.01673
G1 X95.081 Y104.753 E0.33297
G1 X94.548 Y104.753 E0.01673
G1 X87.041 Y97.247 E0.33297
G1 X86.508 Y97.247 E0.01673
G1 X94.014 Y104.753 E0.33297
G1 X93.481 Y104.753 E0.01673
G1 X85.974 Y97.247 E0.33297
G1 X85.441 Y97.247 E0.01673
G1 X92.947 Y104.753 E0.33297
G1 X92.414 Y104.753 E0.01673
G1 X84.908 Y97.247 E0.33297
G1 X84.374 Y97.247 E0.01673
G1 X91.880 Y104.753 E0.33297
G1 X91.347 Y104.753 E0.01673
G1 X83.841 Y97.247 E0.33297
G1 X83.307 Y97.247 E0.01673
G1 X90.813 Y104.753 E0.33297
G1 X90.280 Y104.753 E0.01673
G1 X82.774 Y97.247 E0.33297
G1 X82.240 Y97.247 E0.01673
G1 X89.746 Y104.753 E0.33297
G1 X89.213 Y104.753 E0.01673
G1 X81.707 Y97.247 E0.33297
G1 X81.173 Y97.247 E0.01673
G1 X88.679 Y104.753 E0.33297
G1 X88.146 Y104.753 E0.01673
G1 X80.640 Y97.247 E0.33297
G1 X80.106 Y97.247 E0.01673
G1 X87.612 Y104.753 E0.33297
G1 X87.079 Y104.753 E0.01673
G1 X79.573 Y97.247 E0.33297
G1 X79.039 Y97.247 E0.01673
G1 X86.545 Y104.753 E0.33297
G1 X86.012 Y104.753 E0.01673
G1 X78.506 Y97.247 E0.33297
G1 X77.972 Y97.247 E0.01673
G1 X85.478 Y104.753 E0.33297
G1 X84.945 Y104.753 E0.01673
G1 X77.439 Y97.247 E0.33297
G1 X76.905 Y97.247 E0.01673
G1 X84.411 Y104.753 E0.33297
G1 X83.878 Y104.753 E0.01673
G1 X76.372 Y97.247 E0.33297
G1 X75.838 Y97.247 E0.01673
G1 X83.344 Y104.753 E0.33297
G1 X82.811 Y104.753 E0.01673
G1 X75.305 Y97.247 E0.33297
G1 X74.771 Y97.247 E0.01673
G1 X82.277 Y104.753 E0.33297
G1 X81.744 Y104.753 E0.01673
G1 X74.238 Y97.247 E0.33297
G1 X73.704 Y97.247 E0.01673
G1 X81.210 Y104.753 E0.33297
G1 X80.677 Y104.753 E0.01673
G1 X73.171 Y97.247 E0.33297
G1 X72.637 Y97.247 E0.01673
G1 X80.143 Y104.753 E0.33297
G1 X79.610 Y104.753 E0.01673
G1 X72.104 Y97.247 E0.33297
G1 X71.570 Y97.247 E0.01673
G1 X79.076 Y104.753 E0.33297
G1 X78.543 Y104.753 E0.01673
G1 X71.037 Y97.247 E0.33297
G1 X70.503 Y97.247 E0.01673
G1 X78.010 Y104.753 E0.33297
G1 X77.476 Y104.753 E0.01673
G1 X69.970 Y97.247 E0.33297
G1 X69.436 Y97.247 E0.01673
G1 X76.943 Y104.753 E0.33297
G1 X76.409 Y104.753 E0.01673
G1 X68.903 Y97.247 E0.33297
G1 X68.369 Y97.247 E0.01673
G1 X75.876 Y104.753 E0.33297
G1 X75.342 Y104.753 E0.01673
G1 X67.836 Y97.247 E0.33297
G1 X67.302 Y97.247 E0.01673
G1 X74.809 Y104.753 E0.33297
G1 X74.275 Y104.753 E0.01673
G1 X66.769 Y97.247 E0.33297
G1 X66.236 Y97.247 E0.01673
G1 X73.742 Y104.753 E0.33297
G1 X73.208 Y104.753 E0.01673
G1 X65.702 Y97.247 E0.33297
G1 X65.169 Y97.247 E0.01673
G1 X72.675 Y104.753 E0.33297
G1 X72.141 Y104.753 E0.01673
G1 X64.635 Y97.247 E0.33297
G1 X64.102 Y97.247 E0.01673
G1 X71.608 Y104.753 E0.33297
G1 X71.074 Y104.753 E0.01673
G1 X63.568 Y97.247 E0.33297
G1 X63.035 Y97.247 E0.01673
G1 X70.541 Y104.753 E0.33297
G1 X70.007 Y104.753 E0.01673
G1 X62.501 Y97.247 E0.33297
G1 X61.968 Y97.247 E0.01673
G1 X69.474 Y104.753 E0.33297
G1 X68.940 Y104.753 E0.01673
G1 X61.434 Y97.247 E0.33297
G1 X60.901 Y97.247 E0.01673
G1 X68.407 Y104.753 E0.33297
G1 X67.873 Y104.753 E0.01673
G1 X60.367 Y97.247 E0.33297
G1 X59.834 Y97.247 E0.01673
G1 X67.340 Y104.753 E0.33297
G1 X66.806 Y104.753 E0.01673
G1 X59.300 Y97.247 E0.33297
G1 X58.767 Y97.247 E0.01673
