; generated by Slic3r Prusa Edition 1.39.2+win64 on 2018-05-25 at 15:45:05

; 

; external perimeters extrusion width = 0.45mm
; perimeters extrusion width = 0.45mm
; infill extrusion width = 0.45mm
; solid infill extrusion width = 0.45mm
; top infill extrusion width = 0.45mm
; first layer extrusion width = 0.42mm

M107
M115 U3.1.0 ; tell printer latest fw version
M83  ; extruder relative mode
M104 S205 ; set extruder temp
M140 S55 ; set bed temp
M190 S55 ; wait for bed temp
M109 S205 ; wait for extruder temp
G28 W ; home all without mesh bed level
G80 ; mesh bed leveling
G1 Y-3.0 F1000.0 ; go outside print area
G92 E0.0
G1 X60.0 E9.0  F1000.0 ; intro line
G1 X100.0 E12.5  F1000.0 ; intro line
G92 E0.0
M900 K30; Filament gcode
G21 ; set units to millimeters
G90 ; use absolute coordinates
M83 ; use relative distances for extrusion
;BEFORE_LAYER_CHANGE
;0.2


G1 E-0.80000 F2100.00000
G1 Z0.600 F7200.000
;AFTER_LAYER_CHANGE
;0.2
G1 X79.060 Y84.989
G1 Z0.200
G1 E0.80000 F2100.00000
M204 S1000
G1 F1800
G1 X79.313 Y84.403 E0.02000
G1 X79.814 Y83.736 E0.02616
G1 X81.686 Y81.669 E0.08745
G1 X82.782 Y80.624 E0.04748
G1 X95.991 Y69.663 E0.53817
G1 X96.551 Y69.320 E0.02060
G1 X97.476 Y69.123 E0.02966
G1 X115.504 Y69.123 E0.56523
G1 X116.084 Y69.196 E0.01835
G1 X116.633 Y69.410 E0.01846
G1 X117.112 Y69.753 E0.01846
G1 X117.490 Y70.199 E0.01835
G1 X125.717 Y84.454 E0.51604
G1 X125.978 Y85.150 E0.02331
G1 X126.027 Y119.175 E1.06685
G1 X125.939 Y119.811 E0.02012
G1 X125.721 Y120.338 E0.01787
G1 X117.547 Y134.708 E0.51837
G1 X117.155 Y135.207 E0.01989
G1 X116.645 Y135.583 E0.01989
G1 X116.105 Y135.799 E0.01823
G1 X115.525 Y135.877 E0.01835
G1 X97.489 Y135.877 E0.56552
G1 X96.860 Y135.789 E0.01989
G1 X96.401 Y135.608 E0.01550
G1 X95.989 Y135.335 E0.01550
G1 X82.787 Y124.181 E0.54190
G1 X80.703 Y122.095 E0.09242
G1 X79.452 Y120.602 E0.06110
G1 X79.113 Y119.966 E0.02260
G1 X78.979 Y119.185 E0.02484
G1 X78.973 Y85.625 E1.05223
G1 X79.052 Y85.049 E0.01824
G1 F5760
G1 X79.313 Y84.403 E-0.24106
G1 X79.814 Y83.736 E-0.28898
G1 X80.260 Y83.244 E-0.22996
G1 E-0.04000 F2100.00000
G1 Z0.800 F7200.000
G1 X116.227 Y116.127
G1 Z0.200
G1 E0.80000 F2100.00000
G1 F1800
G1 X117.040 Y115.583 E0.03068
G1 X117.985 Y115.395 E0.03019
G1 X118.957 Y115.581 E0.03103
G1 X119.773 Y116.127 E0.03080
G1 X120.317 Y116.940 E0.03068
G1 X120.508 Y117.900 E0.03069
G1 X120.317 Y118.860 E0.03069
G1 X119.773 Y119.673 E0.03068
G1 X118.960 Y120.217 E0.03068
G1 X118.000 Y120.408 E0.03068
G1 X117.040 Y120.217 E0.03069
G1 X116.227 Y119.673 E0.03068
G1 X115.683 Y118.860 E0.03068
G1 X115.492 Y117.900 E0.03069
G1 X115.683 Y116.940 E0.03069
G1 X116.193 Y116.176 E0.02880
G1 X116.498 Y116.398 F7200.000
G1 F1800
G1 X117.187 Y115.938 E0.02598
G1 X117.986 Y115.779 E0.02554
G1 X118.811 Y115.937 E0.02633
G1 X119.502 Y116.398 E0.02605
G1 X119.962 Y117.087 E0.02598
G1 X120.124 Y117.900 E0.02598
G1 X119.962 Y118.713 E0.02598
G1 X119.502 Y119.402 E0.02598
G1 X118.813 Y119.862 E0.02598
G1 X118.000 Y120.024 E0.02598
G1 X117.187 Y119.862 E0.02598
G1 X116.498 Y119.402 E0.02598
G1 X116.038 Y118.713 E0.02598
G1 X115.876 Y117.900 E0.02598
G1 X116.038 Y117.087 E0.02598
G1 X116.465 Y116.448 E0.02410
G1 X116.770 Y116.670 F7200.000
G1 F1800
G1 X117.334 Y116.293 E0.02127
G1 X117.988 Y116.163 E0.02088
G1 X118.665 Y116.293 E0.02162
G1 X119.230 Y116.670 E0.02130
G1 X119.607 Y117.234 E0.02127
G1 X119.739 Y117.900 E0.02128
G1 X119.607 Y118.566 E0.02128
G1 X119.230 Y119.130 E0.02127
G1 X118.666 Y119.507 E0.02127
G1 X118.000 Y119.639 E0.02128
G1 X117.334 Y119.507 E0.02128
G1 X116.770 Y119.130 E0.02127
G1 X116.393 Y118.566 E0.02127
G1 X116.261 Y117.900 E0.02128
G1 X116.393 Y117.234 E0.02128
G1 X116.737 Y116.720 E0.01939
G1 X116.667 Y116.284 F7200.000
G1 F5760
G1 X117.334 Y116.293 E-0.25434
G1 X117.988 Y116.163 E-0.23063
G1 X118.665 Y116.293 E-0.23884
G1 X118.752 Y116.351 E-0.03619
G1 E-0.04000 F2100.00000
G1 Z0.800 F7200.000
G1 X111.211 Y111.111
G1 Z0.200
G1 E0.80000 F2100.00000
G1 F1800
G1 X109.344 Y112.643 E0.07572
G1 X107.214 Y113.781 E0.07572
G1 X104.903 Y114.482 E0.07572
G1 X102.500 Y114.719 E0.07572
G1 X100.097 Y114.482 E0.07572
G1 X97.786 Y113.781 E0.07572
G1 X95.656 Y112.643 E0.07572
G1 X93.789 Y111.111 E0.07572
G1 X92.257 Y109.244 E0.07572
G1 X91.119 Y107.114 E0.07572
G1 X90.418 Y104.803 E0.07572
G1 X90.181 Y102.400 E0.07572
G1 X90.418 Y99.997 E0.07572
G1 X91.119 Y97.686 E0.07572
G1 X92.257 Y95.556 E0.07572
G1 X93.789 Y93.689 E0.07572
G1 X95.656 Y92.157 E0.07572
G1 X97.786 Y91.019 E0.07572
G1 X100.097 Y90.318 E0.07572
G1 X102.472 Y90.084 E0.07484
G1 X104.902 Y90.318 E0.07654
G1 X107.214 Y91.019 E0.07575
G1 X109.344 Y92.157 E0.07572
G1 X111.211 Y93.689 E0.07572
G1 X112.743 Y95.556 E0.07572
G1 X113.881 Y97.686 E0.07572
G1 X114.582 Y99.997 E0.07572
G1 X114.819 Y102.400 E0.07572
G1 X114.582 Y104.803 E0.07572
G1 X113.881 Y107.114 E0.07572
G1 X112.743 Y109.244 E0.07572
G1 X111.249 Y111.064 E0.07384
G1 X110.957 Y110.825 F7200.000
G1 F1800
G1 X109.133 Y112.328 E0.07409
G1 X107.069 Y113.431 E0.07339
G1 X104.829 Y114.110 E0.07339
G1 X102.500 Y114.340 E0.07339
G1 X100.171 Y114.110 E0.07339
G1 X97.931 Y113.431 E0.07339
G1 X95.867 Y112.328 E0.07339
G1 X94.057 Y110.843 E0.07339
G1 X92.572 Y109.033 E0.07339
G1 X91.469 Y106.969 E0.07339
G1 X90.790 Y104.729 E0.07339
G1 X90.560 Y102.400 E0.07339
G1 X90.790 Y100.071 E0.07339
G1 X91.469 Y97.831 E0.07339
G1 X92.572 Y95.767 E0.07339
G1 X94.057 Y93.957 E0.07339
G1 X95.867 Y92.472 E0.07339
G1 X97.931 Y91.369 E0.07339
G1 X100.171 Y90.690 E0.07339
G1 X102.473 Y90.463 E0.07253
G1 X104.829 Y90.689 E0.07421
G1 X107.069 Y91.369 E0.07341
G1 X109.133 Y92.472 E0.07339
G1 X110.943 Y93.957 E0.07339
G1 X112.428 Y95.767 E0.07339
G1 X113.531 Y97.831 E0.07339
G1 X114.210 Y100.071 E0.07339
G1 X114.440 Y102.400 E0.07339
G1 X114.210 Y104.729 E0.07339
G1 X113.531 Y106.969 E0.07339
G1 X112.428 Y109.033 E0.07339
G1 X110.995 Y110.779 E0.07079
G1 X110.704 Y110.540 F7200.000
G1 F1800
G1 X108.923 Y112.013 E0.07247
G1 X106.924 Y113.081 E0.07106
G1 X104.755 Y113.739 E0.07106
G1 X102.500 Y113.961 E0.07106
G1 X100.245 Y113.739 E0.07106
G1 X98.076 Y113.081 E0.07106
G1 X96.077 Y112.013 E0.07106
G1 X94.325 Y110.575 E0.07106
G1 X92.887 Y108.823 E0.07106
G1 X91.819 Y106.824 E0.07106
G1 X91.161 Y104.655 E0.07106
G1 X90.939 Y102.400 E0.07106
G1 X91.161 Y100.145 E0.07106
G1 X91.819 Y97.976 E0.07106
G1 X92.887 Y95.977 E0.07106
G1 X94.325 Y94.225 E0.07106
G1 X96.077 Y92.787 E0.07106
G1 X98.076 Y91.719 E0.07106
G1 X100.245 Y91.061 E0.07106
G1 X102.473 Y90.842 E0.07021
G1 X104.755 Y91.061 E0.07188
G1 X106.924 Y91.719 E0.07107
G1 X108.923 Y92.787 E0.07106
G1 X110.675 Y94.225 E0.07106
G1 X112.113 Y95.977 E0.07106
G1 X113.181 Y97.976 E0.07106
G1 X113.839 Y100.145 E0.07106
G1 X114.061 Y102.400 E0.07106
G1 X113.839 Y104.655 E0.07106
G1 X113.181 Y106.824 E0.07106
G1 X112.113 Y108.823 E0.07106
G1 X110.742 Y110.493 E0.06775
G1 X110.809 Y110.926 F7200.000
G1 F5760
G1 X109.058 Y111.900 E-0.76000
G1 E-0.04000 F2100.00000
G1 Z0.800 F7200.000
G1 X88.773 Y88.673
G1 Z0.200
G1 E0.80000 F2100.00000
G1 F1800
G1 X87.960 Y89.217 E0.03068
G1 X87.000 Y89.408 E0.03068
G1 X86.040 Y89.217 E0.03069
G1 X85.227 Y88.673 E0.03068
G1 X84.683 Y87.860 E0.03068
G1 X84.492 Y86.900 E0.03068
G1 X84.683 Y85.940 E0.03068
G1 X85.227 Y85.127 E0.03068
G1 X86.040 Y84.583 E0.03068
G1 X87.000 Y84.392 E0.03069
G1 X87.960 Y84.583 E0.03068
G1 X88.773 Y85.127 E0.03068
G1 X89.317 Y85.940 E0.03068
G1 X89.508 Y86.900 E0.03069
G1 X89.317 Y87.860 E0.03069
G1 X88.807 Y88.624 E0.02880
G1 X88.502 Y88.402 F7200.000
G1 F1800
G1 X87.813 Y88.862 E0.02598
G1 X87.000 Y89.024 E0.02598
G1 X86.187 Y88.862 E0.02598
G1 X85.498 Y88.402 E0.02598
G1 X85.038 Y87.713 E0.02598
G1 X84.876 Y86.900 E0.02598
G1 X85.038 Y86.087 E0.02598
G1 X85.498 Y85.398 E0.02598
G1 X86.187 Y84.938 E0.02598
G1 X87.000 Y84.776 E0.02598
G1 X87.813 Y84.938 E0.02598
G1 X88.502 Y85.398 E0.02598
G1 X88.962 Y86.087 E0.02598
G1 X89.124 Y86.900 E0.02598
G1 X88.962 Y87.713 E0.02598
G1 X88.535 Y88.352 E0.02410
G1 X88.230 Y88.130 F7200.000
G1 F1800
G1 X87.666 Y88.507 E0.02127
G1 X87.000 Y88.639 E0.02128
G1 X86.334 Y88.507 E0.02128
G1 X85.770 Y88.130 E0.02127
G1 X85.393 Y87.566 E0.02127
G1 X85.261 Y86.900 E0.02128
G1 X85.393 Y86.234 E0.02128
G1 X85.770 Y85.670 E0.02127
G1 X86.334 Y85.293 E0.02127
G1 X87.000 Y85.161 E0.02128
G1 X87.666 Y85.293 E0.02128
G1 X88.230 Y85.670 E0.02127
G1 X88.607 Y86.234 E0.02128
G1 X88.739 Y86.900 E0.02128
G1 X88.607 Y87.566 E0.02128
G1 X88.263 Y88.080 E0.01939
G1 X88.333 Y88.516 F7200.000
G1 F5760
G1 X87.666 Y88.507 E-0.25433
G1 X87.000 Y88.639 E-0.23503
G1 X86.334 Y88.507 E-0.23504
G1 X86.249 Y88.450 E-0.03560
G1 E-0.04000 F2100.00000
G1 Z0.800 F7200.000
G1 X115.492 Y86.900
G1 Z0.200
G1 E0.80000 F2100.00000
G1 F1800
G1 X115.683 Y85.940 E0.03069
G1 X116.227 Y85.127 E0.03068
G1 X117.040 Y84.583 E0.03068
G1 X118.000 Y84.392 E0.03069
G1 X118.960 Y84.583 E0.03068
G1 X119.773 Y85.127 E0.03068
G1 X120.317 Y85.940 E0.03068
G1 X120.508 Y86.900 E0.03069
G1 X120.317 Y87.860 E0.03069
G1 X119.773 Y88.673 E0.03068
G1 X118.960 Y89.217 E0.03068
G1 X118.000 Y89.408 E0.03068
G1 X117.040 Y89.217 E0.03069
G1 X116.227 Y88.673 E0.03068
G1 X115.683 Y87.860 E0.03068
G1 X115.504 Y86.959 E0.02880
G1 X115.876 Y86.900 F7200.000
G1 F1800
G1 X116.038 Y86.087 E0.02598
G1 X116.498 Y85.398 E0.02598
G1 X117.187 Y84.938 E0.02598
G1 X118.000 Y84.776 E0.02598
G1 X118.813 Y84.938 E0.02598
G1 X119.502 Y85.398 E0.02598
G1 X119.962 Y86.087 E0.02598
G1 X120.124 Y86.900 E0.02598
G1 X119.962 Y87.713 E0.02598
G1 X119.502 Y88.402 E0.02598
G1 X118.813 Y88.862 E0.02598
G1 X118.000 Y89.024 E0.02598
G1 X117.187 Y88.862 E0.02598
G1 X116.498 Y88.402 E0.02598
G1 X116.038 Y87.713 E0.02598
G1 X115.888 Y86.959 E0.02410
G1 X116.261 Y86.900 F7200.000
G1 F1800
G1 X116.393 Y86.234 E0.02128
G1 X116.770 Y85.670 E0.02127
G1 X117.334 Y85.293 E0.02127
G1 X118.000 Y85.161 E0.02128
G1 X118.666 Y85.293 E0.02128
G1 X119.230 Y85.670 E0.02127
G1 X119.607 Y86.234 E0.02127
G1 X119.739 Y86.900 E0.02128
G1 X119.607 Y87.566 E0.02128
G1 X119.230 Y88.130 E0.02127
G1 X118.666 Y88.507 E0.02127
G1 X118.000 Y88.639 E0.02128
G1 X117.334 Y88.507 E0.02128
G1 X116.770 Y88.130 E0.02127
G1 X116.393 Y87.566 E0.02127
G1 X116.273 Y86.959 E0.01940
G1 X115.914 Y86.700 F7200.000
G1 F5760
G1 X116.393 Y86.234 E-0.25436
G1 X116.770 Y85.670 E-0.23501
G1 X117.334 Y85.293 E-0.23501
G1 X117.435 Y85.273 E-0.03562
G1 E-0.04000 F2100.00000
G1 Z0.800 F7200.000
G1 X88.773 Y116.127
G1 Z0.200
G1 E0.80000 F2100.00000
G1 F1800
G1 X89.317 Y116.940 E0.03068
G1 X89.508 Y117.900 E0.03069
G1 X89.317 Y118.860 E0.03069
G1 X88.773 Y119.673 E0.03068
G1 X87.960 Y120.217 E0.03068
G1 X87.000 Y120.408 E0.03068
G1 X86.040 Y120.217 E0.03069
G1 X85.227 Y119.673 E0.03068
G1 X84.683 Y118.860 E0.03068
G1 X84.492 Y117.900 E0.03068
G1 X84.683 Y116.940 E0.03068
G1 X85.227 Y116.127 E0.03068
G1 X86.040 Y115.583 E0.03068
G1 X87.000 Y115.392 E0.03069
G1 X87.960 Y115.583 E0.03068
G1 X88.723 Y116.093 E0.02880
G1 X88.502 Y116.398 F7200.000
G1 F1800
G1 X88.962 Y117.087 E0.02598
G1 X89.124 Y117.900 E0.02598
G1 X88.962 Y118.713 E0.02598
G1 X88.502 Y119.402 E0.02598
G1 X87.813 Y119.862 E0.02598
G1 X87.000 Y120.024 E0.02598
G1 X86.187 Y119.862 E0.02598
G1 X85.498 Y119.402 E0.02598
G1 X85.038 Y118.713 E0.02598
G1 X84.876 Y117.900 E0.02598
G1 X85.038 Y117.087 E0.02598
G1 X85.498 Y116.398 E0.02598
G1 X86.187 Y115.938 E0.02598
G1 X87.000 Y115.776 E0.02598
G1 X87.813 Y115.938 E0.02598
G1 X88.452 Y116.365 E0.02410
G1 X88.230 Y116.670 F7200.000
G1 F1800
G1 X88.607 Y117.234 E0.02128
G1 X88.739 Y117.900 E0.02128
G1 X88.607 Y118.566 E0.02128
G1 X88.230 Y119.130 E0.02128
G1 X87.666 Y119.507 E0.02127
G1 X87.000 Y119.639 E0.02128
G1 X86.334 Y119.507 E0.02128
G1 X85.770 Y119.130 E0.02127
G1 X85.393 Y118.566 E0.02127
G1 X85.261 Y117.900 E0.02128
G1 X85.393 Y117.234 E0.02128
G1 X85.770 Y116.670 E0.02127
G1 X86.334 Y116.293 E0.02127
G1 X87.000 Y116.161 E0.02128
G1 X87.666 Y116.293 E0.02128
G1 X88.180 Y116.637 E0.01939
G1 X88.616 Y116.567 F7200.000
G1 F5760
G1 X88.607 Y117.234 E-0.25434
G1 X88.739 Y117.900 E-0.23503
G1 X88.607 Y118.566 E-0.23503
G1 X88.550 Y118.651 E-0.03559
G1 E-0.04000 F2100.00000
G1 Z0.800 F7200.000
G1 X114.536 Y82.214
G1 Z0.200
G1 E0.80000 F2100.00000
G1 F1800
G1 X118.940 Y82.214 E0.13808
G1 X119.984 Y83.109 E0.04313
G1 X120.910 Y83.990 E0.04007
G1 X121.791 Y84.916 E0.04007
G1 X122.686 Y85.960 E0.04313
G1 X122.686 Y118.840 E1.03092
G1 X121.791 Y119.884 E0.04313
G1 X120.910 Y120.810 E0.04007
G1 X119.984 Y121.691 E0.04007
G1 X118.940 Y122.586 E0.04313
G1 X114.536 Y122.586 E0.13808
G1 X114.536 Y132.536 E0.31198
G1 X98.464 Y132.536 E0.50392
G1 X98.464 Y122.586 E0.31198
G1 X86.060 Y122.586 E0.38892
G1 X85.016 Y121.691 E0.04313
G1 X84.090 Y120.810 E0.04007
G1 X83.209 Y119.884 E0.04007
G1 X82.314 Y118.840 E0.04313
G1 X82.314 Y85.960 E1.03092
G1 X83.209 Y84.916 E0.04313
G1 X84.090 Y83.990 E0.04007
G1 X85.016 Y83.109 E0.04007
G1 X86.060 Y82.214 E0.04313
G1 X98.464 Y82.214 E0.38892
G1 X98.464 Y72.464 E0.30570
G1 X114.536 Y72.464 E0.50392
G1 X114.536 Y82.154 E0.30382
G1 X114.913 Y81.837 F7200.000
G1 F1800
G1 X119.070 Y81.837 E0.13033
G1 X120.238 Y82.829 E0.04806
G1 X121.177 Y83.723 E0.04065
G1 X122.071 Y84.662 E0.04065
G1 X123.063 Y85.830 E0.04806
G1 X123.063 Y118.970 E1.03905
G1 X122.071 Y120.138 E0.04806
G1 X121.177 Y121.077 E0.04065
G1 X120.238 Y121.971 E0.04065
G1 X119.070 Y122.963 E0.04806
G1 X114.913 Y122.963 E0.13033
G1 X114.913 Y132.913 E0.31198
G1 X98.087 Y132.913 E0.52756
G1 X98.087 Y122.963 E0.31198
G1 X85.930 Y122.963 E0.38116
G1 X84.762 Y121.971 E0.04806
G1 X83.823 Y121.077 E0.04065
G1 X82.929 Y120.138 E0.04065
G1 X81.937 Y118.970 E0.04806
G1 X81.937 Y85.830 E1.03905
G1 X82.929 Y84.662 E0.04806
G1 X83.823 Y83.723 E0.04065
G1 X84.762 Y82.829 E0.04065
G1 X85.930 Y81.837 E0.04806
G1 X98.087 Y81.837 E0.38116
G1 X98.087 Y72.087 E0.30570
G1 X114.913 Y72.087 E0.52756
G1 X114.913 Y81.777 E0.30382
G1 X115.290 Y81.460 F7200.000
G1 F1800
G1 X119.199 Y81.460 E0.12257
G1 X119.495 Y81.691 E0.01178
G1 X120.491 Y82.550 E0.04123
G1 X121.443 Y83.457 E0.04123
G1 X122.350 Y84.409 E0.04123
G1 X123.209 Y85.405 E0.04123
G1 X123.440 Y85.701 E0.01178
G1 X123.440 Y119.099 E1.04719
G1 X123.209 Y119.395 E0.01178
G1 X122.350 Y120.391 E0.04123
G1 X121.443 Y121.343 E0.04123
G1 X120.491 Y122.250 E0.04123
G1 X119.495 Y123.109 E0.04123
G1 X119.199 Y123.340 E0.01178
G1 X115.290 Y123.340 E0.12257
G1 X115.290 Y133.290 E0.31198
G1 X97.710 Y133.290 E0.55121
G1 X97.710 Y123.340 E0.31198
G1 X85.801 Y123.340 E0.37341
G1 X85.505 Y123.109 E0.01178
G1 X84.509 Y122.250 E0.04123
G1 X83.557 Y121.343 E0.04123
G1 X82.650 Y120.391 E0.04123
G1 X81.791 Y119.395 E0.04123
G1 X81.560 Y119.099 E0.01178
G1 X81.560 Y85.701 E1.04719
G1 X81.791 Y85.405 E0.01178
G1 X82.650 Y84.409 E0.04123
G1 X83.557 Y83.457 E0.04123
G1 X84.509 Y82.550 E0.04123
G1 X85.505 Y81.691 E0.04123
G1 X85.801 Y81.460 E0.01178
G1 X97.710 Y81.460 E0.37341
G1 X97.710 Y71.710 E0.30570
G1 X115.290 Y71.710 E0.55121
G1 X115.290 Y81.400 E0.30382
G1 X115.429 Y81.835 F7200.000
G1 F5760
G1 X117.484 Y81.434 E-0.76000
G1 E-0.04000 F2100.00000
G1 Z0.800 F7200.000
G1 X114.423 Y73.340
G1 Z0.200
G1 E0.80000 F2100.00000
G1 F1800
G1 X113.829 Y72.747 E0.02634
G1 X113.296 Y72.747 E0.01675
G1 X114.253 Y73.704 E0.04250
G1 X114.253 Y74.238 E0.01675
G1 X112.762 Y72.747 E0.06619
G1 X112.228 Y72.747 E0.01675
G1 X114.253 Y74.772 E0.08989
G1 X114.253 Y75.306 E0.01675
G1 X111.694 Y72.747 E0.11358
G1 X111.160 Y72.747 E0.01675
G1 X114.253 Y75.840 E0.13728
G1 X114.253 Y76.373 E0.01675
G1 X110.627 Y72.747 E0.16097
G1 X110.093 Y72.747 E0.01675
G1 X114.253 Y76.907 E0.18466
G1 X114.253 Y77.441 E0.01675
G1 X109.559 Y72.747 E0.20836
G1 X109.025 Y72.747 E0.01675
G1 X114.253 Y77.975 E0.23205
G1 X114.253 Y78.509 E0.01675
G1 X108.491 Y72.747 E0.25574
G1 X107.957 Y72.747 E0.01675
G1 X114.253 Y79.043 E0.27944
G1 X114.253 Y79.576 E0.01675
G1 X107.424 Y72.747 E0.30313
G1 X106.890 Y72.747 E0.01675
G1 X114.253 Y80.110 E0.32683
G1 X114.253 Y80.644 E0.01675
G1 X106.356 Y72.747 E0.35052
G1 X105.822 Y72.747 E0.01675
