; generated by Slic3r Prusa Edition 1.39.2+win64 on 2018-05-29 at 11:19:05

; 

; external perimeters extrusion width = 0.45mm
; perimeters extrusion width = 0.45mm
; infill extrusion width = 0.45mm
; solid infill extrusion width = 0.45mm
; top infill extrusion width = 0.45mm
; first layer extrusion width = 0.42mm

M107
M115 U3.1.0 ; tell printer latest fw version
M83  ; extruder relative mode
M104 S205 ; set extruder temp
M140 S55 ; set bed temp
M190 S55 ; wait for bed temp
M109 S205 ; wait for extruder temp
G28 W ; home all without mesh bed level
G80 ; mesh bed leveling
G1 Y-3.0 F1000.0 ; go outside print area
G92 E0.0
G1 X60.0 E9.0  F1000.0 ; intro line
G1 X100.0 E12.5  F1000.0 ; intro line
G92 E0.0
M900 K30; Filament gcode
G21 ; set units to millimeters
G90 ; use absolute coordinates
M83 ; use relative distances for extrusion
;BEFORE_LAYER_CHANGE
;0.2


G1 E-0.80000 F2100.00000
G1 Z0.600 F7200.000
;AFTER_LAYER_CHANGE
;0.2
G1 X100.694 Y70.936
G1 Z0.200
G1 E0.80000 F2100.00000
M204 S1000
G1 F1800
G1 X102.503 Y70.623 E0.05756
G1 X104.029 Y70.859 E0.04842
G1 X104.623 Y71.070 E0.01977
G1 X105.973 Y71.843 E0.04879
G1 X107.207 Y73.034 E0.05376
G1 X108.394 Y74.860 E0.06829
G1 X109.087 Y76.505 E0.05595
G1 X109.608 Y78.536 E0.06576
G1 X109.842 Y80.426 E0.05973
G1 X109.877 Y81.984 E0.04883
G1 X109.877 Y122.000 E1.25469
G1 X109.845 Y124.538 E0.07957
G1 X109.590 Y126.576 E0.06440
G1 X109.075 Y128.531 E0.06339
G1 X108.258 Y130.403 E0.06406
G1 X107.256 Y131.909 E0.05670
G1 X105.885 Y133.221 E0.05950
G1 X104.310 Y134.063 E0.05600
G1 X102.501 Y134.377 E0.05756
G1 X100.971 Y134.141 E0.04854
G1 X100.377 Y133.930 E0.01977
G1 X99.027 Y133.157 E0.04879
G1 X97.793 Y131.966 E0.05376
G1 X96.606 Y130.140 E0.06829
G1 X95.913 Y128.495 E0.05595
G1 X95.391 Y126.460 E0.06587
G1 X95.155 Y124.532 E0.06092
G1 X95.123 Y122.016 E0.07889
G1 X95.123 Y82.000 E1.25467
G1 X95.158 Y80.416 E0.04967
G1 X95.424 Y78.357 E0.06510
G1 X95.930 Y76.455 E0.06172
G1 X96.790 Y74.519 E0.06642
G1 X97.751 Y73.082 E0.05420
G1 X99.128 Y71.771 E0.05962
G1 X100.641 Y70.964 E0.05376
G1 F5760
G1 X102.503 Y70.623 E-0.65565
G1 X102.800 Y70.669 E-0.10435
G1 E-0.04000 F2100.00000
G1 Z0.800 F7200.000
G1 X101.341 Y125.094
G1 Z0.200
G1 E0.80000 F2100.00000
G1 F1800
G1 X103.659 Y125.094 E0.07265
G1 X105.103 Y126.906 E0.07265
G1 X104.588 Y129.165 E0.07265
G1 X102.500 Y130.170 E0.07265
G1 X100.412 Y129.165 E0.07265
G1 X99.897 Y126.906 E0.07265
G1 X101.304 Y125.141 E0.07077
G1 X101.523 Y125.471 F7200.000
G1 F1800
G1 X103.477 Y125.471 E0.06126
G1 X104.695 Y126.999 E0.06127
G1 X104.260 Y128.904 E0.06126
G1 X102.500 Y129.752 E0.06126
G1 X100.740 Y128.904 E0.06126
G1 X100.305 Y126.999 E0.06126
G1 X101.486 Y125.518 E0.05938
G1 X101.705 Y125.848 F7200.000
G1 F1800
G1 X103.295 Y125.848 E0.04987
G1 X104.287 Y127.092 E0.04988
G1 X103.933 Y128.643 E0.04987
G1 X102.500 Y129.333 E0.04987
G1 X101.067 Y128.643 E0.04987
G1 X100.713 Y127.092 E0.04987
G1 X101.667 Y125.895 E0.04800
G1 X101.735 Y125.450 F7200.000
G1 F5760
G1 X103.295 Y125.848 E-0.56412
G1 X103.648 Y126.291 E-0.19588
G1 E-0.04000 F2100.00000
G1 Z0.800 F7200.000
G1 X103.659 Y79.906
G1 Z0.200
G1 E0.80000 F2100.00000
G1 F1800
G1 X101.341 Y79.906 E0.07265
G1 X99.897 Y78.094 E0.07265
G1 X100.412 Y75.835 E0.07265
G1 X102.500 Y74.830 E0.07265
G1 X104.588 Y75.835 E0.07265
G1 X105.103 Y78.094 E0.07265
G1 X103.696 Y79.859 E0.07077
G1 X103.477 Y79.529 F7200.000
G1 F1800
G1 X101.523 Y79.529 E0.06126
G1 X100.305 Y78.001 E0.06126
G1 X100.740 Y76.096 E0.06126
G1 X102.500 Y75.248 E0.06126
G1 X104.260 Y76.096 E0.06126
G1 X104.695 Y78.001 E0.06126
G1 X103.514 Y79.482 E0.05938
G1 X103.295 Y79.152 F7200.000
G1 F1800
G1 X101.705 Y79.152 E0.04987
G1 X100.713 Y77.908 E0.04988
G1 X101.067 Y76.357 E0.04987
G1 X102.500 Y75.667 E0.04987
G1 X103.933 Y76.357 E0.04987
G1 X104.287 Y77.908 E0.04987
G1 X103.333 Y79.105 E0.04800
G1 X103.265 Y79.550 F7200.000
G1 F5760
G1 X101.705 Y79.152 E-0.56412
G1 X101.352 Y78.709 E-0.19588
G1 E-0.04000 F2100.00000
G1 Z0.800 F7200.000
G1 X106.304 Y121.036
G1 Z0.200
G1 E0.80000 F2100.00000
G1 F1800
G1 X106.508 Y122.672 E0.05169
G1 X106.508 Y124.328 E0.05195
G1 X106.306 Y125.944 E0.05104
G1 X105.915 Y127.437 E0.04839
G1 X105.362 Y128.731 E0.04413
G1 X104.689 Y129.762 E0.03860
G1 X103.952 Y130.485 E0.03236
G1 X103.213 Y130.893 E0.02648
G1 X102.500 Y131.021 E0.02271
G1 X101.787 Y130.893 E0.02271
G1 X101.048 Y130.485 E0.02648
G1 X100.311 Y129.762 E0.03236
G1 X99.638 Y128.731 E0.03860
G1 X99.085 Y127.437 E0.04413
G1 X98.694 Y125.944 E0.04839
G1 X98.492 Y124.328 E0.05104
G1 X98.492 Y122.672 E0.05195
G1 X98.696 Y121.036 E0.05169
G1 X98.464 Y121.036 E0.00728
G1 X98.464 Y82.964 E1.19371
G1 X98.492 Y82.964 E0.00086
G1 X98.492 Y80.672 E0.07188
G1 X98.694 Y79.056 E0.05104
G1 X99.085 Y77.563 E0.04839
G1 X99.638 Y76.269 E0.04413
G1 X100.311 Y75.238 E0.03860
G1 X101.048 Y74.515 E0.03236
G1 X101.787 Y74.107 E0.02648
G1 X102.500 Y73.979 E0.02271
G1 X103.213 Y74.107 E0.02271
G1 X103.952 Y74.515 E0.02648
G1 X104.689 Y75.238 E0.03236
G1 X105.362 Y76.269 E0.03860
G1 X105.915 Y77.563 E0.04413
G1 X106.306 Y79.056 E0.04839
G1 X106.508 Y80.672 E0.05104
G1 X106.508 Y82.964 E0.07188
G1 X106.536 Y82.964 E0.00086
G1 X106.536 Y121.036 E1.19371
G1 X106.364 Y121.036 E0.00539
G1 F5760
G1 X106.508 Y122.672 E-0.56875
G1 X106.508 Y123.224 E-0.19125
G1 E-0.04000 F2100.00000
G1 Z0.800 F7200.000
G1 X102.500 Y131.404
G1 Z0.200
G1 E0.80000 F2100.00000
G1 F1800
G1 X101.659 Y131.253 E0.02678
G1 X100.820 Y130.790 E0.03005
G1 X100.018 Y130.002 E0.03526
G1 X99.304 Y128.910 E0.04092
G1 X98.727 Y127.559 E0.04604
G1 X98.322 Y126.015 E0.05004
G1 X98.114 Y124.352 E0.05256
G1 X98.114 Y122.648 E0.05342
G1 X98.269 Y121.413 E0.03903
G1 X98.087 Y121.413 E0.00570
G1 X98.087 Y82.587 E1.21736
G1 X98.114 Y82.587 E0.00086
G1 X98.114 Y80.648 E0.06080
G1 X98.322 Y78.985 E0.05256
G1 X98.727 Y77.441 E0.05004
G1 X99.304 Y76.090 E0.04604
G1 X100.018 Y74.998 E0.04092
G1 X100.820 Y74.210 E0.03526
G1 X101.659 Y73.747 E0.03005
G1 X102.500 Y73.596 E0.02678
G1 X103.341 Y73.747 E0.02678
G1 X104.180 Y74.210 E0.03005
G1 X104.982 Y74.998 E0.03526
G1 X105.696 Y76.090 E0.04092
G1 X106.273 Y77.441 E0.04604
G1 X106.678 Y78.985 E0.05004
G1 X106.886 Y80.648 E0.05256
G1 X106.886 Y82.587 E0.06080
G1 X106.913 Y82.587 E0.00086
G1 X106.913 Y121.413 E1.21736
G1 X106.731 Y121.413 E0.00570
G1 X106.886 Y122.648 E0.03903
G1 X106.886 Y124.352 E0.05342
G1 X106.678 Y126.015 E0.05256
G1 X106.273 Y127.559 E0.05004
G1 X105.696 Y128.910 E0.04604
G1 X104.982 Y130.002 E0.04092
G1 X104.180 Y130.790 E0.03526
G1 X103.341 Y131.253 E0.03005
G1 X102.559 Y131.393 E0.02490
G1 X102.500 Y131.787 F7200.000
G1 F1800
G1 X101.532 Y131.614 E0.03085
G1 X100.593 Y131.095 E0.03362
G1 X99.724 Y130.243 E0.03816
G1 X98.970 Y129.088 E0.04324
G1 X98.369 Y127.682 E0.04795
G1 X97.951 Y126.087 E0.05170
G1 X97.737 Y124.375 E0.05408
G1 X97.737 Y122.625 E0.05490
G1 X97.842 Y121.790 E0.02637
G1 X97.710 Y121.790 E0.00413
G1 X97.710 Y82.210 E1.24100
G1 X97.737 Y82.210 E0.00086
G1 X97.737 Y80.625 E0.04971
G1 X97.951 Y78.913 E0.05408
G1 X98.369 Y77.318 E0.05170
G1 X98.970 Y75.912 E0.04795
G1 X99.724 Y74.757 E0.04324
G1 X100.593 Y73.905 E0.03816
G1 X101.532 Y73.386 E0.03362
G1 X102.500 Y73.213 E0.03085
G1 X103.468 Y73.386 E0.03085
G1 X104.407 Y73.905 E0.03362
G1 X105.276 Y74.757 E0.03816
G1 X106.030 Y75.912 E0.04324
G1 X106.631 Y77.318 E0.04795
G1 X107.049 Y78.913 E0.05170
G1 X107.263 Y80.625 E0.05408
G1 X107.263 Y82.210 E0.04971
G1 X107.290 Y82.210 E0.00086
G1 X107.290 Y121.790 E1.24100
G1 X107.158 Y121.790 E0.00413
G1 X107.263 Y122.625 E0.02637
G1 X107.263 Y124.375 E0.05490
G1 X107.049 Y126.087 E0.05408
G1 X106.631 Y127.682 E0.05170
G1 X106.030 Y129.088 E0.04795
G1 X105.276 Y130.243 E0.04324
G1 X104.407 Y131.095 E0.03816
G1 X103.468 Y131.614 E0.03362
G1 X102.559 Y131.776 E0.02897
G1 X102.301 Y131.440 F7200.000
G1 F5760
G1 X101.532 Y131.614 E-0.36031
G1 X100.593 Y131.095 E-0.37139
G1 X100.535 Y131.038 E-0.02830
G1 E-0.04000 F2100.00000
G1 Z0.800 F7200.000
G1 X101.641 Y130.683
G1 Z0.200
G1 E0.80000 F2100.00000
G1 F1800
G1 X100.927 Y129.969 E0.03197
G1 X101.054 Y129.788 E0.00703
G1 X101.497 Y130.001 E0.01557
G1 X102.171 Y130.675 E0.03016
G1 X102.500 Y130.733 E0.01059
G1 X102.728 Y130.693 E0.00732
G1 X102.513 Y130.478 E0.00962
G1 X102.876 Y130.303 E0.01278
G1 X103.168 Y130.595 E0.01308
G1 X103.515 Y130.403 E0.01256
G1 X103.240 Y130.128 E0.01234
G1 X103.604 Y129.953 E0.01278
G1 X103.965 Y130.314 E0.01619
G1 X104.241 Y129.716 F7200.000
G1 F1800
G1 X104.708 Y129.388 E0.01288
G1 X104.788 Y129.228 F7200.000
G1 F1800
G1 X104.844 Y129.097 E0.00117
G1 X104.899 Y128.966 E0.00174
G1 X104.955 Y128.835 E0.00231
G1 X105.010 Y128.703 E0.00289
G1 X105.066 Y128.572 E0.00346
G1 X105.154 Y128.302 E0.00745
G1 X105.056 Y127.620 F7200.000
G1 F1800
G1 X105.388 Y127.952 E0.01481
G1 X105.549 Y127.576 E0.01293
G1 X105.298 Y127.325 E0.01121
G1 X105.398 Y126.887 E0.01417
G1 X105.829 Y127.319 E0.01929
G1 F5760
G1 X105.398 Y126.887 E-0.21152
G1 X105.298 Y127.325 E-0.15539
G1 X105.549 Y127.576 E-0.12290
G1 X105.388 Y127.952 E-0.14177
G1 X105.126 Y127.690 E-0.12842
G1 E-0.04000 F2100.00000
G1 Z0.800 F7200.000
G1 X100.759 Y129.716
G1 Z0.200
G1 E0.80000 F2100.00000
G1 F1800
G1 X100.292 Y129.388 E0.01288
G1 X100.212 Y129.228 F7200.000
G1 F1800
G1 X100.101 Y128.966 E0.00234
G1 X99.990 Y128.703 E0.00463
G1 X99.846 Y128.302 E0.01036
G1 X100.021 Y127.958 F7200.000
G1 F1800
G1 X99.333 Y127.270 E0.03072
G1 X99.143 Y126.542 E0.02377
G1 X99.636 Y127.036 E0.02206
G1 X99.591 Y126.836 E0.00647
G1 X99.761 Y126.623 E0.00861
G1 X98.964 Y125.826 E0.03560
G1 X98.887 Y125.212 E0.01955
G1 X99.999 Y126.324 E0.04968
G1 X100.237 Y126.025 E0.01208
G1 X98.810 Y124.598 E0.06376
G1 X98.774 Y124.311 E0.00914
G1 X98.774 Y124.025 E0.00903
G1 X100.476 Y125.726 E0.07601
G1 X100.714 Y125.427 E0.01208
G1 X98.774 Y123.488 E0.08665
G1 X98.774 Y122.950 E0.01697
G1 X100.952 Y125.128 E0.09730
G1 X101.191 Y124.830 E0.01208
G1 X98.805 Y122.444 E0.10658
G1 X98.865 Y121.966 E0.01520
G1 X101.710 Y124.811 E0.12710
G1 X102.247 Y124.811 E0.01697
G1 X98.925 Y121.489 E0.14843
G1 X98.984 Y121.011 E0.01520
G1 X102.784 Y124.811 E0.16976
G1 X103.322 Y124.811 E0.01697
G1 X98.747 Y120.237 E0.20436
G1 X98.747 Y119.699 E0.01697
G1 X105.802 Y126.754 E0.31516
G1 X105.913 Y126.329 E0.01390
G1 X98.747 Y119.162 E0.32014
G1 X98.747 Y118.625 E0.01697
G1 X106.025 Y125.903 E0.32512
G1 X106.086 Y125.427 E0.01516
G1 X98.747 Y118.088 E0.32786
G1 X98.747 Y117.551 E0.01697
G1 X106.146 Y124.949 E0.33052
G1 X106.206 Y124.472 E0.01520
G1 X98.747 Y117.013 E0.33319
G1 X98.747 Y116.476 E0.01697
G1 X106.226 Y123.955 E0.33409
G1 X106.226 Y123.417 E0.01697
G1 X98.747 Y115.939 E0.33409
G1 X98.747 Y115.402 E0.01697
G1 X106.226 Y122.880 E0.33409
G1 X106.226 Y122.689 E0.00604
G1 X106.176 Y122.293 E0.01260
G1 X98.747 Y114.864 E0.33188
G1 X98.747 Y114.327 E0.01697
G1 X106.099 Y121.679 E0.32845
G1 X106.023 Y121.065 E0.01955
G1 X98.747 Y113.790 E0.32501
G1 X98.747 Y113.253 E0.01697
G1 X106.247 Y120.753 E0.33506
G1 X106.253 Y120.221 E0.01679
G1 X98.747 Y112.715 E0.33531
G1 X98.747 Y112.178 E0.01697
G1 X106.253 Y119.684 E0.33531
G1 X106.253 Y119.147 E0.01697
G1 X98.747 Y111.641 E0.33531
G1 X98.747 Y111.104 E0.01697
G1 X106.253 Y118.610 E0.33531
G1 X106.253 Y118.072 E0.01697
G1 X98.747 Y110.566 E0.33531
G1 X98.747 Y110.029 E0.01697
G1 X106.253 Y117.535 E0.33531
G1 X106.253 Y116.998 E0.01697
G1 X98.747 Y109.492 E0.33531
G1 X98.747 Y108.955 E0.01697
G1 X106.253 Y116.461 E0.33531
G1 X106.253 Y115.923 E0.01697
G1 X98.747 Y108.417 E0.33531
G1 X98.747 Y107.880 E0.01697
G1 X106.253 Y115.386 E0.33531
G1 X106.253 Y114.849 E0.01697
G1 X98.747 Y107.343 E0.33531
G1 X98.747 Y106.806 E0.01697
G1 X106.253 Y114.312 E0.33531
G1 X106.253 Y113.774 E0.01697
G1 X98.747 Y106.268 E0.33531
G1 X98.747 Y105.731 E0.01697
G1 X106.253 Y113.237 E0.33531
G1 X106.253 Y112.700 E0.01697
G1 X98.747 Y105.194 E0.33531
G1 X98.747 Y104.657 E0.01697
G1 X106.253 Y112.163 E0.33531
G1 X106.253 Y111.626 E0.01697
G1 X98.747 Y104.119 E0.33531
G1 X98.747 Y103.582 E0.01697
G1 X106.253 Y111.088 E0.33531
G1 X106.253 Y110.551 E0.01697
G1 X98.747 Y103.045 E0.33531
G1 X98.747 Y102.508 E0.01697
G1 X106.253 Y110.014 E0.33531
G1 X106.253 Y109.477 E0.01697
G1 X98.747 Y101.970 E0.33531
G1 X98.747 Y101.433 E0.01697
G1 X106.253 Y108.939 E0.33531
G1 X106.253 Y108.402 E0.01697
G1 X98.747 Y100.896 E0.33531
G1 X98.747 Y100.359 E0.01697
G1 X106.253 Y107.865 E0.33531
G1 X106.253 Y107.328 E0.01697
G1 X98.747 Y99.821 E0.33531
G1 X98.747 Y99.284 E0.01697
G1 X106.253 Y106.790 E0.33531
G1 X106.253 Y106.253 E0.01697
G1 X98.747 Y98.747 E0.33531
G1 X98.747 Y98.210 E0.01697
G1 X106.253 Y105.716 E0.33531
G1 X106.253 Y105.179 E0.01697
G1 X98.747 Y97.672 E0.33531
G1 X98.747 Y97.135 E0.01697
G1 X106.253 Y104.641 E0.33531
G1 X106.253 Y104.104 E0.01697
G1 X98.747 Y96.598 E0.33531
G1 X98.747 Y96.061 E0.01697
G1 X106.253 Y103.567 E0.33531
G1 X106.253 Y103.030 E0.01697
G1 X98.747 Y95.523 E0.33531
G1 X98.747 Y94.986 E0.01697
G1 X106.253 Y102.492 E0.33531
G1 X106.253 Y101.955 E0.01697
G1 X98.747 Y94.449 E0.33531
G1 X98.747 Y93.912 E0.01697
G1 X106.253 Y101.418 E0.33531
G1 X106.253 Y100.881 E0.01697
G1 X98.747 Y93.375 E0.33531
G1 X98.747 Y92.837 E0.01697
G1 X106.253 Y100.343 E0.33531
G1 X106.253 Y99.806 E0.01697
G1 X98.747 Y92.300 E0.33531
G1 X98.747 Y91.763 E0.01697
G1 X106.253 Y99.269 E0.33531
G1 X106.253 Y98.732 E0.01697
G1 X98.747 Y91.226 E0.33531
G1 X98.747 Y90.688 E0.01697
G1 X106.253 Y98.194 E0.33531
G1 X106.253 Y97.657 E0.01697
G1 X98.747 Y90.151 E0.33531
G1 X98.747 Y89.614 E0.01697
G1 X106.253 Y97.120 E0.33531
G1 X106.253 Y96.583 E0.01697
G1 X98.747 Y89.077 E0.33531
G1 X98.747 Y88.539 E0.01697
G1 X106.253 Y96.045 E0.33531
G1 X106.253 Y95.508 E0.01697
G1 X98.747 Y88.002 E0.33531
G1 X98.747 Y87.465 E0.01697
G1 X106.253 Y94.971 E0.33531
G1 X106.253 Y94.434 E0.01697
G1 X98.747 Y86.928 E0.33531
G1 X98.747 Y86.390 E0.01697
G1 X106.253 Y93.896 E0.33531
G1 X106.253 Y93.359 E0.01697
G1 X98.747 Y85.853 E0.33531
G1 X98.747 Y85.316 E0.01697
G1 X106.253 Y92.822 E0.33531
G1 X106.253 Y92.285 E0.01697
G1 X98.747 Y84.779 E0.33531
G1 X98.747 Y84.241 E0.01697
G1 X106.253 Y91.747 E0.33531
G1 X106.253 Y91.210 E0.01697
G1 X98.747 Y83.704 E0.33531
G1 X98.747 Y83.247 E0.01444
G1 X98.774 Y83.247 E0.00087
G1 X98.774 Y83.194 E0.00166
G1 X106.253 Y90.673 E0.33409
G1 X106.253 Y90.136 E0.01697
G1 X98.774 Y82.657 E0.33409
G1 X98.774 Y82.120 E0.01697
G1 X106.253 Y89.599 E0.33409
G1 X106.253 Y89.061 E0.01697
G1 X98.774 Y81.583 E0.33409
G1 X98.774 Y81.045 E0.01697
G1 X106.253 Y88.524 E0.33409
G1 X106.253 Y87.987 E0.01697
G1 X98.794 Y80.528 E0.33319
G1 X98.854 Y80.051 E0.01520
G1 X106.253 Y87.450 E0.33052
G1 X106.253 Y86.912 E0.01697
G1 X98.914 Y79.573 E0.32786
G1 X98.975 Y79.097 E0.01516
G1 X106.253 Y86.375 E0.32512
G1 X106.253 Y85.838 E0.01697
G1 X99.087 Y78.671 E0.32014
G1 X99.198 Y78.246 E0.01390
G1 X106.423 Y85.470 E0.32274
G1 F5760
G1 X104.871 Y83.919 E-0.76000
G1 E-0.04000 F2100.00000
G1 Z0.800 F7200.000
G1 X101.678 Y80.189
G1 Z0.200
G1 E0.80000 F2100.00000
G1 F1800
G1 X106.253 Y84.763 E0.20436
G1 X106.253 Y84.226 E0.01697
G1 X102.216 Y80.189 E0.18036
G1 X102.753 Y80.189 E0.01697
G1 X106.253 Y83.689 E0.15636
G1 X106.253 Y83.247 E0.01396
G1 X106.226 Y83.247 E0.00087
G1 X106.226 Y83.124 E0.00388
G1 X103.290 Y80.189 E0.13114
G1 X103.795 Y80.189 E0.01594
G1 X103.809 Y80.170 E0.00073
G1 X106.226 Y82.587 E0.10795
G1 X106.226 Y82.050 E0.01697
G1 X104.047 Y79.872 E0.09730
G1 X104.286 Y79.573 E0.01208
G1 X106.226 Y81.512 E0.08665
G1 X106.226 Y80.975 E0.01697
G1 X104.524 Y79.274 E0.07601
G1 X104.763 Y78.975 E0.01208
G1 X106.190 Y80.402 E0.06376
G1 X106.113 Y79.788 E0.01955
G1 X105.001 Y78.676 E0.04968
G1 X105.239 Y78.377 E0.01208
G1 X106.036 Y79.174 E0.03560
G1 X105.858 Y78.458 E0.02331
G1 X105.364 Y77.964 E0.02206
G1 X105.205 Y77.268 E0.02256
G1 X105.905 Y77.968 E0.03126
G1 F5760
G1 X105.205 Y77.268 E-0.34278
G1 X105.364 Y77.964 E-0.24732
G1 X105.710 Y78.311 E-0.16989
G1 E-0.04000 F2100.00000
G1 Z0.800 F7200.000
G1 X105.154 Y76.698
G1 Z0.200
G1 E0.80000 F2100.00000
G1 F1800
