; generated by Slic3r Prusa Edition 1.39.2+win64 on 2018-07-02 at 12:00:56

; 

; external perimeters extrusion width = 0.45mm
; perimeters extrusion width = 0.45mm
; infill extrusion width = 0.45mm
; solid infill extrusion width = 0.45mm
; top infill extrusion width = 0.45mm
; first layer extrusion width = 0.42mm

M107
M115 U3.1.0 ; tell printer latest fw version
M83  ; extruder relative mode
M104 S205 ; set extruder temp
M140 S55 ; set bed temp
M190 S55 ; wait for bed temp
M109 S205 ; wait for extruder temp
G28 W ; home all without mesh bed level
G80 ; mesh bed leveling
G1 Y-3.0 F1000.0 ; go outside print area
G92 E0.0
G1 X60.0 E9.0  F1000.0 ; intro line
G1 X100.0 E12.5  F1000.0 ; intro line
G92 E0.0
M900 K30; Filament gcode
G21 ; set units to millimeters
G90 ; use absolute coordinates
M83 ; use relative distances for extrusion
;BEFORE_LAYER_CHANGE
;0.2


G1 E-0.80000 F2100.00000
G1 Z0.600 F7200.000
;AFTER_LAYER_CHANGE
;0.2
G1 X68.962 Y84.297
G1 Z0.200
G1 E0.80000 F2100.00000
M204 S1000
G1 F1800
G1 X69.747 Y84.163 E0.02496
G1 X139.754 Y84.163 E2.19502
G1 X140.599 Y84.320 E0.02696
G1 X141.334 Y84.767 E0.02696
G1 X141.861 Y85.446 E0.02696
G1 X142.112 Y86.269 E0.02696
G1 X142.112 Y93.810 E0.23644
G1 X141.998 Y94.314 E0.01621
G1 X141.775 Y94.785 E0.01633
G1 X141.455 Y95.196 E0.01633
G1 X141.054 Y95.527 E0.01633
G1 X133.904 Y99.717 E0.25981
G1 X85.020 Y120.072 E1.66030
G1 X81.519 Y120.824 E0.11227
G1 X78.006 Y120.826 E0.11015
G1 X74.550 Y120.096 E0.11074
G1 X71.523 Y118.764 E0.10371
G1 X68.650 Y116.738 E0.11020
G1 X68.283 Y116.408 E0.01550
G1 X66.079 Y113.936 E0.10383
G1 X64.261 Y110.725 E0.11570
G1 X63.242 Y107.550 E0.10455
G1 X62.885 Y104.281 E0.10311
G1 X63.226 Y100.611 E0.11557
G1 X67.508 Y85.750 E0.48491
G1 X67.738 Y85.274 E0.01657
G1 X68.070 Y84.858 E0.01668
G1 X68.486 Y84.526 E0.01668
G1 X68.908 Y84.323 E0.01469
G1 F5760
G1 X69.747 Y84.163 E-0.29577
G1 X71.087 Y84.163 E-0.46423
G1 E-0.04000 F2100.00000
G1 Z0.800 F7200.000
G1 X77.090 Y99.433
G1 Z0.200
G1 E0.80000 F2100.00000
G1 F1800
G1 X78.106 Y98.981 E0.03487
G1 X79.194 Y98.749 E0.03487
G1 X80.306 Y98.749 E0.03487
G1 X81.394 Y98.981 E0.03487
G1 X82.410 Y99.433 E0.03487
G1 X83.309 Y100.087 E0.03487
G1 X84.054 Y100.913 E0.03487
G1 X84.610 Y101.876 E0.03487
G1 X84.953 Y102.934 E0.03487
G1 X85.069 Y104.040 E0.03487
G1 X84.953 Y105.146 E0.03487
G1 X84.610 Y106.203 E0.03487
G1 X84.054 Y107.166 E0.03487
G1 X83.309 Y107.993 E0.03487
G1 X82.410 Y108.646 E0.03487
G1 X81.394 Y109.099 E0.03487
G1 X80.306 Y109.330 E0.03487
G1 X79.194 Y109.330 E0.03487
G1 X78.106 Y109.099 E0.03487
G1 X77.090 Y108.646 E0.03487
G1 X76.191 Y107.993 E0.03487
G1 X75.446 Y107.166 E0.03487
G1 X74.890 Y106.203 E0.03487
G1 X74.547 Y105.146 E0.03487
G1 X74.431 Y104.040 E0.03487
G1 X74.547 Y102.934 E0.03487
G1 X74.890 Y101.876 E0.03487
G1 X75.446 Y100.913 E0.03487
G1 X76.191 Y100.087 E0.03487
G1 X77.042 Y99.468 E0.03299
G1 X77.263 Y99.773 F7200.000
G1 F1800
G1 X78.223 Y99.341 E0.03301
G1 X79.234 Y99.126 E0.03238
G1 X80.266 Y99.126 E0.03238
G1 X81.277 Y99.341 E0.03238
G1 X82.220 Y99.761 E0.03238
G1 X83.056 Y100.368 E0.03238
G1 X83.747 Y101.136 E0.03238
G1 X84.263 Y102.030 E0.03238
G1 X84.582 Y103.013 E0.03238
G1 X84.690 Y104.040 E0.03238
G1 X84.582 Y105.067 E0.03238
G1 X84.263 Y106.049 E0.03238
G1 X83.747 Y106.944 E0.03238
G1 X83.056 Y107.711 E0.03238
G1 X82.220 Y108.318 E0.03238
G1 X81.277 Y108.738 E0.03238
G1 X80.266 Y108.953 E0.03238
G1 X79.234 Y108.953 E0.03238
G1 X78.223 Y108.738 E0.03238
G1 X77.280 Y108.318 E0.03238
G1 X76.444 Y107.711 E0.03238
G1 X75.753 Y106.944 E0.03238
G1 X75.237 Y106.049 E0.03238
G1 X74.918 Y105.067 E0.03238
G1 X74.810 Y104.040 E0.03238
G1 X74.918 Y103.013 E0.03238
G1 X75.237 Y102.030 E0.03238
G1 X75.753 Y101.136 E0.03238
G1 X76.444 Y100.368 E0.03238
G1 X77.215 Y99.809 E0.02986
G1 X77.436 Y100.114 F7200.000
G1 F1800
G1 X78.341 Y99.702 E0.03115
G1 X79.273 Y99.503 E0.02990
G1 X80.227 Y99.503 E0.02990
G1 X81.159 Y99.702 E0.02990
G1 X82.031 Y100.090 E0.02990
G1 X82.802 Y100.650 E0.02990
G1 X83.440 Y101.359 E0.02990
G1 X83.917 Y102.185 E0.02990
G1 X84.211 Y103.091 E0.02990
G1 X84.311 Y104.040 E0.02990
G1 X84.211 Y104.988 E0.02990
G1 X83.917 Y105.895 E0.02990
G1 X83.440 Y106.721 E0.02990
G1 X82.802 Y107.429 E0.02990
G1 X82.031 Y107.990 E0.02990
G1 X81.159 Y108.378 E0.02990
G1 X80.227 Y108.576 E0.02990
G1 X79.273 Y108.576 E0.02990
G1 X78.341 Y108.378 E0.02990
G1 X77.469 Y107.990 E0.02990
G1 X76.698 Y107.429 E0.02990
G1 X76.060 Y106.721 E0.02990
G1 X75.583 Y105.895 E0.02990
G1 X75.289 Y104.988 E0.02990
G1 X75.189 Y104.040 E0.02990
G1 X75.289 Y103.091 E0.02990
G1 X75.583 Y102.185 E0.02990
G1 X76.060 Y101.359 E0.02990
G1 X76.698 Y100.650 E0.02990
G1 X77.388 Y100.149 E0.02674
G1 X77.434 Y99.714 F7200.000
G1 F5760
G1 X78.341 Y99.702 E-0.36447
G1 X79.273 Y99.503 E-0.33026
G1 X79.462 Y99.503 E-0.06527
G1 E-0.04000 F2100.00000
G1 Z0.800 F7200.000
G1 X70.627 Y94.061
G1 Z0.200
G1 E0.80000 F2100.00000
G1 F1800
G1 X70.714 Y93.965 E0.00408
G1 X70.714 Y87.504 E0.20258
G1 X138.786 Y87.504 E2.13434
G1 X138.786 Y92.576 E0.15902
G1 X131.986 Y92.576 E0.21321
G1 X131.986 Y96.576 E0.12542
G1 X128.414 Y96.576 E0.11199
G1 X128.414 Y92.576 E0.12542
G1 X121.714 Y92.576 E0.21007
G1 X121.714 Y89.576 E0.09406
G1 X94.786 Y89.576 E0.84432
G1 X94.786 Y92.576 E0.09406
G1 X87.535 Y92.576 E0.22735
G1 X90.696 Y96.087 E0.14814
G1 X92.111 Y98.536 E0.08869
G1 X92.985 Y101.226 E0.08867
G1 X93.278 Y104.059 E0.08931
G1 X92.985 Y106.853 E0.08808
G1 X92.111 Y109.543 E0.08869
G1 X90.696 Y111.993 E0.08869
G1 X88.804 Y114.095 E0.08869
G1 X86.531 Y115.746 E0.08808
G1 X83.930 Y116.908 E0.08931
G1 X81.164 Y117.496 E0.08867
G1 X78.336 Y117.496 E0.08869
G1 X75.569 Y116.908 E0.08869
G1 X72.985 Y115.758 E0.08869
G1 X70.696 Y114.095 E0.08869
G1 X68.804 Y111.993 E0.08869
G1 X67.389 Y109.543 E0.08869
G1 X66.515 Y106.853 E0.08869
G1 X66.219 Y104.040 E0.08869
G1 X66.515 Y101.227 E0.08869
G1 X67.389 Y98.536 E0.08869
G1 X68.804 Y96.087 E0.08869
G1 X70.587 Y94.106 E0.08357
G1 X70.307 Y93.854 F7200.000
G1 F1800
G1 X70.337 Y93.820 E0.00142
G1 X70.337 Y87.127 E0.20986
G1 X139.163 Y87.127 E2.15799
G1 X139.163 Y92.953 E0.18267
G1 X132.363 Y92.953 E0.21321
G1 X132.363 Y96.953 E0.12542
G1 X128.037 Y96.953 E0.13563
G1 X128.037 Y92.953 E0.12542
G1 X121.337 Y92.953 E0.21007
G1 X121.337 Y89.953 E0.09406
G1 X95.163 Y89.953 E0.82067
G1 X95.163 Y92.953 E0.09406
G1 X88.382 Y92.953 E0.21261
G1 X91.003 Y95.864 E0.12283
G1 X92.457 Y98.382 E0.09118
G1 X93.356 Y101.147 E0.09116
G1 X93.658 Y104.059 E0.09180
G1 X93.356 Y106.932 E0.09055
G1 X92.457 Y109.697 E0.09118
G1 X91.003 Y112.216 E0.09118
G1 X89.057 Y114.377 E0.09117
G1 X86.721 Y116.074 E0.09056
G1 X84.048 Y117.269 E0.09180
G1 X81.204 Y117.873 E0.09116
G1 X78.296 Y117.873 E0.09118
G1 X75.452 Y117.269 E0.09117
G1 X72.795 Y116.086 E0.09118
G1 X70.443 Y114.377 E0.09118
G1 X68.497 Y112.216 E0.09117
G1 X67.043 Y109.697 E0.09118
G1 X66.144 Y106.932 E0.09118
G1 X65.840 Y104.040 E0.09118
G1 X66.144 Y101.148 E0.09118
G1 X67.043 Y98.382 E0.09118
G1 X68.497 Y95.864 E0.09118
G1 X70.267 Y93.898 E0.08293
G1 X69.960 Y93.675 F7200.000
G1 F1800
G1 X69.960 Y86.750 E0.21715
G1 X139.540 Y86.750 E2.18163
G1 X139.540 Y93.330 E0.20631
G1 X132.740 Y93.330 E0.21321
G1 X132.740 Y97.330 E0.12542
G1 X127.660 Y97.330 E0.15928
G1 X127.660 Y93.330 E0.12542
G1 X120.960 Y93.330 E0.21007
G1 X120.960 Y90.330 E0.09406
G1 X95.540 Y90.330 E0.79703
G1 X95.540 Y93.330 E0.09406
G1 X89.229 Y93.330 E0.19788
G1 X91.310 Y95.641 E0.09751
G1 X92.803 Y98.228 E0.09366
G1 X93.727 Y101.069 E0.09366
G1 X94.037 Y104.060 E0.09428
G1 X93.727 Y107.010 E0.09303
G1 X92.803 Y109.852 E0.09366
G1 X91.310 Y112.438 E0.09366
G1 X89.311 Y114.658 E0.09366
G1 X86.911 Y116.402 E0.09303
G1 X84.165 Y117.629 E0.09428
G1 X81.244 Y118.250 E0.09365
G1 X78.256 Y118.250 E0.09366
G1 X75.335 Y117.629 E0.09366
G1 X72.606 Y116.414 E0.09366
G1 X70.189 Y114.658 E0.09366
G1 X68.190 Y112.438 E0.09366
G1 X66.697 Y109.852 E0.09366
G1 X65.773 Y107.010 E0.09366
G1 X65.461 Y104.040 E0.09366
G1 X65.773 Y101.069 E0.09366
G1 X66.697 Y98.228 E0.09366
G1 X68.190 Y95.641 E0.09366
G1 X69.920 Y93.720 E0.08105
G1 X70.340 Y93.551 F7200.000
G1 F5760
G1 X69.932 Y91.526 E-0.76000
G1 E-0.04000 F2100.00000
G1 Z0.800 F7200.000
G1 X74.699 Y106.437
G1 Z0.200
G1 E0.80000 F2100.00000
G1 F1800
G1 X67.469 Y99.207 E0.32230
G1 X67.600 Y98.802 E0.01341
G1 X74.397 Y105.598 E0.30297
G1 X74.269 Y105.205 E0.01305
G1 X74.237 Y104.903 E0.00958
G1 X67.772 Y98.438 E0.28818
G1 X67.969 Y98.098 E0.01237
G1 X74.174 Y104.304 E0.27662
G1 X74.146 Y104.040 E0.00836
G1 X74.175 Y103.768 E0.00861
G1 X68.165 Y97.758 E0.26791
G1 X68.361 Y97.419 E0.01237
G1 X74.226 Y103.283 E0.26144
G1 X74.289 Y102.811 E0.01503
G1 X68.557 Y97.079 E0.25553
G1 X68.754 Y96.739 E0.01237
G1 X74.421 Y102.406 E0.25264
G1 X74.552 Y102.001 E0.01341
G1 X68.950 Y96.399 E0.24975
G1 X69.034 Y96.254 E0.00528
G1 X69.179 Y96.092 E0.00686
G1 X74.710 Y101.623 E0.24656
G1 X74.906 Y101.283 E0.01237
G1 X69.433 Y95.810 E0.24398
G1 X69.687 Y95.528 E0.01197
G1 X75.103 Y100.943 E0.24141
G1 X75.216 Y100.746 E0.00718
G1 X75.323 Y100.627 E0.00502
G1 X69.941 Y95.246 E0.23991
G1 X70.195 Y94.964 E0.01197
G1 X75.577 Y100.345 E0.23991
G1 X75.831 Y100.063 E0.01197
G1 X70.449 Y94.682 E0.23991
G1 X70.703 Y94.399 E0.01197
G1 X76.104 Y99.800 E0.24075
G1 X76.414 Y99.574 E0.01210
G1 X70.957 Y94.117 E0.24327
G1 X70.997 Y94.073 E0.00187
G1 X70.997 Y93.621 E0.01427
G1 X76.725 Y99.349 E0.25535
G1 X76.948 Y99.187 E0.00869
G1 X77.052 Y99.140 E0.00360
G1 X70.997 Y93.085 E0.26995
G1 X70.997 Y92.549 E0.01690
G1 X77.423 Y98.975 E0.28649
G1 X77.794 Y98.810 E0.01280
G1 X70.997 Y92.012 E0.30302
G1 X70.997 Y91.476 E0.01690
G1 X78.194 Y98.673 E0.32082
G1 X78.636 Y98.579 E0.01425
G1 X70.997 Y90.940 E0.34053
G1 X70.997 Y90.404 E0.01690
G1 X79.078 Y98.485 E0.36024
G1 X79.164 Y98.467 E0.00278
G1 X79.596 Y98.467 E0.01360
G1 X70.997 Y89.868 E0.38332
G1 X70.997 Y89.332 E0.01690
G1 X80.132 Y98.467 E0.40722
G1 X80.336 Y98.467 E0.00643
G1 X80.757 Y98.556 E0.01359
G1 X70.997 Y88.796 E0.43512
G1 X70.997 Y88.260 E0.01690
G1 X81.438 Y98.701 E0.46547
G1 X82.387 Y99.113 E0.03259
G1 X71.060 Y87.787 E0.50492
G1 X71.596 Y87.787 E0.01690
G1 X92.191 Y108.381 E0.91809
G1 X92.322 Y107.977 E0.01341
G1 X72.132 Y87.787 E0.90005
G1 X72.669 Y87.787 E0.01690
G1 X92.454 Y107.572 E0.88201
G1 X92.585 Y107.167 E0.01341
G1 X73.205 Y87.787 E0.86397
G1 X73.741 Y87.787 E0.01690
G1 X92.711 Y106.756 E0.84565
G1 X92.762 Y106.271 E0.01538
G1 X74.277 Y87.787 E0.82403
G1 X74.813 Y87.787 E0.01690
G1 X92.813 Y105.786 E0.80240
G1 X92.864 Y105.301 E0.01538
G1 X75.349 Y87.787 E0.78078
G1 X75.885 Y87.787 E0.01690
G1 X92.915 Y104.816 E0.75915
G1 X92.966 Y104.331 E0.01538
G1 X76.421 Y87.787 E0.73752
G1 X76.958 Y87.787 E0.01690
G1 X92.967 Y103.796 E0.71368
G1 X92.905 Y103.198 E0.01896
G1 X77.494 Y87.787 E0.68701
G1 X78.030 Y87.787 E0.01690
G1 X92.843 Y102.600 E0.66035
G1 X92.781 Y102.001 E0.01896
G1 X78.566 Y87.787 E0.63368
G1 X79.102 Y87.787 E0.01690
G1 X92.719 Y101.403 E0.60702
G1 X92.706 Y101.285 E0.00375
G1 X92.499 Y100.648 E0.02111
G1 X79.638 Y87.787 E0.57334
G1 X80.174 Y87.787 E0.01690
G1 X92.241 Y99.854 E0.53794
G1 X91.983 Y99.060 E0.02632
G1 X80.710 Y87.787 E0.50254
G1 X81.247 Y87.787 E0.01690
G1 X91.958 Y98.498 E0.47751
G1 F5760
G1 X90.407 Y96.947 E-0.76000
G1 E-0.04000 F2100.00000
G1 Z0.800 F7200.000
G1 X91.226 Y97.230
G1 Z0.200
G1 E0.80000 F2100.00000
G1 F1800
G1 X81.783 Y87.787 E0.42096
G1 X82.319 Y87.787 E0.01690
G1 X89.869 Y95.337 E0.33660
G1 F5760
G1 X88.318 Y93.786 E-0.76000
G1 E-0.04000 F2100.00000
G1 Z0.800 F7200.000
G1 X87.531 Y92.462
G1 Z0.200
G1 E0.80000 F2100.00000
G1 F1800
G1 X82.855 Y87.787 E0.20844
G1 X83.391 Y87.787 E0.01690
G1 X87.897 Y92.293 E0.20088
G1 X88.433 Y92.293 E0.01690
G1 X83.927 Y87.787 E0.20088
G1 X84.463 Y87.787 E0.01690
G1 X88.969 Y92.293 E0.20088
G1 X89.506 Y92.293 E0.01690
G1 X84.999 Y87.787 E0.20088
G1 X85.536 Y87.787 E0.01690
G1 X90.042 Y92.293 E0.20088
G1 X90.578 Y92.293 E0.01690
G1 X86.072 Y87.787 E0.20088
G1 X86.608 Y87.787 E0.01690
G1 X91.114 Y92.293 E0.20088
G1 X91.650 Y92.293 E0.01690
G1 X87.144 Y87.787 E0.20088
G1 X87.680 Y87.787 E0.01690
G1 X92.186 Y92.293 E0.20088
G1 X92.722 Y92.293 E0.01690
G1 X88.216 Y87.787 E0.20088
G1 X88.752 Y87.787 E0.01690
G1 X93.258 Y92.293 E0.20088
G1 X93.795 Y92.293 E0.01690
G1 X89.288 Y87.787 E0.20088
G1 X89.825 Y87.787 E0.01690
G1 X94.331 Y92.293 E0.20088
G1 X94.503 Y92.293 E0.00543
G1 X94.503 Y91.929 E0.01147
G1 X90.361 Y87.787 E0.18466
G1 X90.897 Y87.787 E0.01690
G1 X94.503 Y91.393 E0.16076
G1 X94.503 Y90.857 E0.01690
G1 X91.433 Y87.787 E0.13686
G1 X91.969 Y87.787 E0.01690
G1 X94.503 Y90.321 E0.11296
G1 X94.503 Y89.784 E0.01690
G1 X92.505 Y87.787 E0.08906
G1 X93.041 Y87.787 E0.01690
G1 X94.547 Y89.293 E0.06714
G1 X95.084 Y89.293 E0.01690
G1 X93.577 Y87.787 E0.06714
G1 X94.114 Y87.787 E0.01690
G1 X95.620 Y89.293 E0.06714
G1 X96.156 Y89.293 E0.01690
G1 X94.650 Y87.787 E0.06714
G1 X95.186 Y87.787 E0.01690
G1 X96.692 Y89.293 E0.06714
G1 X97.228 Y89.293 E0.01690
G1 X95.722 Y87.787 E0.06714
G1 X96.258 Y87.787 E0.01690
G1 X97.764 Y89.293 E0.06714
G1 X98.300 Y89.293 E0.01690
G1 X96.794 Y87.787 E0.06714
G1 X97.330 Y87.787 E0.01690
G1 X98.836 Y89.293 E0.06714
G1 X99.373 Y89.293 E0.01690
G1 X97.866 Y87.787 E0.06714
G1 X98.403 Y87.787 E0.01690
G1 X99.909 Y89.293 E0.06714
G1 X100.445 Y89.293 E0.01690
G1 X98.939 Y87.787 E0.06714
G1 X99.475 Y87.787 E0.01690
G1 X100.981 Y89.293 E0.06714
G1 X101.517 Y89.293 E0.01690
G1 X100.011 Y87.787 E0.06714
G1 X100.547 Y87.787 E0.01690
G1 X102.053 Y89.293 E0.06714
G1 X102.589 Y89.293 E0.01690
G1 X101.083 Y87.787 E0.06714
G1 X101.619 Y87.787 E0.01690
G1 X103.125 Y89.293 E0.06714
G1 X103.662 Y89.293 E0.01690
G1 X102.155 Y87.787 E0.06714
G1 X102.692 Y87.787 E0.01690
G1 X104.198 Y89.293 E0.06714
G1 X104.734 Y89.293 E0.01690
G1 X103.228 Y87.787 E0.06714
G1 X103.764 Y87.787 E0.01690
G1 X105.270 Y89.293 E0.06714
G1 X105.806 Y89.293 E0.01690
G1 X104.300 Y87.787 E0.06714
G1 X104.836 Y87.787 E0.01690
G1 X106.342 Y89.293 E0.06714
G1 X106.878 Y89.293 E0.01690
G1 X105.372 Y87.787 E0.06714
G1 X105.908 Y87.787 E0.01690
G1 X107.414 Y89.293 E0.06714
G1 X107.951 Y89.293 E0.01690
G1 X106.444 Y87.787 E0.06714
G1 X106.981 Y87.787 E0.01690
G1 X108.487 Y89.293 E0.06714
G1 X109.023 Y89.293 E0.01690
G1 X107.517 Y87.787 E0.06714
G1 X108.053 Y87.787 E0.01690
G1 X109.559 Y89.293 E0.06714
G1 X110.095 Y89.293 E0.01690
G1 X108.589 Y87.787 E0.06714
G1 X109.125 Y87.787 E0.01690
G1 X110.631 Y89.293 E0.06714
G1 X111.167 Y89.293 E0.01690
G1 X109.661 Y87.787 E0.06714
G1 X110.197 Y87.787 E0.01690
G1 X111.703 Y89.293 E0.06714
G1 X112.240 Y89.293 E0.01690
G1 X110.733 Y87.787 E0.06714
G1 X111.270 Y87.787 E0.01690
G1 X112.776 Y89.293 E0.06714
G1 X113.312 Y89.293 E0.01690
G1 X111.806 Y87.787 E0.06714
G1 X112.342 Y87.787 E0.01690
G1 X113.848 Y89.293 E0.06714
G1 X114.384 Y89.293 E0.01690
G1 X112.878 Y87.787 E0.06714
G1 X113.414 Y87.787 E0.01690
G1 X114.920 Y89.293 E0.06714
G1 X115.456 Y89.293 E0.01690
G1 X113.950 Y87.787 E0.06714
G1 X114.486 Y87.787 E0.01690
G1 X115.992 Y89.293 E0.06714
G1 X116.529 Y89.293 E0.01690
G1 X115.022 Y87.787 E0.06714
G1 X115.559 Y87.787 E0.01690
G1 X117.065 Y89.293 E0.06714
G1 X117.601 Y89.293 E0.01690
G1 X116.095 Y87.787 E0.06714
G1 X116.631 Y87.787 E0.01690
G1 X118.137 Y89.293 E0.06714
G1 X118.673 Y89.293 E0.01690
G1 X117.167 Y87.787 E0.06714
G1 X117.703 Y87.787 E0.01690
G1 X119.209 Y89.293 E0.06714
G1 X119.745 Y89.293 E0.01690
G1 X118.239 Y87.787 E0.06714
G1 X118.775 Y87.787 E0.01690
G1 X120.281 Y89.293 E0.06714
G1 X120.818 Y89.293 E0.01690
G1 X119.311 Y87.787 E0.06714
G1 X119.848 Y87.787 E0.01690
G1 X121.523 Y89.462 E0.07471
G1 F5760
G1 X119.972 Y87.911 E-0.76000
G1 E-0.04000 F2100.00000
G1 Z0.800 F7200.000
G1 X121.827 Y91.911
G1 Z0.200
G1 E0.80000 F2100.00000
G1 F1800
G1 X122.209 Y92.293 E0.01703
G1 X122.745 Y92.293 E0.01690
G1 X121.997 Y91.544 E0.03336
G1 X121.997 Y91.008 E0.01690
G1 X123.281 Y92.293 E0.05726
G1 X123.818 Y92.293 E0.01690
G1 X121.997 Y90.472 E0.08116
G1 X121.997 Y89.936 E0.01690
G1 X124.354 Y92.293 E0.10506
