; generated by Slic3r Prusa Edition 1.39.2+win64 on 2018-05-30 at 12:23:10

; 

; external perimeters extrusion width = 0.45mm
; perimeters extrusion width = 0.45mm
; infill extrusion width = 0.45mm
; solid infill extrusion width = 0.45mm
; top infill extrusion width = 0.45mm
; first layer extrusion width = 0.42mm

M107
M115 U3.1.0 ; tell printer latest fw version
M83  ; extruder relative mode
M104 S205 ; set extruder temp
M140 S55 ; set bed temp
M190 S55 ; wait for bed temp
M109 S205 ; wait for extruder temp
G28 W ; home all without mesh bed level
G80 ; mesh bed leveling
G1 Y-3.0 F1000.0 ; go outside print area
G92 E0.0
G1 X60.0 E9.0  F1000.0 ; intro line
G1 X100.0 E12.5  F1000.0 ; intro line
G92 E0.0
M900 K30; Filament gcode
G21 ; set units to millimeters
G90 ; use absolute coordinates
M83 ; use relative distances for extrusion
;BEFORE_LAYER_CHANGE
;0.2


G1 E-0.80000 F2100.00000
G1 Z0.600 F7200.000
;AFTER_LAYER_CHANGE
;0.2
G1 X45.607 Y78.797
G1 Z0.200
G1 E0.80000 F2100.00000
M204 S1000
G1 F1800
G1 X46.495 Y78.623 E0.02837
G1 X158.504 Y78.623 E3.51195
G1 X159.399 Y78.799 E0.02860
G1 X160.164 Y79.303 E0.02872
G1 X160.682 Y80.058 E0.02872
G1 X160.877 Y80.953 E0.02872
G1 X160.876 Y124.076 E1.35209
G1 X160.756 Y124.749 E0.02142
G1 X160.450 Y125.360 E0.02142
G1 X159.983 Y125.858 E0.02142
G1 X159.393 Y126.203 E0.02142
G1 X158.505 Y126.377 E0.02837
G1 X46.473 Y126.377 E3.51267
G1 X45.787 Y126.268 E0.02178
G1 X45.162 Y125.965 E0.02178
G1 X44.651 Y125.494 E0.02178
G1 X44.297 Y124.893 E0.02190
G1 X44.123 Y124.009 E0.02825
G1 X44.124 Y80.931 E1.35066
G1 X44.243 Y80.255 E0.02154
G1 X44.548 Y79.644 E0.02142
G1 X45.014 Y79.144 E0.02142
G1 X45.555 Y78.827 E0.01966
G1 F5760
G1 X46.495 Y78.623 E-0.33307
G1 X47.728 Y78.623 E-0.42693
G1 E-0.04000 F2100.00000
G1 Z0.800 F7200.000
G1 X53.700 Y118.228
G1 Z0.200
G1 E0.80000 F2100.00000
G1 F1800
G1 X54.229 Y118.116 E0.01697
G1 X54.771 Y118.116 E0.01698
G1 X55.300 Y118.228 E0.01697
G1 X55.795 Y118.449 E0.01698
G1 X56.233 Y118.767 E0.01698
G1 X56.596 Y119.169 E0.01698
G1 X56.867 Y119.640 E0.01704
G1 X57.035 Y120.169 E0.01741
G1 X57.090 Y120.692 E0.01648
G1 X57.034 Y121.231 E0.01698
G1 X56.866 Y121.746 E0.01698
G1 X56.596 Y122.215 E0.01698
G1 X56.233 Y122.617 E0.01698
G1 X55.795 Y122.935 E0.01698
G1 X55.300 Y123.156 E0.01698
G1 X54.771 Y123.268 E0.01698
G1 X54.229 Y123.268 E0.01698
G1 X53.700 Y123.156 E0.01698
G1 X53.205 Y122.935 E0.01698
G1 X52.767 Y122.617 E0.01698
G1 X52.404 Y122.215 E0.01698
G1 X52.133 Y121.744 E0.01704
G1 X51.965 Y121.215 E0.01741
G1 X51.910 Y120.692 E0.01648
G1 X51.966 Y120.153 E0.01698
G1 X52.134 Y119.638 E0.01698
G1 X52.404 Y119.169 E0.01698
G1 X52.767 Y118.767 E0.01698
G1 X53.205 Y118.449 E0.01698
G1 X53.645 Y118.253 E0.01510
G1 X53.798 Y118.597 F7200.000
G1 F1800
G1 X54.269 Y118.493 E0.01512
G1 X54.731 Y118.493 E0.01450
G1 X55.183 Y118.589 E0.01449
G1 X55.606 Y118.777 E0.01449
G1 X55.980 Y119.049 E0.01450
G1 X56.289 Y119.392 E0.01449
G1 X56.520 Y119.793 E0.01452
G1 X56.664 Y120.247 E0.01492
G1 X56.711 Y120.692 E0.01403
G1 X56.663 Y121.152 E0.01449
G1 X56.520 Y121.591 E0.01450
G1 X56.289 Y121.992 E0.01449
G1 X55.980 Y122.335 E0.01449
G1 X55.606 Y122.607 E0.01449
G1 X55.183 Y122.795 E0.01449
G1 X54.731 Y122.891 E0.01449
G1 X54.269 Y122.891 E0.01450
G1 X53.817 Y122.795 E0.01449
G1 X53.394 Y122.607 E0.01449
G1 X53.020 Y122.335 E0.01449
G1 X52.711 Y121.992 E0.01449
G1 X52.480 Y121.591 E0.01452
G1 X52.336 Y121.137 E0.01492
G1 X52.289 Y120.692 E0.01403
G1 X52.337 Y120.232 E0.01449
G1 X52.480 Y119.793 E0.01450
G1 X52.711 Y119.392 E0.01449
G1 X53.020 Y119.049 E0.01449
G1 X53.394 Y118.777 E0.01450
G1 X53.743 Y118.622 E0.01197
G1 X53.879 Y118.206 F7200.000
G1 F5760
G1 X54.269 Y118.493 E-0.18740
G1 X54.731 Y118.493 E-0.16013
G1 X55.183 Y118.589 E-0.16007
G1 X55.606 Y118.777 E-0.16011
G1 X55.821 Y118.934 E-0.09229
G1 E-0.04000 F2100.00000
G1 Z0.800 F7200.000
G1 X142.830 Y118.192
G1 Z0.200
G1 E0.80000 F2100.00000
G1 F1800
G1 X142.896 Y117.575 E0.01947
G1 X143.087 Y116.984 E0.01945
G1 X143.398 Y116.446 E0.01948
G1 X143.813 Y115.985 E0.01946
G1 X144.315 Y115.620 E0.01945
G1 X144.883 Y115.368 E0.01947
G1 X145.490 Y115.239 E0.01946
G1 X146.110 Y115.239 E0.01946
G1 X146.717 Y115.368 E0.01946
G1 X147.285 Y115.620 E0.01947
G1 X147.787 Y115.985 E0.01945
G1 X148.202 Y116.446 E0.01946
G1 X148.513 Y116.984 E0.01948
G1 X148.704 Y117.575 E0.01945
G1 X148.770 Y118.192 E0.01947
G1 X148.704 Y118.809 E0.01947
G1 X148.513 Y119.400 E0.01945
G1 X148.202 Y119.938 E0.01948
G1 X147.787 Y120.399 E0.01947
G1 X147.285 Y120.764 E0.01945
G1 X146.718 Y121.016 E0.01947
G1 X146.110 Y121.145 E0.01947
G1 X145.490 Y121.145 E0.01946
G1 X144.882 Y121.016 E0.01947
G1 X144.315 Y120.764 E0.01947
G1 X143.813 Y120.399 E0.01945
G1 X143.398 Y119.938 E0.01947
G1 X143.087 Y119.400 E0.01948
G1 X142.896 Y118.809 E0.01945
G1 X142.837 Y118.252 E0.01759
G1 X143.212 Y118.212 F7200.000
G1 F1800
G1 X143.267 Y117.653 E0.01760
G1 X143.434 Y117.139 E0.01697
G1 X143.704 Y116.669 E0.01699
G1 X144.067 Y116.267 E0.01698
G1 X144.505 Y115.949 E0.01697
G1 X145.000 Y115.728 E0.01698
G1 X145.529 Y115.616 E0.01698
G1 X146.071 Y115.616 E0.01697
G1 X146.600 Y115.728 E0.01698
G1 X147.095 Y115.949 E0.01698
G1 X147.533 Y116.267 E0.01697
G1 X147.896 Y116.669 E0.01698
G1 X148.166 Y117.139 E0.01699
G1 X148.333 Y117.653 E0.01697
G1 X148.390 Y118.192 E0.01698
G1 X148.333 Y118.731 E0.01698
G1 X148.166 Y119.245 E0.01697
G1 X147.896 Y119.715 E0.01699
G1 X147.533 Y120.117 E0.01698
G1 X147.095 Y120.435 E0.01697
G1 X146.600 Y120.656 E0.01698
G1 X146.071 Y120.768 E0.01698
G1 X145.529 Y120.768 E0.01697
G1 X145.000 Y120.656 E0.01698
G1 X144.505 Y120.435 E0.01698
G1 X144.067 Y120.117 E0.01697
G1 X143.704 Y119.715 E0.01698
G1 X143.434 Y119.245 E0.01699
G1 X143.267 Y118.731 E0.01697
G1 X143.218 Y118.272 E0.01447
G1 X143.589 Y118.192 F7200.000
G1 F1800
G1 X143.637 Y117.732 E0.01449
G1 X143.780 Y117.293 E0.01449
G1 X144.011 Y116.892 E0.01450
G1 X144.321 Y116.549 E0.01450
G1 X144.694 Y116.277 E0.01449
G1 X145.117 Y116.089 E0.01450
G1 X145.569 Y115.993 E0.01449
G1 X146.031 Y115.993 E0.01449
G1 X146.483 Y116.089 E0.01449
G1 X146.906 Y116.277 E0.01450
G1 X147.279 Y116.549 E0.01449
G1 X147.589 Y116.892 E0.01450
G1 X147.820 Y117.293 E0.01450
G1 X147.963 Y117.732 E0.01449
G1 X148.011 Y118.192 E0.01449
G1 X147.963 Y118.652 E0.01449
G1 X147.820 Y119.091 E0.01449
G1 X147.589 Y119.492 E0.01450
G1 X147.279 Y119.835 E0.01450
G1 X146.906 Y120.107 E0.01448
G1 X146.483 Y120.295 E0.01450
G1 X146.031 Y120.391 E0.01449
G1 X145.569 Y120.391 E0.01449
G1 X145.117 Y120.295 E0.01449
G1 X144.694 Y120.107 E0.01450
G1 X144.321 Y119.835 E0.01448
G1 X144.011 Y119.492 E0.01450
G1 X143.780 Y119.091 E0.01450
G1 X143.637 Y118.652 E0.01449
G1 X143.595 Y118.252 E0.01261
G1 X143.243 Y117.992 F7200.000
G1 F5760
G1 X143.637 Y117.732 E-0.18049
G1 X143.780 Y117.293 E-0.16007
G1 X144.011 Y116.892 E-0.16013
G1 X144.321 Y116.549 E-0.16014
G1 X144.552 Y116.380 E-0.09917
G1 E-0.04000 F2100.00000
G1 Z0.800 F7200.000
G1 X143.064 Y112.306
G1 Z0.200
G1 E0.80000 F2100.00000
G1 F1800
G1 X130.636 Y112.306 E0.38968
G1 X130.636 Y88.878 E0.73458
G1 X143.064 Y88.878 E0.38968
G1 X143.064 Y112.246 E0.73270
G1 X142.687 Y111.929 F7200.000
G1 F1800
G1 X131.013 Y111.929 E0.36603
G1 X131.013 Y89.255 E0.71093
G1 X142.687 Y89.255 E0.36603
G1 X142.687 Y111.869 E0.70905
G1 X142.310 Y111.552 F7200.000
G1 F1800
G1 X131.390 Y111.552 E0.34239
G1 X131.390 Y89.632 E0.68729
G1 X142.310 Y89.632 E0.34239
G1 X142.310 Y111.492 E0.68540
G1 X142.371 Y111.947 F7200.000
G1 F5760
G1 X140.116 Y111.504 E-0.76000
G1 E-0.04000 F2100.00000
G1 Z0.800 F7200.000
G1 X107.736 Y88.878
G1 Z0.200
G1 E0.80000 F2100.00000
G1 F1800
G1 X120.164 Y88.878 E0.38968
G1 X120.164 Y112.306 E0.73458
G1 X107.736 Y112.306 E0.38968
G1 X107.736 Y88.938 E0.73270
G1 X108.113 Y89.255 F7200.000
G1 F1800
G1 X119.787 Y89.255 E0.36604
G1 X119.787 Y111.929 E0.71093
G1 X108.113 Y111.929 E0.36604
G1 X108.113 Y89.315 E0.70905
G1 X108.490 Y89.632 F7200.000
G1 F1800
G1 X119.410 Y89.632 E0.34239
G1 X119.410 Y111.552 E0.68729
G1 X108.490 Y111.552 E0.34239
G1 X108.490 Y89.692 E0.68540
G1 X108.429 Y89.237 F7200.000
G1 F5760
G1 X110.684 Y89.680 E-0.76000
G1 E-0.04000 F2100.00000
G1 Z0.800 F7200.000
G1 X82.286 Y88.878
G1 Z0.200
G1 E0.80000 F2100.00000
G1 F1800
G1 X94.714 Y88.878 E0.38968
G1 X94.714 Y112.306 E0.73458
G1 X82.286 Y112.306 E0.38968
G1 X82.286 Y88.938 E0.73270
G1 X82.663 Y89.255 F7200.000
G1 F1800
G1 X94.337 Y89.255 E0.36603
G1 X94.337 Y111.929 E0.71093
G1 X82.663 Y111.929 E0.36603
G1 X82.663 Y89.315 E0.70905
G1 X83.040 Y89.632 F7200.000
G1 F1800
G1 X93.960 Y89.632 E0.34239
G1 X93.960 Y111.552 E0.68729
G1 X83.040 Y111.552 E0.34239
G1 X83.040 Y89.692 E0.68540
G1 X82.979 Y89.237 F7200.000
G1 F5760
G1 X85.234 Y89.680 E-0.76000
G1 E-0.04000 F2100.00000
G1 Z0.800 F7200.000
G1 X59.436 Y88.878
G1 Z0.200
G1 E0.80000 F2100.00000
G1 F1800
G1 X71.864 Y88.878 E0.38968
G1 X71.864 Y112.306 E0.73458
G1 X59.436 Y112.306 E0.38968
G1 X59.436 Y88.938 E0.73270
G1 X59.813 Y89.255 F7200.000
G1 F1800
G1 X71.487 Y89.255 E0.36603
G1 X71.487 Y111.929 E0.71093
G1 X59.813 Y111.929 E0.36603
G1 X59.813 Y89.315 E0.70905
G1 X60.190 Y89.632 F7200.000
G1 F1800
G1 X71.110 Y89.632 E0.34239
G1 X71.110 Y111.552 E0.68729
G1 X60.190 Y111.552 E0.34239
G1 X60.190 Y89.692 E0.68540
G1 X60.129 Y89.237 F7200.000
G1 F5760
G1 X62.384 Y89.680 E-0.76000
G1 E-0.04000 F2100.00000
G1 Z0.800 F7200.000
G1 X58.999 Y88.053
G1 Z0.200
G1 E0.80000 F2100.00000
G1 F1800
G1 X58.417 Y88.316 E0.02002
G1 X57.810 Y88.445 E0.01946
G1 X57.190 Y88.445 E0.01947
G1 X56.583 Y88.316 E0.01946
G1 X56.015 Y88.064 E0.01947
G1 X55.513 Y87.699 E0.01947
G1 X55.098 Y87.237 E0.01946
G1 X54.786 Y86.697 E0.01957
G1 X54.594 Y86.092 E0.01990
G1 X54.531 Y85.492 E0.01892
G1 X54.595 Y84.875 E0.01946
G1 X54.787 Y84.284 E0.01947
G1 X55.098 Y83.747 E0.01946
G1 X55.513 Y83.285 E0.01946
G1 X56.015 Y82.920 E0.01947
G1 X56.583 Y82.668 E0.01947
G1 X57.190 Y82.539 E0.01946
G1 X57.810 Y82.539 E0.01947
G1 X58.417 Y82.668 E0.01946
G1 X58.985 Y82.920 E0.01947
G1 X59.487 Y83.285 E0.01947
G1 X59.902 Y83.747 E0.01946
G1 X60.214 Y84.287 E0.01957
G1 X60.406 Y84.892 E0.01989
G1 X60.469 Y85.492 E0.01892
G1 X60.405 Y86.109 E0.01946
G1 X60.213 Y86.700 E0.01947
G1 X59.902 Y87.237 E0.01946
G1 X59.487 Y87.699 E0.01946
G1 X59.048 Y88.018 E0.01702
G1 X58.826 Y87.713 F7200.000
G1 F1800
G1 X58.300 Y87.956 E0.01816
G1 X57.771 Y88.068 E0.01697
G1 X57.229 Y88.068 E0.01698
G1 X56.700 Y87.956 E0.01697
G1 X56.205 Y87.735 E0.01698
G1 X55.767 Y87.417 E0.01698
G1 X55.404 Y87.015 E0.01698
G1 X55.133 Y86.544 E0.01704
G1 X54.965 Y86.015 E0.01741
G1 X54.910 Y85.492 E0.01648
G1 X54.966 Y84.953 E0.01698
G1 X55.134 Y84.438 E0.01698
G1 X55.404 Y83.969 E0.01698
G1 X55.767 Y83.567 E0.01698
G1 X56.205 Y83.249 E0.01698
G1 X56.700 Y83.028 E0.01698
G1 X57.229 Y82.916 E0.01697
G1 X57.771 Y82.916 E0.01698
G1 X58.300 Y83.028 E0.01697
G1 X58.795 Y83.249 E0.01698
G1 X59.233 Y83.567 E0.01698
G1 X59.596 Y83.969 E0.01698
G1 X59.867 Y84.440 E0.01704
G1 X60.035 Y84.969 E0.01741
G1 X60.090 Y85.492 E0.01648
G1 X60.034 Y86.031 E0.01698
G1 X59.866 Y86.546 E0.01698
G1 X59.596 Y87.015 E0.01698
G1 X59.233 Y87.417 E0.01698
G1 X58.875 Y87.678 E0.01390
G1 X58.606 Y87.407 F7200.000
G1 F1800
G1 X58.183 Y87.595 E0.01449
G1 X57.731 Y87.691 E0.01449
G1 X57.269 Y87.691 E0.01450
G1 X56.817 Y87.595 E0.01449
G1 X56.394 Y87.407 E0.01449
G1 X56.020 Y87.135 E0.01450
G1 X55.711 Y86.792 E0.01449
G1 X55.480 Y86.391 E0.01452
G1 X55.336 Y85.937 E0.01492
G1 X55.289 Y85.492 E0.01403
G1 X55.337 Y85.032 E0.01449
G1 X55.480 Y84.593 E0.01450
G1 X55.711 Y84.192 E0.01449
G1 X56.020 Y83.849 E0.01449
G1 X56.394 Y83.577 E0.01450
G1 X56.817 Y83.389 E0.01449
G1 X57.269 Y83.293 E0.01449
G1 X57.731 Y83.293 E0.01450
G1 X58.183 Y83.389 E0.01449
G1 X58.606 Y83.577 E0.01449
G1 X58.980 Y83.849 E0.01450
G1 X59.289 Y84.192 E0.01449
G1 X59.520 Y84.593 E0.01452
G1 X59.664 Y85.047 E0.01492
G1 X59.711 Y85.492 E0.01403
G1 X59.663 Y85.952 E0.01449
G1 X59.520 Y86.391 E0.01450
G1 X59.289 Y86.792 E0.01449
G1 X58.980 Y87.135 E0.01449
G1 X58.654 Y87.372 E0.01262
G1 X58.606 Y87.807 F7200.000
G1 F5760
G1 X58.183 Y87.595 E-0.18049
G1 X57.731 Y87.691 E-0.16007
G1 X57.269 Y87.691 E-0.16013
G1 X56.817 Y87.595 E-0.16007
G1 X56.555 Y87.478 E-0.09924
G1 E-0.04000 F2100.00000
G1 Z0.800 F7200.000
G1 X47.464 Y81.964
G1 Z0.200
G1 E0.80000 F2100.00000
G1 F1800
G1 X152.366 Y81.964 E3.28913
G1 X152.015 Y82.120 E0.01205
G1 X151.513 Y82.485 E0.01945
G1 X151.098 Y82.946 E0.01947
G1 X150.787 Y83.484 E0.01948
G1 X150.596 Y84.075 E0.01945
G1 X150.530 Y84.692 E0.01947
G1 X150.596 Y85.309 E0.01947
G1 X150.787 Y85.900 E0.01945
G1 X151.098 Y86.438 E0.01948
G1 X151.513 Y86.899 E0.01946
G1 X152.015 Y87.264 E0.01945
G1 X152.583 Y87.516 E0.01947
G1 X153.190 Y87.645 E0.01946
G1 X153.810 Y87.645 E0.01946
G1 X154.417 Y87.516 E0.01946
G1 X154.985 Y87.264 E0.01947
G1 X155.487 Y86.899 E0.01945
G1 X155.902 Y86.438 E0.01946
G1 X156.213 Y85.900 E0.01948
G1 X156.404 Y85.309 E0.01945
G1 X156.470 Y84.692 E0.01947
G1 X156.404 Y84.075 E0.01947
G1 X156.213 Y83.484 E0.01945
G1 X155.902 Y82.946 E0.01948
G1 X155.487 Y82.485 E0.01947
G1 X154.985 Y82.120 E0.01945
G1 X154.634 Y81.964 E0.01205
G1 X157.536 Y81.964 E0.09099
G1 X157.536 Y123.036 E1.28777
G1 X56.298 Y123.036 E3.17423
G1 X56.487 Y122.899 E0.00731
G1 X56.902 Y122.437 E0.01946
G1 X57.213 Y121.900 E0.01946
G1 X57.405 Y121.309 E0.01947
G1 X57.469 Y120.692 E0.01946
G1 X57.406 Y120.092 E0.01892
G1 X57.214 Y119.487 E0.01990
G1 X56.902 Y118.947 E0.01957
G1 X56.487 Y118.485 E0.01946
G1 X55.985 Y118.120 E0.01947
G1 X55.417 Y117.868 E0.01947
G1 X54.810 Y117.739 E0.01946
G1 X54.190 Y117.739 E0.01947
G1 X53.583 Y117.868 E0.01946
G1 X53.015 Y118.120 E0.01947
G1 X52.513 Y118.485 E0.01947
G1 X52.098 Y118.947 E0.01946
G1 X51.787 Y119.484 E0.01946
G1 X51.595 Y120.075 E0.01947
G1 X51.531 Y120.692 E0.01946
G1 X51.594 Y121.292 E0.01892
G1 X51.786 Y121.897 E0.01990
G1 X52.098 Y122.437 E0.01957
G1 X52.513 Y122.899 E0.01946
G1 X52.702 Y123.036 E0.00731
G1 X47.464 Y123.036 E0.16422
G1 X47.464 Y82.024 E1.28589
G1 F5760
G1 X49.658 Y82.023 E-0.76000
G1 E-0.04000 F2100.00000
G1 Z0.800 F7200.000
G1 X150.910 Y84.692
G1 Z0.200
G1 E0.80000 F2100.00000
G1 F1800
G1 X150.967 Y84.153 E0.01698
G1 X151.134 Y83.639 E0.01697
G1 X151.404 Y83.169 E0.01699
G1 X151.767 Y82.767 E0.01698
G1 X152.205 Y82.449 E0.01697
G1 X152.700 Y82.228 E0.01698
G1 X153.229 Y82.116 E0.01698
G1 X153.771 Y82.116 E0.01697
G1 X154.300 Y82.228 E0.01698
G1 X154.795 Y82.449 E0.01698
G1 X155.233 Y82.767 E0.01697
G1 X155.596 Y83.169 E0.01698
G1 X155.866 Y83.639 E0.01699
G1 X156.033 Y84.153 E0.01697
G1 X156.090 Y84.692 E0.01698
G1 X156.033 Y85.231 E0.01698
G1 X155.866 Y85.745 E0.01697
G1 X155.596 Y86.215 E0.01699
G1 X155.233 Y86.617 E0.01698
G1 X154.795 Y86.935 E0.01697
G1 X154.300 Y87.156 E0.01698
G1 X153.771 Y87.268 E0.01698
G1 X153.229 Y87.268 E0.01697
G1 X152.700 Y87.156 E0.01698
G1 X152.205 Y86.935 E0.01698
G1 X151.767 Y86.617 E0.01697
G1 X151.404 Y86.215 E0.01698
G1 X151.134 Y85.745 E0.01699
G1 X150.967 Y85.231 E0.01697
G1 X150.916 Y84.752 E0.01510
G1 X151.291 Y84.712 F7200.000
G1 F1800
G1 X151.337 Y84.232 E0.01511
G1 X151.480 Y83.793 E0.01449
G1 X151.711 Y83.392 E0.01450
G1 X152.021 Y83.049 E0.01450
G1 X152.394 Y82.777 E0.01448
G1 X152.817 Y82.589 E0.01450
G1 X153.269 Y82.493 E0.01449
G1 X153.731 Y82.493 E0.01449
G1 X154.183 Y82.589 E0.01449
G1 X154.606 Y82.777 E0.01450
G1 X154.979 Y83.049 E0.01448
G1 X155.289 Y83.392 E0.01450
G1 X155.520 Y83.793 E0.01450
G1 X155.663 Y84.232 E0.01449
G1 X155.711 Y84.692 E0.01449
G1 X155.663 Y85.152 E0.01449
G1 X155.520 Y85.591 E0.01449
G1 X155.289 Y85.992 E0.01450
G1 X154.979 Y86.335 E0.01450
G1 X154.606 Y86.607 E0.01449
G1 X154.183 Y86.795 E0.01450
G1 X153.731 Y86.891 E0.01449
G1 X153.269 Y86.891 E0.01449
G1 X152.817 Y86.795 E0.01449
G1 X152.394 Y86.607 E0.01450
G1 X152.021 Y86.335 E0.01449
G1 X151.711 Y85.992 E0.01450
G1 X151.480 Y85.591 E0.01450
G1 X151.337 Y85.152 E0.01449
G1 X151.297 Y84.772 E0.01198
G1 X150.943 Y84.514 F7200.000
G1 F5760
G1 X151.337 Y84.232 E-0.18733
