; generated by Slic3r Prusa Edition 1.39.2+win64 on 2018-07-02 at 09:40:47

; 

; external perimeters extrusion width = 0.45mm
; perimeters extrusion width = 0.45mm
; infill extrusion width = 0.45mm
; solid infill extrusion width = 0.45mm
; top infill extrusion width = 0.45mm
; first layer extrusion width = 0.42mm

M107
M115 U3.1.0 ; tell printer latest fw version
M83  ; extruder relative mode
M104 S205 ; set extruder temp
M140 S55 ; set bed temp
M190 S55 ; wait for bed temp
M109 S205 ; wait for extruder temp
G28 W ; home all without mesh bed level
G80 ; mesh bed leveling
G1 Y-3.0 F1000.0 ; go outside print area
G92 E0.0
G1 X60.0 E9.0  F1000.0 ; intro line
G1 X100.0 E12.5  F1000.0 ; intro line
G92 E0.0
M900 K30; Filament gcode
G21 ; set units to millimeters
G90 ; use absolute coordinates
M83 ; use relative distances for extrusion
;BEFORE_LAYER_CHANGE
;0.2


G1 E-0.80000 F2100.00000
G1 Z0.600 F7200.000
;AFTER_LAYER_CHANGE
;0.2
G1 X87.147 Y80.812
G1 Z0.200
G1 E0.80000 F2100.00000
M204 S1000
G1 F1800
G1 X87.836 Y80.698 E0.02190
G1 X112.379 Y80.698 E0.76953
G1 X113.124 Y80.819 E0.02367
G1 X113.796 Y81.170 E0.02378
G1 X114.324 Y81.714 E0.02378
G1 X114.654 Y82.398 E0.02378
G1 X119.486 Y104.653 E0.71406
G1 X119.489 Y122.176 E0.54942
G1 X119.273 Y122.942 E0.02496
G1 X118.814 Y123.597 E0.02508
G1 X118.164 Y124.063 E0.02508
G1 X117.396 Y124.287 E0.02508
G1 X109.007 Y124.299 E0.26303
G1 X108.297 Y124.153 E0.02272
G1 X107.661 Y123.798 E0.02284
G1 X86.114 Y100.671 E0.99108
G1 X85.710 Y100.056 E0.02308
G1 X85.514 Y99.347 E0.02308
G1 X85.501 Y82.946 E0.51425
G1 X85.592 Y82.413 E0.01692
G1 X85.800 Y81.915 E0.01692
G1 X86.115 Y81.477 E0.01692
G1 X86.521 Y81.121 E0.01692
G1 X87.093 Y80.839 E0.02001
G1 F5760
G1 X87.836 Y80.698 E-0.26182
G1 X89.274 Y80.698 E-0.49818
G1 E-0.04000 F2100.00000
G1 Z0.800 F7200.000
G1 X88.839 Y84.039
G1 Z0.200
G1 E0.80000 F2100.00000
G1 F1800
G1 X111.411 Y84.039 E0.70772
G1 X111.411 Y98.111 E0.44121
G1 X111.161 Y98.111 E0.00784
G1 X111.161 Y105.889 E0.24388
G1 X116.161 Y105.889 E0.15677
G1 X116.161 Y120.961 E0.47256
G1 X110.089 Y120.961 E0.19037
G1 X110.089 Y104.111 E0.52832
G1 X107.089 Y104.111 E0.09406
G1 X107.089 Y98.111 E0.18813
G1 X88.839 Y98.111 E0.57222
G1 X88.839 Y84.099 E0.43933
G1 F5760
G1 X91.033 Y84.093 E-0.76000
G1 E-0.04000 F2100.00000
G1 Z0.800 F7200.000
G1 X111.538 Y98.488
G1 Z0.200
G1 E0.80000 F2100.00000
G1 F1800
G1 X111.538 Y105.512 E0.22024
G1 X116.538 Y105.512 E0.15677
G1 X116.538 Y121.338 E0.49621
G1 X109.712 Y121.338 E0.21402
G1 X109.712 Y104.488 E0.52832
G1 X106.712 Y104.488 E0.09406
G1 X106.712 Y98.488 E0.18813
G1 X88.462 Y98.488 E0.57222
G1 X88.462 Y83.662 E0.46485
G1 X111.788 Y83.662 E0.73137
G1 X111.788 Y98.488 E0.46485
G1 X111.598 Y98.488 E0.00596
G1 X111.915 Y98.865 F7200.000
G1 F1800
G1 X111.915 Y105.135 E0.19659
G1 X116.915 Y105.135 E0.15677
G1 X116.915 Y121.715 E0.51985
G1 X109.335 Y121.715 E0.23767
G1 X109.335 Y104.865 E0.52832
G1 X106.335 Y104.865 E0.09406
G1 X106.335 Y98.865 E0.18813
G1 X88.085 Y98.865 E0.57222
G1 X88.085 Y83.285 E0.48850
G1 X112.165 Y83.285 E0.75501
G1 X112.165 Y98.865 E0.48850
G1 X111.975 Y98.865 E0.00596
G1 X111.568 Y99.063 F7200.000
G1 F5760
G1 X111.954 Y101.059 E-0.76000
G1 E-0.04000 F2100.00000
G1 Z0.800 F7200.000
G1 X111.048 Y102.264
G1 Z0.200
G1 E0.80000 F2100.00000
G1 F1800
G1 X107.372 Y98.589 E0.16301
G1 X107.372 Y99.122 E0.01672
G1 X110.878 Y102.628 E0.15548
G1 X110.878 Y103.161 E0.01672
G1 X107.372 Y99.655 E0.15548
G1 X107.372 Y100.189 E0.01672
G1 X110.878 Y103.695 E0.15548
G1 X110.878 Y104.228 E0.01672
G1 X107.372 Y100.722 E0.15548
G1 X107.372 Y101.255 E0.01672
G1 X109.945 Y103.828 E0.11409
G1 X110.372 Y103.828 E0.01340
G1 X110.372 Y104.255 E0.01340
G1 X110.878 Y104.761 E0.02244
G1 X110.878 Y105.295 E0.01672
G1 X110.372 Y104.789 E0.02244
G1 X110.372 Y105.322 E0.01672
G1 X110.878 Y105.828 E0.02244
G1 X110.878 Y106.172 E0.01078
G1 X111.222 Y106.172 E0.01078
G1 X115.878 Y110.828 E0.20648
G1 X115.878 Y110.295 E0.01672
G1 X111.755 Y106.172 E0.18283
G1 X112.289 Y106.172 E0.01672
G1 X115.878 Y109.761 E0.15918
G1 X115.878 Y109.228 E0.01672
G1 X112.822 Y106.172 E0.13553
G1 X113.355 Y106.172 E0.01672
G1 X115.878 Y108.695 E0.11188
G1 X115.878 Y108.161 E0.01672
G1 X113.889 Y106.172 E0.08823
G1 X114.422 Y106.172 E0.01672
G1 X115.878 Y107.628 E0.06457
G1 X115.878 Y107.095 E0.01672
G1 X114.955 Y106.172 E0.04092
G1 X115.489 Y106.172 E0.01672
G1 X116.048 Y106.731 E0.02480
G1 F5760
G1 X115.489 Y106.172 E-0.27389
G1 X114.955 Y106.172 E-0.18472
G1 X115.571 Y106.787 E-0.30139
G1 E-0.04000 F2100.00000
G1 Z0.800 F7200.000
G1 X116.048 Y111.531
G1 Z0.200
G1 E0.80000 F2100.00000
G1 F1800
G1 X110.372 Y105.855 E0.25170
G1 X110.372 Y106.389 E0.01672
G1 X115.878 Y111.895 E0.24418
G1 X115.878 Y112.428 E0.01672
G1 X110.372 Y106.922 E0.24418
G1 X110.372 Y107.455 E0.01672
G1 X115.878 Y112.961 E0.24418
G1 X115.878 Y113.495 E0.01672
G1 X110.372 Y107.989 E0.24418
G1 X110.372 Y108.522 E0.01672
G1 X115.878 Y114.028 E0.24418
G1 X115.878 Y114.561 E0.01672
G1 X110.372 Y109.055 E0.24418
G1 X110.372 Y109.589 E0.01672
G1 X115.878 Y115.095 E0.24418
G1 X115.878 Y115.628 E0.01672
G1 X110.372 Y110.122 E0.24418
G1 X110.372 Y110.655 E0.01672
G1 X115.878 Y116.161 E0.24418
G1 X115.878 Y116.695 E0.01672
G1 X110.372 Y111.189 E0.24418
G1 X110.372 Y111.722 E0.01672
G1 X115.878 Y117.228 E0.24418
G1 X115.878 Y117.761 E0.01672
G1 X110.372 Y112.255 E0.24418
G1 X110.372 Y112.789 E0.01672
G1 X115.878 Y118.295 E0.24418
G1 X115.878 Y118.828 E0.01672
G1 X110.372 Y113.322 E0.24418
G1 X110.372 Y113.855 E0.01672
G1 X115.878 Y119.361 E0.24418
G1 X115.878 Y119.895 E0.01672
G1 X110.372 Y114.389 E0.24418
G1 X110.372 Y114.922 E0.01672
G1 X115.878 Y120.428 E0.24418
G1 X115.878 Y120.678 E0.00784
G1 X115.595 Y120.678 E0.00888
G1 X110.372 Y115.455 E0.23162
G1 X110.372 Y115.989 E0.01672
G1 X115.061 Y120.678 E0.20796
G1 X114.528 Y120.678 E0.01672
G1 X110.372 Y116.522 E0.18431
G1 X110.372 Y117.055 E0.01672
G1 X113.995 Y120.678 E0.16066
G1 X113.462 Y120.678 E0.01672
G1 X110.372 Y117.588 E0.13701
G1 X110.372 Y118.122 E0.01672
G1 X112.928 Y120.678 E0.11336
G1 X112.395 Y120.678 E0.01672
G1 X110.372 Y118.655 E0.08971
G1 X110.372 Y119.188 E0.01672
G1 X111.862 Y120.678 E0.06606
G1 X111.328 Y120.678 E0.01672
G1 X110.372 Y119.722 E0.04241
G1 X110.372 Y120.255 E0.01672
G1 X110.965 Y120.848 E0.02628
G1 F5760
G1 X110.372 Y120.255 E-0.29027
G1 X110.372 Y119.722 E-0.18472
G1 X110.954 Y120.304 E-0.28501
G1 E-0.04000 F2100.00000
G1 Z0.800 F7200.000
G1 X109.581 Y103.998
G1 Z0.200
G1 E0.80000 F2100.00000
G1 F1800
G1 X107.372 Y101.789 E0.09797
G1 X107.372 Y102.322 E0.01672
G1 X108.878 Y103.828 E0.06679
G1 X108.345 Y103.828 E0.01672
G1 X107.372 Y102.855 E0.04314
G1 X107.372 Y103.389 E0.01672
G1 X107.981 Y103.998 E0.02701
G1 F5760
G1 X107.372 Y103.389 E-0.29837
G1 X107.372 Y102.855 E-0.18472
G1 X107.937 Y103.421 E-0.27691
G1 E-0.04000 F2100.00000
G1 Z0.800 F7200.000
G1 X89.715 Y97.998
G1 Z0.200
G1 E0.80000 F2100.00000
G1 F1800
G1 X89.122 Y97.405 E0.02628
G1 X89.122 Y96.872 E0.01672
G1 X90.078 Y97.828 E0.04241
G1 X90.612 Y97.828 E0.01672
G1 X89.122 Y96.338 E0.06606
G1 X89.122 Y95.805 E0.01672
G1 X91.145 Y97.828 E0.08971
G1 X91.678 Y97.828 E0.01672
G1 X89.122 Y95.272 E0.11336
G1 X89.122 Y94.739 E0.01672
G1 X92.211 Y97.828 E0.13701
G1 X92.745 Y97.828 E0.01672
G1 X89.122 Y94.205 E0.16066
G1 X89.122 Y93.672 E0.01672
G1 X93.278 Y97.828 E0.18431
G1 X93.811 Y97.828 E0.01672
G1 X89.122 Y93.139 E0.20796
G1 X89.122 Y92.605 E0.01672
G1 X94.345 Y97.828 E0.23162
G1 X94.878 Y97.828 E0.01672
G1 X89.122 Y92.072 E0.25527
G1 X89.122 Y91.539 E0.01672
G1 X95.411 Y97.828 E0.27892
G1 X95.945 Y97.828 E0.01672
G1 X89.122 Y91.005 E0.30257
G1 X89.122 Y90.472 E0.01672
G1 X96.478 Y97.828 E0.32622
G1 X97.011 Y97.828 E0.01672
G1 X89.122 Y89.939 E0.34987
G1 X89.122 Y89.405 E0.01672
G1 X97.545 Y97.828 E0.37352
G1 X98.078 Y97.828 E0.01672
G1 X89.122 Y88.872 E0.39717
G1 X89.122 Y88.339 E0.01672
G1 X98.611 Y97.828 E0.42082
G1 X99.145 Y97.828 E0.01672
G1 X89.122 Y87.805 E0.44448
G1 X89.122 Y87.272 E0.01672
G1 X99.678 Y97.828 E0.46813
G1 X100.211 Y97.828 E0.01672
G1 X89.122 Y86.739 E0.49178
G1 X89.122 Y86.205 E0.01672
G1 X100.745 Y97.828 E0.51543
G1 X101.278 Y97.828 E0.01672
G1 X89.122 Y85.672 E0.53908
G1 X89.122 Y85.139 E0.01672
G1 X101.811 Y97.828 E0.56273
G1 X102.345 Y97.828 E0.01672
G1 X89.122 Y84.605 E0.58638
G1 X89.122 Y84.322 E0.00888
G1 X89.372 Y84.322 E0.00784
G1 X102.878 Y97.828 E0.59895
G1 X103.411 Y97.828 E0.01672
G1 X89.905 Y84.322 E0.59895
G1 X90.439 Y84.322 E0.01672
G1 X103.945 Y97.828 E0.59895
G1 X104.478 Y97.828 E0.01672
G1 X90.972 Y84.322 E0.59895
G1 X91.505 Y84.322 E0.01672
G1 X105.011 Y97.828 E0.59895
G1 X105.545 Y97.828 E0.01672
G1 X92.039 Y84.322 E0.59895
G1 X92.572 Y84.322 E0.01672
G1 X106.078 Y97.828 E0.59895
G1 X106.611 Y97.828 E0.01672
G1 X93.105 Y84.322 E0.59895
G1 X93.639 Y84.322 E0.01672
G1 X110.878 Y101.561 E0.76451
G1 X110.878 Y101.028 E0.01672
G1 X94.172 Y84.322 E0.74086
G1 X94.705 Y84.322 E0.01672
G1 X110.878 Y100.495 E0.71721
G1 X110.878 Y99.961 E0.01672
G1 X95.239 Y84.322 E0.69356
G1 X95.772 Y84.322 E0.01672
G1 X110.878 Y99.428 E0.66990
G1 X110.878 Y98.895 E0.01672
G1 X96.305 Y84.322 E0.64625
G1 X96.839 Y84.322 E0.01672
G1 X110.878 Y98.361 E0.62260
G1 X110.878 Y97.828 E0.01672
G1 X97.372 Y84.322 E0.59895
G1 X97.905 Y84.322 E0.01672
G1 X111.128 Y97.545 E0.58639
G1 X111.128 Y97.011 E0.01672
G1 X98.439 Y84.322 E0.56274
G1 X98.972 Y84.322 E0.01672
G1 X111.128 Y96.478 E0.53908
G1 X111.128 Y95.945 E0.01672
G1 X99.505 Y84.322 E0.51543
G1 X100.039 Y84.322 E0.01672
G1 X111.128 Y95.411 E0.49178
G1 X111.128 Y94.878 E0.01672
G1 X100.572 Y84.322 E0.46813
G1 X101.105 Y84.322 E0.01672
G1 X111.128 Y94.345 E0.44448
G1 X111.128 Y93.812 E0.01672
G1 X101.638 Y84.322 E0.42083
G1 X102.172 Y84.322 E0.01672
G1 X111.128 Y93.278 E0.39718
G1 X111.128 Y92.745 E0.01672
G1 X102.705 Y84.322 E0.37353
G1 X103.238 Y84.322 E0.01672
G1 X111.128 Y92.212 E0.34987
G1 X111.128 Y91.678 E0.01672
G1 X103.772 Y84.322 E0.32622
G1 X104.305 Y84.322 E0.01672
G1 X111.128 Y91.145 E0.30257
G1 X111.128 Y90.612 E0.01672
G1 X104.838 Y84.322 E0.27892
G1 X105.372 Y84.322 E0.01672
G1 X111.128 Y90.078 E0.25527
G1 X111.128 Y89.545 E0.01672
G1 X105.905 Y84.322 E0.23162
G1 X106.438 Y84.322 E0.01672
G1 X111.128 Y89.012 E0.20797
G1 X111.128 Y88.478 E0.01672
G1 X106.972 Y84.322 E0.18432
G1 X107.505 Y84.322 E0.01672
G1 X111.128 Y87.945 E0.16067
G1 X111.128 Y87.412 E0.01672
G1 X108.038 Y84.322 E0.13701
G1 X108.572 Y84.322 E0.01672
G1 X111.128 Y86.878 E0.11336
G1 X111.128 Y86.345 E0.01672
G1 X109.105 Y84.322 E0.08971
G1 X109.638 Y84.322 E0.01672
G1 X111.128 Y85.812 E0.06606
G1 X111.128 Y85.278 E0.01672
G1 X110.172 Y84.322 E0.04241
G1 X110.705 Y84.322 E0.01672
G1 X111.298 Y84.915 E0.02628
M106 S244.8
;BEFORE_LAYER_CHANGE
;0.35


G1 F5760
G1 X110.705 Y84.322 E-0.29030
G1 X110.172 Y84.322 E-0.18472
G1 X110.754 Y84.904 E-0.28498
G1 E-0.04000 F2100.00000
G1 Z0.800 F7200.000
;AFTER_LAYER_CHANGE
;0.35
G1 X114.324 Y81.714
G1 Z0.350
G1 E0.80000 F2100.00000
G1 F3000
G1 X114.654 Y82.398 E0.01835
G1 X119.486 Y104.653 E0.55078
G1 X119.489 Y122.176 E0.42379
G1 X119.273 Y122.942 E0.01925
G1 X118.814 Y123.597 E0.01934
G1 X118.164 Y124.063 E0.01934
G1 X117.396 Y124.287 E0.01934
G1 X109.007 Y124.299 E0.20289
G1 X108.297 Y124.153 E0.01753
G1 X107.661 Y123.798 E0.01762
G1 X86.114 Y100.671 E0.76446
G1 X85.710 Y100.056 E0.01780
G1 X85.514 Y99.347 E0.01780
G1 X85.501 Y82.946 E0.39666
G1 X85.592 Y82.413 E0.01305
G1 X85.800 Y81.915 E0.01305
G1 X86.115 Y81.477 E0.01305
G1 X86.521 Y81.121 E0.01305
G1 X87.147 Y80.812 E0.01689
G1 X87.836 Y80.698 E0.01689
G1 X112.379 Y80.698 E0.59357
G1 X113.124 Y80.819 E0.01825
G1 X113.796 Y81.170 E0.01835
G1 X114.282 Y81.671 E0.01689
G1 F5760
G1 X114.654 Y82.398 E-0.28252
G1 X114.946 Y83.745 E-0.47748
G1 E-0.04000 F2100.00000
G1 Z0.950 F7200.000
G1 X111.314 Y84.136
G1 Z0.350
G1 E0.80000 F2100.00000
M204 S800
G1 F3000
G1 X111.314 Y98.014 E0.36162
G1 X111.064 Y98.014 E0.00651
G1 X111.064 Y105.986 E0.20770
G1 X116.064 Y105.986 E0.13028
G1 X116.064 Y120.864 E0.38768
G1 X110.186 Y120.864 E0.15318
G1 X110.186 Y104.014 E0.43904
G1 X107.186 Y104.014 E0.07817
G1 X107.186 Y98.014 E0.15633
G1 X88.936 Y98.014 E0.47552
G1 X88.936 Y84.136 E0.36162
G1 X111.254 Y84.136 E0.58153
M204 S1000
G1 F5760
G1 X111.264 Y86.330 E-0.76000
G1 E-0.04000 F2100.00000
G1 Z0.950 F7200.000
G1 X111.482 Y98.432
G1 Z0.350
G1 E0.80000 F2100.00000
M204 S800
G1 F3000
G1 X111.482 Y105.568 E0.18592
G1 X116.482 Y105.568 E0.13028
G1 X116.482 Y121.282 E0.40945
G1 X109.768 Y121.282 E0.17495
G1 X109.768 Y104.432 E0.43904
G1 X106.768 Y104.432 E0.07817
G1 X106.768 Y98.432 E0.15633
G1 X88.518 Y98.432 E0.47552
G1 X88.518 Y83.718 E0.38339
G1 X111.732 Y83.718 E0.60487
G1 X111.732 Y98.432 E0.38339
G1 X111.542 Y98.432 E0.00495
M204 S1000
G1 X111.900 Y98.850 F7200.000
M204 S800
G1 F2400
G1 X111.900 Y105.150 E0.16415
G1 X116.900 Y105.150 E0.13028
G1 X116.900 Y121.700 E0.43122
G1 X109.350 Y121.700 E0.19672
G1 X109.350 Y104.850 E0.43904
G1 X106.350 Y104.850 E0.07817
G1 X106.350 Y98.850 E0.15633
G1 X88.100 Y98.850 E0.47552
G1 X88.100 Y83.300 E0.40517
G1 X112.150 Y83.300 E0.62664
G1 X112.150 Y98.850 E0.40517
G1 X111.960 Y98.850 E0.00495
M204 S1000
G1 X111.553 Y99.048 F7200.000
G1 F5760
G1 X111.939 Y101.044 E-0.76000
G1 E-0.04000 F2100.00000
G1 Z0.950 F7200.000
G1 X115.091 Y120.739
G1 Z0.350
G1 E0.80000 F2100.00000
M204 S2000
G1 F3000
G1 X115.751 Y120.079 E0.02439
G1 X115.751 Y119.487 E0.01550
G1 X114.687 Y120.551 E0.03936
G1 X114.094 Y120.551 E0.01550
G1 X115.751 Y118.894 E0.06128
G1 X115.751 Y118.301 E0.01550
G1 X113.501 Y120.551 E0.08320
G1 X112.908 Y120.551 E0.01550
G1 X115.751 Y117.708 E0.10513
G1 X115.751 Y117.115 E0.01550
G1 X112.315 Y120.551 E0.12705
G1 X111.722 Y120.551 E0.01550
G1 X115.751 Y116.522 E0.14897
G1 X115.751 Y115.929 E0.01550
G1 X111.129 Y120.551 E0.17089
G1 X110.536 Y120.551 E0.01550
G1 X115.751 Y115.336 E0.19281
G1 X115.751 Y114.743 E0.01550
G1 X110.499 Y119.995 E0.19419
G1 X110.499 Y119.403 E0.01550
G1 X115.751 Y114.150 E0.19419
G1 X115.751 Y113.558 E0.01550
G1 X110.499 Y118.810 E0.19419
G1 X110.499 Y118.217 E0.01550
G1 X115.751 Y112.965 E0.19419
G1 X115.751 Y112.372 E0.01550
G1 X110.499 Y117.624 E0.19419
G1 X110.499 Y117.031 E0.01550
G1 X115.751 Y111.779 E0.19419
G1 X115.751 Y111.186 E0.01550
G1 X110.499 Y116.438 E0.19419
G1 X110.499 Y115.845 E0.01550
G1 X115.751 Y110.593 E0.19419
G1 X115.751 Y110.000 E0.01550
G1 X110.499 Y115.252 E0.19419
G1 X110.499 Y114.659 E0.01550
G1 X115.751 Y109.407 E0.19419
G1 X115.751 Y108.814 E0.01550
G1 X110.499 Y114.067 E0.19419
G1 X110.499 Y113.474 E0.01550
G1 X115.751 Y108.222 E0.19419
G1 X115.751 Y107.629 E0.01550
G1 X110.499 Y112.881 E0.19419
G1 X110.499 Y112.288 E0.01550
G1 X115.751 Y107.036 E0.19419
G1 X115.751 Y106.443 E0.01550
G1 X110.499 Y111.695 E0.19419
G1 X110.499 Y111.102 E0.01550
G1 X115.302 Y106.299 E0.17759
G1 X114.709 Y106.299 E0.01550
G1 X110.499 Y110.509 E0.15567
G1 X110.499 Y109.916 E0.01550
G1 X114.116 Y106.299 E0.13375
G1 X113.523 Y106.299 E0.01550
G1 X110.499 Y109.323 E0.11183
G1 X110.499 Y108.730 E0.01550
G1 X112.930 Y106.299 E0.08990
G1 X112.338 Y106.299 E0.01550
G1 X110.499 Y108.138 E0.06798
G1 X110.499 Y107.545 E0.01550
G1 X111.745 Y106.299 E0.04606
G1 X111.152 Y106.299 E0.01550
G1 X110.499 Y106.952 E0.02414
G1 X110.499 Y106.359 E0.01550
G1 X110.751 Y106.107 E0.00932
G1 X110.751 Y105.514 E0.01550
G1 X110.499 Y105.766 E0.00932
G1 X110.499 Y105.173 E0.01550
G1 X110.751 Y104.921 E0.00932
G1 X110.751 Y104.328 E0.01550
G1 X110.499 Y104.580 E0.00932
G1 X110.499 Y103.987 E0.01550
G1 X110.751 Y103.735 E0.00932
G1 X110.751 Y103.142 E0.01550
G1 X110.192 Y103.701 E0.02066
G1 X109.599 Y103.701 E0.01550
G1 X110.751 Y102.549 E0.04258
G1 X110.751 Y101.957 E0.01550
G1 X109.007 Y103.701 E0.06450
G1 X108.414 Y103.701 E0.01550
G1 X110.751 Y101.364 E0.08642
G1 X110.751 Y100.771 E0.01550
G1 X107.821 Y103.701 E0.10835
G1 X107.499 Y103.701 E0.00841
G1 X107.499 Y103.430 E0.00709
G1 X110.751 Y100.178 E0.12024
G1 X110.751 Y99.585 E0.01550
G1 X107.499 Y102.837 E0.12024
