; generated by Slic3r Prusa Edition 1.39.2+win64 on 2018-07-02 at 12:18:50

; 

; external perimeters extrusion width = 0.45mm
; perimeters extrusion width = 0.45mm
; infill extrusion width = 0.45mm
; solid infill extrusion width = 0.45mm
; top infill extrusion width = 0.45mm
; first layer extrusion width = 0.42mm

M107
M115 U3.1.0 ; tell printer latest fw version
M83  ; extruder relative mode
M104 S205 ; set extruder temp
M140 S55 ; set bed temp
M190 S55 ; wait for bed temp
M109 S205 ; wait for extruder temp
G28 W ; home all without mesh bed level
G80 ; mesh bed leveling
G1 Y-3.0 F1000.0 ; go outside print area
G92 E0.0
G1 X60.0 E9.0  F1000.0 ; intro line
G1 X100.0 E12.5  F1000.0 ; intro line
G92 E0.0
M900 K30; Filament gcode
G21 ; set units to millimeters
G90 ; use absolute coordinates
M83 ; use relative distances for extrusion
;BEFORE_LAYER_CHANGE
;0.2


G1 E-0.80000 F2100.00000
G1 Z0.600 F7200.000
;AFTER_LAYER_CHANGE
;0.2
G1 X67.475 Y74.241
G1 Z0.200
G1 E0.80000 F2100.00000
M204 S1000
G1 F1800
G1 X69.042 Y72.478 E0.07398
G1 X69.409 Y72.147 E0.01550
G1 X71.517 Y70.676 E0.08059
G1 X73.703 Y69.720 E0.07481
G1 X76.315 Y69.182 E0.08362
G1 X78.497 Y69.123 E0.06845
G1 X126.504 Y69.123 E1.50521
G1 X128.844 Y69.197 E0.07342
G1 X131.345 Y69.735 E0.08021
G1 X133.677 Y70.775 E0.08006
G1 X135.625 Y72.173 E0.07518
G1 X137.646 Y74.428 E0.09493
G1 X138.820 Y76.496 E0.07457
G1 X139.632 Y79.068 E0.08456
G1 X139.877 Y81.487 E0.07625
G1 X139.871 Y123.604 E1.32053
G1 X139.604 Y126.027 E0.07644
G1 X138.809 Y128.470 E0.08054
G1 X137.525 Y130.699 E0.08065
G1 X135.955 Y132.465 E0.07410
G1 X133.719 Y134.141 E0.08761
G1 X131.398 Y135.186 E0.07982
G1 X128.878 Y135.739 E0.08089
G1 X126.508 Y135.877 E0.07446
G1 X78.496 Y135.877 E1.50536
G1 X76.322 Y135.759 E0.06829
G1 X73.452 Y135.126 E0.09212
G1 X71.296 Y134.150 E0.07421
G1 X69.216 Y132.636 E0.08065
G1 X67.487 Y130.716 E0.08101
G1 X66.193 Y128.475 E0.08113
G1 X65.394 Y126.015 E0.08113
G1 X65.123 Y123.445 E0.08101
G1 X65.130 Y81.317 E1.32088
G1 X65.396 Y78.913 E0.07584
G1 X66.191 Y76.470 E0.08054
G1 X67.445 Y74.293 E0.07877
G1 F5760
G1 X68.894 Y72.646 E-0.76000
G1 E-0.04000 F2100.00000
G1 Z0.800 F7200.000
G1 X110.914 Y125.539
G1 Z0.200
G1 E0.80000 F2100.00000
G1 F1800
G1 X111.315 Y125.248 E0.01553
G1 X111.768 Y125.046 E0.01553
G1 X112.252 Y124.944 E0.01553
G1 X112.748 Y124.944 E0.01553
G1 X113.232 Y125.046 E0.01553
G1 X113.685 Y125.248 E0.01553
G1 X114.086 Y125.539 E0.01553
G1 X114.417 Y125.907 E0.01553
G1 X114.665 Y126.336 E0.01553
G1 X114.818 Y126.807 E0.01553
G1 X114.869 Y127.300 E0.01553
G1 X114.818 Y127.793 E0.01553
G1 X114.665 Y128.264 E0.01553
G1 X114.417 Y128.693 E0.01553
G1 X114.086 Y129.061 E0.01553
G1 X113.685 Y129.352 E0.01553
G1 X113.232 Y129.554 E0.01553
G1 X112.748 Y129.656 E0.01553
G1 X112.252 Y129.656 E0.01553
G1 X111.768 Y129.554 E0.01553
G1 X111.315 Y129.352 E0.01553
G1 X110.914 Y129.061 E0.01553
G1 X110.583 Y128.693 E0.01553
G1 X110.335 Y128.264 E0.01553
G1 X110.182 Y127.793 E0.01553
G1 X110.131 Y127.300 E0.01553
G1 X110.182 Y126.807 E0.01553
G1 X110.335 Y126.336 E0.01553
G1 X110.583 Y125.907 E0.01553
G1 X110.874 Y125.584 E0.01365
G1 X111.155 Y125.836 F7200.000
G1 F1800
G1 X111.505 Y125.576 E0.01367
G1 X111.885 Y125.407 E0.01305
G1 X112.292 Y125.321 E0.01305
G1 X112.708 Y125.321 E0.01304
G1 X113.115 Y125.407 E0.01305
G1 X113.495 Y125.576 E0.01305
G1 X113.832 Y125.821 E0.01305
G1 X114.110 Y126.130 E0.01304
G1 X114.318 Y126.490 E0.01305
G1 X114.447 Y126.886 E0.01305
G1 X114.490 Y127.300 E0.01304
G1 X114.447 Y127.714 E0.01305
G1 X114.318 Y128.110 E0.01305
G1 X114.110 Y128.470 E0.01305
G1 X113.832 Y128.779 E0.01304
G1 X113.495 Y129.024 E0.01305
G1 X113.115 Y129.193 E0.01305
G1 X112.708 Y129.279 E0.01305
G1 X112.292 Y129.279 E0.01304
G1 X111.885 Y129.193 E0.01305
G1 X111.505 Y129.024 E0.01305
G1 X111.168 Y128.779 E0.01305
G1 X110.890 Y128.470 E0.01304
G1 X110.682 Y128.110 E0.01305
G1 X110.553 Y127.714 E0.01305
G1 X110.510 Y127.300 E0.01304
G1 X110.553 Y126.886 E0.01304
G1 X110.682 Y126.490 E0.01305
G1 X110.890 Y126.130 E0.01305
G1 X111.114 Y125.881 E0.01052
G1 X111.422 Y126.103 F7200.000
G1 F1800
G1 X111.694 Y125.905 E0.01056
G1 X112.002 Y125.768 E0.01056
G1 X112.332 Y125.698 E0.01056
G1 X112.668 Y125.698 E0.01056
G1 X112.998 Y125.768 E0.01056
G1 X113.306 Y125.905 E0.01056
G1 X113.578 Y126.103 E0.01056
G1 X113.803 Y126.353 E0.01056
G1 X113.972 Y126.645 E0.01056
G1 X114.076 Y126.965 E0.01056
G1 X114.111 Y127.300 E0.01056
G1 X114.076 Y127.635 E0.01056
G1 X113.972 Y127.955 E0.01056
G1 X113.803 Y128.247 E0.01056
G1 X113.578 Y128.497 E0.01056
G1 X113.306 Y128.695 E0.01056
G1 X112.998 Y128.832 E0.01056
G1 X112.668 Y128.902 E0.01056
G1 X112.332 Y128.902 E0.01056
G1 X112.002 Y128.832 E0.01056
G1 X111.694 Y128.695 E0.01056
G1 X111.422 Y128.497 E0.01056
G1 X111.197 Y128.247 E0.01056
G1 X111.028 Y127.955 E0.01056
G1 X110.924 Y127.635 E0.01056
G1 X110.889 Y127.300 E0.01056
G1 X110.924 Y126.965 E0.01056
G1 X111.028 Y126.645 E0.01056
G1 X111.197 Y126.353 E0.01056
G1 X111.382 Y126.147 E0.00868
G1 X111.352 Y125.773 F7200.000
G1 F5760
G1 X111.694 Y125.905 E-0.13706
G1 X112.002 Y125.768 E-0.11667
G1 X112.332 Y125.698 E-0.11666
G1 X112.668 Y125.698 E-0.11663
G1 X112.998 Y125.768 E-0.11666
G1 X113.306 Y125.905 E-0.11667
G1 X113.398 Y125.972 E-0.03964
G1 E-0.04000 F2100.00000
G1 Z0.800 F7200.000
G1 X123.764 Y124.234
G1 Z0.200
G1 E0.80000 F2100.00000
G1 F1800
G1 X123.681 Y123.440 E0.02503
G1 X123.764 Y122.646 E0.02503
G1 X124.011 Y121.887 E0.02504
G1 X124.410 Y121.195 E0.02504
G1 X124.944 Y120.602 E0.02504
G1 X125.590 Y120.132 E0.02504
G1 X126.320 Y119.807 E0.02503
G1 X127.101 Y119.641 E0.02504
G1 X127.899 Y119.641 E0.02504
G1 X128.680 Y119.807 E0.02504
G1 X129.410 Y120.132 E0.02503
G1 X130.056 Y120.602 E0.02504
G1 X130.590 Y121.195 E0.02504
G1 X130.989 Y121.887 E0.02504
G1 X131.236 Y122.646 E0.02504
G1 X131.319 Y123.440 E0.02503
G1 X131.236 Y124.234 E0.02503
G1 X130.989 Y124.993 E0.02504
G1 X130.590 Y125.685 E0.02504
G1 X130.056 Y126.278 E0.02504
G1 X129.410 Y126.748 E0.02504
G1 X128.680 Y127.073 E0.02504
G1 X127.899 Y127.239 E0.02504
G1 X127.101 Y127.239 E0.02504
G1 X126.320 Y127.073 E0.02504
G1 X125.590 Y126.748 E0.02504
G1 X124.944 Y126.278 E0.02504
G1 X124.410 Y125.685 E0.02504
G1 X124.011 Y124.993 E0.02504
G1 X123.783 Y124.291 E0.02316
G1 X124.141 Y124.175 F7200.000
G1 F1800
G1 X124.060 Y123.440 E0.02317
G1 X124.135 Y122.725 E0.02255
G1 X124.357 Y122.041 E0.02255
G1 X124.717 Y121.418 E0.02255
G1 X125.198 Y120.883 E0.02255
G1 X125.780 Y120.461 E0.02255
G1 X126.437 Y120.168 E0.02255
G1 X127.140 Y120.019 E0.02255
G1 X127.860 Y120.019 E0.02255
G1 X128.563 Y120.168 E0.02255
G1 X129.220 Y120.461 E0.02255
G1 X129.802 Y120.883 E0.02255
G1 X130.283 Y121.418 E0.02255
G1 X130.643 Y122.041 E0.02255
G1 X130.865 Y122.725 E0.02255
G1 X130.940 Y123.440 E0.02255
G1 X130.865 Y124.155 E0.02255
G1 X130.643 Y124.839 E0.02255
G1 X130.283 Y125.462 E0.02255
G1 X129.802 Y125.997 E0.02255
G1 X129.220 Y126.419 E0.02255
G1 X128.563 Y126.712 E0.02255
G1 X127.860 Y126.861 E0.02255
G1 X127.140 Y126.861 E0.02255
G1 X126.437 Y126.712 E0.02255
G1 X125.780 Y126.419 E0.02255
G1 X125.198 Y125.997 E0.02255
G1 X124.717 Y125.462 E0.02255
G1 X124.357 Y124.839 E0.02255
G1 X124.160 Y124.232 E0.02003
G1 X124.518 Y124.115 F7200.000
G1 F1800
G1 X124.439 Y123.440 E0.02132
G1 X124.506 Y122.804 E0.02006
G1 X124.703 Y122.195 E0.02007
G1 X125.023 Y121.641 E0.02007
G1 X125.452 Y121.165 E0.02007
G1 X125.969 Y120.789 E0.02007
G1 X126.554 Y120.529 E0.02006
G1 X127.180 Y120.396 E0.02007
G1 X127.820 Y120.396 E0.02007
G1 X128.446 Y120.529 E0.02007
G1 X129.031 Y120.789 E0.02006
G1 X129.548 Y121.165 E0.02007
G1 X129.977 Y121.641 E0.02007
G1 X130.296 Y122.195 E0.02007
G1 X130.494 Y122.804 E0.02007
G1 X130.561 Y123.440 E0.02006
G1 X130.494 Y124.076 E0.02006
G1 X130.296 Y124.685 E0.02007
G1 X129.977 Y125.239 E0.02007
G1 X129.548 Y125.715 E0.02007
G1 X129.031 Y126.091 E0.02006
G1 X128.446 Y126.351 E0.02007
G1 X127.820 Y126.484 E0.02007
G1 X127.180 Y126.484 E0.02007
G1 X126.554 Y126.351 E0.02007
G1 X125.969 Y126.091 E0.02007
G1 X125.452 Y125.715 E0.02006
G1 X125.023 Y125.239 E0.02007
G1 X124.703 Y124.685 E0.02007
G1 X124.537 Y124.172 E0.01691
G1 X124.137 Y123.995 F7200.000
G1 F5760
G1 X124.439 Y123.440 E-0.25588
G1 X124.506 Y122.804 E-0.22163
G1 X124.703 Y122.195 E-0.22166
G1 X124.791 Y122.043 E-0.06083
G1 E-0.04000 F2100.00000
G1 Z0.800 F7200.000
G1 X111.035 Y113.953
G1 Z0.200
G1 E0.80000 F2100.00000
G1 F1800
G1 X110.424 Y114.632 E0.02864
G1 X109.685 Y115.169 E0.02864
G1 X108.850 Y115.541 E0.02864
G1 X107.957 Y115.731 E0.02864
G1 X107.043 Y115.731 E0.02864
G1 X106.150 Y115.541 E0.02864
G1 X105.315 Y115.169 E0.02864
G1 X104.576 Y114.632 E0.02864
G1 X103.965 Y113.953 E0.02864
G1 X103.508 Y113.162 E0.02864
G1 X103.226 Y112.293 E0.02864
G1 X103.131 Y111.385 E0.02864
G1 X103.226 Y110.477 E0.02864
G1 X103.509 Y109.606 E0.02870
G1 X103.976 Y108.805 E0.02908
G1 X104.576 Y108.138 E0.02813
G1 X105.315 Y107.601 E0.02864
G1 X106.150 Y107.229 E0.02864
G1 X107.043 Y107.039 E0.02864
G1 X107.957 Y107.039 E0.02864
G1 X108.850 Y107.229 E0.02864
G1 X109.685 Y107.601 E0.02864
G1 X110.424 Y108.138 E0.02864
G1 X111.035 Y108.817 E0.02864
G1 X111.492 Y109.608 E0.02864
G1 X111.774 Y110.477 E0.02864
G1 X111.869 Y111.385 E0.02864
G1 X111.774 Y112.293 E0.02864
G1 X111.492 Y113.162 E0.02864
G1 X111.065 Y113.901 E0.02676
G1 X110.738 Y113.713 F7200.000
G1 F1800
G1 X110.170 Y114.350 E0.02678
G1 X109.495 Y114.841 E0.02615
G1 X108.733 Y115.180 E0.02616
G1 X107.917 Y115.353 E0.02616
G1 X107.083 Y115.353 E0.02616
G1 X106.267 Y115.180 E0.02616
G1 X105.505 Y114.841 E0.02616
G1 X104.830 Y114.350 E0.02615
G1 X104.272 Y113.731 E0.02616
G1 X103.855 Y113.008 E0.02616
G1 X103.597 Y112.215 E0.02615
G1 X103.510 Y111.385 E0.02616
G1 X103.597 Y110.555 E0.02616
G1 X103.855 Y109.761 E0.02619
G1 X104.282 Y109.028 E0.02659
G1 X104.830 Y108.420 E0.02567
G1 X105.505 Y107.929 E0.02615
G1 X106.267 Y107.590 E0.02616
G1 X107.083 Y107.417 E0.02616
G1 X107.917 Y107.417 E0.02616
G1 X108.733 Y107.590 E0.02616
G1 X109.495 Y107.929 E0.02616
G1 X110.170 Y108.420 E0.02615
G1 X110.728 Y109.040 E0.02616
G1 X111.145 Y109.762 E0.02616
G1 X111.403 Y110.555 E0.02615
G1 X111.490 Y111.385 E0.02616
G1 X111.403 Y112.215 E0.02616
G1 X111.145 Y113.008 E0.02615
G1 X110.768 Y113.661 E0.02364
G1 X110.442 Y113.472 F7200.000
G1 F1800
G1 X109.916 Y114.069 E0.02492
G1 X109.306 Y114.512 E0.02367
G1 X108.616 Y114.819 E0.02367
G1 X107.877 Y114.976 E0.02367
G1 X107.123 Y114.976 E0.02367
G1 X106.384 Y114.819 E0.02367
G1 X105.694 Y114.512 E0.02367
G1 X105.084 Y114.069 E0.02367
G1 X104.578 Y113.508 E0.02367
G1 X104.201 Y112.854 E0.02367
G1 X103.968 Y112.136 E0.02367
G1 X103.889 Y111.385 E0.02367
G1 X103.968 Y110.634 E0.02367
G1 X104.201 Y109.916 E0.02368
G1 X104.588 Y109.251 E0.02411
G1 X105.084 Y108.701 E0.02321
G1 X105.694 Y108.258 E0.02367
G1 X106.384 Y107.951 E0.02367
G1 X107.123 Y107.794 E0.02367
G1 X107.877 Y107.794 E0.02367
G1 X108.616 Y107.951 E0.02367
G1 X109.306 Y108.258 E0.02367
G1 X109.916 Y108.701 E0.02367
G1 X110.422 Y109.262 E0.02367
G1 X110.799 Y109.916 E0.02367
G1 X111.032 Y110.634 E0.02367
G1 X111.111 Y111.385 E0.02367
G1 X111.032 Y112.136 E0.02367
G1 X110.799 Y112.854 E0.02367
G1 X110.472 Y113.420 E0.02052
G1 X110.607 Y113.837 F7200.000
G1 F5760
G1 X109.916 Y114.069 E-0.29569
G1 X109.306 Y114.512 E-0.26146
G1 X108.771 Y114.751 E-0.20285
G1 E-0.04000 F2100.00000
G1 Z0.800 F7200.000
G1 X108.002 Y105.815
G1 Z0.200
G1 E0.80000 F2100.00000
G1 F1800
G1 X107.500 Y105.869 E0.01582
G1 X107.007 Y105.818 E0.01553
G1 X106.536 Y105.665 E0.01553
G1 X106.107 Y105.417 E0.01553
G1 X105.739 Y105.085 E0.01553
G1 X105.448 Y104.685 E0.01553
G1 X105.246 Y104.232 E0.01553
G1 X105.144 Y103.748 E0.01553
G1 X105.144 Y103.252 E0.01552
G1 X105.246 Y102.768 E0.01553
G1 X105.448 Y102.315 E0.01553
G1 X105.739 Y101.915 E0.01553
G1 X106.107 Y101.583 E0.01553
G1 X106.536 Y101.335 E0.01553
G1 X107.007 Y101.182 E0.01553
G1 X107.500 Y101.131 E0.01553
G1 X107.993 Y101.182 E0.01553
G1 X108.464 Y101.335 E0.01553
G1 X108.893 Y101.583 E0.01553
G1 X109.261 Y101.915 E0.01553
G1 X109.552 Y102.315 E0.01553
G1 X109.754 Y102.768 E0.01553
G1 X109.856 Y103.252 E0.01553
G1 X109.856 Y103.748 E0.01552
G1 X109.754 Y104.232 E0.01553
G1 X109.552 Y104.685 E0.01553
G1 X109.261 Y105.085 E0.01553
G1 X108.893 Y105.417 E0.01553
G1 X108.464 Y105.665 E0.01553
G1 X108.059 Y105.796 E0.01336
G1 X107.942 Y105.438 F7200.000
G1 F1800
G1 X107.500 Y105.490 E0.01396
G1 X107.086 Y105.447 E0.01305
G1 X106.690 Y105.318 E0.01305
G1 X106.330 Y105.110 E0.01305
G1 X106.021 Y104.832 E0.01304
G1 X105.776 Y104.495 E0.01305
G1 X105.607 Y104.115 E0.01305
G1 X105.521 Y103.708 E0.01305
G1 X105.521 Y103.292 E0.01304
G1 X105.607 Y102.885 E0.01305
G1 X105.776 Y102.505 E0.01305
G1 X106.021 Y102.168 E0.01305
G1 X106.330 Y101.890 E0.01304
G1 X106.690 Y101.682 E0.01305
G1 X107.086 Y101.553 E0.01305
G1 X107.500 Y101.510 E0.01305
G1 X107.914 Y101.553 E0.01305
G1 X108.310 Y101.682 E0.01305
G1 X108.670 Y101.890 E0.01305
G1 X108.979 Y102.168 E0.01305
G1 X109.224 Y102.505 E0.01305
G1 X109.393 Y102.885 E0.01305
G1 X109.479 Y103.292 E0.01305
G1 X109.479 Y103.708 E0.01304
G1 X109.393 Y104.115 E0.01305
G1 X109.224 Y104.495 E0.01305
G1 X108.979 Y104.832 E0.01305
G1 X108.670 Y105.110 E0.01305
G1 X108.310 Y105.318 E0.01305
G1 X107.999 Y105.419 E0.01023
G1 X107.835 Y105.076 F7200.000
G1 F1800
G1 X107.500 Y105.111 E0.01056
G1 X107.165 Y105.076 E0.01056
G1 X106.845 Y104.972 E0.01056
G1 X106.553 Y104.803 E0.01056
G1 X106.303 Y104.578 E0.01056
G1 X106.105 Y104.306 E0.01056
G1 X105.968 Y103.998 E0.01056
G1 X105.898 Y103.668 E0.01056
G1 X105.898 Y103.332 E0.01056
G1 X105.968 Y103.002 E0.01056
G1 X106.105 Y102.694 E0.01056
G1 X106.303 Y102.422 E0.01056
G1 X106.553 Y102.197 E0.01056
G1 X106.845 Y102.028 E0.01056
G1 X107.165 Y101.924 E0.01056
G1 X107.500 Y101.889 E0.01056
G1 X107.835 Y101.924 E0.01056
G1 X108.155 Y102.028 E0.01056
G1 X108.447 Y102.197 E0.01056
G1 X108.697 Y102.422 E0.01056
G1 X108.895 Y102.694 E0.01056
G1 X109.032 Y103.002 E0.01056
G1 X109.102 Y103.332 E0.01056
G1 X109.102 Y103.668 E0.01056
G1 X109.032 Y103.998 E0.01056
G1 X108.895 Y104.306 E0.01056
G1 X108.697 Y104.578 E0.01056
G1 X108.447 Y104.803 E0.01056
G1 X108.155 Y104.972 E0.01056
G1 X107.892 Y105.057 E0.00868
G1 X107.731 Y105.396 F7200.000
G1 F5760
G1 X107.500 Y105.111 E-0.13706
G1 X107.165 Y105.076 E-0.11666
G1 X106.845 Y104.972 E-0.11665
G1 X106.553 Y104.803 E-0.11668
G1 X106.303 Y104.578 E-0.11665
G1 X106.105 Y104.306 E-0.11666
G1 X106.058 Y104.201 E-0.03965
G1 E-0.04000 F2100.00000
G1 Z0.800 F7200.000
G1 X107.892 Y99.731
G1 Z0.200
G1 E0.80000 F2100.00000
G1 F1800
G1 X107.043 Y99.731 E0.02661
G1 X106.150 Y99.541 E0.02864
G1 X105.315 Y99.169 E0.02864
G1 X104.576 Y98.632 E0.02864
G1 X103.965 Y97.953 E0.02864
G1 X103.508 Y97.162 E0.02864
G1 X103.226 Y96.293 E0.02864
G1 X103.131 Y95.385 E0.02864
G1 X103.226 Y94.477 E0.02864
G1 X103.509 Y93.606 E0.02870
G1 X103.976 Y92.805 E0.02908
G1 X104.576 Y92.138 E0.02813
G1 X105.315 Y91.601 E0.02864
G1 X106.150 Y91.229 E0.02864
G1 X107.043 Y91.039 E0.02864
G1 X107.957 Y91.039 E0.02864
G1 X108.850 Y91.229 E0.02864
G1 X109.685 Y91.601 E0.02864
G1 X110.424 Y92.138 E0.02864
G1 X111.035 Y92.817 E0.02864
G1 X111.492 Y93.608 E0.02864
G1 X111.774 Y94.477 E0.02864
G1 X111.869 Y95.385 E0.02864
G1 X111.774 Y96.293 E0.02864
G1 X111.492 Y97.162 E0.02864
G1 X111.035 Y97.953 E0.02865
G1 X110.424 Y98.632 E0.02864
G1 X109.685 Y99.169 E0.02864
G1 X108.850 Y99.541 E0.02864
G1 X107.952 Y99.731 E0.02879
G1 X107.917 Y99.353 F7200.000
G1 F1800
G1 X107.083 Y99.353 E0.02616
G1 X106.267 Y99.180 E0.02616
G1 X105.505 Y98.841 E0.02616
G1 X104.830 Y98.350 E0.02615
G1 X104.272 Y97.731 E0.02616
G1 X103.855 Y97.008 E0.02616
G1 X103.597 Y96.215 E0.02615
G1 X103.510 Y95.385 E0.02616
G1 X103.597 Y94.555 E0.02616
G1 X103.855 Y93.761 E0.02619
G1 X104.282 Y93.028 E0.02659
G1 X104.830 Y92.420 E0.02567
G1 X105.505 Y91.929 E0.02615
G1 X106.267 Y91.590 E0.02616
G1 X107.083 Y91.417 E0.02616
G1 X107.917 Y91.417 E0.02616
G1 X108.733 Y91.590 E0.02616
