; generated by Slic3r Prusa Edition 1.39.2+win64 on 2018-07-02 at 08:45:06

; 

; external perimeters extrusion width = 0.45mm
; perimeters extrusion width = 0.45mm
; infill extrusion width = 0.45mm
; solid infill extrusion width = 0.45mm
; top infill extrusion width = 0.45mm
; first layer extrusion width = 0.42mm

M107
M115 U3.1.0 ; tell printer latest fw version
M83  ; extruder relative mode
M104 S205 ; set extruder temp
M140 S55 ; set bed temp
M190 S55 ; wait for bed temp
M109 S205 ; wait for extruder temp
G28 W ; home all without mesh bed level
G80 ; mesh bed leveling
G1 Y-3.0 F1000.0 ; go outside print area
G92 E0.0
G1 X60.0 E9.0  F1000.0 ; intro line
G1 X100.0 E12.5  F1000.0 ; intro line
G92 E0.0
M900 K30; Filament gcode
G21 ; set units to millimeters
G90 ; use absolute coordinates
M83 ; use relative distances for extrusion
;BEFORE_LAYER_CHANGE
;0.2


G1 E-0.80000 F2100.00000
G1 Z0.600 F7200.000
;AFTER_LAYER_CHANGE
;0.2
G1 X134.183 Y110.941
G1 Z0.200
G1 E0.80000 F2100.00000
M204 S1000
G1 F1800
G1 X133.643 Y111.718 E0.02966
G1 X133.049 Y112.133 E0.02272
G1 X132.354 Y112.351 E0.02284
G1 X113.099 Y114.822 E0.60868
G1 X72.904 Y114.375 E1.26037
G1 X72.301 Y114.272 E0.01917
G1 X71.744 Y114.018 E0.01917
G1 X71.271 Y113.631 E0.01917
G1 X70.912 Y113.136 E0.01917
G1 X70.701 Y112.603 E0.01799
G1 X70.623 Y112.034 E0.01799
G1 X70.625 Y92.897 E0.60003
G1 X70.730 Y92.295 E0.01917
G1 X70.983 Y91.742 E0.01906
G1 X71.371 Y91.269 E0.01917
G1 X71.863 Y90.913 E0.01906
G1 X72.392 Y90.702 E0.01787
G1 X72.957 Y90.623 E0.01787
G1 X113.049 Y90.178 E1.25714
G1 X115.802 Y90.721 E0.08797
G1 X118.207 Y91.792 E0.08256
G1 X133.339 Y102.036 E0.57296
G1 X133.719 Y102.358 E0.01562
G1 X134.166 Y103.022 E0.02508
G1 X134.368 Y103.796 E0.02508
G1 X134.377 Y110.019 E0.19513
G1 X134.195 Y110.882 E0.02766
G1 F5760
G1 X133.643 Y111.718 E-0.34685
G1 X133.049 Y112.133 E-0.25100
G1 X132.602 Y112.273 E-0.16215
G1 E-0.04000 F2100.00000
G1 Z0.800 F7200.000
G1 X107.793 Y95.214
G1 Z0.200
G1 E0.80000 F2100.00000
G1 F1800
G1 X116.207 Y95.214 E0.26379
G1 X120.413 Y102.500 E0.26379
G1 X116.207 Y109.786 E0.26379
G1 X107.793 Y109.786 E0.26379
G1 X103.587 Y102.500 E0.26379
G1 X107.763 Y95.266 E0.26191
G1 X108.011 Y95.591 F7200.000
G1 F1800
G1 X115.989 Y95.591 E0.25014
G1 X119.978 Y102.500 E0.25014
G1 X115.989 Y109.409 E0.25014
G1 X108.011 Y109.409 E0.25014
G1 X104.022 Y102.500 E0.25014
G1 X107.981 Y95.643 E0.24826
G1 X108.229 Y95.968 F7200.000
G1 F1800
G1 X115.771 Y95.968 E0.23649
G1 X119.542 Y102.500 E0.23649
G1 X115.771 Y109.032 E0.23649
G1 X108.229 Y109.032 E0.23649
G1 X104.458 Y102.500 E0.23649
G1 X108.199 Y96.020 E0.23461
G1 X108.229 Y95.568 F7200.000
G1 F5760
G1 X110.393 Y96.005 E-0.76000
G1 E-0.04000 F2100.00000
G1 Z0.800 F7200.000
G1 X120.771 Y104.964
G1 Z0.200
G1 E0.80000 F2100.00000
G1 F1800
G1 X131.036 Y104.964 E0.32183
G1 X131.036 Y109.036 E0.12766
G1 X118.284 Y109.036 E0.39983
G1 X116.515 Y110.321 E0.06854
G1 X114.791 Y111.089 E0.05919
G1 X112.944 Y111.481 E0.05919
G1 X111.057 Y111.481 E0.05916
G1 X108.989 Y111.036 E0.06634
G1 X73.964 Y111.036 E1.09817
G1 X73.964 Y108.964 E0.06496
G1 X89.964 Y108.964 E0.50167
G1 X89.964 Y96.036 E0.40536
G1 X73.964 Y96.036 E0.50167
G1 X73.964 Y93.964 E0.06496
G1 X108.989 Y93.964 E1.09817
G1 X111.057 Y93.519 E0.06634
G1 X112.944 Y93.519 E0.05916
G1 X114.782 Y93.910 E0.05892
G1 X116.516 Y94.680 E0.05947
G1 X118.043 Y95.789 E0.05918
G1 X119.306 Y97.192 E0.05919
G1 X120.250 Y98.827 E0.05919
G1 X120.833 Y100.622 E0.05919
G1 X121.031 Y102.500 E0.05919
G1 X120.778 Y104.904 E0.07581
G1 X121.190 Y104.587 F7200.000
G1 F1800
G1 X131.413 Y104.587 E0.32052
G1 X131.413 Y109.413 E0.15131
G1 X118.406 Y109.413 E0.40782
G1 X116.705 Y110.649 E0.06594
G1 X114.908 Y111.449 E0.06168
G1 X112.984 Y111.858 E0.06168
G1 X111.017 Y111.858 E0.06166
G1 X108.949 Y111.413 E0.06634
G1 X73.587 Y111.413 E1.10873
G1 X73.587 Y108.587 E0.08860
G1 X89.587 Y108.587 E0.50167
G1 X89.587 Y96.413 E0.38171
G1 X73.587 Y96.413 E0.50167
G1 X73.587 Y93.587 E0.08860
G1 X108.949 Y93.587 E1.10873
G1 X111.017 Y93.142 E0.06634
G1 X112.984 Y93.142 E0.06166
G1 X114.899 Y93.549 E0.06140
G1 X116.705 Y94.351 E0.06196
G1 X118.296 Y95.507 E0.06167
G1 X119.613 Y96.969 E0.06168
G1 X120.596 Y98.673 E0.06168
G1 X121.204 Y100.544 E0.06168
G1 X121.410 Y102.500 E0.06168
G1 X121.197 Y104.527 E0.06392
G1 X121.609 Y104.210 F7200.000
G1 F1800
G1 X131.790 Y104.210 E0.31922
G1 X131.790 Y109.790 E0.17496
G1 X118.529 Y109.790 E0.41580
G1 X116.894 Y110.977 E0.06334
G1 X115.025 Y111.810 E0.06416
G1 X113.023 Y112.235 E0.06416
G1 X110.977 Y112.235 E0.06416
G1 X108.908 Y111.790 E0.06634
G1 X73.210 Y111.790 E1.11930
G1 X73.210 Y108.210 E0.11225
G1 X89.210 Y108.210 E0.50167
G1 X89.210 Y96.790 E0.35807
G1 X73.210 Y96.790 E0.50167
G1 X73.210 Y93.210 E0.11225
G1 X108.908 Y93.210 E1.11930
G1 X110.977 Y92.765 E0.06634
G1 X113.023 Y92.765 E0.06416
G1 X115.016 Y93.188 E0.06388
G1 X116.894 Y94.023 E0.06444
G1 X118.550 Y95.226 E0.06416
G1 X119.919 Y96.746 E0.06416
G1 X120.943 Y98.518 E0.06416
G1 X121.575 Y100.465 E0.06417
G1 X121.789 Y102.500 E0.06416
G1 X121.615 Y104.150 E0.05203
G1 X121.610 Y104.610 F7200.000
G1 F5760
G1 X123.810 Y104.163 E-0.76000
G1 E-0.04000 F2100.00000
G1 Z0.800 F7200.000
G1 X120.822 Y103.406
G1 Z0.200
G1 E0.80000 F2100.00000
G1 F1800
G1 X120.438 Y103.022 E0.01741
G1 X120.238 Y103.369 E0.01284
G1 X120.615 Y103.746 E0.01712
G1 X120.563 Y104.240 E0.01596
G1 X120.038 Y103.715 E0.02384
G1 X119.838 Y104.061 E0.01284
G1 X120.666 Y104.888 E0.03757
G1 F5760
G1 X119.838 Y104.061 E-0.40519
G1 X120.038 Y103.715 E-0.13851
G1 X120.480 Y104.157 E-0.21630
G1 E-0.04000 F2100.00000
G1 Z0.800 F7200.000
G1 X120.690 Y102.746
G1 Z0.200
G1 E0.80000 F2100.00000
G1 F1800
G1 X120.736 Y102.500 E0.00455
G1 X120.690 Y102.254 E0.00455
G1 X120.849 Y101.856 F7200.000
G1 F1800
G1 X119.247 Y100.254 E0.07572
G1 F5760
G1 X120.799 Y101.805 E-0.76000
G1 E-0.04000 F2100.00000
G1 Z0.800 F7200.000
G1 X120.422 Y99.724
G1 Z0.200
G1 E0.80000 F2100.00000
G1 F1800
G1 X116.918 Y96.219 E0.16565
G1 F5760
G1 X118.469 Y97.771 E-0.76000
G1 E-0.04000 F2100.00000
G1 Z0.800 F7200.000
G1 X116.549 Y95.282
G1 Z0.200
G1 E0.80000 F2100.00000
G1 F1800
G1 X120.149 Y98.882 E0.17014
G1 F5760
G1 X118.597 Y97.330 E-0.76000
G1 E-0.04000 F2100.00000
G1 Z0.800 F7200.000
G1 X119.377 Y97.542
G1 Z0.200
G1 E0.80000 F2100.00000
G1 F1800
G1 X117.025 Y95.189 E0.11120
G1 X116.558 Y95.098 F7200.000
G1 F1800
G1 X116.368 Y94.935 E0.00454
G1 X116.130 Y94.851 E0.00458
G1 X115.809 Y95.101 F7200.000
G1 F1800
G1 X115.042 Y94.335 E0.03413
G1 X114.694 Y94.180 E0.01199
G1 X114.260 Y94.088 E0.01400
G1 X115.103 Y94.931 E0.03757
G1 X114.567 Y94.931 E0.01687
G1 X113.579 Y93.943 E0.04401
G1 X112.914 Y93.802 E0.02142
G1 X114.032 Y94.931 E0.05004
G1 X113.496 Y94.931 E0.01687
G1 X112.367 Y93.802 E0.05031
G1 X111.831 Y93.802 E0.01687
G1 X112.960 Y94.931 E0.05031
G1 X112.424 Y94.931 E0.01687
G1 X111.295 Y93.802 E0.05031
G1 X111.087 Y93.802 E0.00654
G1 X110.817 Y93.860 E0.00870
G1 X111.889 Y94.931 E0.04772
G1 X111.353 Y94.931 E0.01687
G1 X110.377 Y93.955 E0.04349
G1 X109.936 Y94.050 E0.01420
G1 X110.817 Y94.931 E0.03927
G1 X110.282 Y94.931 E0.01687
G1 X109.495 Y94.144 E0.03504
G1 X109.054 Y94.239 E0.01420
G1 X109.746 Y94.931 E0.03081
G1 X109.210 Y94.931 E0.01687
G1 X108.526 Y94.247 E0.03047
G1 X107.990 Y94.247 E0.01687
G1 X108.674 Y94.931 E0.03047
G1 X108.139 Y94.931 E0.01687
G1 X107.455 Y94.247 E0.03047
G1 X106.919 Y94.247 E0.01687
G1 X107.620 Y94.948 E0.03124
G1 X107.424 Y95.288 E0.01235
G1 X106.383 Y94.247 E0.04637
G1 X105.847 Y94.247 E0.01687
G1 X107.228 Y95.628 E0.06150
G1 X107.032 Y95.967 E0.01235
G1 X105.312 Y94.247 E0.07663
G1 X104.776 Y94.247 E0.01687
G1 X106.836 Y96.307 E0.09176
G1 X106.640 Y96.646 E0.01235
G1 X104.240 Y94.247 E0.10689
G1 X103.704 Y94.247 E0.01687
G1 X106.444 Y96.986 E0.12202
G1 X106.247 Y97.326 E0.01235
G1 X103.169 Y94.247 E0.13715
G1 X102.633 Y94.247 E0.01687
G1 X106.051 Y97.665 E0.15228
G1 X105.855 Y98.005 E0.01235
G1 X102.097 Y94.247 E0.16741
G1 X101.561 Y94.247 E0.01687
G1 X105.659 Y98.345 E0.18254
G1 X105.463 Y98.684 E0.01235
G1 X101.026 Y94.247 E0.19767
G1 X100.490 Y94.247 E0.01687
G1 X105.267 Y99.024 E0.21280
G1 X105.071 Y99.364 E0.01235
G1 X99.954 Y94.247 E0.22793
G1 X99.419 Y94.247 E0.01687
G1 X104.875 Y99.703 E0.24306
G1 X104.679 Y100.043 E0.01235
G1 X98.883 Y94.247 E0.25819
G1 X98.347 Y94.247 E0.01687
G1 X104.483 Y100.383 E0.27332
G1 X104.287 Y100.722 E0.01235
G1 X97.811 Y94.247 E0.28845
G1 X97.276 Y94.247 E0.01687
G1 X104.090 Y101.062 E0.30358
G1 X103.894 Y101.401 E0.01235
G1 X96.740 Y94.247 E0.31870
G1 X96.204 Y94.247 E0.01687
G1 X103.698 Y101.741 E0.33383
G1 X103.502 Y102.081 E0.01235
G1 X95.668 Y94.247 E0.34896
G1 X95.133 Y94.247 E0.01687
G1 X103.552 Y102.666 E0.37505
G1 F5760
G1 X102.001 Y101.115 E-0.76000
G1 E-0.04000 F2100.00000
G1 Z0.800 F7200.000
G1 X104.284 Y103.934
G1 Z0.200
G1 E0.80000 F2100.00000
G1 F1800
G1 X94.597 Y94.247 E0.43152
G1 X94.061 Y94.247 E0.01687
G1 X105.016 Y105.201 E0.48798
G1 F5760
G1 X103.464 Y103.650 E-0.76000
G1 E-0.04000 F2100.00000
G1 Z0.800 F7200.000
G1 X105.748 Y106.469
G1 Z0.200
G1 E0.80000 F2100.00000
G1 F1800
G1 X93.526 Y94.247 E0.54444
G1 X92.990 Y94.247 E0.01687
G1 X106.479 Y107.737 E0.60091
G1 F5760
G1 X104.928 Y106.185 E-0.76000
G1 E-0.04000 F2100.00000
G1 Z0.800 F7200.000
G1 X107.211 Y109.004
G1 Z0.200
G1 E0.80000 F2100.00000
G1 F1800
G1 X92.454 Y94.247 E0.65737
G1 X91.918 Y94.247 E0.01687
G1 X108.424 Y110.753 E0.73528
G1 X107.889 Y110.753 E0.01687
G1 X91.383 Y94.247 E0.73528
G1 X90.847 Y94.247 E0.01687
G1 X107.353 Y110.753 E0.73528
G1 X106.817 Y110.753 E0.01687
G1 X90.311 Y94.247 E0.73528
G1 X89.775 Y94.247 E0.01687
G1 X106.282 Y110.753 E0.73528
G1 X105.746 Y110.753 E0.01687
G1 X89.240 Y94.247 E0.73528
G1 X88.704 Y94.247 E0.01687
G1 X105.210 Y110.753 E0.73528
G1 X104.674 Y110.753 E0.01687
G1 X90.247 Y96.326 E0.64268
G1 X90.247 Y96.861 E0.01687
G1 X104.139 Y110.753 E0.61882
G1 X103.603 Y110.753 E0.01687
G1 X90.247 Y97.397 E0.59496
G1 X90.247 Y97.933 E0.01687
G1 X103.067 Y110.753 E0.57109
G1 X102.531 Y110.753 E0.01687
G1 X90.247 Y98.469 E0.54723
G1 X90.247 Y99.004 E0.01687
G1 X101.996 Y110.753 E0.52336
G1 X101.460 Y110.753 E0.01687
G1 X90.247 Y99.540 E0.49950
G1 X90.247 Y100.076 E0.01687
G1 X100.924 Y110.753 E0.47563
G1 X100.389 Y110.753 E0.01687
G1 X90.247 Y100.611 E0.45177
G1 X90.247 Y101.147 E0.01687
G1 X99.853 Y110.753 E0.42790
G1 X99.317 Y110.753 E0.01687
G1 X90.247 Y101.683 E0.40404
G1 X90.247 Y102.219 E0.01687
G1 X98.781 Y110.753 E0.38017
G1 X98.246 Y110.753 E0.01687
G1 X90.247 Y102.754 E0.35631
G1 X90.247 Y103.290 E0.01687
G1 X97.710 Y110.753 E0.33244
G1 X97.174 Y110.753 E0.01687
G1 X90.247 Y103.826 E0.30858
G1 X90.247 Y104.362 E0.01687
G1 X96.638 Y110.753 E0.28471
G1 X96.103 Y110.753 E0.01687
G1 X90.247 Y104.897 E0.26085
G1 X90.247 Y105.433 E0.01687
G1 X95.567 Y110.753 E0.23699
G1 X95.031 Y110.753 E0.01687
G1 X90.247 Y105.969 E0.21312
G1 X90.247 Y106.505 E0.01687
G1 X94.495 Y110.753 E0.18926
G1 X93.960 Y110.753 E0.01687
G1 X90.247 Y107.040 E0.16539
G1 X90.247 Y107.576 E0.01687
G1 X93.424 Y110.753 E0.14153
G1 X92.888 Y110.753 E0.01687
G1 X90.247 Y108.112 E0.11766
G1 X90.247 Y108.647 E0.01687
G1 X92.353 Y110.753 E0.09380
G1 X91.817 Y110.753 E0.01687
G1 X90.247 Y109.183 E0.06993
G1 X90.247 Y109.247 E0.00201
G1 X89.775 Y109.247 E0.01487
G1 X91.281 Y110.753 E0.06709
G1 X90.745 Y110.753 E0.01687
G1 X89.239 Y109.247 E0.06709
G1 X88.704 Y109.247 E0.01687
G1 X90.210 Y110.753 E0.06709
G1 X89.674 Y110.753 E0.01687
G1 X88.168 Y109.247 E0.06709
G1 X87.632 Y109.247 E0.01687
G1 X89.138 Y110.753 E0.06709
G1 X88.602 Y110.753 E0.01687
G1 X87.096 Y109.247 E0.06709
G1 X86.561 Y109.247 E0.01687
G1 X88.067 Y110.753 E0.06709
G1 X87.531 Y110.753 E0.01687
G1 X86.025 Y109.247 E0.06709
G1 X85.489 Y109.247 E0.01687
G1 X86.995 Y110.753 E0.06709
G1 X86.460 Y110.753 E0.01687
G1 X84.953 Y109.247 E0.06709
G1 X84.418 Y109.247 E0.01687
G1 X85.924 Y110.753 E0.06709
G1 X85.388 Y110.753 E0.01687
G1 X83.882 Y109.247 E0.06709
G1 X83.346 Y109.247 E0.01687
G1 X84.852 Y110.753 E0.06709
G1 X84.317 Y110.753 E0.01687
G1 X82.811 Y109.247 E0.06709
G1 X82.275 Y109.247 E0.01687
G1 X83.781 Y110.753 E0.06709
G1 X83.245 Y110.753 E0.01687
G1 X81.739 Y109.247 E0.06709
G1 X81.203 Y109.247 E0.01687
G1 X82.709 Y110.753 E0.06709
G1 X82.174 Y110.753 E0.01687
G1 X80.668 Y109.247 E0.06709
G1 X80.132 Y109.247 E0.01687
G1 X81.638 Y110.753 E0.06709
G1 X81.102 Y110.753 E0.01687
G1 X79.596 Y109.247 E0.06709
G1 X79.060 Y109.247 E0.01687
G1 X80.567 Y110.753 E0.06709
G1 X80.031 Y110.753 E0.01687
G1 X78.525 Y109.247 E0.06709
G1 X77.989 Y109.247 E0.01687
G1 X79.495 Y110.753 E0.06709
G1 X78.959 Y110.753 E0.01687
G1 X77.453 Y109.247 E0.06709
G1 X76.917 Y109.247 E0.01687
G1 X78.424 Y110.753 E0.06709
G1 X77.888 Y110.753 E0.01687
G1 X76.382 Y109.247 E0.06709
G1 X75.846 Y109.247 E0.01687
G1 X77.352 Y110.753 E0.06709
G1 X76.816 Y110.753 E0.01687
G1 X75.310 Y109.247 E0.06709
G1 X74.775 Y109.247 E0.01687
G1 X76.281 Y110.753 E0.06709
G1 X75.745 Y110.753 E0.01687
G1 X74.247 Y109.255 E0.06673
G1 X74.247 Y109.791 E0.01687
G1 X75.209 Y110.753 E0.04287
G1 X74.674 Y110.753 E0.01687
G1 X74.077 Y110.157 E0.02656
G1 F5760
G1 X74.674 Y110.753 E-0.29205
G1 X75.209 Y110.753 E-0.18555
G1 X74.633 Y110.177 E-0.28240
G1 E-0.04000 F2100.00000
G1 Z0.800 F7200.000
G1 X74.077 Y95.156
G1 Z0.200
G1 E0.80000 F2100.00000
G1 F1800
G1 X74.674 Y95.753 E0.02658
G1 X75.210 Y95.753 E0.01687
G1 X74.247 Y94.790 E0.04289
G1 X74.247 Y94.255 E0.01687
G1 X75.745 Y95.753 E0.06675
G1 X76.281 Y95.753 E0.01687
G1 X74.775 Y94.247 E0.06709
G1 X75.311 Y94.247 E0.01687
G1 X76.817 Y95.753 E0.06709
G1 X77.353 Y95.753 E0.01687
G1 X75.846 Y94.247 E0.06709
G1 X76.382 Y94.247 E0.01687
G1 X77.888 Y95.753 E0.06709
G1 X78.424 Y95.753 E0.01687
G1 X76.918 Y94.247 E0.06709
G1 X77.454 Y94.247 E0.01687
G1 X78.960 Y95.753 E0.06709
G1 X79.495 Y95.753 E0.01687
G1 X77.989 Y94.247 E0.06709
G1 X78.525 Y94.247 E0.01687
G1 X80.031 Y95.753 E0.06709
G1 X80.567 Y95.753 E0.01687
G1 X79.061 Y94.247 E0.06709
G1 X79.597 Y94.247 E0.01687
G1 X81.103 Y95.753 E0.06709
G1 X81.638 Y95.753 E0.01687
G1 X80.132 Y94.247 E0.06709
G1 X80.668 Y94.247 E0.01687
G1 X82.174 Y95.753 E0.06709
G1 X82.710 Y95.753 E0.01687
G1 X81.204 Y94.247 E0.06709
G1 X81.739 Y94.247 E0.01687
G1 X83.246 Y95.753 E0.06709
G1 X83.781 Y95.753 E0.01687
G1 X82.275 Y94.247 E0.06709
G1 X82.811 Y94.247 E0.01687
G1 X84.317 Y95.753 E0.06709
G1 X84.853 Y95.753 E0.01687
G1 X83.347 Y94.247 E0.06709
G1 X83.882 Y94.247 E0.01687
G1 X85.389 Y95.753 E0.06709
G1 X85.924 Y95.753 E0.01687
G1 X84.418 Y94.247 E0.06709
G1 X84.954 Y94.247 E0.01687
G1 X86.460 Y95.753 E0.06709
G1 X86.996 Y95.753 E0.01687
G1 X85.490 Y94.247 E0.06709
G1 X86.025 Y94.247 E0.01687
G1 X87.531 Y95.753 E0.06709
G1 X88.067 Y95.753 E0.01687
G1 X86.561 Y94.247 E0.06709
G1 X87.097 Y94.247 E0.01687
G1 X88.603 Y95.753 E0.06709
G1 X89.139 Y95.753 E0.01687
G1 X87.633 Y94.247 E0.06709
G1 X88.168 Y94.247 E0.01687
G1 X89.844 Y95.923 E0.07465
G1 F5760
G1 X88.292 Y94.371 E-0.76000
G1 E-0.04000 F2100.00000
G1 Z0.800 F7200.000
G1 X108.106 Y109.899
G1 Z0.200
G1 E0.80000 F2100.00000
G1 F1800
G1 X108.960 Y110.753 E0.03803
G1 X109.627 Y110.884 E0.02140
G1 X108.812 Y110.069 E0.03630
G1 X109.348 Y110.069 E0.01687
G1 X110.309 Y111.031 E0.04285
G1 X110.992 Y111.178 E0.02199
G1 X109.883 Y110.069 E0.04939
G1 X110.419 Y110.069 E0.01687
G1 X111.548 Y111.198 E0.05031
G1 X112.084 Y111.198 E0.01687
G1 X110.955 Y110.069 E0.05031
G1 X111.490 Y110.069 E0.01687
G1 X112.620 Y111.198 E0.05031
G1 X112.914 Y111.198 E0.00928
G1 X113.113 Y111.156 E0.00641
G1 X112.026 Y110.069 E0.04842
G1 X112.562 Y110.069 E0.01687
G1 X113.555 Y111.062 E0.04424
G1 X113.997 Y110.968 E0.01423
G1 X113.098 Y110.069 E0.04006
G1 X113.633 Y110.069 E0.01687
G1 X114.439 Y110.874 E0.03587
G1 X114.703 Y110.818 E0.00850
G1 X114.852 Y110.752 E0.00514
G1 X114.169 Y110.069 E0.03042
G1 X114.705 Y110.069 E0.01687
G1 X115.223 Y110.587 E0.02306
G1 X115.593 Y110.422 E0.01278
G1 X115.241 Y110.069 E0.01571
G1 X115.776 Y110.069 E0.01687
G1 X116.092 Y110.385 E0.01409
