; generated by Slic3r Prusa Edition 1.39.2+win64 on 2018-05-25 at 14:05:03

; 

; external perimeters extrusion width = 0.45mm
; perimeters extrusion width = 0.45mm
; infill extrusion width = 0.45mm
; solid infill extrusion width = 0.45mm
; top infill extrusion width = 0.45mm
; first layer extrusion width = 0.42mm

M107
M115 U3.1.0 ; tell printer latest fw version
M83  ; extruder relative mode
M104 S205 ; set extruder temp
M140 S55 ; set bed temp
M190 S55 ; wait for bed temp
M109 S205 ; wait for extruder temp
G28 W ; home all without mesh bed level
G80 ; mesh bed leveling
G1 Y-3.0 F1000.0 ; go outside print area
G92 E0.0
G1 X60.0 E9.0  F1000.0 ; intro line
G1 X100.0 E12.5  F1000.0 ; intro line
G92 E0.0
M900 K30; Filament gcode
G21 ; set units to millimeters
G90 ; use absolute coordinates
M83 ; use relative distances for extrusion
;BEFORE_LAYER_CHANGE
;0.2


G1 E-0.80000 F2100.00000
G1 Z0.600 F7200.000
;AFTER_LAYER_CHANGE
;0.2
G1 X91.621 Y61.291
G1 Z0.200
G1 E0.80000 F2100.00000
M204 S1000
G1 F1800
G1 X92.434 Y61.124 E0.02602
G1 X112.504 Y61.123 E0.62929
G1 X113.169 Y61.219 E0.02107
G1 X113.780 Y61.497 E0.02107
G1 X114.290 Y61.936 E0.02107
G1 X114.658 Y62.502 E0.02119
G1 X126.698 Y91.595 E0.98720
G1 X126.842 Y92.091 E0.01621
G1 X126.877 Y141.508 E1.54942
G1 X126.709 Y142.378 E0.02778
G1 X126.364 Y142.976 E0.02166
G1 X125.864 Y143.447 E0.02154
G1 X125.250 Y143.756 E0.02154
G1 X124.570 Y143.876 E0.02166
G1 X80.492 Y143.877 E1.38201
G1 X79.619 Y143.708 E0.02790
G1 X79.024 Y143.364 E0.02154
G1 X78.551 Y142.861 E0.02166
G1 X78.242 Y142.243 E0.02166
G1 X78.124 Y141.562 E0.02166
G1 X78.123 Y92.492 E1.53854
G1 X78.291 Y91.622 E0.02778
G1 X90.311 Y62.574 E0.98570
G1 X90.567 Y62.116 E0.01645
G1 X90.918 Y61.726 E0.01645
G1 X91.570 Y61.323 E0.02402
G1 F5760
G1 X92.434 Y61.124 E-0.30704
G1 X93.741 Y61.124 E-0.45296
G1 E-0.04000 F2100.00000
G1 Z0.800 F7200.000
G1 X85.536 Y97.536
G1 Z0.200
G1 E0.80000 F2100.00000
G1 F1800
G1 X119.464 Y97.536 E1.06380
G1 X119.464 Y136.464 E1.22057
G1 X85.536 Y136.464 E1.06380
G1 X85.536 Y97.596 E1.21869
G1 X85.913 Y97.913 F7200.000
G1 F1800
G1 X119.087 Y97.913 E1.04015
G1 X119.087 Y136.087 E1.19692
G1 X85.913 Y136.087 E1.04015
G1 X85.913 Y97.973 E1.19504
G1 X86.290 Y98.290 F7200.000
G1 F1800
G1 X118.710 Y98.290 E1.01651
G1 X118.710 Y135.710 E1.17328
G1 X86.290 Y135.710 E1.01651
G1 X86.290 Y98.350 E1.17140
G1 X86.196 Y97.901 F7200.000
G1 F5760
G1 X88.484 Y98.346 E-0.76000
G1 E-0.04000 F2100.00000
G1 Z0.800 F7200.000
G1 X100.590 Y76.807
G1 Z0.200
G1 E0.80000 F2100.00000
G1 F1800
G1 X99.944 Y76.338 E0.02502
G1 X99.410 Y75.745 E0.02505
G1 X99.011 Y75.053 E0.02503
G1 X98.764 Y74.295 E0.02502
G1 X98.681 Y73.500 E0.02505
G1 X98.764 Y72.705 E0.02505
G1 X99.011 Y71.947 E0.02502
G1 X99.410 Y71.255 E0.02503
G1 X99.944 Y70.662 E0.02505
G1 X100.590 Y70.193 E0.02502
G1 X101.320 Y69.867 E0.02506
G1 X102.101 Y69.702 E0.02505
G1 X102.899 Y69.702 E0.02499
G1 X103.680 Y69.867 E0.02505
G1 X104.410 Y70.193 E0.02506
G1 X105.056 Y70.662 E0.02502
G1 X105.590 Y71.255 E0.02505
G1 X105.989 Y71.947 E0.02503
G1 X106.236 Y72.705 E0.02502
G1 X106.319 Y73.500 E0.02505
G1 X106.236 Y74.295 E0.02505
G1 X105.989 Y75.053 E0.02502
G1 X105.590 Y75.745 E0.02503
G1 X105.056 Y76.338 E0.02505
G1 X104.410 Y76.807 E0.02502
G1 X103.680 Y77.133 E0.02506
G1 X102.899 Y77.298 E0.02505
G1 X102.101 Y77.298 E0.02499
G1 X101.320 Y77.133 E0.02505
G1 X100.645 Y76.832 E0.02318
G1 X100.798 Y76.487 F7200.000
G1 F1800
G1 X100.198 Y76.057 E0.02317
G1 X99.717 Y75.522 E0.02256
G1 X99.357 Y74.899 E0.02255
G1 X99.135 Y74.216 E0.02253
G1 X99.060 Y73.500 E0.02257
G1 X99.135 Y72.784 E0.02257
G1 X99.357 Y72.101 E0.02253
G1 X99.717 Y71.478 E0.02255
G1 X100.198 Y70.943 E0.02256
G1 X100.780 Y70.521 E0.02254
G1 X101.437 Y70.227 E0.02257
G1 X102.141 Y70.079 E0.02255
G1 X102.859 Y70.079 E0.02252
G1 X103.563 Y70.227 E0.02255
G1 X104.220 Y70.521 E0.02257
G1 X104.802 Y70.943 E0.02254
G1 X105.283 Y71.478 E0.02256
G1 X105.643 Y72.101 E0.02255
G1 X105.865 Y72.784 E0.02253
G1 X105.940 Y73.500 E0.02257
G1 X105.865 Y74.216 E0.02257
G1 X105.643 Y74.899 E0.02253
G1 X105.283 Y75.522 E0.02255
G1 X104.802 Y76.057 E0.02256
G1 X104.220 Y76.479 E0.02254
G1 X103.563 Y76.773 E0.02257
G1 X102.859 Y76.921 E0.02255
G1 X102.141 Y76.921 E0.02252
G1 X101.437 Y76.773 E0.02255
G1 X100.853 Y76.512 E0.02004
G1 X101.007 Y76.168 F7200.000
G1 F1800
G1 X100.452 Y75.775 E0.02132
G1 X100.023 Y75.299 E0.02007
G1 X99.704 Y74.745 E0.02006
G1 X99.506 Y74.137 E0.02005
G1 X99.439 Y73.500 E0.02008
G1 X99.506 Y72.863 E0.02008
G1 X99.704 Y72.255 E0.02005
G1 X100.023 Y71.701 E0.02006
G1 X100.452 Y71.225 E0.02007
G1 X100.969 Y70.849 E0.02006
G1 X101.554 Y70.588 E0.02008
G1 X102.180 Y70.456 E0.02006
G1 X102.820 Y70.456 E0.02006
G1 X103.446 Y70.588 E0.02006
G1 X104.031 Y70.849 E0.02008
G1 X104.548 Y71.225 E0.02006
G1 X104.977 Y71.701 E0.02007
G1 X105.296 Y72.255 E0.02006
G1 X105.494 Y72.863 E0.02005
G1 X105.561 Y73.500 E0.02008
G1 X105.494 Y74.137 E0.02008
G1 X105.296 Y74.745 E0.02005
G1 X104.977 Y75.299 E0.02006
G1 X104.548 Y75.775 E0.02007
G1 X104.031 Y76.151 E0.02006
G1 X103.446 Y76.412 E0.02008
G1 X102.820 Y76.544 E0.02006
G1 X102.180 Y76.544 E0.02006
G1 X101.554 Y76.412 E0.02006
G1 X101.062 Y76.192 E0.01690
G1 X100.663 Y76.371 F7200.000
G1 F5760
G1 X100.452 Y75.775 E-0.25597
G1 X100.023 Y75.299 E-0.22172
G1 X99.704 Y74.745 E-0.22164
G1 X99.649 Y74.578 E-0.06067
G1 E-0.04000 F2100.00000
G1 Z0.800 F7200.000
G1 X111.536 Y93.464
G1 Z0.200
G1 E0.80000 F2100.00000
G1 F1800
G1 X123.536 Y93.464 E0.37625
G1 X123.536 Y140.536 E1.47590
G1 X81.464 Y140.536 E1.31913
G1 X81.464 Y93.464 E1.47590
G1 X93.464 Y93.464 E0.37625
G1 X93.464 Y64.464 E0.90927
G1 X111.536 Y64.464 E0.56663
G1 X111.536 Y93.404 E0.90739
G1 X111.913 Y93.087 F7200.000
G1 F1800
G1 X123.913 Y93.087 E0.37625
G1 X123.913 Y140.913 E1.49955
G1 X81.087 Y140.913 E1.34277
G1 X81.087 Y93.087 E1.49955
G1 X93.087 Y93.087 E0.37625
G1 X93.087 Y64.087 E0.90927
G1 X111.913 Y64.087 E0.59027
G1 X111.913 Y93.027 E0.90739
G1 X112.290 Y92.710 F7200.000
G1 F1800
G1 X124.290 Y92.710 E0.37625
G1 X124.290 Y141.290 E1.52319
G1 X80.710 Y141.290 E1.36642
G1 X80.710 Y92.710 E1.52319
G1 X92.710 Y92.710 E0.37625
G1 X92.710 Y63.710 E0.90927
G1 X112.290 Y63.710 E0.61392
G1 X112.290 Y92.650 E0.90739
G1 X112.369 Y93.102 F7200.000
G1 X111.423 Y93.118
G1 F1800
G1 X93.747 Y75.442 E0.78510
G1 X93.747 Y74.908 E0.01678
G1 X111.253 Y92.414 E0.77756
G1 X111.253 Y91.880 E0.01678
G1 X93.747 Y74.374 E0.77756
G1 X93.747 Y73.840 E0.01678
G1 X111.253 Y91.346 E0.77756
G1 X111.253 Y90.811 E0.01678
G1 X93.747 Y73.305 E0.77756
G1 X93.747 Y72.771 E0.01678
G1 X111.253 Y90.277 E0.77756
G1 X111.253 Y89.743 E0.01678
G1 X93.747 Y72.237 E0.77756
G1 X93.747 Y71.703 E0.01678
G1 X111.253 Y89.209 E0.77756
G1 X111.253 Y88.675 E0.01678
G1 X93.747 Y71.169 E0.77756
G1 X93.747 Y70.635 E0.01678
G1 X111.423 Y88.310 E0.78510
G1 F5760
G1 X109.871 Y86.759 E-0.76000
G1 E-0.04000 F2100.00000
G1 Z0.800 F7200.000
G1 X111.882 Y93.577
G1 Z0.200
G1 E0.80000 F2100.00000
G1 F1800
G1 X115.558 Y97.253 E0.16327
G1 X116.092 Y97.253 E0.01678
G1 X112.586 Y93.747 E0.15573
G1 X113.120 Y93.747 E0.01678
G1 X116.626 Y97.253 E0.15573
G1 X117.160 Y97.253 E0.01678
G1 X113.654 Y93.747 E0.15573
G1 X114.189 Y93.747 E0.01678
G1 X117.695 Y97.253 E0.15573
G1 X118.229 Y97.253 E0.01678
G1 X114.723 Y93.747 E0.15573
G1 X115.257 Y93.747 E0.01678
G1 X118.763 Y97.253 E0.15573
G1 X119.297 Y97.253 E0.01678
G1 X115.791 Y93.747 E0.15573
G1 X116.325 Y93.747 E0.01678
G1 X123.253 Y100.675 E0.30771
G1 X123.253 Y100.141 E0.01678
G1 X116.859 Y93.747 E0.28399
G1 X117.394 Y93.747 E0.01678
G1 X123.253 Y99.606 E0.26026
G1 X123.253 Y99.072 E0.01678
G1 X117.928 Y93.747 E0.23653
G1 X118.462 Y93.747 E0.01678
G1 X123.253 Y98.538 E0.21281
G1 X123.253 Y98.004 E0.01678
G1 X118.996 Y93.747 E0.18908
G1 X119.530 Y93.747 E0.01678
G1 X123.253 Y97.470 E0.16535
G1 X123.253 Y96.936 E0.01678
G1 X120.064 Y93.747 E0.14163
G1 X120.599 Y93.747 E0.01678
G1 X123.253 Y96.401 E0.11790
G1 X123.253 Y95.867 E0.01678
G1 X121.133 Y93.747 E0.09418
G1 X121.667 Y93.747 E0.01678
G1 X123.253 Y95.333 E0.07045
G1 X123.253 Y94.799 E0.01678
G1 X122.201 Y93.747 E0.04672
G1 X122.735 Y93.747 E0.01678
G1 X123.423 Y94.434 E0.03053
G1 F5760
G1 X122.735 Y93.747 E-0.33673
G1 X122.201 Y93.747 E-0.18501
G1 X122.688 Y94.233 E-0.23826
G1 E-0.04000 F2100.00000
G1 Z0.800 F7200.000
G1 X123.423 Y101.379
G1 Z0.200
G1 E0.80000 F2100.00000
G1 F1800
G1 X119.747 Y97.703 E0.16327
G1 X119.747 Y98.237 E0.01678
G1 X123.253 Y101.743 E0.15573
G1 X123.253 Y102.277 E0.01678
G1 X119.747 Y98.771 E0.15573
G1 X119.747 Y99.305 E0.01678
G1 X123.253 Y102.811 E0.15573
G1 X123.253 Y103.346 E0.01678
G1 X119.747 Y99.840 E0.15573
G1 X119.747 Y100.374 E0.01678
G1 X123.253 Y103.880 E0.15573
G1 X123.253 Y104.414 E0.01678
G1 X119.747 Y100.908 E0.15573
G1 X119.747 Y101.442 E0.01678
G1 X123.253 Y104.948 E0.15573
G1 X123.253 Y105.482 E0.01678
G1 X119.747 Y101.976 E0.15573
G1 X119.747 Y102.510 E0.01678
G1 X123.253 Y106.017 E0.15573
G1 X123.253 Y106.551 E0.01678
G1 X119.747 Y103.045 E0.15573
G1 X119.747 Y103.579 E0.01678
G1 X123.253 Y107.085 E0.15573
G1 X123.253 Y107.619 E0.01678
G1 X119.747 Y104.113 E0.15573
G1 X119.747 Y104.647 E0.01678
G1 X123.253 Y108.153 E0.15573
G1 X123.253 Y108.687 E0.01678
G1 X119.747 Y105.181 E0.15573
G1 X119.747 Y105.715 E0.01678
G1 X123.253 Y109.222 E0.15573
G1 X123.253 Y109.756 E0.01678
G1 X119.747 Y106.250 E0.15573
G1 X119.747 Y106.784 E0.01678
G1 X123.253 Y110.290 E0.15573
G1 X123.253 Y110.824 E0.01678
G1 X119.747 Y107.318 E0.15573
G1 X119.747 Y107.852 E0.01678
G1 X123.253 Y111.358 E0.15573
G1 X123.253 Y111.892 E0.01678
G1 X119.747 Y108.386 E0.15573
G1 X119.747 Y108.920 E0.01678
G1 X123.253 Y112.427 E0.15573
G1 X123.253 Y112.961 E0.01678
G1 X119.747 Y109.455 E0.15573
G1 X119.747 Y109.989 E0.01678
G1 X123.253 Y113.495 E0.15573
G1 X123.253 Y114.029 E0.01678
G1 X119.747 Y110.523 E0.15573
G1 X119.747 Y111.057 E0.01678
G1 X123.253 Y114.563 E0.15573
G1 X123.253 Y115.097 E0.01678
G1 X119.747 Y111.591 E0.15573
G1 X119.747 Y112.126 E0.01678
G1 X123.253 Y115.632 E0.15573
G1 X123.253 Y116.166 E0.01678
G1 X119.747 Y112.660 E0.15573
G1 X119.747 Y113.194 E0.01678
G1 X123.253 Y116.700 E0.15573
G1 X123.253 Y117.234 E0.01678
G1 X119.747 Y113.728 E0.15573
G1 X119.747 Y114.262 E0.01678
G1 X123.253 Y117.768 E0.15573
G1 X123.253 Y118.302 E0.01678
G1 X119.747 Y114.796 E0.15573
G1 X119.747 Y115.331 E0.01678
G1 X123.253 Y118.837 E0.15573
G1 X123.253 Y119.371 E0.01678
G1 X119.747 Y115.865 E0.15573
G1 X119.747 Y116.399 E0.01678
G1 X123.253 Y119.905 E0.15573
G1 X123.253 Y120.439 E0.01678
G1 X119.747 Y116.933 E0.15573
G1 X119.747 Y117.467 E0.01678
G1 X123.253 Y120.973 E0.15573
G1 X123.253 Y121.508 E0.01678
G1 X119.747 Y118.001 E0.15573
G1 X119.747 Y118.536 E0.01678
G1 X123.253 Y122.042 E0.15573
G1 X123.253 Y122.576 E0.01678
G1 X119.747 Y119.070 E0.15573
G1 X119.747 Y119.604 E0.01678
G1 X123.253 Y123.110 E0.15573
G1 X123.253 Y123.644 E0.01678
G1 X119.747 Y120.138 E0.15573
G1 X119.747 Y120.672 E0.01678
G1 X123.253 Y124.178 E0.15573
G1 X123.253 Y124.713 E0.01678
G1 X119.747 Y121.206 E0.15573
G1 X119.747 Y121.741 E0.01678
G1 X123.253 Y125.247 E0.15573
G1 X123.253 Y125.781 E0.01678
G1 X119.747 Y122.275 E0.15573
G1 X119.747 Y122.809 E0.01678
G1 X123.253 Y126.315 E0.15573
G1 X123.253 Y126.849 E0.01678
G1 X119.747 Y123.343 E0.15573
G1 X119.747 Y123.877 E0.01678
G1 X123.253 Y127.383 E0.15573
G1 X123.253 Y127.918 E0.01678
G1 X119.747 Y124.411 E0.15573
G1 X119.747 Y124.946 E0.01678
G1 X123.253 Y128.452 E0.15573
G1 X123.253 Y128.986 E0.01678
G1 X119.747 Y125.480 E0.15573
G1 X119.747 Y126.014 E0.01678
G1 X123.253 Y129.520 E0.15573
G1 X123.253 Y130.054 E0.01678
G1 X119.747 Y126.548 E0.15573
G1 X119.747 Y127.082 E0.01678
G1 X123.253 Y130.588 E0.15573
G1 X123.253 Y131.123 E0.01678
G1 X119.747 Y127.617 E0.15573
G1 X119.747 Y128.151 E0.01678
G1 X123.253 Y131.657 E0.15573
G1 X123.253 Y132.191 E0.01678
G1 X119.747 Y128.685 E0.15573
G1 X119.747 Y129.219 E0.01678
G1 X123.253 Y132.725 E0.15573
G1 X123.253 Y133.259 E0.01678
G1 X119.747 Y129.753 E0.15573
G1 X119.747 Y130.287 E0.01678
G1 X123.253 Y133.793 E0.15573
G1 X123.253 Y134.328 E0.01678
G1 X119.747 Y130.822 E0.15573
G1 X119.747 Y131.356 E0.01678
G1 X123.253 Y134.862 E0.15573
G1 X123.253 Y135.396 E0.01678
G1 X119.747 Y131.890 E0.15573
G1 X119.747 Y132.424 E0.01678
G1 X123.253 Y135.930 E0.15573
G1 X123.253 Y136.464 E0.01678
G1 X119.747 Y132.958 E0.15573
G1 X119.747 Y133.492 E0.01678
G1 X123.253 Y136.999 E0.15573
G1 X123.253 Y137.533 E0.01678
G1 X119.747 Y134.027 E0.15573
G1 X119.747 Y134.561 E0.01678
G1 X123.253 Y138.067 E0.15573
G1 X123.253 Y138.601 E0.01678
G1 X119.747 Y135.095 E0.15573
G1 X119.747 Y135.629 E0.01678
G1 X123.253 Y139.135 E0.15573
G1 X123.253 Y139.669 E0.01678
G1 X119.747 Y136.163 E0.15573
G1 X119.747 Y136.697 E0.01678
G1 X123.253 Y140.204 E0.15573
G1 X123.253 Y140.253 E0.00155
G1 X122.768 Y140.253 E0.01522
G1 X119.262 Y136.747 E0.15573
G1 X118.728 Y136.747 E0.01678
G1 X122.234 Y140.253 E0.15573
G1 X121.700 Y140.253 E0.01678
G1 X118.194 Y136.747 E0.15573
G1 X117.660 Y136.747 E0.01678
G1 X121.166 Y140.253 E0.15573
G1 X120.632 Y140.253 E0.01678
G1 X117.126 Y136.747 E0.15573
G1 X116.591 Y136.747 E0.01678
G1 X120.098 Y140.253 E0.15573
G1 X119.563 Y140.253 E0.01678
G1 X116.057 Y136.747 E0.15573
G1 X115.523 Y136.747 E0.01678
G1 X119.029 Y140.253 E0.15573
G1 X118.495 Y140.253 E0.01678
G1 X114.989 Y136.747 E0.15573
G1 X114.455 Y136.747 E0.01678
G1 X117.961 Y140.253 E0.15573
G1 X117.427 Y140.253 E0.01678
G1 X113.921 Y136.747 E0.15573
G1 X113.386 Y136.747 E0.01678
G1 X116.892 Y140.253 E0.15573
G1 X116.358 Y140.253 E0.01678
G1 X112.852 Y136.747 E0.15573
G1 X112.318 Y136.747 E0.01678
G1 X115.824 Y140.253 E0.15573
G1 X115.290 Y140.253 E0.01678
G1 X111.784 Y136.747 E0.15573
G1 X111.250 Y136.747 E0.01678
G1 X114.756 Y140.253 E0.15573
G1 X114.222 Y140.253 E0.01678
G1 X110.716 Y136.747 E0.15573
G1 X110.181 Y136.747 E0.01678
G1 X113.687 Y140.253 E0.15573
G1 X113.153 Y140.253 E0.01678
G1 X109.647 Y136.747 E0.15573
G1 X109.113 Y136.747 E0.01678
G1 X112.619 Y140.253 E0.15573
G1 X112.085 Y140.253 E0.01678
G1 X108.579 Y136.747 E0.15573
G1 X108.045 Y136.747 E0.01678
G1 X111.551 Y140.253 E0.15573
G1 X111.017 Y140.253 E0.01678
G1 X107.510 Y136.747 E0.15573
G1 X106.976 Y136.747 E0.01678
G1 X110.482 Y140.253 E0.15573
G1 X109.948 Y140.253 E0.01678
G1 X106.442 Y136.747 E0.15573
G1 X105.908 Y136.747 E0.01678
G1 X109.414 Y140.253 E0.15573
G1 X108.880 Y140.253 E0.01678
G1 X105.374 Y136.747 E0.15573
G1 X104.840 Y136.747 E0.01678
G1 X108.346 Y140.253 E0.15573
G1 X107.812 Y140.253 E0.01678
G1 X104.305 Y136.747 E0.15573
G1 X103.771 Y136.747 E0.01678
G1 X107.277 Y140.253 E0.15573
G1 X106.743 Y140.253 E0.01678
G1 X103.237 Y136.747 E0.15573
G1 X102.703 Y136.747 E0.01678
G1 X106.209 Y140.253 E0.15573
G1 X105.675 Y140.253 E0.01678
G1 X102.169 Y136.747 E0.15573
G1 X101.635 Y136.747 E0.01678
G1 X105.141 Y140.253 E0.15573
G1 X104.607 Y140.253 E0.01678
G1 X101.100 Y136.747 E0.15573
G1 X100.566 Y136.747 E0.01678
G1 X104.072 Y140.253 E0.15573
G1 X103.538 Y140.253 E0.01678
G1 X100.032 Y136.747 E0.15573
G1 X99.498 Y136.747 E0.01678
G1 X103.004 Y140.253 E0.15573
G1 X102.470 Y140.253 E0.01678
G1 X98.964 Y136.747 E0.15573
G1 X98.430 Y136.747 E0.01678
G1 X101.936 Y140.253 E0.15573
G1 X101.401 Y140.253 E0.01678
G1 X97.895 Y136.747 E0.15573
G1 X97.361 Y136.747 E0.01678
G1 X100.867 Y140.253 E0.15573
G1 X100.333 Y140.253 E0.01678
G1 X96.827 Y136.747 E0.15573
G1 X96.293 Y136.747 E0.01678
G1 X99.799 Y140.253 E0.15573
G1 X99.265 Y140.253 E0.01678
G1 X95.759 Y136.747 E0.15573
G1 X95.225 Y136.747 E0.01678
G1 X98.731 Y140.253 E0.15573
G1 X98.196 Y140.253 E0.01678
G1 X94.690 Y136.747 E0.15573
G1 X94.156 Y136.747 E0.01678
G1 X97.662 Y140.253 E0.15573
G1 X97.128 Y140.253 E0.01678
G1 X93.622 Y136.747 E0.15573
G1 X93.088 Y136.747 E0.01678
G1 X96.594 Y140.253 E0.15573
G1 X96.060 Y140.253 E0.01678
G1 X92.554 Y136.747 E0.15573
G1 X92.019 Y136.747 E0.01678
G1 X95.526 Y140.253 E0.15573
G1 X94.991 Y140.253 E0.01678
G1 X91.485 Y136.747 E0.15573
