; generated by Slic3r Prusa Edition 1.39.2+win64 on 2018-08-23 at 09:21:10

; 

; external perimeters extrusion width = 0.45mm
; perimeters extrusion width = 0.45mm
; infill extrusion width = 0.45mm
; solid infill extrusion width = 0.45mm
; top infill extrusion width = 0.45mm
; first layer extrusion width = 0.42mm

M107
M115 U3.1.0 ; tell printer latest fw version
M83  ; extruder relative mode
M104 S205 ; set extruder temp
M140 S55 ; set bed temp
M190 S55 ; wait for bed temp
M109 S205 ; wait for extruder temp
G28 W ; home all without mesh bed level
G80 ; mesh bed leveling
G1 Y-3.0 F1000.0 ; go outside print area
G92 E0.0
G1 X60.0 E9.0  F1000.0 ; intro line
G1 X100.0 E12.5  F1000.0 ; intro line
G92 E0.0
M900 K30; Filament gcode
G21 ; set units to millimeters
G90 ; use absolute coordinates
M83 ; use relative distances for extrusion
;BEFORE_LAYER_CHANGE
;0.2


G1 E-0.80000 F2100.00000
G1 Z0.600 F7200.000
;AFTER_LAYER_CHANGE
;0.2
G1 X92.792 Y87.619
G1 Z0.200
G1 E0.80000 F2100.00000
M204 S1000
G1 F1800
G1 X93.245 Y86.897 E0.02673
G1 X93.615 Y86.568 E0.01550
G1 X94.044 Y86.324 E0.01550
G1 X116.463 Y76.717 E0.76475
G1 X117.069 Y76.636 E0.01917
G1 X131.410 Y76.636 E0.44964
G1 X132.298 Y76.809 E0.02837
G1 X133.054 Y77.299 E0.02825
G1 X133.575 Y78.039 E0.02837
G1 X133.781 Y78.920 E0.02837
G1 X133.783 Y121.047 E1.32085
G1 X133.617 Y121.887 E0.02684
G1 X133.161 Y122.616 E0.02696
G1 X132.465 Y123.141 E0.02731
G1 X131.632 Y123.379 E0.02720
G1 X125.148 Y123.376 E0.20330
G1 X94.621 Y118.847 E0.96762
G1 X93.966 Y118.640 E0.02154
G1 X93.397 Y118.255 E0.02154
G1 X93.073 Y117.892 E0.01526
G1 X92.828 Y117.467 E0.01538
G1 X92.676 Y117.000 E0.01538
G1 X92.623 Y116.513 E0.01538
G1 X92.623 Y88.450 E0.87987
G1 X92.780 Y87.678 E0.02473
G1 F5760
G1 X93.245 Y86.897 E-0.31477
G1 X93.615 Y86.568 E-0.17119
G1 X94.044 Y86.324 E-0.17119
G1 X94.317 Y86.207 E-0.10285
G1 E-0.04000 F2100.00000
G1 Z0.800 F7200.000
G1 X101.841 Y109.804
G1 Z0.200
G1 E0.80000 F2100.00000
G1 F1800
G1 X102.443 Y109.676 E0.01927
G1 X103.057 Y109.676 E0.01927
G1 X103.659 Y109.804 E0.01927
G1 X104.220 Y110.054 E0.01927
G1 X104.717 Y110.415 E0.01927
G1 X105.129 Y110.872 E0.01927
G1 X105.436 Y111.404 E0.01927
G1 X105.626 Y111.989 E0.01927
G1 X105.690 Y112.600 E0.01927
G1 X105.626 Y113.211 E0.01927
G1 X105.436 Y113.796 E0.01927
G1 X105.129 Y114.328 E0.01927
G1 X104.717 Y114.785 E0.01927
G1 X104.220 Y115.146 E0.01927
G1 X103.659 Y115.396 E0.01927
G1 X103.057 Y115.524 E0.01927
G1 X102.443 Y115.524 E0.01927
G1 X101.841 Y115.396 E0.01927
G1 X101.280 Y115.146 E0.01927
G1 X100.783 Y114.785 E0.01927
G1 X100.371 Y114.328 E0.01927
G1 X100.063 Y113.795 E0.01931
G1 X99.873 Y113.200 E0.01957
G1 X99.810 Y112.600 E0.01893
G1 X99.874 Y111.989 E0.01927
G1 X100.064 Y111.404 E0.01927
G1 X100.371 Y110.872 E0.01927
G1 X100.783 Y110.415 E0.01927
G1 X101.280 Y110.054 E0.01927
G1 X101.787 Y109.828 E0.01739
G1 X101.940 Y110.172 F7200.000
G1 F1800
G1 X102.482 Y110.053 E0.01741
G1 X103.018 Y110.053 E0.01679
G1 X103.541 Y110.164 E0.01679
G1 X104.031 Y110.382 E0.01679
G1 X104.464 Y110.697 E0.01679
G1 X104.822 Y111.095 E0.01679
G1 X105.090 Y111.558 E0.01679
G1 X105.255 Y112.067 E0.01679
G1 X105.311 Y112.600 E0.01679
G1 X105.255 Y113.133 E0.01679
G1 X105.090 Y113.642 E0.01679
G1 X104.822 Y114.105 E0.01679
G1 X104.464 Y114.503 E0.01679
G1 X104.031 Y114.818 E0.01679
G1 X103.541 Y115.036 E0.01679
G1 X103.018 Y115.147 E0.01679
G1 X102.482 Y115.147 E0.01679
G1 X101.959 Y115.036 E0.01679
G1 X101.469 Y114.818 E0.01679
G1 X101.036 Y114.503 E0.01679
G1 X100.678 Y114.105 E0.01679
G1 X100.410 Y113.641 E0.01680
G1 X100.244 Y113.122 E0.01709
G1 X100.189 Y112.600 E0.01647
G1 X100.245 Y112.067 E0.01679
G1 X100.410 Y111.558 E0.01679
G1 X100.678 Y111.095 E0.01679
G1 X101.036 Y110.697 E0.01679
G1 X101.469 Y110.382 E0.01679
G1 X101.885 Y110.197 E0.01427
G1 X102.021 Y109.781 F7200.000
G1 F5760
G1 X102.482 Y110.053 E-0.21275
G1 X103.018 Y110.053 E-0.18544
G1 X103.541 Y110.164 E-0.18544
G1 X104.007 Y110.371 E-0.17637
G1 E-0.04000 F2100.00000
G1 Z0.800 F7200.000
G1 X101.090 Y115.475
G1 Z0.200
G1 E0.80000 F2100.00000
G1 F1800
G1 X101.227 Y115.536 E0.00471
G1 X95.964 Y115.536 E0.16503
G1 X95.964 Y89.464 E0.81746
G1 X101.677 Y89.464 E0.17911
G1 X101.090 Y89.725 E0.02013
G1 X100.529 Y90.133 E0.02176
G1 X100.064 Y90.649 E0.02176
G1 X99.718 Y91.250 E0.02176
G1 X99.503 Y91.910 E0.02176
G1 X99.431 Y92.600 E0.02176
G1 X99.503 Y93.290 E0.02176
G1 X99.718 Y93.950 E0.02176
G1 X100.064 Y94.551 E0.02176
G1 X100.529 Y95.067 E0.02176
G1 X101.090 Y95.475 E0.02176
G1 X101.724 Y95.757 E0.02176
G1 X102.403 Y95.901 E0.02176
G1 X103.097 Y95.901 E0.02176
G1 X103.776 Y95.757 E0.02176
G1 X104.410 Y95.475 E0.02176
G1 X104.971 Y95.067 E0.02176
G1 X105.436 Y94.551 E0.02176
G1 X105.782 Y93.950 E0.02176
G1 X105.997 Y93.290 E0.02176
G1 X106.069 Y92.600 E0.02176
G1 X105.998 Y91.922 E0.02139
G1 X105.783 Y91.252 E0.02206
G1 X105.436 Y90.649 E0.02182
G1 X104.971 Y90.133 E0.02176
G1 X104.410 Y89.725 E0.02176
G1 X103.823 Y89.464 E0.02013
G1 X109.036 Y89.464 E0.16344
G1 X109.036 Y115.536 E0.81746
G1 X104.273 Y115.536 E0.14935
G1 X104.410 Y115.475 E0.00471
G1 X104.971 Y115.067 E0.02176
G1 X105.436 Y114.551 E0.02176
G1 X105.782 Y113.950 E0.02176
G1 X105.997 Y113.290 E0.02176
G1 X106.069 Y112.600 E0.02176
G1 X105.997 Y111.910 E0.02176
G1 X105.782 Y111.250 E0.02176
G1 X105.436 Y110.649 E0.02176
G1 X104.971 Y110.133 E0.02176
G1 X104.410 Y109.725 E0.02176
G1 X103.776 Y109.443 E0.02176
G1 X103.097 Y109.299 E0.02176
G1 X102.403 Y109.299 E0.02176
G1 X101.724 Y109.443 E0.02176
G1 X101.090 Y109.725 E0.02176
G1 X100.529 Y110.133 E0.02176
G1 X100.064 Y110.649 E0.02176
G1 X99.718 Y111.250 E0.02176
G1 X99.503 Y111.910 E0.02176
G1 X99.431 Y112.600 E0.02176
G1 X99.502 Y113.278 E0.02139
G1 X99.717 Y113.948 E0.02206
G1 X100.064 Y114.551 E0.02182
G1 X100.529 Y115.067 E0.02176
G1 X101.042 Y115.440 E0.01988
G1 F5760
G1 X101.227 Y115.536 E-0.07245
G1 X99.242 Y115.536 E-0.68755
G1 E-0.04000 F2100.00000
G1 Z0.800 F7200.000
G1 X102.443 Y95.524
G1 Z0.200
G1 E0.80000 F2100.00000
G1 F1800
G1 X101.841 Y95.396 E0.01927
G1 X101.280 Y95.146 E0.01927
G1 X100.783 Y94.785 E0.01927
G1 X100.371 Y94.328 E0.01927
G1 X100.064 Y93.796 E0.01927
G1 X99.874 Y93.211 E0.01927
G1 X99.810 Y92.600 E0.01927
G1 X99.874 Y91.989 E0.01927
G1 X100.064 Y91.404 E0.01927
G1 X100.371 Y90.872 E0.01927
G1 X100.783 Y90.415 E0.01927
G1 X101.280 Y90.054 E0.01927
G1 X101.841 Y89.804 E0.01927
G1 X102.443 Y89.676 E0.01927
G1 X103.057 Y89.676 E0.01927
G1 X103.659 Y89.804 E0.01927
G1 X104.220 Y90.054 E0.01927
G1 X104.717 Y90.415 E0.01927
G1 X105.129 Y90.872 E0.01927
G1 X105.437 Y91.405 E0.01931
G1 X105.627 Y92.000 E0.01957
G1 X105.690 Y92.600 E0.01893
G1 X105.626 Y93.211 E0.01927
G1 X105.436 Y93.796 E0.01927
G1 X105.129 Y94.328 E0.01927
G1 X104.717 Y94.785 E0.01927
G1 X104.220 Y95.146 E0.01927
G1 X103.659 Y95.396 E0.01927
G1 X103.057 Y95.524 E0.01927
G1 X102.503 Y95.524 E0.01739
G1 X102.503 Y95.147 F7200.000
G1 F1800
G1 X101.959 Y95.036 E0.01741
G1 X101.469 Y94.818 E0.01679
G1 X101.036 Y94.503 E0.01679
G1 X100.678 Y94.105 E0.01679
G1 X100.410 Y93.642 E0.01679
G1 X100.245 Y93.132 E0.01679
G1 X100.189 Y92.600 E0.01679
G1 X100.245 Y92.068 E0.01679
G1 X100.410 Y91.558 E0.01679
G1 X100.678 Y91.095 E0.01679
G1 X101.036 Y90.697 E0.01679
G1 X101.469 Y90.382 E0.01679
G1 X101.959 Y90.164 E0.01679
G1 X102.482 Y90.053 E0.01679
G1 X103.018 Y90.053 E0.01679
G1 X103.541 Y90.164 E0.01679
G1 X104.031 Y90.382 E0.01679
G1 X104.464 Y90.697 E0.01679
G1 X104.822 Y91.095 E0.01679
G1 X105.090 Y91.559 E0.01680
G1 X105.256 Y92.078 E0.01709
G1 X105.311 Y92.600 E0.01647
G1 X105.255 Y93.132 E0.01679
G1 X105.090 Y93.642 E0.01679
G1 X104.822 Y94.105 E0.01679
G1 X104.464 Y94.503 E0.01679
G1 X104.031 Y94.818 E0.01679
G1 X103.541 Y95.036 E0.01679
G1 X103.018 Y95.147 E0.01679
G1 X102.563 Y95.147 E0.01427
G1 X102.269 Y95.472 F7200.000
G1 F5760
G1 X101.959 Y95.036 E-0.21275
G1 X101.469 Y94.818 E-0.18545
G1 X101.036 Y94.503 E-0.18545
G1 X100.696 Y94.125 E-0.17635
G1 E-0.04000 F2100.00000
G1 Z0.800 F7200.000
G1 X109.413 Y89.087
G1 Z0.200
G1 E0.80000 F2100.00000
G1 F1800
G1 X109.413 Y115.913 E0.84111
G1 X95.587 Y115.913 E0.43350
G1 X95.587 Y89.087 E0.84111
G1 X109.353 Y89.087 E0.43162
G1 X109.790 Y88.710 F7200.000
G1 F1800
G1 X109.790 Y116.290 E0.86475
G1 X95.210 Y116.290 E0.45715
G1 X95.210 Y88.710 E0.86475
G1 X109.730 Y88.710 E0.45526
G1 X109.725 Y89.105 F7200.000
G1 F5760
G1 X109.735 Y90.904 E-0.76000
G1 E-0.04000 F2100.00000
G1 Z0.800 F7200.000
G1 X108.923 Y90.347
G1 Z0.200
G1 E0.80000 F2100.00000
G1 F1800
G1 X108.322 Y89.747 E0.02688
G1 X107.784 Y89.747 E0.01704
G1 X108.753 Y90.716 E0.04338
G1 X108.753 Y91.254 E0.01704
G1 X107.246 Y89.747 E0.06749
G1 X106.707 Y89.747 E0.01704
G1 X108.753 Y91.793 E0.09159
G1 X108.753 Y92.331 E0.01704
G1 X106.169 Y89.747 E0.11570
G1 X105.630 Y89.747 E0.01704
G1 X108.753 Y92.870 E0.13980
G1 X108.753 Y93.408 E0.01704
G1 X104.922 Y89.577 E0.17151
G1 F5760
G1 X106.474 Y91.129 E-0.76000
G1 E-0.04000 F2100.00000
G1 Z0.800 F7200.000
G1 X103.636 Y89.439
G1 Z0.200
G1 E0.80000 F2100.00000
G1 F1800
G1 X103.368 Y89.411 E0.00663
G1 X103.099 Y89.383 E0.00571
G1 X102.423 Y89.381 E0.01204
G1 X101.864 Y89.439 E0.00999
G1 F5760
G1 X102.423 Y89.381 E-0.19454
G1 X103.099 Y89.383 E-0.23433
G1 E-0.37113 F2100.00000
G1 Z0.800 F7200.000
G1 X100.076 Y89.577
G1 Z0.200
G1 E0.80000 F2100.00000
G1 F1800
G1 X100.386 Y89.887 E0.01387
G1 X100.123 Y90.162 E0.01205
G1 X99.708 Y89.747 E0.01857
G1 X99.169 Y89.747 E0.01704
G1 X99.867 Y90.445 E0.03126
G1 X99.663 Y90.779 E0.01240
G1 X98.631 Y89.747 E0.04620
G1 X98.092 Y89.747 E0.01704
G1 X99.466 Y91.120 E0.06148
G1 X99.331 Y91.524 E0.01347
G1 X97.554 Y89.747 E0.07956
G1 X97.016 Y89.747 E0.01704
G1 X99.215 Y91.946 E0.09846
G1 X99.164 Y92.433 E0.01551
G1 X96.477 Y89.747 E0.12027
G1 X96.247 Y89.747 E0.00729
G1 X96.247 Y90.055 E0.00976
G1 X99.188 Y92.996 E0.13166
G1 X99.225 Y93.349 E0.01125
G1 X99.332 Y93.679 E0.01096
G1 X96.247 Y90.594 E0.13811
G1 X96.247 Y91.132 E0.01704
G1 X108.753 Y103.638 E0.55990
G1 X108.753 Y103.100 E0.01704
G1 X101.693 Y96.039 E0.31609
G1 X102.376 Y96.184 E0.02210
G1 X108.753 Y102.561 E0.28551
G1 X108.753 Y102.023 E0.01704
G1 X102.914 Y96.184 E0.26140
G1 X103.127 Y96.184 E0.00672
G1 X103.396 Y96.127 E0.00870
G1 X108.753 Y101.484 E0.23985
G1 X108.753 Y100.946 E0.01704
G1 X103.840 Y96.033 E0.21997
G1 X104.216 Y95.871 E0.01297
G1 X108.753 Y100.408 E0.20312
G1 X108.753 Y99.869 E0.01704
G1 X104.583 Y95.699 E0.18671
G1 X104.894 Y95.472 E0.01220
G1 X108.753 Y99.331 E0.17275
G1 X108.753 Y98.792 E0.01704
G1 X105.198 Y95.237 E0.15915
G1 X105.453 Y94.954 E0.01207
G1 X108.753 Y98.254 E0.14773
G1 X108.753 Y97.715 E0.01704
G1 X105.699 Y94.661 E0.13675
G1 X105.896 Y94.320 E0.01248
G1 X108.753 Y97.177 E0.12792
G1 X108.753 Y96.639 E0.01704
G1 X106.076 Y93.962 E0.11985
G1 X106.208 Y93.555 E0.01353
G1 X108.753 Y96.100 E0.11394
G1 X108.753 Y95.562 E0.01704
G1 X106.300 Y93.109 E0.10981
G1 X106.352 Y92.622 E0.01551
G1 X108.753 Y95.023 E0.10752
G1 X108.753 Y94.485 E0.01704
G1 X106.293 Y92.025 E0.11012
G1 X106.276 Y91.863 E0.00516
G1 X106.091 Y91.284 E0.01924
G1 X108.923 Y94.116 E0.12678
G1 F5760
G1 X107.371 Y92.565 E-0.76000
G1 E-0.04000 F2100.00000
G1 Z0.800 F7200.000
G1 X108.923 Y104.346
G1 Z0.200
G1 E0.80000 F2100.00000
G1 F1800
G1 X96.247 Y91.670 E0.56749
G1 X96.247 Y92.209 E0.01704
G1 X108.753 Y104.715 E0.55990
G1 X108.753 Y105.253 E0.01704
G1 X96.247 Y92.747 E0.55990
G1 X96.247 Y93.286 E0.01704
G1 X108.753 Y105.792 E0.55990
G1 X108.753 Y106.330 E0.01704
G1 X96.247 Y93.824 E0.55990
G1 X96.247 Y94.363 E0.01704
G1 X108.753 Y106.869 E0.55990
G1 X108.753 Y107.407 E0.01704
G1 X96.247 Y94.901 E0.55990
G1 X96.247 Y95.439 E0.01704
G1 X108.753 Y107.945 E0.55990
G1 X108.753 Y108.484 E0.01704
G1 X96.247 Y95.978 E0.55990
G1 X96.247 Y96.516 E0.01704
G1 X108.753 Y109.022 E0.55990
G1 X108.753 Y109.561 E0.01704
G1 X96.247 Y97.055 E0.55990
G1 X96.247 Y97.593 E0.01704
G1 X108.753 Y110.099 E0.55990
G1 X108.753 Y110.638 E0.01704
G1 X96.247 Y98.131 E0.55990
G1 X96.247 Y98.670 E0.01704
G1 X108.753 Y111.176 E0.55990
G1 X108.753 Y111.714 E0.01704
G1 X96.247 Y99.208 E0.55990
G1 X96.247 Y99.747 E0.01704
G1 X108.753 Y112.253 E0.55990
G1 X108.753 Y112.791 E0.01704
G1 X96.247 Y100.285 E0.55990
G1 X96.247 Y100.824 E0.01704
G1 X108.753 Y113.330 E0.55990
G1 X108.753 Y113.868 E0.01704
G1 X106.053 Y111.168 E0.12087
G1 X106.275 Y111.851 E0.02271
G1 X106.284 Y111.938 E0.00277
G1 X108.753 Y114.407 E0.11053
G1 X108.753 Y114.945 E0.01704
G1 X106.347 Y112.539 E0.10770
G1 X106.308 Y113.038 E0.01584
G1 X108.523 Y115.253 E0.09916
G1 X107.984 Y115.253 E0.01704
G1 X106.227 Y113.496 E0.07866
G1 X106.095 Y113.902 E0.01353
G1 X107.446 Y115.253 E0.06047
G1 X106.908 Y115.253 E0.01704
G1 X105.924 Y114.270 E0.04401
G1 X105.727 Y114.611 E0.01248
G1 X106.369 Y115.253 E0.02873
G1 X105.831 Y115.253 E0.01704
G1 X105.490 Y114.913 E0.01523
G1 X105.235 Y115.196 E0.01207
G1 X105.462 Y115.423 E0.01015
G1 F5760
G1 X105.235 Y115.196 E-0.11100
G1 X105.490 Y114.913 E-0.13205
G1 X105.831 Y115.253 E-0.16667
G1 X106.369 Y115.253 E-0.18648
G1 X106.035 Y114.919 E-0.16380
G1 E-0.04000 F2100.00000
G1 Z0.800 F7200.000
G1 X104.092 Y115.593
G1 Z0.200
G1 E0.80000 F2100.00000
G1 F1800
G1 X103.485 Y115.676 E0.00786
G1 X103.237 Y115.702 E0.00207
G1 X102.263 Y115.702 F7200.000
G1 F1800
G1 X101.408 Y115.593 E0.00715
G1 F5760
G1 X102.263 Y115.702 E-0.29850
G1 E-0.50150 F2100.00000
G1 Z0.800 F7200.000
G1 X96.847 Y115.423
G1 Z0.200
G1 E0.80000 F2100.00000
G1 F1800
G1 X96.247 Y114.822 E0.02687
G1 X96.247 Y114.284 E0.01704
G1 X97.216 Y115.253 E0.04338
G1 X97.754 Y115.253 E0.01704
G1 X96.247 Y113.746 E0.06749
G1 X96.247 Y113.207 E0.01704
G1 X98.293 Y115.253 E0.09159
G1 X98.831 Y115.253 E0.01704
G1 X96.247 Y112.669 E0.11570
G1 X96.247 Y112.130 E0.01704
G1 X99.370 Y115.253 E0.13980
G1 X99.908 Y115.253 E0.01704
G1 X96.247 Y111.592 E0.16391
G1 X96.247 Y111.054 E0.01704
G1 X99.729 Y114.536 E0.15589
G1 X99.456 Y114.064 E0.01726
G1 X99.297 Y113.565 E0.01658
G1 X96.247 Y110.515 E0.13654
G1 X96.247 Y109.977 E0.01704
G1 X99.179 Y112.908 E0.13125
G1 X99.146 Y112.600 E0.00982
G1 X99.171 Y112.362 E0.00756
G1 X96.247 Y109.438 E0.13092
G1 X96.247 Y108.900 E0.01704
G1 X99.222 Y111.875 E0.13321
G1 X99.350 Y111.465 E0.01361
G1 X96.247 Y108.361 E0.13894
G1 X96.247 Y107.823 E0.01704
G1 X99.495 Y111.071 E0.14539
G1 X99.692 Y110.729 E0.01248
G1 X96.247 Y107.285 E0.15422
G1 X96.247 Y106.746 E0.01704
G1 X99.905 Y110.404 E0.16375
G1 X100.160 Y110.121 E0.01207
G1 X96.247 Y106.208 E0.17517
G1 X96.247 Y105.669 E0.01704
G1 X100.432 Y109.854 E0.18735
G1 X100.744 Y109.628 E0.01220
G1 X96.247 Y105.131 E0.20131
G1 X96.247 Y104.592 E0.01704
G1 X101.076 Y109.422 E0.21621
G1 X101.449 Y109.256 E0.01291
G1 X96.247 Y104.054 E0.23289
G1 X96.247 Y103.516 E0.01704
G1 X101.857 Y109.126 E0.25116
G1 X102.301 Y109.031 E0.01437
G1 X96.247 Y102.977 E0.27104
G1 X96.247 Y102.439 E0.01704
G1 X102.824 Y109.016 E0.29446
G1 X103.127 Y109.016 E0.00958
G1 X103.426 Y109.080 E0.00969
G1 X96.247 Y101.900 E0.32141
G1 X96.247 Y101.362 E0.01704
G1 X104.632 Y109.747 E0.37538
G1 F5760
G1 X103.080 Y108.195 E-0.76000
G1 E-0.04000 F2100.00000
G1 Z0.800 F7200.000
G1 X126.370 Y98.050
G1 Z0.200
G1 E0.80000 F2100.00000
G1 F1800
G1 X121.917 Y98.044 E0.13963
G1 X121.371 Y97.984 E0.01723
G1 X121.037 Y97.910 E0.01071
G1 X120.702 Y97.804 E0.01104
G1 X120.386 Y97.674 E0.01071
G1 X119.905 Y97.410 E0.01721
G1 X119.634 Y97.220 E0.01038
G1 X119.223 Y96.860 E0.01714
G1 X118.991 Y96.606 E0.01078
G1 X118.776 Y96.327 E0.01103
G1 X118.593 Y96.039 E0.01071
G1 X118.350 Y95.547 E0.01721
G1 X118.233 Y95.226 E0.01071
G1 X118.142 Y94.886 E0.01104
G1 X118.081 Y94.539 E0.01104
G1 X118.051 Y94.189 E0.01104
G1 X118.046 Y79.977 E0.44560
G1 X130.442 Y79.977 E0.38866
G1 X130.442 Y84.760 E0.14999
G1 X130.068 Y84.600 E0.01274
G1 X129.501 Y84.426 E0.01860
G1 X129.089 Y84.347 E0.01317
G1 X128.681 Y84.306 E0.01284
G1 X128.272 Y84.300 E0.01284
G1 X127.853 Y84.330 E0.01317
G1 X127.259 Y84.438 E0.01893
G1 X126.684 Y84.623 E0.01893
G1 X126.300 Y84.794 E0.01317
G1 X125.933 Y84.998 E0.01317
