; generated by Slic3r Prusa Edition 1.39.2+win64 on 2018-05-24 at 07:40:03

; 

; external perimeters extrusion width = 0.45mm
; perimeters extrusion width = 0.45mm
; infill extrusion width = 0.45mm
; solid infill extrusion width = 0.45mm
; top infill extrusion width = 0.45mm
; first layer extrusion width = 0.42mm

M107
M115 U3.1.0 ; tell printer latest fw version
M83  ; extruder relative mode
M104 S205 ; set extruder temp
M140 S55 ; set bed temp
M190 S55 ; wait for bed temp
M109 S205 ; wait for extruder temp
G28 W ; home all without mesh bed level
G80 ; mesh bed leveling
G1 Y-3.0 F1000.0 ; go outside print area
G92 E0.0
G1 X60.0 E9.0  F1000.0 ; intro line
G1 X100.0 E12.5  F1000.0 ; intro line
G92 E0.0
M900 K30; Filament gcode
G21 ; set units to millimeters
G90 ; use absolute coordinates
M83 ; use relative distances for extrusion
;BEFORE_LAYER_CHANGE
;0.2


G1 E-0.80000 F2100.00000
G1 Z0.600 F7200.000
;AFTER_LAYER_CHANGE
;0.2
G1 X78.522 Y87.202
G1 Z0.200
G1 E0.80000 F2100.00000
M204 S1000
G1 F1800
G1 X79.280 Y87.067 E0.02414
G1 X115.692 Y87.067 E1.14166
G1 X117.786 Y87.247 E0.06590
G1 X119.408 Y87.639 E0.05232
G1 X120.966 Y88.249 E0.05246
G1 X122.785 Y89.304 E0.06595
G1 X124.088 Y90.354 E0.05245
G1 X125.506 Y91.908 E0.06597
G1 X126.430 Y93.297 E0.05229
G1 X127.309 Y95.184 E0.06527
G1 X127.783 Y96.816 E0.05329
G1 X128.054 Y98.921 E0.06655
G1 X128.065 Y115.571 E0.52205
G1 X128.002 Y116.099 E0.01668
G1 X127.822 Y116.604 E0.01680
G1 X127.535 Y117.052 E0.01668
G1 X127.153 Y117.428 E0.01680
G1 X126.474 Y117.799 E0.02426
G1 X125.712 Y117.933 E0.02426
G1 X79.293 Y117.933 E1.45544
G1 X78.761 Y117.868 E0.01680
G1 X78.260 Y117.688 E0.01668
G1 X77.812 Y117.400 E0.01669
G1 X77.440 Y117.020 E0.01668
G1 X77.072 Y116.352 E0.02390
G1 X76.935 Y115.599 E0.02402
G1 X76.935 Y89.410 E0.82113
G1 X77.001 Y88.886 E0.01657
G1 X77.183 Y88.386 E0.01668
G1 X77.470 Y87.942 E0.01657
G1 X77.847 Y87.572 E0.01657
G1 X78.470 Y87.231 E0.02226
G1 F5760
G1 X79.280 Y87.067 E-0.28640
G1 X80.648 Y87.067 E-0.47360
G1 E-0.04000 F2100.00000
G1 Z0.800 F7200.000
G1 X106.758 Y110.955
G1 Z0.200
G1 E0.80000 F2100.00000
G1 F1800
G1 X107.079 Y110.673 E0.01339
G1 X107.391 Y110.493 E0.01128
G1 X107.789 Y110.358 E0.01319
G1 X108.148 Y110.311 E0.01133
G1 X108.565 Y110.339 E0.01313
G1 X108.907 Y110.430 E0.01108
G1 X109.228 Y110.580 E0.01112
G1 X109.566 Y110.828 E0.01313
G1 X109.809 Y111.093 E0.01127
G1 X110.027 Y111.453 E0.01318
G1 X110.150 Y111.791 E0.01128
G1 X110.214 Y112.206 E0.01319
G1 X110.198 Y112.567 E0.01133
G1 X110.098 Y112.974 E0.01314
G1 X109.945 Y113.302 E0.01132
G1 X109.697 Y113.639 E0.01314
G1 X109.431 Y113.883 E0.01132
G1 X109.073 Y114.100 E0.01313
G1 X108.735 Y114.223 E0.01127
G1 X108.313 Y114.288 E0.01339
G1 X107.887 Y114.260 E0.01339
G1 X107.545 Y114.169 E0.01108
G1 X107.224 Y114.019 E0.01113
G1 X106.886 Y113.771 E0.01313
G1 X106.643 Y113.506 E0.01127
G1 X106.425 Y113.146 E0.01318
G1 X106.302 Y112.808 E0.01128
G1 X106.238 Y112.392 E0.01319
G1 X106.254 Y112.031 E0.01133
G1 X106.354 Y111.625 E0.01314
G1 X106.507 Y111.297 E0.01132
G1 X106.723 Y111.003 E0.01145
G1 X107.027 Y111.226 F7200.000
G1 F1800
G1 X107.300 Y110.981 E0.01150
G1 X107.547 Y110.838 E0.00895
G1 X107.875 Y110.727 E0.01085
G1 X108.160 Y110.690 E0.00900
G1 X108.504 Y110.713 E0.01080
G1 X108.777 Y110.786 E0.00888
G1 X109.035 Y110.906 E0.00892
G1 X109.313 Y111.110 E0.01081
G1 X109.506 Y111.321 E0.00895
G1 X109.685 Y111.617 E0.01086
G1 X109.783 Y111.885 E0.00895
G1 X109.835 Y112.227 E0.01086
G1 X109.823 Y112.514 E0.00900
G1 X109.741 Y112.848 E0.01081
G1 X109.619 Y113.108 E0.00900
G1 X109.415 Y113.386 E0.01081
G1 X109.204 Y113.580 E0.00900
G1 X108.909 Y113.759 E0.01080
G1 X108.641 Y113.856 E0.00895
G1 X108.296 Y113.909 E0.01093
G1 X107.949 Y113.886 E0.01093
G1 X107.675 Y113.813 E0.00888
G1 X107.417 Y113.693 E0.00893
G1 X107.139 Y113.489 E0.01080
G1 X106.946 Y113.278 E0.00895
G1 X106.767 Y112.982 E0.01085
G1 X106.669 Y112.714 E0.00895
G1 X106.617 Y112.372 E0.01086
G1 X106.629 Y112.085 E0.00900
G1 X106.711 Y111.750 E0.01081
G1 X106.833 Y111.491 E0.00899
G1 X106.991 Y111.274 E0.00841
G1 X106.916 Y110.876 F7200.000
G1 F5760
G1 X107.300 Y110.981 E-0.14746
G1 X107.547 Y110.838 E-0.09886
G1 X107.875 Y110.727 E-0.11991
G1 X108.160 Y110.690 E-0.09941
G1 X108.504 Y110.713 E-0.11932
G1 X108.777 Y110.786 E-0.09809
G1 X108.978 Y110.880 E-0.07694
G1 E-0.04000 F2100.00000
G1 Z0.800 F7200.000
G1 X90.214 Y112.206
G1 Z0.200
G1 E0.80000 F2100.00000
G1 F1800
G1 X90.198 Y112.567 E0.01133
G1 X90.098 Y112.974 E0.01314
G1 X89.945 Y113.302 E0.01132
G1 X89.697 Y113.639 E0.01314
G1 X89.431 Y113.883 E0.01132
G1 X89.073 Y114.100 E0.01313
G1 X88.735 Y114.223 E0.01127
G1 X88.313 Y114.288 E0.01339
G1 X87.887 Y114.260 E0.01339
G1 X87.545 Y114.169 E0.01108
G1 X87.224 Y114.019 E0.01113
G1 X86.886 Y113.771 E0.01313
G1 X86.642 Y113.504 E0.01133
G1 X86.425 Y113.146 E0.01313
G1 X86.302 Y112.806 E0.01133
G1 X86.238 Y112.392 E0.01314
G1 X86.254 Y112.031 E0.01132
G1 X86.354 Y111.625 E0.01314
G1 X86.507 Y111.297 E0.01132
G1 X86.758 Y110.955 E0.01333
G1 X87.079 Y110.673 E0.01339
G1 X87.391 Y110.493 E0.01128
G1 X87.789 Y110.358 E0.01319
G1 X88.148 Y110.311 E0.01133
G1 X88.565 Y110.339 E0.01313
G1 X88.907 Y110.430 E0.01108
G1 X89.228 Y110.580 E0.01112
G1 X89.566 Y110.828 E0.01313
G1 X89.809 Y111.093 E0.01127
G1 X90.027 Y111.453 E0.01319
G1 X90.150 Y111.792 E0.01133
G1 X90.205 Y112.147 E0.01125
G1 X89.832 Y112.204 F7200.000
G1 F1800
G1 X89.823 Y112.514 E0.00970
G1 X89.741 Y112.848 E0.01081
G1 X89.619 Y113.108 E0.00900
G1 X89.415 Y113.386 E0.01081
G1 X89.204 Y113.580 E0.00900
G1 X88.909 Y113.759 E0.01080
G1 X88.641 Y113.856 E0.00895
G1 X88.296 Y113.909 E0.01093
G1 X87.949 Y113.886 E0.01093
G1 X87.675 Y113.813 E0.00888
G1 X87.417 Y113.693 E0.00893
G1 X87.139 Y113.489 E0.01081
G1 X86.946 Y113.277 E0.00900
G1 X86.767 Y112.982 E0.01081
G1 X86.669 Y112.713 E0.00900
G1 X86.617 Y112.372 E0.01081
G1 X86.629 Y112.085 E0.00900
G1 X86.711 Y111.750 E0.01081
G1 X86.833 Y111.491 E0.00899
G1 X87.038 Y111.211 E0.01088
G1 X87.300 Y110.981 E0.01093
G1 X87.547 Y110.838 E0.00895
G1 X87.875 Y110.727 E0.01086
G1 X88.160 Y110.690 E0.00900
G1 X88.504 Y110.713 E0.01080
G1 X88.777 Y110.786 E0.00888
G1 X89.035 Y110.906 E0.00892
G1 X89.313 Y111.110 E0.01081
G1 X89.506 Y111.321 E0.00895
G1 X89.685 Y111.617 E0.01086
G1 X89.783 Y111.886 E0.00900
G1 X89.823 Y112.145 E0.00821
G1 X90.109 Y112.342 F7200.000
G1 F5760
G1 X89.823 Y112.514 E-0.12764
G1 X89.741 Y112.848 E-0.11939
G1 X89.619 Y113.108 E-0.09937
G1 X89.415 Y113.386 E-0.11939
G1 X89.204 Y113.580 E-0.09937
G1 X88.909 Y113.759 E-0.11936
G1 X88.704 Y113.833 E-0.07549
G1 E-0.04000 F2100.00000
G1 Z0.800 F7200.000
G1 X88.436 Y96.455
G1 Z0.200
G1 E0.80000 F2100.00000
G1 F1800
G1 X87.954 Y96.434 E0.01512
G1 X87.691 Y96.388 E0.00837
G1 X87.335 Y96.284 E0.01164
G1 X86.898 Y96.080 E0.01511
G1 X86.589 Y95.874 E0.01164
G1 X86.395 Y95.711 E0.00796
G1 X86.215 Y95.531 E0.00796
G1 X85.983 Y95.242 E0.01164
G1 X85.739 Y94.819 E0.01532
G1 X85.574 Y94.366 E0.01511
G1 X85.516 Y94.105 E0.00837
G1 X85.476 Y93.742 E0.01144
G1 X85.484 Y93.378 E0.01144
G1 X85.519 Y93.113 E0.00837
G1 X85.642 Y92.654 E0.01491
G1 X85.792 Y92.314 E0.01164
G1 X85.925 Y92.083 E0.00837
G1 X86.211 Y91.711 E0.01471
G1 X86.399 Y91.522 E0.00837
G1 X86.689 Y91.289 E0.01164
G1 X87.101 Y91.052 E0.01491
G1 X87.347 Y90.950 E0.00837
G1 X87.704 Y90.846 E0.01165
G1 X88.185 Y90.783 E0.01520
G1 X88.553 Y90.791 E0.01155
G1 X88.817 Y90.826 E0.00836
G1 X89.277 Y90.949 E0.01491
G1 X89.617 Y91.098 E0.01165
G1 X89.848 Y91.232 E0.00836
G1 X90.230 Y91.525 E0.01511
G1 X90.556 Y91.881 E0.01512
G1 X90.710 Y92.102 E0.00845
G1 X90.887 Y92.425 E0.01155
G1 X91.052 Y92.878 E0.01511
G1 X91.125 Y93.242 E0.01164
G1 X91.148 Y93.508 E0.00837
G1 X91.127 Y93.983 E0.01491
G1 X91.055 Y94.347 E0.01165
G1 X90.978 Y94.589 E0.00797
G1 X90.880 Y94.826 E0.00804
G1 X90.703 Y95.149 E0.01156
G1 X90.413 Y95.527 E0.01492
G1 X90.222 Y95.717 E0.00845
G1 X89.935 Y95.948 E0.01156
G1 X89.517 Y96.189 E0.01511
G1 X89.171 Y96.323 E0.01164
G1 X88.914 Y96.392 E0.00837
G1 X88.495 Y96.447 E0.01323
G1 X88.446 Y96.074 F7200.000
G1 F1800
G1 X87.995 Y96.059 E0.01414
G1 X87.777 Y96.020 E0.00695
G1 X87.468 Y95.930 E0.01009
G1 X87.084 Y95.751 E0.01330
G1 X86.816 Y95.572 E0.01009
G1 X86.650 Y95.432 E0.00680
G1 X86.496 Y95.279 E0.00680
G1 X86.295 Y95.028 E0.01009
G1 X86.082 Y94.659 E0.01338
G1 X85.937 Y94.260 E0.01330
G1 X85.889 Y94.044 E0.00695
G1 X85.854 Y93.726 E0.01002
G1 X85.861 Y93.406 E0.01002
G1 X85.890 Y93.187 E0.00695
G1 X85.999 Y92.779 E0.01323
G1 X86.129 Y92.485 E0.01009
G1 X86.239 Y92.293 E0.00695
G1 X86.495 Y91.960 E0.01316
G1 X86.651 Y91.803 E0.00695
G1 X86.903 Y91.602 E0.01009
G1 X87.268 Y91.391 E0.01323
G1 X87.473 Y91.306 E0.00695
G1 X87.782 Y91.216 E0.01009
G1 X88.205 Y91.160 E0.01338
G1 X88.524 Y91.167 E0.01001
G1 X88.744 Y91.196 E0.00694
G1 X89.151 Y91.306 E0.01323
G1 X89.446 Y91.435 E0.01009
G1 X89.638 Y91.546 E0.00694
G1 X89.974 Y91.804 E0.01330
G1 X90.261 Y92.117 E0.01331
G1 X90.390 Y92.301 E0.00702
G1 X90.543 Y92.581 E0.01001
G1 X90.688 Y92.980 E0.01331
G1 X90.751 Y93.295 E0.01009
G1 X90.770 Y93.516 E0.00695
G1 X90.752 Y93.937 E0.01323
G1 X90.689 Y94.253 E0.01009
G1 X90.624 Y94.460 E0.00681
G1 X90.540 Y94.663 E0.00688
G1 X90.386 Y94.943 E0.01001
G1 X90.129 Y95.278 E0.01324
G1 X89.970 Y95.436 E0.00702
G1 X89.721 Y95.636 E0.01001
G1 X89.354 Y95.848 E0.01330
G1 X89.054 Y95.964 E0.01009
G1 X88.840 Y96.022 E0.00695
G1 X88.506 Y96.066 E0.01058
G1 X88.259 Y96.427 F7200.000
G1 F5760
G1 X87.995 Y96.059 E-0.17675
G1 X87.777 Y96.020 E-0.07673
G1 X87.468 Y95.930 E-0.11145
G1 X87.084 Y95.751 E-0.14697
G1 X86.816 Y95.572 E-0.11147
G1 X86.650 Y95.432 E-0.07515
G1 X86.524 Y95.307 E-0.06148
G1 E-0.04000 F2100.00000
G1 Z0.800 F7200.000
G1 X88.309 Y90.408
G1 Z0.200
G1 E0.80000 F2100.00000
G1 F1800
G1 X115.678 Y90.409 E0.85811
G1 X116.475 Y90.444 E0.02503
G1 X117.257 Y90.546 E0.02472
G1 X118.037 Y90.719 E0.02504
G1 X118.769 Y90.950 E0.02406
G1 X119.506 Y91.256 E0.02504
G1 X120.206 Y91.620 E0.02471
G1 X120.870 Y92.043 E0.02471
G1 X121.496 Y92.523 E0.02471
G1 X122.077 Y93.056 E0.02472
G1 X122.616 Y93.644 E0.02504
G1 X122.850 Y93.935 E0.01170
G1 X123.314 Y94.598 E0.02538
G1 X123.508 Y94.917 E0.01170
G1 X123.877 Y95.626 E0.02504
G1 X124.178 Y96.354 E0.02471
G1 X124.418 Y97.116 E0.02504
G1 X124.507 Y97.478 E0.01170
G1 X124.646 Y98.265 E0.02505
G1 X124.714 Y99.050 E0.02472
G1 X124.723 Y114.592 E0.48729
G1 X108.820 Y114.592 E0.49865
G1 X109.237 Y114.442 E0.01389
G1 X109.658 Y114.186 E0.01546
G1 X109.979 Y113.892 E0.01365
G1 X110.271 Y113.495 E0.01547
G1 X110.455 Y113.100 E0.01365
G1 X110.573 Y112.621 E0.01547
G1 X110.592 Y112.186 E0.01366
G1 X110.517 Y111.697 E0.01552
G1 X110.368 Y111.289 E0.01361
G1 X110.112 Y110.866 E0.01551
G1 X109.819 Y110.546 E0.01360
G1 X109.421 Y110.254 E0.01546
G1 X109.036 Y110.074 E0.01333
G1 X108.627 Y109.965 E0.01328
G1 X108.135 Y109.932 E0.01545
G1 X107.703 Y109.989 E0.01366
G1 X107.235 Y110.148 E0.01552
G1 X106.859 Y110.365 E0.01361
G1 X106.479 Y110.698 E0.01584
G1 X106.181 Y111.104 E0.01579
G1 X105.997 Y111.499 E0.01365
G1 X105.879 Y111.978 E0.01547
G1 X105.860 Y112.413 E0.01366
G1 X105.935 Y112.902 E0.01552
G1 X106.084 Y113.310 E0.01361
G1 X106.340 Y113.733 E0.01551
G1 X106.633 Y114.053 E0.01360
G1 X107.031 Y114.344 E0.01545
G1 X107.416 Y114.524 E0.01333
G1 X107.667 Y114.592 E0.00815
G1 X88.820 Y114.592 E0.59094
G1 X89.237 Y114.442 E0.01389
G1 X89.658 Y114.186 E0.01546
G1 X89.979 Y113.892 E0.01365
G1 X90.271 Y113.495 E0.01547
G1 X90.455 Y113.100 E0.01365
G1 X90.573 Y112.621 E0.01547
G1 X90.592 Y112.186 E0.01366
G1 X90.517 Y111.699 E0.01546
G1 X90.369 Y111.289 E0.01366
G1 X90.112 Y110.866 E0.01552
G1 X89.819 Y110.546 E0.01360
G1 X89.421 Y110.254 E0.01546
G1 X89.036 Y110.074 E0.01333
G1 X88.627 Y109.965 E0.01328
G1 X88.135 Y109.932 E0.01545
G1 X87.703 Y109.989 E0.01366
G1 X87.235 Y110.148 E0.01552
G1 X86.859 Y110.365 E0.01361
G1 X86.479 Y110.698 E0.01584
G1 X86.181 Y111.104 E0.01579
G1 X85.997 Y111.499 E0.01365
G1 X85.879 Y111.978 E0.01547
G1 X85.860 Y112.413 E0.01365
G1 X85.935 Y112.900 E0.01546
G1 X86.083 Y113.310 E0.01366
G1 X86.339 Y113.731 E0.01546
G1 X86.633 Y114.053 E0.01366
G1 X87.031 Y114.344 E0.01546
G1 X87.416 Y114.524 E0.01333
G1 X87.667 Y114.592 E0.00815
G1 X80.276 Y114.592 E0.23173
G1 X80.276 Y90.408 E0.75825
G1 X88.140 Y90.408 E0.24655
G1 X87.626 Y90.475 E0.01623
G1 X87.222 Y90.593 E0.01320
G1 X86.934 Y90.713 E0.00979
G1 X86.476 Y90.977 E0.01659
G1 X86.147 Y91.241 E0.01319
G1 X85.926 Y91.461 E0.00979
G1 X85.611 Y91.873 E0.01626
G1 X85.455 Y92.143 E0.00979
G1 X85.285 Y92.528 E0.01319
G1 X85.148 Y93.039 E0.01659
G1 X85.108 Y93.349 E0.00979
G1 X85.099 Y93.759 E0.01286
G1 X85.143 Y94.167 E0.01286
G1 X85.211 Y94.471 E0.00979
G1 X85.396 Y94.978 E0.01692
G1 X85.671 Y95.455 E0.01726
G1 X85.934 Y95.783 E0.01319
G1 X86.140 Y95.989 E0.00912
G1 X86.363 Y96.176 E0.00913
G1 X86.713 Y96.410 E0.01319
G1 X87.202 Y96.638 E0.01692
G1 X87.606 Y96.756 E0.01319
G1 X87.913 Y96.810 E0.00979
G1 X88.452 Y96.833 E0.01693
G1 X88.987 Y96.763 E0.01692
G1 X89.289 Y96.682 E0.00979
G1 X89.681 Y96.530 E0.01319
G1 X90.148 Y96.260 E0.01692
G1 X90.474 Y95.998 E0.01310
G1 X90.697 Y95.776 E0.00987
G1 X91.019 Y95.356 E0.01660
G1 X91.220 Y94.990 E0.01310
G1 X91.333 Y94.719 E0.00920
G1 X91.421 Y94.441 E0.00914
G1 X91.503 Y94.028 E0.01320
G1 X91.526 Y93.499 E0.01659
G1 X91.499 Y93.188 E0.00979
G1 X91.417 Y92.776 E0.01319
G1 X91.232 Y92.269 E0.01692
G1 X91.031 Y91.902 E0.01310
G1 X90.851 Y91.644 E0.00987
G1 X90.486 Y91.246 E0.01694
G1 X90.058 Y90.918 E0.01692
G1 X89.788 Y90.762 E0.00978
G1 X89.402 Y90.592 E0.01320
G1 X88.891 Y90.455 E0.01659
G1 X88.582 Y90.414 E0.00978
G1 X88.369 Y90.410 E0.00666
G1 F5760
G1 X90.564 Y90.410 E-0.76000
G1 E-0.04000 F2100.00000
G1 Z0.800 F7200.000
G1 X79.899 Y90.031
G1 Z0.200
G1 E0.80000 F2100.00000
G1 F1800
G1 X115.686 Y90.031 E1.12208
G1 X116.508 Y90.068 E0.02581
G1 X117.323 Y90.175 E0.02575
G1 X118.130 Y90.354 E0.02595
G1 X118.901 Y90.597 E0.02535
G1 X119.666 Y90.914 E0.02595
G1 X120.394 Y91.293 E0.02575
G1 X121.087 Y91.734 E0.02575
G1 X121.738 Y92.234 E0.02575
G1 X122.344 Y92.789 E0.02575
G1 X122.903 Y93.399 E0.02594
G1 X123.152 Y93.709 E0.01247
G1 X123.630 Y94.392 E0.02615
G1 X123.837 Y94.732 E0.01248
G1 X124.219 Y95.466 E0.02594
G1 X124.533 Y96.225 E0.02575
G1 X124.782 Y97.014 E0.02595
G1 X124.876 Y97.401 E0.01247
G1 X125.020 Y98.216 E0.02595
G1 X125.092 Y99.034 E0.02575
G1 X125.101 Y114.969 E0.49963
G1 X79.899 Y114.969 E1.41727
G1 X79.899 Y90.091 E0.78002
G1 X79.522 Y89.654 F7200.000
G1 F1800
G1 X115.694 Y89.654 E1.13416
G1 X116.541 Y89.692 E0.02658
G1 X117.388 Y89.803 E0.02678
G1 X118.224 Y89.989 E0.02685
G1 X119.034 Y90.244 E0.02664
G1 X119.825 Y90.572 E0.02685
G1 X120.583 Y90.966 E0.02678
G1 X121.303 Y91.425 E0.02678
G1 X121.981 Y91.945 E0.02678
G1 X122.611 Y92.522 E0.02678
G1 X123.189 Y93.153 E0.02685
G1 X123.454 Y93.483 E0.01325
G1 X123.946 Y94.186 E0.02692
G1 X124.165 Y94.547 E0.01325
G1 X124.561 Y95.307 E0.02685
G1 X124.887 Y96.096 E0.02678
G1 X125.145 Y96.913 E0.02685
G1 X125.245 Y97.323 E0.01325
G1 X125.394 Y98.166 E0.02685
G1 X125.469 Y99.017 E0.02678
G1 X125.478 Y115.346 E0.51197
G1 X79.522 Y115.346 E1.44092
G1 X79.522 Y89.714 E0.80366
G1 X79.916 Y89.722 F7200.000
G1 F5760
G1 X81.716 Y89.711 E-0.76000
G1 E-0.04000 F2100.00000
G1 Z0.800 F7200.000
G1 X86.106 Y91.129
G1 Z0.200
G1 E0.80000 F2100.00000
G1 F1800
G1 X85.668 Y90.691 E0.01943
G1 X85.134 Y90.691 E0.01677
G1 X85.716 Y91.272 E0.02581
G1 X85.484 Y91.574 E0.01196
G1 X84.600 Y90.691 E0.03922
G1 X84.066 Y90.691 E0.01677
G1 X85.271 Y91.896 E0.05350
G1 X85.096 Y92.255 E0.01255
G1 X83.532 Y90.691 E0.06946
G1 X82.998 Y90.691 E0.01677
G1 X84.959 Y92.652 E0.08708
G1 X84.857 Y93.084 E0.01394
G1 X82.464 Y90.691 E0.10626
G1 X81.930 Y90.691 E0.01677
G1 X84.820 Y93.581 E0.12831
G1 X84.816 Y93.771 E0.00598
G1 X84.857 Y94.152 E0.01204
G1 X81.396 Y90.691 E0.15369
G1 X80.862 Y90.691 E0.01677
G1 X85.063 Y94.892 E0.18655
G1 F5760
G1 X83.512 Y93.341 E-0.76000
G1 E-0.04000 F2100.00000
G1 Z0.800 F7200.000
G1 X87.050 Y96.879
G1 Z0.200
