; generated by Slic3r Prusa Edition 1.39.2+win64 on 2018-07-09 at 11:02:10

; 

; external perimeters extrusion width = 0.45mm
; perimeters extrusion width = 0.45mm
; infill extrusion width = 0.45mm
; solid infill extrusion width = 0.45mm
; top infill extrusion width = 0.45mm
; first layer extrusion width = 0.42mm

M107
M115 U3.1.0 ; tell printer latest fw version
M83  ; extruder relative mode
M104 S205 ; set extruder temp
M140 S55 ; set bed temp
M190 S55 ; wait for bed temp
M109 S205 ; wait for extruder temp
G28 W ; home all without mesh bed level
G80 ; mesh bed leveling
G1 Y-3.0 F1000.0 ; go outside print area
G92 E0.0
G1 X60.0 E9.0  F1000.0 ; intro line
G1 X100.0 E12.5  F1000.0 ; intro line
G92 E0.0
M900 K30; Filament gcode
G21 ; set units to millimeters
G90 ; use absolute coordinates
M83 ; use relative distances for extrusion
;BEFORE_LAYER_CHANGE
;0.2


G1 E-0.80000 F2100.00000
G1 Z0.600 F7200.000
;AFTER_LAYER_CHANGE
;0.2
G1 X55.849 Y52.714
G1 Z0.200
G1 E0.80000 F2100.00000
M204 S1000
G1 F1800
G1 X56.120 Y52.111 E0.02071
G1 X56.488 Y51.661 E0.01823
G1 X56.954 Y51.314 E0.01823
G1 X57.490 Y51.090 E0.01823
G1 X58.069 Y51.003 E0.01835
G1 X100.135 Y51.002 E1.31894
G1 X100.994 Y51.164 E0.02743
G1 X101.737 Y51.627 E0.02743
G1 X140.449 Y87.991 E1.66531
G1 X140.776 Y88.430 E0.01716
G1 X149.088 Y102.899 E0.52321
G1 X149.246 Y103.740 E0.02684
G1 X149.206 Y137.728 E1.06568
G1 X148.944 Y138.452 E0.02414
G1 X140.758 Y152.842 E0.51909
G1 X140.247 Y153.442 E0.02473
G1 X139.570 Y153.841 E0.02461
G1 X138.740 Y153.998 E0.02649
G1 X120.719 Y153.998 E0.56504
G1 X119.856 Y153.836 E0.02755
G1 X57.052 Y122.497 E2.20070
G1 X56.364 Y121.969 E0.02720
G1 X55.911 Y121.229 E0.02720
G1 X55.754 Y120.384 E0.02696
G1 X55.754 Y53.371 E2.10114
G1 X55.840 Y52.773 E0.01895
G1 F5760
G1 X56.120 Y52.111 E-0.24885
G1 X56.488 Y51.661 E-0.20134
G1 X56.954 Y51.314 E-0.20134
G1 X57.243 Y51.193 E-0.10847
G1 E-0.04000 F2100.00000
G1 Z0.800 F7200.000
G1 X139.446 Y134.248
G1 Z0.200
G1 E0.80000 F2100.00000
G1 F1800
G1 X140.259 Y133.704 E0.03068
G1 X141.204 Y133.516 E0.03019
G1 X142.176 Y133.702 E0.03103
G1 X142.992 Y134.248 E0.03080
G1 X143.536 Y135.061 E0.03068
G1 X143.727 Y136.021 E0.03069
G1 X143.536 Y136.981 E0.03069
G1 X142.992 Y137.795 E0.03068
G1 X142.179 Y138.338 E0.03068
G1 X141.219 Y138.529 E0.03068
G1 X140.259 Y138.338 E0.03069
G1 X139.446 Y137.795 E0.03068
G1 X138.902 Y136.981 E0.03068
G1 X138.711 Y136.021 E0.03069
G1 X138.902 Y135.061 E0.03069
G1 X139.412 Y134.298 E0.02880
G1 X139.717 Y134.520 F7200.000
G1 F1800
G1 X140.406 Y134.059 E0.02598
G1 X141.205 Y133.900 E0.02554
G1 X142.030 Y134.058 E0.02633
G1 X142.721 Y134.520 E0.02605
G1 X143.181 Y135.208 E0.02598
G1 X143.343 Y136.021 E0.02598
G1 X143.181 Y136.834 E0.02598
G1 X142.721 Y137.523 E0.02598
G1 X142.032 Y137.983 E0.02598
G1 X141.219 Y138.145 E0.02598
G1 X140.406 Y137.983 E0.02598
G1 X139.717 Y137.523 E0.02598
G1 X139.257 Y136.834 E0.02598
G1 X139.095 Y136.021 E0.02598
G1 X139.257 Y135.208 E0.02598
G1 X139.684 Y134.569 E0.02410
G1 X139.989 Y134.791 F7200.000
G1 F1800
G1 X140.553 Y134.414 E0.02127
G1 X141.207 Y134.285 E0.02088
G1 X141.884 Y134.414 E0.02162
G1 X142.449 Y134.791 E0.02130
G1 X142.826 Y135.356 E0.02127
G1 X142.958 Y136.021 E0.02128
G1 X142.826 Y136.687 E0.02128
G1 X142.449 Y137.251 E0.02127
G1 X141.885 Y137.628 E0.02127
G1 X141.219 Y137.760 E0.02128
G1 X140.553 Y137.628 E0.02128
G1 X139.989 Y137.251 E0.02127
G1 X139.612 Y136.687 E0.02127
G1 X139.480 Y136.021 E0.02128
G1 X139.612 Y135.356 E0.02128
G1 X139.956 Y134.841 E0.01939
G1 X139.886 Y134.405 F7200.000
G1 F5760
G1 X140.553 Y134.414 E-0.25434
G1 X141.207 Y134.285 E-0.23063
G1 X141.884 Y134.414 E-0.23884
G1 X141.971 Y134.472 E-0.03619
G1 E-0.04000 F2100.00000
G1 Z0.800 F7200.000
G1 X134.430 Y129.232
G1 Z0.200
G1 E0.80000 F2100.00000
G1 F1800
G1 X132.563 Y130.764 E0.07572
G1 X130.433 Y131.902 E0.07572
G1 X128.122 Y132.603 E0.07572
G1 X125.719 Y132.840 E0.07572
G1 X123.316 Y132.603 E0.07572
G1 X121.005 Y131.902 E0.07572
G1 X118.875 Y130.764 E0.07572
G1 X117.008 Y129.232 E0.07572
G1 X115.476 Y127.365 E0.07572
G1 X114.338 Y125.235 E0.07572
G1 X113.637 Y122.924 E0.07572
G1 X113.400 Y120.521 E0.07572
G1 X113.637 Y118.118 E0.07572
G1 X114.338 Y115.807 E0.07572
G1 X115.476 Y113.677 E0.07572
G1 X117.008 Y111.810 E0.07572
G1 X118.875 Y110.278 E0.07572
G1 X121.005 Y109.140 E0.07572
G1 X123.316 Y108.439 E0.07572
G1 X125.691 Y108.205 E0.07484
G1 X128.121 Y108.439 E0.07654
G1 X130.433 Y109.140 E0.07575
G1 X132.563 Y110.278 E0.07572
G1 X134.430 Y111.810 E0.07572
G1 X135.962 Y113.677 E0.07572
G1 X137.100 Y115.807 E0.07572
G1 X137.801 Y118.118 E0.07572
G1 X138.038 Y120.521 E0.07572
G1 X137.801 Y122.924 E0.07572
G1 X137.100 Y125.235 E0.07572
G1 X135.962 Y127.365 E0.07572
G1 X134.468 Y129.186 E0.07384
G1 X134.176 Y128.946 F7200.000
G1 F1800
G1 X132.352 Y130.449 E0.07409
G1 X130.288 Y131.552 E0.07339
G1 X128.048 Y132.232 E0.07339
G1 X125.719 Y132.461 E0.07339
G1 X123.390 Y132.232 E0.07339
G1 X121.150 Y131.552 E0.07339
G1 X119.086 Y130.449 E0.07339
G1 X117.276 Y128.964 E0.07339
G1 X115.791 Y127.155 E0.07339
G1 X114.688 Y125.090 E0.07339
G1 X114.009 Y122.851 E0.07339
G1 X113.779 Y120.521 E0.07339
G1 X114.009 Y118.192 E0.07339
G1 X114.688 Y115.952 E0.07339
G1 X115.791 Y113.888 E0.07339
G1 X117.276 Y112.078 E0.07339
G1 X119.086 Y110.593 E0.07339
G1 X121.150 Y109.490 E0.07339
G1 X123.390 Y108.811 E0.07339
G1 X125.692 Y108.584 E0.07253
G1 X128.048 Y108.810 E0.07421
G1 X130.288 Y109.490 E0.07341
G1 X132.352 Y110.593 E0.07339
G1 X134.162 Y112.078 E0.07339
G1 X135.647 Y113.888 E0.07339
G1 X136.750 Y115.952 E0.07339
G1 X137.429 Y118.192 E0.07339
G1 X137.659 Y120.521 E0.07339
G1 X137.429 Y122.851 E0.07339
G1 X136.750 Y125.090 E0.07339
G1 X135.647 Y127.155 E0.07339
G1 X134.214 Y128.900 E0.07079
G1 X133.923 Y128.661 F7200.000
G1 F1800
G1 X132.142 Y130.134 E0.07247
G1 X130.143 Y131.202 E0.07106
G1 X127.974 Y131.860 E0.07106
G1 X125.719 Y132.082 E0.07106
G1 X123.464 Y131.860 E0.07106
G1 X121.295 Y131.202 E0.07106
G1 X119.296 Y130.134 E0.07106
G1 X117.544 Y128.696 E0.07106
G1 X116.106 Y126.944 E0.07106
G1 X115.038 Y124.945 E0.07106
G1 X114.380 Y122.777 E0.07106
G1 X114.158 Y120.521 E0.07106
G1 X114.380 Y118.266 E0.07106
G1 X115.038 Y116.097 E0.07106
G1 X116.106 Y114.098 E0.07106
G1 X117.544 Y112.346 E0.07106
G1 X119.296 Y110.908 E0.07106
G1 X121.295 Y109.840 E0.07106
G1 X123.464 Y109.182 E0.07106
G1 X125.692 Y108.963 E0.07021
G1 X127.974 Y109.182 E0.07188
G1 X130.143 Y109.840 E0.07107
G1 X132.142 Y110.908 E0.07106
G1 X133.894 Y112.346 E0.07106
G1 X135.332 Y114.098 E0.07106
G1 X136.400 Y116.097 E0.07106
G1 X137.058 Y118.266 E0.07106
G1 X137.280 Y120.521 E0.07106
G1 X137.058 Y122.777 E0.07106
G1 X136.400 Y124.945 E0.07106
G1 X135.332 Y126.944 E0.07106
G1 X133.961 Y128.614 E0.06775
G1 X134.027 Y129.047 F7200.000
G1 F5760
G1 X132.277 Y130.021 E-0.76000
G1 E-0.04000 F2100.00000
G1 Z0.800 F7200.000
G1 X111.992 Y106.795
G1 Z0.200
G1 E0.80000 F2100.00000
G1 F1800
G1 X111.179 Y107.338 E0.03068
G1 X110.219 Y107.529 E0.03068
G1 X109.259 Y107.338 E0.03069
G1 X108.446 Y106.795 E0.03068
G1 X107.902 Y105.981 E0.03068
G1 X107.711 Y105.021 E0.03068
G1 X107.902 Y104.061 E0.03068
G1 X108.446 Y103.248 E0.03068
G1 X109.259 Y102.704 E0.03068
G1 X110.219 Y102.513 E0.03069
G1 X111.179 Y102.704 E0.03068
G1 X111.992 Y103.248 E0.03068
G1 X112.536 Y104.061 E0.03068
G1 X112.727 Y105.021 E0.03069
G1 X112.536 Y105.981 E0.03069
G1 X112.026 Y106.745 E0.02880
G1 X111.721 Y106.523 F7200.000
G1 F1800
G1 X111.032 Y106.983 E0.02598
G1 X110.219 Y107.145 E0.02598
G1 X109.406 Y106.983 E0.02598
G1 X108.717 Y106.523 E0.02598
G1 X108.257 Y105.834 E0.02598
G1 X108.095 Y105.021 E0.02598
G1 X108.257 Y104.208 E0.02598
G1 X108.717 Y103.520 E0.02598
G1 X109.406 Y103.059 E0.02598
G1 X110.219 Y102.898 E0.02598
G1 X111.032 Y103.059 E0.02598
G1 X111.721 Y103.520 E0.02598
G1 X112.181 Y104.208 E0.02598
G1 X112.343 Y105.021 E0.02598
G1 X112.181 Y105.834 E0.02598
G1 X111.754 Y106.473 E0.02410
G1 X111.449 Y106.251 F7200.000
G1 F1800
G1 X110.885 Y106.628 E0.02127
G1 X110.219 Y106.760 E0.02128
G1 X109.553 Y106.628 E0.02128
G1 X108.989 Y106.251 E0.02127
G1 X108.612 Y105.687 E0.02127
G1 X108.480 Y105.021 E0.02128
G1 X108.612 Y104.356 E0.02128
G1 X108.989 Y103.791 E0.02127
G1 X109.553 Y103.414 E0.02127
G1 X110.219 Y103.282 E0.02128
G1 X110.885 Y103.414 E0.02128
G1 X111.449 Y103.791 E0.02127
G1 X111.826 Y104.356 E0.02128
G1 X111.958 Y105.021 E0.02128
G1 X111.826 Y105.687 E0.02128
G1 X111.482 Y106.201 E0.01939
G1 X111.552 Y106.637 F7200.000
G1 F5760
G1 X110.885 Y106.628 E-0.25433
G1 X110.219 Y106.760 E-0.23503
G1 X109.553 Y106.628 E-0.23504
G1 X109.468 Y106.571 E-0.03560
G1 E-0.04000 F2100.00000
G1 Z0.800 F7200.000
G1 X138.711 Y105.021
G1 Z0.200
G1 E0.80000 F2100.00000
G1 F1800
G1 X138.902 Y104.061 E0.03069
G1 X139.446 Y103.248 E0.03068
G1 X140.259 Y102.704 E0.03068
G1 X141.219 Y102.513 E0.03069
G1 X142.179 Y102.704 E0.03068
G1 X142.992 Y103.248 E0.03068
G1 X143.536 Y104.061 E0.03068
G1 X143.727 Y105.021 E0.03069
G1 X143.536 Y105.981 E0.03069
G1 X142.992 Y106.795 E0.03068
G1 X142.179 Y107.338 E0.03068
G1 X141.219 Y107.529 E0.03068
G1 X140.259 Y107.338 E0.03069
G1 X139.446 Y106.795 E0.03068
G1 X138.902 Y105.981 E0.03068
G1 X138.723 Y105.080 E0.02880
G1 X139.095 Y105.021 F7200.000
G1 F1800
G1 X139.257 Y104.208 E0.02598
G1 X139.717 Y103.520 E0.02598
G1 X140.406 Y103.059 E0.02598
G1 X141.219 Y102.898 E0.02598
G1 X142.032 Y103.059 E0.02598
G1 X142.721 Y103.520 E0.02598
G1 X143.181 Y104.208 E0.02598
G1 X143.343 Y105.021 E0.02598
G1 X143.181 Y105.834 E0.02598
G1 X142.721 Y106.523 E0.02598
G1 X142.032 Y106.983 E0.02598
G1 X141.219 Y107.145 E0.02598
G1 X140.406 Y106.983 E0.02598
G1 X139.717 Y106.523 E0.02598
G1 X139.257 Y105.834 E0.02598
G1 X139.107 Y105.080 E0.02410
G1 X139.480 Y105.021 F7200.000
G1 F1800
G1 X139.612 Y104.356 E0.02128
G1 X139.989 Y103.791 E0.02127
G1 X140.553 Y103.414 E0.02127
G1 X141.219 Y103.282 E0.02128
G1 X141.885 Y103.414 E0.02128
G1 X142.449 Y103.791 E0.02127
G1 X142.826 Y104.356 E0.02127
G1 X142.958 Y105.021 E0.02128
G1 X142.826 Y105.687 E0.02128
G1 X142.449 Y106.251 E0.02127
G1 X141.885 Y106.628 E0.02127
G1 X141.219 Y106.760 E0.02128
G1 X140.553 Y106.628 E0.02128
G1 X139.989 Y106.251 E0.02127
G1 X139.612 Y105.687 E0.02127
G1 X139.492 Y105.080 E0.01940
G1 X139.133 Y104.821 F7200.000
G1 F5760
G1 X139.612 Y104.356 E-0.25436
G1 X139.989 Y103.791 E-0.23501
G1 X140.553 Y103.414 E-0.23501
G1 X140.654 Y103.394 E-0.03562
G1 E-0.04000 F2100.00000
G1 Z0.800 F7200.000
G1 X111.992 Y134.248
G1 Z0.200
G1 E0.80000 F2100.00000
G1 F1800
G1 X112.536 Y135.061 E0.03068
G1 X112.727 Y136.021 E0.03069
G1 X112.536 Y136.981 E0.03069
G1 X111.992 Y137.795 E0.03068
G1 X111.179 Y138.338 E0.03068
G1 X110.219 Y138.529 E0.03068
G1 X109.259 Y138.338 E0.03069
G1 X108.446 Y137.795 E0.03068
G1 X107.902 Y136.981 E0.03068
G1 X107.711 Y136.021 E0.03068
G1 X107.902 Y135.061 E0.03068
G1 X108.446 Y134.248 E0.03068
G1 X109.259 Y133.704 E0.03068
G1 X110.219 Y133.513 E0.03069
G1 X111.179 Y133.704 E0.03068
G1 X111.942 Y134.214 E0.02880
G1 X111.721 Y134.520 F7200.000
G1 F1800
G1 X112.181 Y135.208 E0.02598
G1 X112.343 Y136.021 E0.02598
G1 X112.181 Y136.834 E0.02598
G1 X111.721 Y137.523 E0.02598
G1 X111.032 Y137.983 E0.02598
G1 X110.219 Y138.145 E0.02598
G1 X109.406 Y137.983 E0.02598
G1 X108.717 Y137.523 E0.02598
G1 X108.257 Y136.834 E0.02598
G1 X108.095 Y136.021 E0.02598
G1 X108.257 Y135.208 E0.02598
G1 X108.717 Y134.520 E0.02598
G1 X109.406 Y134.059 E0.02598
G1 X110.219 Y133.898 E0.02598
G1 X111.032 Y134.059 E0.02598
G1 X111.671 Y134.486 E0.02410
G1 X111.449 Y134.791 F7200.000
G1 F1800
G1 X111.826 Y135.356 E0.02128
G1 X111.958 Y136.021 E0.02128
G1 X111.826 Y136.687 E0.02128
G1 X111.449 Y137.251 E0.02128
G1 X110.885 Y137.628 E0.02127
G1 X110.219 Y137.760 E0.02128
G1 X109.553 Y137.628 E0.02128
G1 X108.989 Y137.251 E0.02127
G1 X108.612 Y136.687 E0.02127
G1 X108.480 Y136.021 E0.02128
G1 X108.612 Y135.356 E0.02128
G1 X108.989 Y134.791 E0.02127
G1 X109.553 Y134.414 E0.02127
G1 X110.219 Y134.282 E0.02128
G1 X110.885 Y134.414 E0.02128
G1 X111.399 Y134.758 E0.01939
G1 X111.835 Y134.688 F7200.000
G1 F5760
G1 X111.826 Y135.356 E-0.25434
G1 X111.958 Y136.021 E-0.23503
G1 X111.826 Y136.687 E-0.23503
G1 X111.769 Y136.772 E-0.03559
G1 E-0.04000 F2100.00000
G1 Z0.800 F7200.000
G1 X137.755 Y100.335
G1 Z0.200
G1 E0.80000 F2100.00000
G1 F1800
G1 X142.159 Y100.335 E0.13808
G1 X143.203 Y101.230 E0.04313
G1 X144.129 Y102.111 E0.04007
G1 X145.010 Y103.037 E0.04007
G1 X145.905 Y104.081 E0.04313
G1 X145.905 Y136.961 E1.03092
G1 X145.010 Y138.006 E0.04313
G1 X144.129 Y138.931 E0.04007
G1 X143.203 Y139.812 E0.04007
G1 X142.159 Y140.707 E0.04313
G1 X137.755 Y140.707 E0.13808
G1 X137.755 Y150.657 E0.31198
G1 X121.683 Y150.657 E0.50392
G1 X121.683 Y140.707 E0.31198
G1 X109.279 Y140.707 E0.38892
G1 X108.235 Y139.812 E0.04313
G1 X107.309 Y138.931 E0.04007
G1 X106.428 Y138.006 E0.04007
G1 X105.533 Y136.961 E0.04313
G1 X105.533 Y104.081 E1.03092
G1 X106.428 Y103.037 E0.04313
G1 X107.309 Y102.111 E0.04007
G1 X108.235 Y101.230 E0.04007
G1 X109.279 Y100.335 E0.04313
G1 X121.683 Y100.335 E0.38892
G1 X121.683 Y90.585 E0.30570
G1 X137.755 Y90.585 E0.50392
G1 X137.755 Y100.275 E0.30382
G1 X138.132 Y99.958 F7200.000
G1 F1800
G1 X142.289 Y99.958 E0.13033
G1 X143.457 Y100.951 E0.04806
G1 X144.396 Y101.844 E0.04065
G1 X145.290 Y102.783 E0.04065
G1 X146.282 Y103.952 E0.04806
G1 X146.282 Y137.091 E1.03905
G1 X145.290 Y138.259 E0.04806
G1 X144.396 Y139.198 E0.04065
G1 X143.457 Y140.092 E0.04065
G1 X142.289 Y141.084 E0.04806
G1 X138.132 Y141.084 E0.13033
G1 X138.132 Y151.034 E0.31198
G1 X121.306 Y151.034 E0.52756
G1 X121.306 Y141.084 E0.31198
G1 X109.149 Y141.084 E0.38116
G1 X107.981 Y140.092 E0.04806
G1 X107.042 Y139.198 E0.04065
G1 X106.148 Y138.259 E0.04065
G1 X105.156 Y137.091 E0.04806
G1 X105.156 Y103.952 E1.03905
G1 X106.148 Y102.783 E0.04806
G1 X107.042 Y101.844 E0.04065
G1 X107.981 Y100.951 E0.04065
G1 X109.149 Y99.958 E0.04806
G1 X121.306 Y99.958 E0.38116
G1 X121.306 Y90.208 E0.30570
G1 X138.132 Y90.208 E0.52756
G1 X138.132 Y99.898 E0.30382
G1 X138.509 Y99.581 F7200.000
G1 F1800
G1 X142.418 Y99.581 E0.12257
G1 X142.714 Y99.812 E0.01178
G1 X143.710 Y100.671 E0.04123
G1 X144.662 Y101.578 E0.04123
G1 X145.569 Y102.530 E0.04123
G1 X146.428 Y103.526 E0.04123
G1 X146.659 Y103.822 E0.01178
G1 X146.659 Y137.220 E1.04719
G1 X146.428 Y137.516 E0.01178
G1 X145.569 Y138.512 E0.04123
G1 X144.662 Y139.465 E0.04123
G1 X143.710 Y140.371 E0.04123
G1 X142.714 Y141.230 E0.04123
G1 X142.418 Y141.461 E0.01178
G1 X138.509 Y141.461 E0.12257
G1 X138.509 Y151.411 E0.31198
G1 X120.929 Y151.411 E0.55121
G1 X120.929 Y141.461 E0.31198
G1 X109.020 Y141.461 E0.37341
G1 X108.724 Y141.230 E0.01178
G1 X107.728 Y140.371 E0.04123
G1 X106.776 Y139.465 E0.04123
G1 X105.869 Y138.512 E0.04123
G1 X105.010 Y137.516 E0.04123
G1 X104.779 Y137.220 E0.01178
G1 X104.779 Y103.822 E1.04719
G1 X105.010 Y103.526 E0.01178
G1 X105.869 Y102.530 E0.04123
G1 X106.776 Y101.578 E0.04123
G1 X107.728 Y100.671 E0.04123
G1 X108.724 Y99.812 E0.04123
G1 X109.020 Y99.581 E0.01178
G1 X120.929 Y99.581 E0.37341
G1 X120.929 Y89.831 E0.30570
G1 X138.509 Y89.831 E0.55121
G1 X138.509 Y99.521 E0.30382
G1 X138.648 Y99.956 F7200.000
G1 F5760
G1 X140.703 Y99.555 E-0.76000
G1 E-0.04000 F2100.00000
G1 Z0.800 F7200.000
G1 X137.642 Y91.461
G1 Z0.200
G1 E0.80000 F2100.00000
G1 F1800
G1 X137.048 Y90.868 E0.02634
G1 X136.515 Y90.868 E0.01675
G1 X137.472 Y91.826 E0.04250
G1 X137.472 Y92.359 E0.01675
G1 X135.981 Y90.868 E0.06619
G1 X135.447 Y90.868 E0.01675
G1 X137.472 Y92.893 E0.08989
G1 X137.472 Y93.427 E0.01675
G1 X134.913 Y90.868 E0.11358
G1 X134.379 Y90.868 E0.01675
G1 X137.472 Y93.961 E0.13728
G1 X137.472 Y94.495 E0.01675
G1 X133.845 Y90.868 E0.16097
G1 X133.312 Y90.868 E0.01675
G1 X137.472 Y95.028 E0.18466
G1 X137.472 Y95.562 E0.01675
G1 X132.778 Y90.868 E0.20836
G1 X132.244 Y90.868 E0.01675
G1 X137.472 Y96.096 E0.23205
G1 X137.472 Y96.630 E0.01675
G1 X131.710 Y90.868 E0.25574
G1 X131.176 Y90.868 E0.01675
G1 X137.472 Y97.164 E0.27944
