; generated by Slic3r Prusa Edition 1.39.2+win64 on 2018-09-06 at 06:05:18

; 

; external perimeters extrusion width = 0.45mm
; perimeters extrusion width = 0.45mm
; infill extrusion width = 0.45mm
; solid infill extrusion width = 0.45mm
; top infill extrusion width = 0.45mm
; first layer extrusion width = 0.42mm

M107
M115 U3.1.0 ; tell printer latest fw version
M83  ; extruder relative mode
M104 S205 ; set extruder temp
M140 S55 ; set bed temp
M190 S55 ; wait for bed temp
M109 S205 ; wait for extruder temp
G28 W ; home all without mesh bed level
G80 ; mesh bed leveling
G1 Y-3.0 F1000.0 ; go outside print area
G92 E0.0
G1 X60.0 E9.0  F1000.0 ; intro line
G1 X100.0 E12.5  F1000.0 ; intro line
G92 E0.0
M900 K30; Filament gcode
G21 ; set units to millimeters
G90 ; use absolute coordinates
M83 ; use relative distances for extrusion
;BEFORE_LAYER_CHANGE
;0.2


G1 E-0.80000 F2100.00000
G1 Z0.600 F7200.000
;AFTER_LAYER_CHANGE
;0.2
G1 X78.866 Y107.300
G1 Z0.200
G1 E0.80000 F2100.00000
M204 S1000
G1 F1800
G1 X79.516 Y106.997 E0.02249
G1 X80.177 Y106.902 E0.02095
G1 X150.186 Y106.902 E2.19507
G1 X151.077 Y107.077 E0.02849
G1 X151.841 Y107.577 E0.02860
G1 X152.358 Y108.323 E0.02849
G1 X152.558 Y109.210 E0.02849
G1 X152.551 Y127.477 E0.57276
G1 X152.386 Y128.171 E0.02237
G1 X152.022 Y128.785 E0.02237
G1 X151.492 Y129.263 E0.02237
G1 X150.845 Y129.562 E0.02237
G1 X150.187 Y129.656 E0.02083
G1 X80.129 Y129.656 E2.19663
G1 X79.394 Y129.522 E0.02343
G1 X78.733 Y129.164 E0.02355
G1 X78.218 Y128.618 E0.02355
G1 X77.899 Y127.942 E0.02343
G1 X77.805 Y127.292 E0.02060
G1 X77.812 Y109.097 E0.57050
G1 X77.973 Y108.402 E0.02237
G1 X78.335 Y107.783 E0.02249
G1 X78.821 Y107.340 E0.02060
G1 F5760
G1 X79.516 Y106.997 E-0.26830
G1 X80.177 Y106.902 E-0.23142
G1 X80.929 Y106.902 E-0.26028
G1 E-0.04000 F2100.00000
G1 Z0.800 F7200.000
G1 X119.554 Y116.126
G1 Z0.200
G1 E0.80000 F2100.00000
G1 F1800
G1 X120.146 Y114.794 E0.04568
G1 X121.003 Y113.616 E0.04568
G1 X122.086 Y112.641 E0.04568
G1 X123.349 Y111.911 E0.04574
G1 X124.756 Y111.460 E0.04633
G1 X126.182 Y111.310 E0.04498
G1 X127.631 Y111.462 E0.04568
G1 X129.017 Y111.912 E0.04568
G1 X130.279 Y112.641 E0.04568
G1 X131.361 Y113.616 E0.04568
G1 X132.218 Y114.795 E0.04569
G1 X132.810 Y116.126 E0.04568
G1 X133.113 Y117.551 E0.04568
G1 X133.113 Y119.008 E0.04569
G1 X132.810 Y120.433 E0.04568
G1 X132.218 Y121.764 E0.04568
G1 X131.361 Y122.943 E0.04569
G1 X130.279 Y123.918 E0.04568
G1 X129.017 Y124.646 E0.04568
G1 X127.631 Y125.096 E0.04568
G1 X126.182 Y125.249 E0.04568
G1 X124.733 Y125.096 E0.04568
G1 X123.347 Y124.646 E0.04568
G1 X122.086 Y123.918 E0.04568
G1 X121.003 Y122.943 E0.04568
G1 X120.146 Y121.764 E0.04568
G1 X119.554 Y120.433 E0.04568
G1 X119.251 Y119.008 E0.04568
G1 X119.251 Y117.551 E0.04569
G1 X119.541 Y116.184 E0.04380
G1 X119.910 Y116.263 F7200.000
G1 F1800
G1 X120.475 Y114.984 E0.04382
G1 X121.285 Y113.869 E0.04320
G1 X122.308 Y112.948 E0.04320
G1 X123.502 Y112.258 E0.04323
G1 X124.834 Y111.831 E0.04384
G1 X126.182 Y111.689 E0.04251
G1 X127.552 Y111.833 E0.04320
G1 X128.863 Y112.259 E0.04320
G1 X130.056 Y112.948 E0.04320
G1 X131.080 Y113.869 E0.04320
G1 X131.890 Y114.984 E0.04320
G1 X132.450 Y116.243 E0.04320
G1 X132.736 Y117.590 E0.04320
G1 X132.736 Y118.968 E0.04320
G1 X132.450 Y120.316 E0.04320
G1 X131.890 Y121.574 E0.04320
G1 X131.080 Y122.689 E0.04320
G1 X130.056 Y123.611 E0.04320
G1 X128.863 Y124.300 E0.04320
G1 X127.552 Y124.726 E0.04320
G1 X126.182 Y124.870 E0.04320
G1 X124.812 Y124.726 E0.04320
G1 X123.502 Y124.300 E0.04320
G1 X122.308 Y123.611 E0.04320
G1 X121.285 Y122.689 E0.04320
G1 X120.475 Y121.574 E0.04320
G1 X119.914 Y120.316 E0.04320
G1 X119.628 Y118.968 E0.04320
G1 X119.628 Y117.590 E0.04320
G1 X119.898 Y116.321 E0.04068
G1 X120.266 Y116.400 F7200.000
G1 F1800
G1 X120.803 Y115.174 E0.04196
G1 X121.566 Y114.123 E0.04071
G1 X122.531 Y113.254 E0.04071
G1 X123.656 Y112.605 E0.04072
G1 X124.912 Y112.202 E0.04135
G1 X126.182 Y112.068 E0.04005
G1 X127.474 Y112.204 E0.04071
G1 X128.708 Y112.605 E0.04071
G1 X129.833 Y113.254 E0.04071
G1 X130.798 Y114.123 E0.04071
G1 X131.561 Y115.174 E0.04071
G1 X132.089 Y116.360 E0.04071
G1 X132.359 Y117.630 E0.04071
G1 X132.359 Y118.928 E0.04072
G1 X132.089 Y120.199 E0.04071
G1 X131.561 Y121.385 E0.04071
G1 X130.798 Y122.435 E0.04071
G1 X129.833 Y123.304 E0.04071
G1 X128.708 Y123.953 E0.04071
G1 X127.474 Y124.355 E0.04071
G1 X126.182 Y124.490 E0.04071
G1 X124.891 Y124.355 E0.04071
G1 X123.656 Y123.953 E0.04071
G1 X122.531 Y123.304 E0.04071
G1 X121.566 Y122.435 E0.04071
G1 X120.803 Y121.385 E0.04071
G1 X120.275 Y120.199 E0.04071
G1 X120.005 Y118.928 E0.04071
G1 X120.005 Y117.630 E0.04071
G1 X120.254 Y116.458 E0.03755
G1 X119.997 Y116.104 F7200.000
G1 F5760
G1 X120.803 Y115.174 E-0.48392
G1 X121.272 Y114.529 E-0.27608
G1 E-0.04000 F2100.00000
G1 Z0.800 F7200.000
G1 X139.734 Y117.864
G1 Z0.200
G1 E0.80000 F2100.00000
G1 F1800
G1 X139.907 Y117.053 E0.02602
G1 X140.244 Y116.294 E0.02602
G1 X140.732 Y115.623 E0.02602
G1 X141.349 Y115.068 E0.02602
G1 X142.070 Y114.652 E0.02610
G1 X142.875 Y114.395 E0.02650
G1 X143.682 Y114.310 E0.02545
G1 X144.507 Y114.397 E0.02602
G1 X145.297 Y114.653 E0.02602
G1 X146.015 Y115.068 E0.02602
G1 X146.632 Y115.623 E0.02602
G1 X147.120 Y116.294 E0.02602
G1 X147.457 Y117.053 E0.02602
G1 X147.630 Y117.864 E0.02602
G1 X147.630 Y118.694 E0.02602
G1 X147.457 Y119.506 E0.02602
G1 X147.120 Y120.264 E0.02602
G1 X146.632 Y120.935 E0.02602
G1 X146.015 Y121.491 E0.02602
G1 X145.297 Y121.906 E0.02602
G1 X144.507 Y122.162 E0.02602
G1 X143.682 Y122.249 E0.02602
G1 X142.857 Y122.162 E0.02602
G1 X142.068 Y121.906 E0.02602
G1 X141.349 Y121.491 E0.02602
G1 X140.732 Y120.935 E0.02602
G1 X140.244 Y120.264 E0.02602
G1 X139.907 Y119.506 E0.02602
G1 X139.734 Y118.694 E0.02602
G1 X139.734 Y117.924 E0.02414
G1 X140.111 Y117.924 F7200.000
G1 F1800
G1 X140.267 Y117.170 E0.02416
G1 X140.573 Y116.484 E0.02353
G1 X141.014 Y115.877 E0.02353
G1 X141.572 Y115.375 E0.02353
G1 X142.223 Y114.999 E0.02358
G1 X142.953 Y114.766 E0.02401
G1 X143.682 Y114.689 E0.02299
G1 X144.429 Y114.767 E0.02353
G1 X145.142 Y114.999 E0.02353
G1 X145.792 Y115.375 E0.02354
G1 X146.350 Y115.877 E0.02353
G1 X146.791 Y116.484 E0.02353
G1 X147.097 Y117.170 E0.02353
G1 X147.253 Y117.904 E0.02354
G1 X147.253 Y118.655 E0.02353
G1 X147.097 Y119.389 E0.02354
G1 X146.791 Y120.074 E0.02353
G1 X146.350 Y120.682 E0.02353
G1 X145.792 Y121.184 E0.02353
G1 X145.142 Y121.559 E0.02354
G1 X144.429 Y121.791 E0.02353
G1 X143.682 Y121.870 E0.02353
G1 X142.936 Y121.791 E0.02353
G1 X142.222 Y121.559 E0.02353
G1 X141.572 Y121.184 E0.02354
G1 X141.014 Y120.682 E0.02353
G1 X140.573 Y120.074 E0.02353
G1 X140.267 Y119.389 E0.02353
G1 X140.111 Y118.655 E0.02354
G1 X140.111 Y117.984 E0.02101
G1 X140.489 Y117.984 F7200.000
G1 F1800
G1 X140.628 Y117.287 E0.02230
G1 X140.901 Y116.674 E0.02105
G1 X141.296 Y116.131 E0.02105
G1 X141.795 Y115.681 E0.02105
G1 X142.377 Y115.345 E0.02107
G1 X143.031 Y115.137 E0.02153
G1 X143.682 Y115.068 E0.02054
G1 X144.350 Y115.138 E0.02105
G1 X144.988 Y115.346 E0.02105
G1 X145.570 Y115.681 E0.02105
G1 X146.068 Y116.131 E0.02105
G1 X146.463 Y116.674 E0.02105
G1 X146.736 Y117.287 E0.02105
G1 X146.876 Y117.944 E0.02105
G1 X146.876 Y118.615 E0.02105
G1 X146.736 Y119.272 E0.02105
G1 X146.463 Y119.885 E0.02105
G1 X146.068 Y120.428 E0.02105
G1 X145.570 Y120.877 E0.02105
G1 X144.988 Y121.213 E0.02105
G1 X144.350 Y121.420 E0.02105
G1 X143.682 Y121.490 E0.02105
G1 X143.015 Y121.420 E0.02105
G1 X142.376 Y121.213 E0.02105
G1 X141.795 Y120.877 E0.02105
G1 X141.296 Y120.428 E0.02105
G1 X140.901 Y119.885 E0.02105
G1 X140.628 Y119.272 E0.02105
G1 X140.489 Y118.615 E0.02105
G1 X140.489 Y118.044 E0.01789
G1 X140.163 Y117.752 F7200.000
G1 F5760
G1 X140.628 Y117.287 E-0.26675
G1 X140.901 Y116.674 E-0.23250
G1 X141.296 Y116.131 E-0.23252
G1 X141.356 Y116.076 E-0.02822
G1 E-0.04000 F2100.00000
G1 Z0.800 F7200.000
G1 X110.113 Y117.551
G1 Z0.200
G1 E0.80000 F2100.00000
G1 F1800
G1 X110.113 Y119.008 E0.04569
G1 X109.810 Y120.433 E0.04568
G1 X109.218 Y121.764 E0.04568
G1 X108.361 Y122.943 E0.04568
G1 X107.279 Y123.918 E0.04568
G1 X106.017 Y124.646 E0.04568
G1 X104.631 Y125.096 E0.04568
G1 X103.182 Y125.249 E0.04568
G1 X101.733 Y125.096 E0.04568
G1 X100.347 Y124.646 E0.04568
G1 X99.086 Y123.918 E0.04568
G1 X98.003 Y122.943 E0.04568
G1 X97.146 Y121.764 E0.04569
G1 X96.554 Y120.433 E0.04568
G1 X96.251 Y119.008 E0.04568
G1 X96.251 Y117.551 E0.04569
G1 X96.554 Y116.126 E0.04568
G1 X97.146 Y114.795 E0.04568
G1 X98.003 Y113.616 E0.04569
G1 X99.086 Y112.641 E0.04568
G1 X100.349 Y111.911 E0.04574
G1 X101.755 Y111.460 E0.04632
G1 X103.182 Y111.310 E0.04498
G1 X104.631 Y111.462 E0.04568
G1 X106.017 Y111.912 E0.04568
G1 X107.279 Y112.641 E0.04568
G1 X108.361 Y113.616 E0.04568
G1 X109.218 Y114.794 E0.04568
G1 X109.810 Y116.126 E0.04568
G1 X110.101 Y117.492 E0.04380
G1 X109.732 Y117.570 F7200.000
G1 F1800
G1 X109.736 Y118.968 E0.04383
G1 X109.450 Y120.316 E0.04320
G1 X108.889 Y121.574 E0.04320
G1 X108.080 Y122.689 E0.04320
G1 X107.056 Y123.611 E0.04320
G1 X105.863 Y124.300 E0.04320
G1 X104.552 Y124.726 E0.04320
G1 X103.182 Y124.870 E0.04320
G1 X101.812 Y124.726 E0.04320
G1 X100.502 Y124.300 E0.04320
G1 X99.308 Y123.611 E0.04320
G1 X98.285 Y122.689 E0.04320
G1 X97.475 Y121.574 E0.04320
G1 X96.914 Y120.316 E0.04320
G1 X96.628 Y118.968 E0.04320
G1 X96.628 Y117.590 E0.04320
G1 X96.914 Y116.243 E0.04320
G1 X97.475 Y114.984 E0.04320
G1 X98.285 Y113.869 E0.04320
G1 X99.308 Y112.948 E0.04320
G1 X100.502 Y112.258 E0.04323
G1 X101.834 Y111.831 E0.04384
G1 X103.182 Y111.689 E0.04251
G1 X104.552 Y111.833 E0.04320
G1 X105.863 Y112.259 E0.04320
G1 X107.056 Y112.948 E0.04320
G1 X108.080 Y113.869 E0.04320
G1 X108.889 Y114.984 E0.04320
G1 X109.450 Y116.243 E0.04320
G1 X109.720 Y117.512 E0.04068
G1 X109.351 Y117.590 F7200.000
G1 F1800
G1 X109.359 Y118.928 E0.04197
G1 X109.089 Y120.199 E0.04071
G1 X108.561 Y121.385 E0.04071
G1 X107.798 Y122.435 E0.04071
G1 X106.833 Y123.304 E0.04071
G1 X105.708 Y123.953 E0.04071
G1 X104.474 Y124.355 E0.04071
G1 X103.182 Y124.490 E0.04071
G1 X101.891 Y124.355 E0.04071
G1 X100.656 Y123.953 E0.04071
G1 X99.531 Y123.304 E0.04071
G1 X98.566 Y122.435 E0.04071
G1 X97.803 Y121.385 E0.04071
G1 X97.275 Y120.199 E0.04071
G1 X97.005 Y118.928 E0.04071
G1 X97.005 Y117.630 E0.04072
G1 X97.275 Y116.360 E0.04071
G1 X97.803 Y115.174 E0.04071
G1 X98.566 Y114.123 E0.04071
G1 X99.531 Y113.254 E0.04071
G1 X100.656 Y112.605 E0.04073
G1 X101.912 Y112.202 E0.04135
G1 X103.182 Y112.068 E0.04005
G1 X104.474 Y112.204 E0.04071
G1 X105.708 Y112.605 E0.04071
G1 X106.833 Y113.254 E0.04071
G1 X107.798 Y114.123 E0.04071
G1 X108.561 Y115.174 E0.04071
G1 X109.089 Y116.360 E0.04071
G1 X109.338 Y117.531 E0.03755
G1 X109.717 Y117.751 F7200.000
G1 F5760
G1 X109.359 Y118.928 E-0.48394
G1 X109.194 Y119.708 E-0.27606
G1 E-0.04000 F2100.00000
G1 Z0.800 F7200.000
G1 X91.130 Y117.864
G1 Z0.200
G1 E0.80000 F2100.00000
G1 F1800
G1 X91.130 Y118.694 E0.02602
G1 X90.957 Y119.506 E0.02602
G1 X90.620 Y120.264 E0.02602
G1 X90.132 Y120.935 E0.02602
G1 X89.515 Y121.491 E0.02602
G1 X88.797 Y121.906 E0.02602
G1 X88.007 Y122.162 E0.02602
G1 X87.182 Y122.249 E0.02602
G1 X86.357 Y122.162 E0.02602
G1 X85.568 Y121.906 E0.02602
G1 X84.849 Y121.491 E0.02602
G1 X84.232 Y120.935 E0.02602
G1 X83.744 Y120.264 E0.02602
G1 X83.407 Y119.506 E0.02602
G1 X83.234 Y118.694 E0.02602
G1 X83.234 Y117.864 E0.02602
G1 X83.407 Y117.053 E0.02602
G1 X83.744 Y116.294 E0.02602
G1 X84.232 Y115.623 E0.02602
G1 X84.849 Y115.068 E0.02602
G1 X85.570 Y114.652 E0.02610
G1 X86.375 Y114.395 E0.02650
G1 X87.182 Y114.310 E0.02545
G1 X88.007 Y114.397 E0.02602
G1 X88.797 Y114.653 E0.02602
G1 X89.515 Y115.068 E0.02602
G1 X90.132 Y115.623 E0.02602
G1 X90.620 Y116.294 E0.02602
G1 X90.957 Y117.053 E0.02602
G1 X91.117 Y117.806 E0.02414
G1 X90.749 Y117.884 F7200.000
G1 F1800
G1 X90.753 Y118.655 E0.02416
G1 X90.597 Y119.389 E0.02354
G1 X90.291 Y120.074 E0.02353
G1 X89.850 Y120.682 E0.02353
G1 X89.292 Y121.184 E0.02353
G1 X88.642 Y121.559 E0.02354
G1 X87.929 Y121.791 E0.02353
G1 X87.182 Y121.870 E0.02353
G1 X86.436 Y121.791 E0.02353
G1 X85.722 Y121.559 E0.02353
G1 X85.072 Y121.184 E0.02354
G1 X84.514 Y120.682 E0.02353
G1 X84.073 Y120.074 E0.02353
G1 X83.767 Y119.389 E0.02353
G1 X83.611 Y118.655 E0.02354
G1 X83.611 Y117.904 E0.02353
G1 X83.767 Y117.170 E0.02354
G1 X84.073 Y116.484 E0.02353
G1 X84.514 Y115.877 E0.02353
G1 X85.072 Y115.375 E0.02353
G1 X85.723 Y114.999 E0.02358
G1 X86.453 Y114.766 E0.02401
G1 X87.182 Y114.689 E0.02299
G1 X87.929 Y114.767 E0.02353
G1 X88.642 Y114.999 E0.02353
G1 X89.292 Y115.375 E0.02354
G1 X89.850 Y115.877 E0.02353
G1 X90.291 Y116.484 E0.02353
G1 X90.597 Y117.170 E0.02353
G1 X90.736 Y117.825 E0.02102
G1 X90.367 Y117.904 F7200.000
G1 F1800
G1 X90.376 Y118.615 E0.02230
G1 X90.236 Y119.272 E0.02105
G1 X89.963 Y119.885 E0.02105
G1 X89.568 Y120.428 E0.02105
G1 X89.070 Y120.877 E0.02105
G1 X88.488 Y121.213 E0.02105
G1 X87.850 Y121.420 E0.02105
G1 X87.182 Y121.490 E0.02105
G1 X86.515 Y121.420 E0.02105
G1 X85.876 Y121.213 E0.02105
G1 X85.295 Y120.877 E0.02105
G1 X84.796 Y120.428 E0.02105
G1 X84.401 Y119.885 E0.02105
G1 X84.128 Y119.272 E0.02105
G1 X83.989 Y118.615 E0.02105
G1 X83.989 Y117.944 E0.02105
G1 X84.128 Y117.287 E0.02105
G1 X84.401 Y116.674 E0.02105
G1 X84.796 Y116.131 E0.02105
G1 X85.295 Y115.681 E0.02105
G1 X85.877 Y115.345 E0.02107
G1 X86.531 Y115.137 E0.02153
G1 X87.182 Y115.068 E0.02054
G1 X87.850 Y115.138 E0.02105
G1 X88.488 Y115.346 E0.02105
G1 X89.070 Y115.681 E0.02105
G1 X89.568 Y116.131 E0.02105
G1 X89.963 Y116.674 E0.02105
G1 X90.236 Y117.287 E0.02105
G1 X90.355 Y117.845 E0.01789
G1 X90.734 Y118.063 F7200.000
G1 F5760
G1 X90.376 Y118.615 E-0.26675
G1 X90.236 Y119.272 E-0.23253
G1 X89.963 Y119.885 E-0.23250
G1 X89.915 Y119.951 E-0.02822
G1 E-0.04000 F2100.00000
G1 Z0.800 F7200.000
G1 X81.146 Y110.243
G1 Z0.200
G1 E0.80000 F2100.00000
G1 F1800
G1 X149.218 Y110.243 E2.13434
G1 X149.218 Y126.315 E0.50392
G1 X81.146 Y126.315 E2.13434
G1 X81.146 Y110.303 E0.50204
G1 X80.769 Y109.866 F7200.000
G1 F1800
G1 X149.595 Y109.866 E2.15799
G1 X149.595 Y126.692 E0.52756
G1 X80.769 Y126.692 E2.15799
G1 X80.769 Y109.926 E0.52568
G1 X80.392 Y109.489 F7200.000
G1 F1800
G1 X149.972 Y109.489 E2.18163
G1 X149.972 Y127.069 E0.55121
G1 X80.392 Y127.069 E2.18163
G1 X80.392 Y109.549 E0.54933
G1 X80.791 Y109.522 F7200.000
G1 F5760
G1 X82.586 Y109.547 E-0.76000
G1 E-0.04000 F2100.00000
G1 Z0.800 F7200.000
G1 X81.259 Y125.439
G1 Z0.200
G1 E0.80000 F2100.00000
G1 F1800
G1 X81.852 Y126.032 E0.02631
G1 X82.386 Y126.032 E0.01674
G1 X81.429 Y125.075 E0.04245
G1 X81.429 Y124.542 E0.01674
G1 X82.919 Y126.032 E0.06612
G1 X83.453 Y126.032 E0.01674
G1 X81.429 Y124.008 E0.08979
G1 X81.429 Y123.475 E0.01674
G1 X83.986 Y126.032 E0.11346
G1 X84.520 Y126.032 E0.01674
G1 X81.429 Y122.941 E0.13713
G1 X81.429 Y122.408 E0.01674
G1 X85.054 Y126.032 E0.16080
G1 X85.587 Y126.032 E0.01674
G1 X81.429 Y121.874 E0.18447
G1 X81.429 Y121.341 E0.01674
G1 X86.121 Y126.032 E0.20814
G1 X86.654 Y126.032 E0.01674
G1 X81.429 Y120.807 E0.23181
G1 X81.429 Y120.274 E0.01674
G1 X87.188 Y126.032 E0.25548
G1 X87.721 Y126.032 E0.01674
G1 X81.429 Y119.740 E0.27915
G1 X81.429 Y119.206 E0.01674
G1 X88.425 Y126.202 E0.31035
G1 F5760
G1 X86.873 Y124.650 E-0.76000
G1 E-0.04000 F2100.00000
G1 Z0.800 F7200.000
G1 X99.063 Y124.035
G1 Z0.200
G1 E0.80000 F2100.00000
G1 F1800
G1 X101.060 Y126.032 E0.08861
G1 X100.526 Y126.032 E0.01674
G1 X91.042 Y116.548 E0.42075
G1 X91.228 Y116.965 E0.01430
G1 X91.309 Y117.349 E0.01232
G1 X99.993 Y126.032 E0.38523
G1 X99.459 Y126.032 E0.01674
G1 X91.413 Y117.986 E0.35698
G1 X91.413 Y118.519 E0.01674
G1 X98.926 Y126.032 E0.33331
G1 X98.392 Y126.032 E0.01674
G1 X91.355 Y118.995 E0.31220
G1 X91.261 Y119.435 E0.01411
G1 X97.859 Y126.032 E0.29268
G1 X97.325 Y126.032 E0.01674
G1 X91.123 Y119.830 E0.27517
G1 X90.958 Y120.199 E0.01268
G1 X96.792 Y126.032 E0.25879
G1 X96.258 Y126.032 E0.01674
G1 X90.767 Y120.542 E0.24358
G1 X90.543 Y120.851 E0.01198
G1 X95.724 Y126.032 E0.22987
