; generated by Slic3r Prusa Edition 1.39.2+win64 on 2018-05-25 at 15:33:51

; 

; external perimeters extrusion width = 0.45mm
; perimeters extrusion width = 0.45mm
; infill extrusion width = 0.45mm
; solid infill extrusion width = 0.45mm
; top infill extrusion width = 0.45mm
; first layer extrusion width = 0.42mm

M107
M115 U3.1.0 ; tell printer latest fw version
M83  ; extruder relative mode
M104 S205 ; set extruder temp
M140 S55 ; set bed temp
M190 S55 ; wait for bed temp
M109 S205 ; wait for extruder temp
G28 W ; home all without mesh bed level
G80 ; mesh bed leveling
G1 Y-3.0 F1000.0 ; go outside print area
G92 E0.0
G1 X60.0 E9.0  F1000.0 ; intro line
G1 X100.0 E12.5  F1000.0 ; intro line
G92 E0.0
M900 K30; Filament gcode
G21 ; set units to millimeters
G90 ; use absolute coordinates
M83 ; use relative distances for extrusion
;BEFORE_LAYER_CHANGE
;0.2


G1 E-0.80000 F2100.00000
G1 Z0.600 F7200.000
;AFTER_LAYER_CHANGE
;0.2
G1 X68.308 Y79.226
G1 Z0.200
G1 E0.80000 F2100.00000
M204 S1000
G1 F1800
G1 X68.987 Y79.123 E0.02154
G1 X136.004 Y79.123 E2.10125
G1 X136.895 Y79.298 E0.02849
G1 X137.659 Y79.797 E0.02860
G1 X138.176 Y80.544 E0.02849
G1 X138.376 Y81.430 E0.02849
G1 X138.376 Y123.557 E1.32086
G1 X138.294 Y124.121 E0.01787
G1 X138.081 Y124.650 E0.01787
G1 X137.747 Y125.112 E0.01787
G1 X137.313 Y125.481 E0.01787
G1 X136.692 Y125.774 E0.02154
G1 X136.013 Y125.877 E0.02154
G1 X68.977 Y125.877 E2.10185
G1 X68.405 Y125.801 E0.01811
G1 X67.867 Y125.590 E0.01811
G1 X67.394 Y125.252 E0.01823
G1 X67.019 Y124.813 E0.01811
G1 X66.727 Y124.195 E0.02142
G1 X66.623 Y123.520 E0.02142
G1 X66.623 Y81.466 E1.31859
G1 X66.701 Y80.897 E0.01799
G1 X66.914 Y80.360 E0.01811
G1 X67.248 Y79.894 E0.01799
G1 X67.687 Y79.519 E0.01811
G1 X68.254 Y79.251 E0.01966
G1 F5760
G1 X68.987 Y79.123 E-0.25793
G1 X70.437 Y79.123 E-0.50207
G1 E-0.04000 F2100.00000
G1 Z0.800 F7200.000
G1 X72.232 Y115.253
G1 Z0.200
G1 E0.80000 F2100.00000
G1 F1800
G1 X72.768 Y115.253 E0.01679
G1 X73.291 Y115.364 E0.01679
G1 X73.781 Y115.582 E0.01679
G1 X74.214 Y115.897 E0.01679
G1 X74.572 Y116.295 E0.01679
G1 X74.840 Y116.758 E0.01679
G1 X75.005 Y117.268 E0.01679
G1 X75.061 Y117.800 E0.01679
G1 X75.005 Y118.332 E0.01679
G1 X74.840 Y118.842 E0.01679
G1 X74.572 Y119.305 E0.01679
G1 X74.214 Y119.703 E0.01679
G1 X73.781 Y120.018 E0.01679
G1 X73.291 Y120.236 E0.01679
G1 X72.768 Y120.347 E0.01679
G1 X72.232 Y120.347 E0.01679
G1 X71.709 Y120.236 E0.01679
G1 X71.219 Y120.018 E0.01679
G1 X70.786 Y119.703 E0.01679
G1 X70.428 Y119.305 E0.01679
G1 X70.160 Y118.842 E0.01679
G1 X69.995 Y118.332 E0.01679
G1 X69.939 Y117.800 E0.01679
G1 X69.995 Y117.268 E0.01679
G1 X70.160 Y116.758 E0.01679
G1 X70.428 Y116.295 E0.01679
G1 X70.786 Y115.897 E0.01679
G1 X71.219 Y115.582 E0.01679
G1 X71.709 Y115.364 E0.01679
G1 X72.174 Y115.265 E0.01491
G1 X72.395 Y114.887 F7200.000
G1 F5760
G1 X72.768 Y115.253 E-0.20579
G1 X73.291 Y115.364 E-0.18547
G1 X73.781 Y115.582 E-0.18545
G1 X74.209 Y115.893 E-0.18330
G1 E-0.04000 F2100.00000
G1 Z0.800 F7200.000
G1 X72.232 Y89.447
G1 Z0.200
G1 E0.80000 F2100.00000
G1 F1800
G1 X71.709 Y89.336 E0.01679
G1 X71.219 Y89.118 E0.01679
G1 X70.786 Y88.803 E0.01679
G1 X70.428 Y88.405 E0.01679
G1 X70.160 Y87.942 E0.01679
G1 X69.995 Y87.433 E0.01679
G1 X69.939 Y86.900 E0.01679
G1 X69.995 Y86.367 E0.01679
G1 X70.160 Y85.858 E0.01679
G1 X70.428 Y85.395 E0.01679
G1 X70.786 Y84.997 E0.01679
G1 X71.219 Y84.682 E0.01679
G1 X71.709 Y84.464 E0.01679
G1 X72.232 Y84.353 E0.01679
G1 X72.768 Y84.353 E0.01678
G1 X73.291 Y84.464 E0.01679
G1 X73.781 Y84.682 E0.01679
G1 X74.214 Y84.997 E0.01679
G1 X74.572 Y85.395 E0.01679
G1 X74.840 Y85.858 E0.01679
G1 X75.005 Y86.367 E0.01679
G1 X75.061 Y86.900 E0.01679
G1 X75.005 Y87.433 E0.01679
G1 X74.840 Y87.942 E0.01679
G1 X74.572 Y88.405 E0.01679
G1 X74.214 Y88.803 E0.01679
G1 X73.781 Y89.118 E0.01679
G1 X73.291 Y89.336 E0.01679
G1 X72.768 Y89.447 E0.01679
G1 X72.292 Y89.447 E0.01490
G1 X71.997 Y89.771 F7200.000
G1 F5760
G1 X71.709 Y89.336 E-0.20583
G1 X71.219 Y89.118 E-0.18545
G1 X70.786 Y88.803 E-0.18547
G1 X70.432 Y88.410 E-0.18325
G1 E-0.04000 F2100.00000
G1 Z0.800 F7200.000
G1 X101.479 Y115.533
G1 Z0.200
G1 E0.80000 F2100.00000
G1 F1800
G1 X102.040 Y115.125 E0.02176
G1 X102.674 Y114.843 E0.02176
G1 X103.353 Y114.699 E0.02176
G1 X104.047 Y114.699 E0.02176
G1 X104.726 Y114.843 E0.02176
G1 X105.360 Y115.125 E0.02176
G1 X105.921 Y115.533 E0.02176
G1 X106.386 Y116.049 E0.02176
G1 X106.732 Y116.650 E0.02176
G1 X106.947 Y117.310 E0.02176
G1 X107.019 Y118.000 E0.02176
G1 X106.947 Y118.690 E0.02176
G1 X106.732 Y119.350 E0.02176
G1 X106.386 Y119.951 E0.02176
G1 X105.921 Y120.467 E0.02176
G1 X105.360 Y120.875 E0.02176
G1 X104.726 Y121.157 E0.02176
G1 X104.047 Y121.301 E0.02176
G1 X103.353 Y121.301 E0.02176
G1 X102.674 Y121.157 E0.02176
G1 X102.040 Y120.875 E0.02176
G1 X101.479 Y120.467 E0.02176
G1 X101.014 Y119.951 E0.02176
G1 X100.668 Y119.350 E0.02176
G1 X100.453 Y118.690 E0.02176
G1 X100.381 Y118.000 E0.02176
G1 X100.453 Y117.310 E0.02176
G1 X100.668 Y116.650 E0.02176
G1 X101.014 Y116.049 E0.02176
G1 X101.439 Y115.578 E0.01988
G1 X101.719 Y115.830 F7200.000
G1 F1800
G1 X102.230 Y115.454 E0.01990
G1 X102.791 Y115.204 E0.01927
G1 X103.393 Y115.076 E0.01928
G1 X104.007 Y115.076 E0.01927
G1 X104.609 Y115.204 E0.01928
G1 X105.170 Y115.454 E0.01927
G1 X105.667 Y115.815 E0.01927
G1 X106.079 Y116.272 E0.01927
G1 X106.386 Y116.804 E0.01927
G1 X106.576 Y117.389 E0.01927
G1 X106.640 Y118.000 E0.01927
G1 X106.576 Y118.611 E0.01927
G1 X106.386 Y119.196 E0.01927
G1 X106.079 Y119.728 E0.01927
G1 X105.667 Y120.185 E0.01927
G1 X105.170 Y120.546 E0.01927
G1 X104.609 Y120.796 E0.01927
G1 X104.007 Y120.924 E0.01928
G1 X103.393 Y120.924 E0.01927
G1 X102.791 Y120.796 E0.01928
G1 X102.230 Y120.546 E0.01927
G1 X101.733 Y120.185 E0.01927
G1 X101.321 Y119.728 E0.01927
G1 X101.014 Y119.196 E0.01927
G1 X100.824 Y118.611 E0.01927
G1 X100.760 Y118.000 E0.01927
G1 X100.824 Y117.389 E0.01927
G1 X101.014 Y116.804 E0.01927
G1 X101.321 Y116.272 E0.01927
G1 X101.679 Y115.875 E0.01675
G1 X101.959 Y116.127 F7200.000
G1 F1800
G1 X102.419 Y115.782 E0.01804
G1 X102.909 Y115.564 E0.01679
G1 X103.432 Y115.453 E0.01679
G1 X103.968 Y115.453 E0.01679
G1 X104.491 Y115.564 E0.01679
G1 X104.981 Y115.782 E0.01679
G1 X105.414 Y116.097 E0.01679
G1 X105.772 Y116.495 E0.01679
G1 X106.040 Y116.958 E0.01679
G1 X106.205 Y117.468 E0.01679
G1 X106.261 Y118.000 E0.01679
G1 X106.205 Y118.532 E0.01679
G1 X106.040 Y119.042 E0.01679
G1 X105.772 Y119.505 E0.01679
G1 X105.414 Y119.903 E0.01679
G1 X104.981 Y120.218 E0.01679
G1 X104.491 Y120.436 E0.01679
G1 X103.968 Y120.547 E0.01679
G1 X103.432 Y120.547 E0.01679
G1 X102.909 Y120.436 E0.01679
G1 X102.419 Y120.218 E0.01679
G1 X101.986 Y119.903 E0.01679
G1 X101.628 Y119.505 E0.01679
G1 X101.360 Y119.042 E0.01679
G1 X101.195 Y118.532 E0.01679
G1 X101.139 Y118.000 E0.01679
G1 X101.195 Y117.468 E0.01679
G1 X101.360 Y116.958 E0.01679
G1 X101.628 Y116.495 E0.01679
G1 X101.919 Y116.172 E0.01363
G1 X101.871 Y115.737 F7200.000
G1 F5760
G1 X102.419 Y115.782 E-0.21969
G1 X102.909 Y115.564 E-0.18545
G1 X103.432 Y115.453 E-0.18547
G1 X103.921 Y115.453 E-0.16939
G1 E-0.04000 F2100.00000
G1 Z0.800 F7200.000
G1 X103.253 Y90.151
G1 Z0.200
G1 E0.80000 F2100.00000
G1 F1800
G1 X102.574 Y90.007 E0.02176
G1 X101.940 Y89.725 E0.02176
G1 X101.379 Y89.317 E0.02176
G1 X100.914 Y88.801 E0.02176
G1 X100.568 Y88.200 E0.02176
G1 X100.353 Y87.540 E0.02175
G1 X100.281 Y86.850 E0.02176
G1 X100.353 Y86.160 E0.02176
G1 X100.568 Y85.500 E0.02175
G1 X100.914 Y84.899 E0.02176
G1 X101.379 Y84.383 E0.02176
G1 X101.940 Y83.975 E0.02176
G1 X102.574 Y83.693 E0.02176
G1 X103.253 Y83.549 E0.02176
G1 X103.947 Y83.549 E0.02175
G1 X104.626 Y83.693 E0.02176
G1 X105.260 Y83.975 E0.02176
G1 X105.821 Y84.383 E0.02176
G1 X106.286 Y84.899 E0.02176
G1 X106.632 Y85.500 E0.02176
G1 X106.847 Y86.160 E0.02175
G1 X106.919 Y86.850 E0.02176
G1 X106.847 Y87.540 E0.02176
G1 X106.632 Y88.200 E0.02175
G1 X106.286 Y88.801 E0.02176
G1 X105.821 Y89.317 E0.02176
G1 X105.260 Y89.725 E0.02176
G1 X104.626 Y90.007 E0.02176
G1 X103.947 Y90.151 E0.02176
G1 X103.313 Y90.151 E0.01987
G1 X103.313 Y89.774 F7200.000
G1 F1800
G1 X102.691 Y89.646 E0.01990
G1 X102.130 Y89.396 E0.01927
G1 X101.632 Y89.035 E0.01928
G1 X101.221 Y88.578 E0.01927
G1 X100.914 Y88.046 E0.01927
G1 X100.724 Y87.461 E0.01927
G1 X100.660 Y86.850 E0.01927
G1 X100.724 Y86.239 E0.01927
G1 X100.914 Y85.654 E0.01927
G1 X101.221 Y85.122 E0.01927
G1 X101.632 Y84.665 E0.01927
G1 X102.130 Y84.304 E0.01928
G1 X102.691 Y84.054 E0.01927
G1 X103.293 Y83.926 E0.01927
G1 X103.907 Y83.926 E0.01927
G1 X104.509 Y84.054 E0.01927
G1 X105.070 Y84.304 E0.01927
G1 X105.568 Y84.665 E0.01928
G1 X105.979 Y85.122 E0.01927
G1 X106.286 Y85.654 E0.01927
G1 X106.476 Y86.239 E0.01927
G1 X106.540 Y86.850 E0.01927
G1 X106.476 Y87.461 E0.01927
G1 X106.286 Y88.046 E0.01927
G1 X105.979 Y88.578 E0.01927
G1 X105.568 Y89.035 E0.01927
G1 X105.070 Y89.396 E0.01928
G1 X104.509 Y89.646 E0.01927
G1 X103.907 Y89.774 E0.01927
G1 X103.373 Y89.774 E0.01675
G1 X103.373 Y89.397 F7200.000
G1 F1800
G1 X102.809 Y89.286 E0.01804
G1 X102.319 Y89.068 E0.01679
G1 X101.886 Y88.753 E0.01679
G1 X101.528 Y88.355 E0.01679
G1 X101.260 Y87.892 E0.01679
G1 X101.095 Y87.383 E0.01679
G1 X101.039 Y86.850 E0.01679
G1 X101.095 Y86.317 E0.01679
G1 X101.260 Y85.808 E0.01679
G1 X101.528 Y85.345 E0.01679
G1 X101.886 Y84.947 E0.01679
G1 X102.319 Y84.632 E0.01679
G1 X102.809 Y84.414 E0.01679
G1 X103.332 Y84.303 E0.01679
G1 X103.868 Y84.303 E0.01678
G1 X104.391 Y84.414 E0.01679
G1 X104.881 Y84.632 E0.01679
G1 X105.314 Y84.947 E0.01679
G1 X105.672 Y85.345 E0.01679
G1 X105.940 Y85.808 E0.01679
G1 X106.105 Y86.317 E0.01679
G1 X106.161 Y86.850 E0.01679
G1 X106.105 Y87.383 E0.01679
G1 X105.940 Y87.892 E0.01679
G1 X105.672 Y88.355 E0.01679
G1 X105.314 Y88.753 E0.01679
G1 X104.881 Y89.068 E0.01679
G1 X104.391 Y89.286 E0.01679
G1 X103.868 Y89.397 E0.01679
G1 X103.433 Y89.397 E0.01362
G1 X103.142 Y89.723 F7200.000
G1 F5760
G1 X102.809 Y89.286 E-0.21972
G1 X102.319 Y89.068 E-0.18545
G1 X101.886 Y88.753 E-0.18547
G1 X101.559 Y88.390 E-0.16936
G1 E-0.04000 F2100.00000
G1 Z0.800 F7200.000
G1 X98.802 Y94.289
G1 Z0.200
G1 E0.80000 F2100.00000
G1 F1800
G1 X100.262 Y96.818 E0.09157
G1 X101.164 Y99.596 E0.09157
G1 X101.469 Y102.500 E0.09157
G1 X101.164 Y105.404 E0.09157
G1 X100.262 Y108.182 E0.09157
G1 X98.802 Y110.711 E0.09157
G1 X96.847 Y112.881 E0.09157
G1 X94.485 Y114.598 E0.09157
G1 X91.817 Y115.786 E0.09157
G1 X88.960 Y116.393 E0.09157
G1 X86.040 Y116.393 E0.09157
G1 X83.183 Y115.786 E0.09157
G1 X80.515 Y114.598 E0.09157
G1 X78.153 Y112.881 E0.09157
G1 X76.198 Y110.711 E0.09157
G1 X74.738 Y108.182 E0.09157
G1 X73.836 Y105.404 E0.09157
G1 X73.531 Y102.500 E0.09157
G1 X73.836 Y99.596 E0.09157
G1 X74.738 Y96.818 E0.09157
G1 X76.198 Y94.289 E0.09157
G1 X78.153 Y92.119 E0.09157
G1 X80.515 Y90.402 E0.09157
G1 X83.183 Y89.214 E0.09157
G1 X86.040 Y88.607 E0.09157
G1 X88.960 Y88.607 E0.09157
G1 X91.817 Y89.214 E0.09157
G1 X94.485 Y90.402 E0.09157
G1 X96.847 Y92.119 E0.09157
G1 X98.761 Y94.244 E0.08969
G1 X98.481 Y94.497 F7200.000
G1 F1800
G1 X99.915 Y96.972 E0.08971
G1 X100.793 Y99.674 E0.08908
G1 X101.090 Y102.500 E0.08908
G1 X100.793 Y105.326 E0.08908
G1 X99.915 Y108.028 E0.08908
G1 X98.495 Y110.488 E0.08908
G1 X96.594 Y112.600 E0.08908
G1 X94.295 Y114.270 E0.08908
G1 X91.700 Y115.425 E0.08908
G1 X88.921 Y116.016 E0.08908
G1 X86.079 Y116.016 E0.08908
G1 X83.300 Y115.425 E0.08908
G1 X80.705 Y114.270 E0.08908
G1 X78.406 Y112.600 E0.08908
G1 X76.505 Y110.488 E0.08908
G1 X75.085 Y108.028 E0.08908
G1 X74.207 Y105.326 E0.08908
G1 X73.910 Y102.500 E0.08908
G1 X74.207 Y99.674 E0.08908
G1 X75.085 Y96.972 E0.08908
G1 X76.505 Y94.512 E0.08908
G1 X78.406 Y92.400 E0.08908
G1 X80.705 Y90.730 E0.08908
G1 X83.300 Y89.575 E0.08908
G1 X86.079 Y88.984 E0.08908
G1 X88.921 Y88.984 E0.08908
G1 X91.700 Y89.575 E0.08908
G1 X94.295 Y90.730 E0.08908
G1 X96.594 Y92.400 E0.08908
G1 X98.441 Y94.452 E0.08656
G1 X98.161 Y94.704 F7200.000
G1 F1800
G1 X99.569 Y97.127 E0.08785
G1 X100.422 Y99.753 E0.08660
G1 X100.711 Y102.500 E0.08660
G1 X100.422 Y105.247 E0.08660
G1 X99.569 Y107.873 E0.08660
G1 X98.188 Y110.265 E0.08660
G1 X96.340 Y112.318 E0.08660
G1 X94.106 Y113.941 E0.08660
G1 X91.582 Y115.065 E0.08660
G1 X88.881 Y115.639 E0.08660
G1 X86.119 Y115.639 E0.08660
G1 X83.418 Y115.065 E0.08660
G1 X80.894 Y113.941 E0.08660
G1 X78.660 Y112.318 E0.08660
G1 X76.812 Y110.265 E0.08660
G1 X75.431 Y107.873 E0.08660
G1 X74.578 Y105.247 E0.08660
G1 X74.289 Y102.500 E0.08660
G1 X74.578 Y99.753 E0.08660
G1 X75.431 Y97.127 E0.08660
G1 X76.812 Y94.735 E0.08660
G1 X78.660 Y92.682 E0.08660
G1 X80.894 Y91.059 E0.08660
G1 X83.418 Y89.935 E0.08660
G1 X86.119 Y89.361 E0.08660
G1 X88.881 Y89.361 E0.08660
G1 X91.582 Y89.935 E0.08660
G1 X94.106 Y91.059 E0.08660
G1 X96.340 Y92.682 E0.08660
G1 X98.121 Y94.660 E0.08344
G1 X98.558 Y94.662 F7200.000
G1 F5760
G1 X99.232 Y96.552 E-0.76000
G1 E-0.04000 F2100.00000
G1 Z0.800 F7200.000
G1 X69.964 Y82.464
G1 Z0.200
G1 E0.80000 F2100.00000
G1 F1800
G1 X135.036 Y82.464 E2.04028
G1 X135.036 Y122.536 E1.25642
G1 X69.964 Y122.536 E2.04028
G1 X69.964 Y119.917 E0.08210
G1 X70.279 Y120.267 E0.01474
G1 X70.840 Y120.675 E0.02176
G1 X71.474 Y120.957 E0.02176
G1 X72.153 Y121.101 E0.02176
G1 X72.847 Y121.101 E0.02176
G1 X73.526 Y120.957 E0.02176
G1 X74.160 Y120.675 E0.02176
G1 X74.721 Y120.267 E0.02176
G1 X75.186 Y119.751 E0.02176
G1 X75.532 Y119.150 E0.02176
G1 X75.747 Y118.490 E0.02176
G1 X75.819 Y117.800 E0.02176
G1 X75.747 Y117.110 E0.02176
G1 X75.532 Y116.450 E0.02176
G1 X75.186 Y115.849 E0.02176
G1 X74.721 Y115.333 E0.02176
G1 X74.160 Y114.925 E0.02176
G1 X73.526 Y114.643 E0.02176
G1 X72.847 Y114.499 E0.02176
G1 X72.153 Y114.499 E0.02176
G1 X71.474 Y114.643 E0.02176
G1 X70.840 Y114.925 E0.02176
G1 X70.279 Y115.333 E0.02176
G1 X69.964 Y115.683 E0.01474
G1 X69.964 Y89.017 E0.83607
G1 X70.279 Y89.367 E0.01474
G1 X70.840 Y89.775 E0.02176
G1 X71.474 Y90.057 E0.02176
G1 X72.153 Y90.201 E0.02176
G1 X72.847 Y90.201 E0.02175
G1 X73.526 Y90.057 E0.02176
G1 X74.160 Y89.775 E0.02176
G1 X74.721 Y89.367 E0.02176
G1 X75.186 Y88.851 E0.02176
G1 X75.532 Y88.250 E0.02176
G1 X75.747 Y87.590 E0.02175
G1 X75.819 Y86.900 E0.02176
G1 X75.747 Y86.210 E0.02176
G1 X75.532 Y85.550 E0.02175
G1 X75.186 Y84.949 E0.02176
G1 X74.721 Y84.433 E0.02176
G1 X74.160 Y84.025 E0.02176
G1 X73.526 Y83.743 E0.02176
G1 X72.847 Y83.599 E0.02176
G1 X72.153 Y83.599 E0.02175
G1 X71.474 Y83.743 E0.02176
G1 X70.840 Y84.025 E0.02176
G1 X70.279 Y84.433 E0.02176
G1 X69.964 Y84.783 E0.01474
G1 X69.964 Y82.524 E0.07081
G1 X69.587 Y82.087 F7200.000
G1 F1800
G1 X135.413 Y82.087 E2.06392
G1 X135.413 Y122.913 E1.28007
G1 X69.587 Y122.913 E2.06392
G1 X69.587 Y118.060 E0.15215
G1 X69.624 Y118.411 E0.01106
G1 X69.814 Y118.996 E0.01927
G1 X70.121 Y119.528 E0.01927
G1 X70.532 Y119.985 E0.01927
G1 X71.030 Y120.346 E0.01927
G1 X71.591 Y120.596 E0.01927
G1 X72.193 Y120.724 E0.01927
G1 X72.807 Y120.724 E0.01927
G1 X73.409 Y120.596 E0.01927
G1 X73.970 Y120.346 E0.01927
G1 X74.468 Y119.985 E0.01927
G1 X74.879 Y119.528 E0.01927
G1 X75.186 Y118.996 E0.01927
G1 X75.376 Y118.411 E0.01927
G1 X75.440 Y117.800 E0.01927
G1 X75.376 Y117.189 E0.01927
G1 X75.186 Y116.604 E0.01927
G1 X74.879 Y116.072 E0.01927
G1 X74.467 Y115.615 E0.01927
G1 X73.970 Y115.254 E0.01927
G1 X73.409 Y115.004 E0.01927
G1 X72.807 Y114.876 E0.01927
G1 X72.193 Y114.876 E0.01927
G1 X71.591 Y115.004 E0.01927
G1 X71.030 Y115.254 E0.01927
G1 X70.532 Y115.615 E0.01927
G1 X70.121 Y116.072 E0.01927
G1 X69.814 Y116.604 E0.01927
G1 X69.624 Y117.189 E0.01927
G1 X69.587 Y117.540 E0.01106
G1 X69.587 Y87.160 E0.95252
G1 X69.624 Y87.511 E0.01106
G1 X69.814 Y88.096 E0.01927
G1 X70.121 Y88.628 E0.01927
G1 X70.532 Y89.085 E0.01927
G1 X71.030 Y89.446 E0.01928
G1 X71.591 Y89.696 E0.01927
G1 X72.193 Y89.824 E0.01927
G1 X72.807 Y89.824 E0.01927
G1 X73.409 Y89.696 E0.01927
G1 X73.970 Y89.446 E0.01927
G1 X74.468 Y89.085 E0.01928
G1 X74.879 Y88.628 E0.01927
G1 X75.186 Y88.096 E0.01927
