; generated by Slic3r Prusa Edition 1.39.2+win64 on 2018-08-21 at 08:54:19

; 

; external perimeters extrusion width = 0.45mm
; perimeters extrusion width = 0.45mm
; infill extrusion width = 0.45mm
; solid infill extrusion width = 0.45mm
; top infill extrusion width = 0.45mm
; first layer extrusion width = 0.42mm

M107
M115 U3.1.0 ; tell printer latest fw version
M83  ; extruder relative mode
M104 S205 ; set extruder temp
M140 S55 ; set bed temp
M190 S55 ; wait for bed temp
M109 S205 ; wait for extruder temp
G28 W ; home all without mesh bed level
G80 ; mesh bed leveling
G1 Y-3.0 F1000.0 ; go outside print area
G92 E0.0
G1 X60.0 E9.0  F1000.0 ; intro line
G1 X100.0 E12.5  F1000.0 ; intro line
G92 E0.0
M900 K30; Filament gcode
G21 ; set units to millimeters
G90 ; use absolute coordinates
M83 ; use relative distances for extrusion
;BEFORE_LAYER_CHANGE
;0.2


G1 E-0.80000 F2100.00000
G1 Z0.600 F7200.000
;AFTER_LAYER_CHANGE
;0.2
G1 X86.169 Y77.431
G1 Z0.200
G1 E0.80000 F2100.00000
M204 S1000
G1 F1800
G1 X86.704 Y76.651 E0.02966
G1 X87.412 Y76.177 E0.02673
G1 X88.243 Y75.984 E0.02673
G1 X119.530 Y75.052 E0.98143
G1 X141.605 Y75.051 E0.69213
G1 X142.496 Y75.226 E0.02849
G1 X143.257 Y75.722 E0.02849
G1 X143.776 Y76.468 E0.02849
G1 X143.977 Y77.354 E0.02849
G1 X143.978 Y127.462 E1.57109
G1 X143.784 Y128.369 E0.02907
G1 X143.255 Y129.135 E0.02919
G1 X142.525 Y129.618 E0.02743
G1 X141.670 Y129.804 E0.02743
G1 X119.567 Y129.804 E0.69305
G1 X88.249 Y129.017 E0.98226
G1 X87.383 Y128.810 E0.02790
G1 X86.652 Y128.297 E0.02802
G1 X86.161 Y127.550 E0.02802
G1 X85.981 Y126.675 E0.02802
G1 X85.981 Y78.354 E1.51506
G1 X86.157 Y77.490 E0.02766
G1 F5760
G1 X86.704 Y76.651 E-0.34685
G1 X87.412 Y76.177 E-0.29523
G1 X87.744 Y76.100 E-0.11792
G1 E-0.04000 F2100.00000
G1 Z0.800 F7200.000
G1 X122.305 Y119.316
G1 Z0.200
G1 E0.80000 F2100.00000
G1 F1800
G1 X125.897 Y119.316 E0.11264
G1 X127.693 Y122.428 E0.11264
G1 X125.897 Y125.539 E0.11264
G1 X122.305 Y125.539 E0.11264
G1 X120.508 Y122.428 E0.11264
G1 X122.275 Y119.368 E0.11076
G1 X122.305 Y118.916 F7200.000
G1 F5760
G1 X124.469 Y119.337 E-0.76000
G1 E-0.04000 F2100.00000
G1 Z0.800 F7200.000
G1 X133.508 Y122.428
G1 Z0.200
G1 E0.80000 F2100.00000
G1 F1800
G1 X135.305 Y119.316 E0.11264
G1 X138.897 Y119.316 E0.11264
G1 X140.693 Y122.428 E0.11264
G1 X138.897 Y125.539 E0.11264
G1 X135.305 Y125.539 E0.11264
G1 X133.538 Y122.480 E0.11076
G1 X133.162 Y122.228 F7200.000
G1 F5760
G1 X134.608 Y120.564 E-0.76000
G1 E-0.04000 F2100.00000
G1 Z0.800 F7200.000
G1 X134.749 Y94.958
G1 Z0.200
G1 E0.80000 F2100.00000
G1 F1800
G1 X132.798 Y91.578 E0.12237
G1 X134.749 Y88.198 E0.12237
G1 X138.652 Y88.198 E0.12237
G1 X140.604 Y91.578 E0.12237
G1 X138.652 Y94.958 E0.12237
G1 X134.809 Y94.958 E0.12049
G1 X134.967 Y94.580 F7200.000
G1 F1800
G1 X133.233 Y91.578 E0.10872
G1 X134.967 Y88.575 E0.10872
G1 X138.435 Y88.575 E0.10872
G1 X140.168 Y91.578 E0.10872
G1 X138.435 Y94.580 E0.10872
G1 X135.027 Y94.580 E0.10684
G1 X134.621 Y94.780 F7200.000
G1 F5760
G1 X133.902 Y92.697 E-0.76000
G1 E-0.04000 F2100.00000
G1 Z0.800 F7200.000
G1 X137.455 Y87.566
G1 Z0.200
G1 E0.80000 F2100.00000
G1 F1800
G1 X137.056 Y87.388 E0.01370
G1 X136.702 Y87.131 E0.01370
G1 X136.410 Y86.806 E0.01370
G1 X136.191 Y86.428 E0.01370
G1 X136.056 Y86.012 E0.01370
G1 X136.011 Y85.578 E0.01370
G1 X136.056 Y85.143 E0.01370
G1 X136.192 Y84.726 E0.01373
G1 X136.414 Y84.344 E0.01387
G1 X136.702 Y84.024 E0.01349
G1 X137.056 Y83.767 E0.01370
G1 X137.455 Y83.590 E0.01370
G1 X137.882 Y83.499 E0.01370
G1 X138.319 Y83.499 E0.01370
G1 X138.747 Y83.590 E0.01370
G1 X139.146 Y83.767 E0.01370
G1 X139.500 Y84.024 E0.01370
G1 X139.792 Y84.349 E0.01370
G1 X140.010 Y84.727 E0.01370
G1 X140.145 Y85.143 E0.01370
G1 X140.191 Y85.578 E0.01370
G1 X140.145 Y86.012 E0.01370
G1 X140.010 Y86.429 E0.01373
G1 X139.787 Y86.811 E0.01387
G1 X139.500 Y87.131 E0.01349
G1 X139.146 Y87.388 E0.01370
G1 X138.747 Y87.566 E0.01370
G1 X138.319 Y87.656 E0.01370
G1 X137.882 Y87.656 E0.01370
G1 X137.514 Y87.578 E0.01182
G1 X137.592 Y87.209 F7200.000
G1 F1800
G1 X137.245 Y87.059 E0.01184
G1 X136.956 Y86.849 E0.01122
G1 X136.717 Y86.583 E0.01122
G1 X136.538 Y86.274 E0.01122
G1 X136.427 Y85.933 E0.01121
G1 X136.390 Y85.578 E0.01122
G1 X136.427 Y85.222 E0.01122
G1 X136.538 Y84.881 E0.01123
G1 X136.721 Y84.567 E0.01139
G1 X136.956 Y84.306 E0.01103
G1 X137.245 Y84.096 E0.01122
G1 X137.572 Y83.950 E0.01122
G1 X137.922 Y83.876 E0.01122
G1 X138.280 Y83.876 E0.01122
G1 X138.630 Y83.950 E0.01122
G1 X138.956 Y84.096 E0.01122
G1 X139.246 Y84.306 E0.01122
G1 X139.485 Y84.572 E0.01122
G1 X139.664 Y84.882 E0.01122
G1 X139.775 Y85.222 E0.01121
G1 X139.812 Y85.578 E0.01122
G1 X139.775 Y85.933 E0.01122
G1 X139.664 Y86.274 E0.01123
G1 X139.481 Y86.588 E0.01139
G1 X139.246 Y86.849 E0.01103
G1 X138.956 Y87.059 E0.01122
G1 X138.630 Y87.205 E0.01122
G1 X138.280 Y87.279 E0.01122
G1 X137.922 Y87.279 E0.01122
G1 X137.651 Y87.222 E0.00870
G1 X137.313 Y87.464 F7200.000
G1 F5760
G1 X137.245 Y87.059 E-0.15124
G1 X136.956 Y86.849 E-0.12389
G1 X136.717 Y86.583 E-0.12389
G1 X136.538 Y86.274 E-0.12391
G1 X136.427 Y85.933 E-0.12389
G1 X136.393 Y85.608 E-0.11318
G1 E-0.04000 F2100.00000
G1 Z0.800 F7200.000
G1 X137.843 Y96.122
G1 Z0.200
G1 E0.80000 F2100.00000
G1 F1800
G1 X138.359 Y96.122 E0.01619
G1 X138.864 Y96.229 E0.01619
G1 X139.336 Y96.439 E0.01619
G1 X139.753 Y96.742 E0.01618
G1 X140.099 Y97.126 E0.01619
G1 X140.357 Y97.573 E0.01619
G1 X140.516 Y98.064 E0.01618
G1 X140.570 Y98.578 E0.01619
G1 X140.516 Y99.091 E0.01619
G1 X140.356 Y99.584 E0.01624
G1 X140.094 Y100.035 E0.01636
G1 X139.753 Y100.413 E0.01596
G1 X139.336 Y100.716 E0.01618
G1 X138.864 Y100.926 E0.01619
G1 X138.359 Y101.034 E0.01619
G1 X137.843 Y101.034 E0.01619
G1 X137.338 Y100.926 E0.01619
G1 X136.866 Y100.716 E0.01619
G1 X136.448 Y100.413 E0.01618
G1 X136.103 Y100.029 E0.01619
G1 X135.845 Y99.582 E0.01619
G1 X135.685 Y99.091 E0.01618
G1 X135.631 Y98.578 E0.01619
G1 X135.685 Y98.064 E0.01619
G1 X135.845 Y97.571 E0.01624
G1 X136.108 Y97.121 E0.01636
G1 X136.448 Y96.742 E0.01596
G1 X136.866 Y96.439 E0.01618
G1 X137.338 Y96.229 E0.01619
G1 X137.784 Y96.134 E0.01431
G1 X137.862 Y96.503 F7200.000
G1 F1800
G1 X138.319 Y96.499 E0.01433
G1 X138.747 Y96.590 E0.01370
G1 X139.146 Y96.767 E0.01370
G1 X139.500 Y97.024 E0.01370
G1 X139.792 Y97.349 E0.01370
G1 X140.010 Y97.727 E0.01370
G1 X140.145 Y98.143 E0.01370
G1 X140.191 Y98.578 E0.01370
G1 X140.145 Y99.012 E0.01370
G1 X140.010 Y99.429 E0.01373
G1 X139.787 Y99.811 E0.01387
G1 X139.500 Y100.131 E0.01349
G1 X139.146 Y100.388 E0.01370
G1 X138.747 Y100.566 E0.01370
G1 X138.319 Y100.656 E0.01370
G1 X137.882 Y100.656 E0.01370
G1 X137.455 Y100.566 E0.01370
G1 X137.056 Y100.388 E0.01370
G1 X136.702 Y100.131 E0.01370
G1 X136.410 Y99.806 E0.01370
G1 X136.191 Y99.428 E0.01370
G1 X136.056 Y99.012 E0.01370
G1 X136.011 Y98.578 E0.01370
G1 X136.056 Y98.143 E0.01370
G1 X136.192 Y97.726 E0.01373
G1 X136.414 Y97.344 E0.01387
G1 X136.702 Y97.024 E0.01349
G1 X137.056 Y96.767 E0.01370
G1 X137.455 Y96.590 E0.01370
G1 X137.804 Y96.515 E0.01118
G1 X137.922 Y96.876 F7200.000
G1 F1800
G1 X138.280 Y96.876 E0.01122
G1 X138.630 Y96.950 E0.01122
G1 X138.956 Y97.096 E0.01122
G1 X139.246 Y97.306 E0.01122
G1 X139.485 Y97.572 E0.01122
G1 X139.664 Y97.882 E0.01122
G1 X139.775 Y98.222 E0.01121
G1 X139.812 Y98.578 E0.01122
G1 X139.775 Y98.933 E0.01122
G1 X139.664 Y99.274 E0.01123
G1 X139.481 Y99.588 E0.01139
G1 X139.246 Y99.849 E0.01103
G1 X138.956 Y100.059 E0.01122
G1 X138.630 Y100.205 E0.01122
G1 X138.280 Y100.279 E0.01122
G1 X137.922 Y100.279 E0.01122
G1 X137.572 Y100.205 E0.01122
G1 X137.245 Y100.059 E0.01122
G1 X136.956 Y99.849 E0.01122
G1 X136.717 Y99.583 E0.01122
G1 X136.538 Y99.274 E0.01122
G1 X136.427 Y98.933 E0.01121
G1 X136.390 Y98.578 E0.01122
G1 X136.427 Y98.222 E0.01122
G1 X136.538 Y97.881 E0.01123
G1 X136.721 Y97.567 E0.01139
G1 X136.956 Y97.306 E0.01103
G1 X137.245 Y97.096 E0.01122
G1 X137.572 Y96.950 E0.01122
G1 X137.863 Y96.888 E0.00933
G1 X138.067 Y96.549 F7200.000
G1 F5760
G1 X138.280 Y96.876 E-0.14430
G1 X138.630 Y96.950 E-0.12390
G1 X138.956 Y97.096 E-0.12391
G1 X139.246 Y97.306 E-0.12389
G1 X139.485 Y97.572 E-0.12389
G1 X139.659 Y97.872 E-0.12011
G1 E-0.04000 F2100.00000
G1 Z0.800 F7200.000
G1 X125.516 Y98.064
G1 Z0.200
G1 E0.80000 F2100.00000
G1 F1800
G1 X125.571 Y98.579 E0.01625
G1 X125.514 Y99.098 E0.01636
G1 X125.357 Y99.582 E0.01595
G1 X125.099 Y100.029 E0.01619
G1 X124.753 Y100.413 E0.01619
G1 X124.336 Y100.716 E0.01618
G1 X123.864 Y100.926 E0.01619
G1 X123.359 Y101.034 E0.01619
G1 X122.843 Y101.034 E0.01619
G1 X122.338 Y100.926 E0.01619
G1 X121.866 Y100.716 E0.01619
G1 X121.448 Y100.413 E0.01618
G1 X121.103 Y100.029 E0.01619
G1 X120.845 Y99.582 E0.01619
G1 X120.685 Y99.091 E0.01618
G1 X120.631 Y98.578 E0.01619
G1 X120.685 Y98.064 E0.01619
G1 X120.845 Y97.573 E0.01618
G1 X121.103 Y97.126 E0.01619
G1 X121.448 Y96.742 E0.01619
G1 X121.866 Y96.439 E0.01618
G1 X122.338 Y96.229 E0.01619
G1 X122.843 Y96.122 E0.01619
G1 X123.359 Y96.122 E0.01619
G1 X123.864 Y96.229 E0.01619
G1 X124.336 Y96.439 E0.01619
G1 X124.753 Y96.742 E0.01618
G1 X125.099 Y97.126 E0.01619
G1 X125.357 Y97.573 E0.01619
G1 X125.498 Y98.007 E0.01430
G1 X125.139 Y98.124 F7200.000
G1 F1800
G1 X125.191 Y98.579 E0.01436
G1 X125.143 Y99.019 E0.01388
G1 X125.010 Y99.428 E0.01349
G1 X124.792 Y99.806 E0.01370
G1 X124.500 Y100.131 E0.01370
G1 X124.146 Y100.388 E0.01370
G1 X123.747 Y100.566 E0.01370
G1 X123.319 Y100.656 E0.01370
G1 X122.882 Y100.656 E0.01370
G1 X122.455 Y100.566 E0.01370
G1 X122.056 Y100.388 E0.01370
G1 X121.702 Y100.131 E0.01370
G1 X121.410 Y99.806 E0.01370
G1 X121.191 Y99.428 E0.01370
G1 X121.056 Y99.012 E0.01370
G1 X121.011 Y98.578 E0.01370
G1 X121.056 Y98.143 E0.01370
G1 X121.191 Y97.727 E0.01370
G1 X121.410 Y97.349 E0.01370
G1 X121.702 Y97.024 E0.01370
G1 X122.056 Y96.767 E0.01370
G1 X122.455 Y96.590 E0.01370
G1 X122.882 Y96.499 E0.01370
G1 X123.319 Y96.499 E0.01370
G1 X123.747 Y96.590 E0.01370
G1 X124.146 Y96.767 E0.01370
G1 X124.500 Y97.024 E0.01370
G1 X124.792 Y97.349 E0.01370
G1 X125.010 Y97.727 E0.01370
G1 X125.121 Y98.066 E0.01118
G1 X124.775 Y98.222 F7200.000
G1 F1800
G1 X124.812 Y98.578 E0.01123
G1 X124.773 Y98.939 E0.01139
G1 X124.664 Y99.274 E0.01103
G1 X124.485 Y99.583 E0.01122
G1 X124.246 Y99.849 E0.01122
G1 X123.956 Y100.059 E0.01122
G1 X123.630 Y100.205 E0.01122
G1 X123.280 Y100.279 E0.01122
G1 X122.922 Y100.279 E0.01122
G1 X122.572 Y100.205 E0.01122
G1 X122.245 Y100.059 E0.01122
G1 X121.956 Y99.849 E0.01122
G1 X121.717 Y99.583 E0.01122
G1 X121.538 Y99.274 E0.01122
G1 X121.427 Y98.933 E0.01121
G1 X121.390 Y98.578 E0.01122
G1 X121.427 Y98.222 E0.01122
G1 X121.538 Y97.882 E0.01121
G1 X121.717 Y97.572 E0.01122
G1 X121.956 Y97.306 E0.01122
G1 X122.245 Y97.096 E0.01122
G1 X122.572 Y96.950 E0.01122
G1 X122.922 Y96.876 E0.01122
G1 X123.280 Y96.876 E0.01122
G1 X123.630 Y96.950 E0.01122
G1 X123.956 Y97.096 E0.01122
G1 X124.246 Y97.306 E0.01122
G1 X124.485 Y97.572 E0.01122
G1 X124.664 Y97.882 E0.01122
G1 X124.756 Y98.165 E0.00933
G1 X125.115 Y98.332 F7200.000
G1 F5760
G1 X124.812 Y98.578 E-0.14444
G1 X124.773 Y98.939 E-0.12581
G1 X124.664 Y99.274 E-0.12181
G1 X124.485 Y99.583 E-0.12391
G1 X124.246 Y99.849 E-0.12389
G1 X123.965 Y100.053 E-0.12014
G1 E-0.04000 F2100.00000
G1 Z0.800 F7200.000
G1 X134.532 Y87.821
G1 Z0.200
G1 E0.80000 F2100.00000
G1 F1800
G1 X132.363 Y91.578 E0.13602
G1 X134.532 Y95.335 E0.13602
G1 X138.870 Y95.335 E0.13602
G1 X140.637 Y92.275 E0.11079
G1 X140.637 Y120.821 E0.89505
G1 X139.333 Y118.562 E0.08178
G1 X134.869 Y118.562 E0.13994
G1 X132.638 Y122.428 E0.13994
G1 X134.869 Y126.293 E0.13994
G1 X139.333 Y126.293 E0.13994
G1 X140.637 Y124.034 E0.08178
G1 X140.637 Y126.463 E0.07617
G1 X120.565 Y126.463 E0.62933
G1 X120.565 Y124.034 E0.07617
G1 X121.869 Y126.293 E0.08178
G1 X126.333 Y126.293 E0.13994
G1 X128.564 Y122.428 E0.13994
G1 X126.333 Y118.562 E0.13994
G1 X121.869 Y118.562 E0.13994
G1 X120.565 Y120.821 E0.08178
G1 X120.565 Y91.928 E0.90592
G1 X122.532 Y95.335 E0.12333
G1 X126.870 Y95.335 E0.13602
G1 X129.039 Y91.578 E0.13602
G1 X126.870 Y87.821 E0.13602
G1 X124.101 Y87.821 E0.08681
G1 X124.336 Y87.716 E0.00804
G1 X124.753 Y87.413 E0.01618
G1 X125.094 Y87.035 E0.01596
G1 X125.356 Y86.584 E0.01636
G1 X125.516 Y86.091 E0.01624
G1 X125.570 Y85.578 E0.01619
G1 X125.516 Y85.064 E0.01619
G1 X125.357 Y84.573 E0.01618
G1 X125.099 Y84.126 E0.01619
G1 X124.753 Y83.742 E0.01619
G1 X124.336 Y83.439 E0.01618
G1 X123.864 Y83.229 E0.01619
G1 X123.359 Y83.122 E0.01619
G1 X122.843 Y83.122 E0.01619
G1 X122.338 Y83.229 E0.01619
G1 X121.866 Y83.439 E0.01619
G1 X121.448 Y83.742 E0.01618
G1 X121.108 Y84.121 E0.01596
G1 X120.845 Y84.571 E0.01636
G1 X120.685 Y85.064 E0.01624
G1 X120.631 Y85.578 E0.01619
G1 X120.685 Y86.091 E0.01619
G1 X120.845 Y86.582 E0.01618
G1 X121.103 Y87.029 E0.01619
G1 X121.448 Y87.413 E0.01619
G1 X121.866 Y87.716 E0.01618
G1 X122.338 Y87.926 E0.01619
G1 X122.456 Y87.951 E0.00380
G1 X120.565 Y91.227 E0.11859
G1 X120.565 Y78.392 E0.40244
G1 X140.637 Y78.392 E0.62933
G1 X140.637 Y90.880 E0.39158
G1 X138.917 Y87.902 E0.10782
G1 X139.336 Y87.716 E0.01436
G1 X139.753 Y87.413 E0.01618
G1 X140.094 Y87.035 E0.01596
G1 X140.356 Y86.584 E0.01636
G1 X140.516 Y86.091 E0.01624
G1 X140.570 Y85.578 E0.01619
G1 X140.516 Y85.064 E0.01619
G1 X140.357 Y84.573 E0.01618
G1 X140.099 Y84.126 E0.01619
G1 X139.753 Y83.742 E0.01619
G1 X139.336 Y83.439 E0.01618
G1 X138.864 Y83.229 E0.01619
G1 X138.359 Y83.122 E0.01619
G1 X137.843 Y83.122 E0.01619
G1 X137.338 Y83.229 E0.01619
G1 X136.866 Y83.439 E0.01619
G1 X136.448 Y83.742 E0.01618
G1 X136.108 Y84.121 E0.01596
G1 X135.845 Y84.571 E0.01636
G1 X135.685 Y85.064 E0.01624
G1 X135.631 Y85.578 E0.01619
G1 X135.685 Y86.091 E0.01619
G1 X135.845 Y86.582 E0.01618
G1 X136.103 Y87.029 E0.01619
G1 X136.448 Y87.413 E0.01619
G1 X136.866 Y87.716 E0.01618
G1 X137.100 Y87.821 E0.00804
G1 X134.592 Y87.821 E0.07866
G1 F5760
G1 X133.472 Y89.708 E-0.76000
G1 E-0.04000 F2100.00000
G1 Z0.800 F7200.000
G1 X122.749 Y88.198
G1 Z0.200
G1 E0.80000 F2100.00000
G1 F1800
G1 X126.652 Y88.198 E0.12237
G1 X128.604 Y91.578 E0.12237
G1 X126.652 Y94.958 E0.12237
G1 X122.749 Y94.958 E0.12237
G1 X120.798 Y91.578 E0.12237
G1 X122.719 Y88.250 E0.12049
G1 X122.967 Y88.575 F7200.000
G1 F1800
G1 X126.435 Y88.575 E0.10872
G1 X128.168 Y91.578 E0.10872
G1 X126.435 Y94.580 E0.10872
G1 X122.967 Y94.580 E0.10872
G1 X121.233 Y91.578 E0.10872
G1 X122.937 Y88.627 E0.10684
G1 X122.967 Y88.175 F7200.000
G1 X122.882 Y87.656
G1 F1800
G1 X122.455 Y87.566 E0.01370
G1 X122.056 Y87.388 E0.01370
G1 X121.702 Y87.131 E0.01370
G1 X121.410 Y86.806 E0.01370
G1 X121.191 Y86.428 E0.01370
G1 X121.056 Y86.012 E0.01370
G1 X121.011 Y85.578 E0.01370
G1 X121.056 Y85.143 E0.01370
G1 X121.192 Y84.726 E0.01373
G1 X121.414 Y84.344 E0.01387
G1 X121.702 Y84.024 E0.01349
G1 X122.056 Y83.767 E0.01370
G1 X122.455 Y83.590 E0.01370
G1 X122.882 Y83.499 E0.01370
G1 X123.319 Y83.499 E0.01370
G1 X123.747 Y83.590 E0.01370
G1 X124.146 Y83.767 E0.01370
G1 X124.500 Y84.024 E0.01370
G1 X124.792 Y84.349 E0.01370
G1 X125.010 Y84.727 E0.01370
G1 X125.145 Y85.143 E0.01370
G1 X125.191 Y85.578 E0.01370
G1 X125.145 Y86.012 E0.01370
G1 X125.010 Y86.429 E0.01373
G1 X124.787 Y86.811 E0.01387
G1 X124.500 Y87.131 E0.01349
G1 X124.146 Y87.388 E0.01370
G1 X123.747 Y87.566 E0.01370
G1 X123.319 Y87.656 E0.01370
G1 X122.942 Y87.656 E0.01182
G1 X122.942 Y87.279 F7200.000
G1 F1800
G1 X122.572 Y87.205 E0.01184
G1 X122.245 Y87.059 E0.01122
G1 X121.956 Y86.849 E0.01122
G1 X121.717 Y86.583 E0.01122
G1 X121.538 Y86.274 E0.01122
G1 X121.427 Y85.933 E0.01121
G1 X121.390 Y85.578 E0.01122
G1 X121.427 Y85.222 E0.01122
G1 X121.538 Y84.881 E0.01123
G1 X121.721 Y84.567 E0.01139
G1 X121.956 Y84.306 E0.01103
G1 X122.245 Y84.096 E0.01122
G1 X122.572 Y83.950 E0.01122
G1 X122.922 Y83.876 E0.01122
G1 X123.280 Y83.876 E0.01122
G1 X123.630 Y83.950 E0.01122
G1 X123.956 Y84.096 E0.01122
G1 X124.246 Y84.306 E0.01122
G1 X124.485 Y84.572 E0.01122
G1 X124.664 Y84.882 E0.01122
G1 X124.775 Y85.222 E0.01121
