; generated by Slic3r Prusa Edition 1.39.2+win64 on 2018-05-24 at 14:56:33

; 

; external perimeters extrusion width = 0.45mm
; perimeters extrusion width = 0.45mm
; infill extrusion width = 0.45mm
; solid infill extrusion width = 0.45mm
; top infill extrusion width = 0.45mm
; first layer extrusion width = 0.42mm

M107
M115 U3.1.0 ; tell printer latest fw version
M83  ; extruder relative mode
M104 S205 ; set extruder temp
M140 S55 ; set bed temp
M190 S55 ; wait for bed temp
M109 S205 ; wait for extruder temp
G28 W ; home all without mesh bed level
G80 ; mesh bed leveling
G1 Y-3.0 F1000.0 ; go outside print area
G92 E0.0
G1 X60.0 E9.0  F1000.0 ; intro line
G1 X100.0 E12.5  F1000.0 ; intro line
G92 E0.0
M900 K30; Filament gcode
G21 ; set units to millimeters
G90 ; use absolute coordinates
M83 ; use relative distances for extrusion
;BEFORE_LAYER_CHANGE
;0.2


G1 E-0.80000 F2100.00000
G1 Z0.600 F7200.000
;AFTER_LAYER_CHANGE
;0.2
G1 X89.308 Y76.580
G1 Z0.200
G1 E0.80000 F2100.00000
M204 S1000
G1 F1800
G1 X89.644 Y76.015 E0.02060
G1 X90.124 Y75.562 E0.02071
G1 X90.711 Y75.258 E0.02071
G1 X91.358 Y75.127 E0.02071
G1 X113.504 Y75.123 E0.69436
G1 X114.392 Y75.297 E0.02837
G1 X115.148 Y75.787 E0.02825
G1 X115.667 Y76.523 E0.02825
G1 X115.875 Y77.404 E0.02837
G1 X115.877 Y127.508 E1.57097
G1 X115.692 Y128.420 E0.02919
G1 X115.352 Y128.991 E0.02083
G1 X114.867 Y129.445 E0.02083
G1 X114.275 Y129.747 E0.02083
G1 X113.619 Y129.874 E0.02095
G1 X91.481 Y129.877 E0.69413
G1 X90.580 Y129.692 E0.02884
G1 X89.998 Y129.342 E0.02130
G1 X89.538 Y128.842 E0.02130
G1 X89.238 Y128.232 E0.02130
G1 X89.124 Y127.558 E0.02142
G1 X89.123 Y77.492 E1.56978
G1 X89.296 Y76.639 E0.02731
G1 F5760
G1 X89.644 Y76.015 E-0.24722
G1 X90.124 Y75.562 E-0.22881
G1 X90.711 Y75.258 E-0.22881
G1 X90.867 Y75.226 E-0.05516
G1 E-0.04000 F2100.00000
G1 Z0.800 F7200.000
G1 X94.204 Y119.389
G1 Z0.200
G1 E0.80000 F2100.00000
G1 F1800
G1 X97.796 Y119.389 E0.11264
G1 X99.592 Y122.500 E0.11264
G1 X97.796 Y125.611 E0.11264
G1 X94.204 Y125.611 E0.11264
G1 X92.408 Y122.500 E0.11264
G1 X94.174 Y119.441 E0.11076
G1 X94.204 Y118.989 F7200.000
G1 F5760
G1 X96.368 Y119.409 E-0.76000
G1 E-0.04000 F2100.00000
G1 Z0.800 F7200.000
G1 X105.408 Y122.500
G1 Z0.200
G1 E0.80000 F2100.00000
G1 F1800
G1 X107.204 Y119.389 E0.11264
G1 X110.796 Y119.389 E0.11264
G1 X112.592 Y122.500 E0.11264
G1 X110.796 Y125.611 E0.11264
G1 X107.204 Y125.611 E0.11264
G1 X105.438 Y122.552 E0.11076
G1 X105.061 Y122.300 F7200.000
G1 F5760
G1 X106.507 Y120.636 E-0.76000
G1 E-0.04000 F2100.00000
G1 Z0.800 F7200.000
G1 X106.649 Y95.030
G1 Z0.200
G1 E0.80000 F2100.00000
G1 F1800
G1 X104.697 Y91.650 E0.12237
G1 X106.649 Y88.270 E0.12237
G1 X110.551 Y88.270 E0.12237
G1 X112.503 Y91.650 E0.12237
G1 X110.551 Y95.030 E0.12237
G1 X106.709 Y95.030 E0.12049
G1 X106.866 Y94.653 F7200.000
G1 F1800
G1 X105.133 Y91.650 E0.10872
G1 X106.866 Y88.647 E0.10872
G1 X110.334 Y88.647 E0.10872
G1 X112.067 Y91.650 E0.10872
G1 X110.334 Y94.653 E0.10872
G1 X106.926 Y94.653 E0.10684
G1 X106.520 Y94.853 F7200.000
G1 F5760
G1 X105.801 Y92.769 E-0.76000
G1 E-0.04000 F2100.00000
G1 Z0.800 F7200.000
G1 X109.354 Y87.638
G1 Z0.200
G1 E0.80000 F2100.00000
G1 F1800
G1 X108.955 Y87.460 E0.01370
G1 X108.601 Y87.203 E0.01370
G1 X108.309 Y86.879 E0.01370
G1 X108.090 Y86.500 E0.01370
G1 X107.955 Y86.085 E0.01370
G1 X107.910 Y85.650 E0.01370
G1 X107.955 Y85.215 E0.01370
G1 X108.090 Y84.800 E0.01370
G1 X108.309 Y84.421 E0.01370
G1 X108.601 Y84.097 E0.01370
G1 X108.955 Y83.840 E0.01370
G1 X109.354 Y83.662 E0.01370
G1 X109.781 Y83.571 E0.01370
G1 X110.219 Y83.571 E0.01370
G1 X110.646 Y83.662 E0.01370
G1 X111.045 Y83.840 E0.01370
G1 X111.399 Y84.097 E0.01370
G1 X111.691 Y84.421 E0.01370
G1 X111.910 Y84.800 E0.01370
G1 X112.045 Y85.215 E0.01370
G1 X112.090 Y85.650 E0.01370
G1 X112.045 Y86.085 E0.01370
G1 X111.910 Y86.500 E0.01370
G1 X111.691 Y86.879 E0.01370
G1 X111.399 Y87.203 E0.01370
G1 X111.045 Y87.460 E0.01370
G1 X110.646 Y87.638 E0.01370
G1 X110.219 Y87.729 E0.01370
G1 X109.781 Y87.729 E0.01370
G1 X109.413 Y87.650 E0.01182
G1 X109.491 Y87.282 F7200.000
G1 F1800
G1 X109.144 Y87.132 E0.01184
G1 X108.855 Y86.922 E0.01122
G1 X108.616 Y86.656 E0.01122
G1 X108.437 Y86.346 E0.01122
G1 X108.326 Y86.006 E0.01122
G1 X108.289 Y85.650 E0.01122
G1 X108.326 Y85.294 E0.01122
G1 X108.437 Y84.954 E0.01122
G1 X108.616 Y84.644 E0.01122
G1 X108.855 Y84.378 E0.01122
G1 X109.144 Y84.168 E0.01122
G1 X109.471 Y84.023 E0.01122
G1 X109.821 Y83.948 E0.01122
G1 X110.179 Y83.948 E0.01122
G1 X110.529 Y84.023 E0.01122
G1 X110.856 Y84.168 E0.01122
G1 X111.145 Y84.378 E0.01122
G1 X111.384 Y84.644 E0.01122
G1 X111.563 Y84.954 E0.01122
G1 X111.674 Y85.294 E0.01122
G1 X111.711 Y85.650 E0.01122
G1 X111.674 Y86.006 E0.01122
G1 X111.563 Y86.346 E0.01122
G1 X111.384 Y86.656 E0.01122
G1 X111.145 Y86.922 E0.01122
G1 X110.856 Y87.132 E0.01122
G1 X110.529 Y87.277 E0.01122
G1 X110.179 Y87.352 E0.01122
G1 X109.821 Y87.352 E0.01122
G1 X109.550 Y87.294 E0.00869
G1 X109.213 Y87.537 F7200.000
G1 F5760
G1 X109.144 Y87.132 E-0.15125
G1 X108.855 Y86.922 E-0.12391
G1 X108.616 Y86.656 E-0.12389
G1 X108.437 Y86.346 E-0.12390
G1 X108.326 Y86.006 E-0.12390
G1 X108.292 Y85.681 E-0.11315
G1 E-0.04000 F2100.00000
G1 Z0.800 F7200.000
G1 X109.742 Y96.194
G1 Z0.200
G1 E0.80000 F2100.00000
G1 F1800
G1 X110.258 Y96.194 E0.01619
G1 X110.763 Y96.301 E0.01619
G1 X111.235 Y96.511 E0.01619
G1 X111.652 Y96.815 E0.01618
G1 X111.998 Y97.198 E0.01619
G1 X112.256 Y97.646 E0.01619
G1 X112.415 Y98.136 E0.01618
G1 X112.469 Y98.650 E0.01619
G1 X112.415 Y99.163 E0.01619
G1 X112.255 Y99.656 E0.01624
G1 X111.993 Y100.107 E0.01636
G1 X111.652 Y100.485 E0.01595
G1 X111.235 Y100.789 E0.01618
G1 X110.763 Y100.999 E0.01619
G1 X110.258 Y101.106 E0.01619
G1 X109.742 Y101.106 E0.01619
G1 X109.237 Y100.999 E0.01619
G1 X108.765 Y100.789 E0.01619
G1 X108.348 Y100.485 E0.01618
G1 X108.002 Y100.102 E0.01619
G1 X107.744 Y99.654 E0.01619
G1 X107.585 Y99.163 E0.01618
G1 X107.531 Y98.650 E0.01619
G1 X107.585 Y98.136 E0.01619
G1 X107.745 Y97.644 E0.01624
G1 X108.007 Y97.193 E0.01636
G1 X108.348 Y96.815 E0.01596
G1 X108.765 Y96.511 E0.01618
G1 X109.237 Y96.301 E0.01619
G1 X109.683 Y96.207 E0.01431
G1 X109.762 Y96.575 F7200.000
G1 F1800
G1 X110.219 Y96.571 E0.01433
G1 X110.646 Y96.662 E0.01370
G1 X111.045 Y96.840 E0.01370
G1 X111.399 Y97.097 E0.01370
G1 X111.691 Y97.421 E0.01370
G1 X111.910 Y97.800 E0.01370
G1 X112.045 Y98.215 E0.01370
G1 X112.090 Y98.650 E0.01370
G1 X112.045 Y99.085 E0.01370
G1 X111.909 Y99.501 E0.01373
G1 X111.687 Y99.884 E0.01387
G1 X111.399 Y100.203 E0.01349
G1 X111.045 Y100.460 E0.01370
G1 X110.646 Y100.638 E0.01370
G1 X110.219 Y100.729 E0.01370
G1 X109.781 Y100.729 E0.01370
G1 X109.354 Y100.638 E0.01370
G1 X108.955 Y100.460 E0.01370
G1 X108.601 Y100.203 E0.01370
G1 X108.309 Y99.879 E0.01370
G1 X108.090 Y99.500 E0.01370
G1 X107.955 Y99.085 E0.01370
G1 X107.910 Y98.650 E0.01370
G1 X107.955 Y98.215 E0.01370
G1 X108.091 Y97.799 E0.01373
G1 X108.313 Y97.416 E0.01387
G1 X108.601 Y97.097 E0.01349
G1 X108.955 Y96.840 E0.01370
G1 X109.354 Y96.662 E0.01370
G1 X109.703 Y96.588 E0.01118
G1 X109.821 Y96.948 F7200.000
G1 F1800
G1 X110.179 Y96.948 E0.01122
G1 X110.529 Y97.023 E0.01122
G1 X110.856 Y97.168 E0.01122
G1 X111.145 Y97.378 E0.01122
G1 X111.384 Y97.644 E0.01122
G1 X111.563 Y97.954 E0.01122
G1 X111.674 Y98.294 E0.01121
G1 X111.711 Y98.650 E0.01122
G1 X111.674 Y99.006 E0.01122
G1 X111.563 Y99.346 E0.01123
G1 X111.380 Y99.660 E0.01139
G1 X111.145 Y99.922 E0.01103
G1 X110.856 Y100.132 E0.01122
G1 X110.529 Y100.277 E0.01122
G1 X110.179 Y100.352 E0.01122
G1 X109.821 Y100.352 E0.01122
G1 X109.471 Y100.277 E0.01122
G1 X109.144 Y100.132 E0.01122
G1 X108.855 Y99.922 E0.01122
G1 X108.616 Y99.656 E0.01121
G1 X108.437 Y99.346 E0.01122
G1 X108.326 Y99.006 E0.01122
G1 X108.289 Y98.650 E0.01122
G1 X108.326 Y98.294 E0.01122
G1 X108.437 Y97.954 E0.01123
G1 X108.620 Y97.640 E0.01139
G1 X108.855 Y97.378 E0.01103
G1 X109.144 Y97.168 E0.01122
G1 X109.471 Y97.023 E0.01122
G1 X109.762 Y96.961 E0.00933
G1 X109.967 Y96.621 F7200.000
G1 F5760
G1 X110.179 Y96.948 E-0.14430
G1 X110.529 Y97.023 E-0.12389
G1 X110.856 Y97.168 E-0.12391
G1 X111.145 Y97.378 E-0.12389
G1 X111.384 Y97.644 E-0.12389
G1 X111.558 Y97.945 E-0.12011
G1 E-0.04000 F2100.00000
G1 Z0.800 F7200.000
G1 X97.415 Y98.137
G1 Z0.200
G1 E0.80000 F2100.00000
G1 F1800
G1 X97.470 Y98.652 E0.01624
G1 X97.413 Y99.171 E0.01636
G1 X97.256 Y99.654 E0.01595
G1 X96.998 Y100.102 E0.01619
G1 X96.652 Y100.485 E0.01619
G1 X96.235 Y100.789 E0.01618
G1 X95.763 Y100.999 E0.01619
G1 X95.258 Y101.106 E0.01619
G1 X94.742 Y101.106 E0.01619
G1 X94.237 Y100.999 E0.01619
G1 X93.765 Y100.789 E0.01619
G1 X93.348 Y100.485 E0.01618
G1 X93.002 Y100.102 E0.01619
G1 X92.744 Y99.654 E0.01619
G1 X92.585 Y99.163 E0.01618
G1 X92.530 Y98.648 E0.01625
G1 X92.587 Y98.129 E0.01636
G1 X92.744 Y97.646 E0.01595
G1 X93.002 Y97.198 E0.01619
G1 X93.348 Y96.815 E0.01619
G1 X93.765 Y96.511 E0.01618
G1 X94.237 Y96.301 E0.01619
G1 X94.742 Y96.194 E0.01619
G1 X95.258 Y96.194 E0.01619
G1 X95.763 Y96.301 E0.01619
G1 X96.235 Y96.511 E0.01619
G1 X96.652 Y96.815 E0.01618
G1 X96.998 Y97.198 E0.01619
G1 X97.256 Y97.646 E0.01619
G1 X97.397 Y98.079 E0.01430
G1 X97.038 Y98.196 F7200.000
G1 F1800
G1 X97.090 Y98.651 E0.01436
G1 X97.043 Y99.091 E0.01388
G1 X96.910 Y99.500 E0.01349
G1 X96.691 Y99.879 E0.01370
G1 X96.399 Y100.203 E0.01370
G1 X96.045 Y100.460 E0.01370
G1 X95.646 Y100.638 E0.01370
G1 X95.219 Y100.729 E0.01370
G1 X94.781 Y100.729 E0.01370
G1 X94.354 Y100.638 E0.01370
G1 X93.955 Y100.460 E0.01370
G1 X93.601 Y100.203 E0.01370
G1 X93.309 Y99.879 E0.01370
G1 X93.090 Y99.500 E0.01370
G1 X92.955 Y99.085 E0.01370
G1 X92.910 Y98.649 E0.01374
G1 X92.957 Y98.209 E0.01387
G1 X93.090 Y97.800 E0.01349
G1 X93.309 Y97.421 E0.01370
G1 X93.601 Y97.097 E0.01370
G1 X93.955 Y96.840 E0.01370
G1 X94.354 Y96.662 E0.01370
G1 X94.781 Y96.571 E0.01370
G1 X95.219 Y96.571 E0.01370
G1 X95.646 Y96.662 E0.01370
G1 X96.045 Y96.840 E0.01370
G1 X96.399 Y97.097 E0.01370
G1 X96.691 Y97.421 E0.01370
G1 X96.910 Y97.800 E0.01370
G1 X97.020 Y98.139 E0.01118
G1 X96.674 Y98.294 F7200.000
G1 F1800
G1 X96.711 Y98.650 E0.01123
G1 X96.672 Y99.012 E0.01139
G1 X96.563 Y99.346 E0.01103
G1 X96.384 Y99.656 E0.01122
G1 X96.145 Y99.922 E0.01121
G1 X95.856 Y100.132 E0.01122
G1 X95.529 Y100.277 E0.01122
G1 X95.179 Y100.352 E0.01122
G1 X94.821 Y100.352 E0.01122
G1 X94.471 Y100.277 E0.01122
G1 X94.144 Y100.132 E0.01122
G1 X93.855 Y99.922 E0.01122
G1 X93.616 Y99.656 E0.01121
G1 X93.437 Y99.346 E0.01122
G1 X93.326 Y99.006 E0.01122
G1 X93.289 Y98.650 E0.01123
G1 X93.328 Y98.288 E0.01139
G1 X93.437 Y97.954 E0.01103
G1 X93.616 Y97.644 E0.01122
G1 X93.855 Y97.378 E0.01122
G1 X94.144 Y97.168 E0.01122
G1 X94.471 Y97.023 E0.01122
G1 X94.821 Y96.948 E0.01122
G1 X95.179 Y96.948 E0.01122
G1 X95.529 Y97.023 E0.01122
G1 X95.856 Y97.168 E0.01122
G1 X96.145 Y97.378 E0.01122
G1 X96.384 Y97.644 E0.01122
G1 X96.563 Y97.954 E0.01122
G1 X96.655 Y98.237 E0.00933
G1 X97.014 Y98.405 F7200.000
G1 F5760
G1 X96.711 Y98.650 E-0.14444
G1 X96.672 Y99.012 E-0.12582
G1 X96.563 Y99.346 E-0.12181
G1 X96.384 Y99.656 E-0.12391
G1 X96.145 Y99.922 E-0.12388
G1 X95.864 Y100.125 E-0.12014
G1 E-0.04000 F2100.00000
G1 Z0.800 F7200.000
G1 X106.431 Y87.893
G1 Z0.200
G1 E0.80000 F2100.00000
G1 F1800
G1 X104.262 Y91.650 E0.13602
G1 X106.431 Y95.407 E0.13602
G1 X110.769 Y95.407 E0.13602
G1 X112.536 Y92.347 E0.11079
G1 X112.536 Y120.894 E0.89505
G1 X111.232 Y118.635 E0.08178
G1 X106.768 Y118.635 E0.13994
G1 X104.537 Y122.500 E0.13994
G1 X106.768 Y126.365 E0.13994
G1 X111.232 Y126.365 E0.13994
G1 X112.536 Y124.106 E0.08178
G1 X112.536 Y126.536 E0.07617
G1 X92.464 Y126.536 E0.62933
G1 X92.464 Y124.106 E0.07617
G1 X93.768 Y126.365 E0.08178
G1 X98.232 Y126.365 E0.13994
G1 X100.463 Y122.500 E0.13994
G1 X98.232 Y118.635 E0.13994
G1 X93.768 Y118.635 E0.13994
G1 X92.464 Y120.894 E0.08178
G1 X92.464 Y92.001 E0.90592
G1 X94.431 Y95.407 E0.12333
G1 X98.769 Y95.407 E0.13602
G1 X100.938 Y91.650 E0.13602
G1 X98.769 Y87.893 E0.13602
G1 X96.000 Y87.893 E0.08681
G1 X96.235 Y87.789 E0.00804
G1 X96.652 Y87.485 E0.01619
G1 X96.998 Y87.101 E0.01619
G1 X97.256 Y86.654 E0.01619
G1 X97.415 Y86.163 E0.01619
G1 X97.469 Y85.650 E0.01619
G1 X97.415 Y85.137 E0.01619
G1 X97.256 Y84.646 E0.01619
G1 X96.998 Y84.199 E0.01619
G1 X96.652 Y83.815 E0.01619
G1 X96.235 Y83.511 E0.01619
G1 X95.763 Y83.301 E0.01619
G1 X95.258 Y83.194 E0.01619
G1 X94.742 Y83.194 E0.01619
G1 X94.237 Y83.301 E0.01619
G1 X93.765 Y83.511 E0.01619
G1 X93.348 Y83.815 E0.01619
G1 X93.002 Y84.199 E0.01619
G1 X92.744 Y84.646 E0.01619
G1 X92.585 Y85.137 E0.01619
G1 X92.531 Y85.650 E0.01619
G1 X92.585 Y86.163 E0.01619
G1 X92.744 Y86.654 E0.01619
G1 X93.002 Y87.101 E0.01619
G1 X93.348 Y87.485 E0.01619
G1 X93.765 Y87.789 E0.01619
G1 X94.237 Y87.999 E0.01619
G1 X94.355 Y88.024 E0.00379
G1 X92.464 Y91.299 E0.11859
G1 X92.464 Y78.464 E0.40244
G1 X112.536 Y78.464 E0.62933
G1 X112.536 Y90.953 E0.39158
G1 X110.816 Y87.975 E0.10782
G1 X111.235 Y87.789 E0.01436
G1 X111.652 Y87.485 E0.01619
G1 X111.998 Y87.101 E0.01619
G1 X112.256 Y86.654 E0.01619
G1 X112.415 Y86.163 E0.01619
G1 X112.469 Y85.650 E0.01619
G1 X112.415 Y85.137 E0.01619
G1 X112.256 Y84.646 E0.01619
G1 X111.998 Y84.199 E0.01619
G1 X111.652 Y83.815 E0.01619
G1 X111.235 Y83.511 E0.01619
G1 X110.763 Y83.301 E0.01619
G1 X110.258 Y83.194 E0.01619
G1 X109.742 Y83.194 E0.01619
G1 X109.237 Y83.301 E0.01619
G1 X108.765 Y83.511 E0.01619
G1 X108.348 Y83.815 E0.01619
G1 X108.002 Y84.199 E0.01619
G1 X107.744 Y84.646 E0.01619
G1 X107.585 Y85.137 E0.01619
G1 X107.531 Y85.650 E0.01619
G1 X107.585 Y86.163 E0.01619
G1 X107.744 Y86.654 E0.01619
G1 X108.002 Y87.101 E0.01619
G1 X108.348 Y87.485 E0.01619
G1 X108.765 Y87.789 E0.01619
G1 X109.000 Y87.893 E0.00804
G1 X106.491 Y87.893 E0.07866
G1 F5760
G1 X105.371 Y89.780 E-0.76000
G1 E-0.04000 F2100.00000
G1 Z0.800 F7200.000
G1 X94.649 Y88.270
G1 Z0.200
G1 E0.80000 F2100.00000
G1 F1800
G1 X98.551 Y88.270 E0.12237
G1 X100.503 Y91.650 E0.12237
G1 X98.551 Y95.030 E0.12237
G1 X94.649 Y95.030 E0.12237
G1 X92.697 Y91.650 E0.12237
G1 X94.619 Y88.322 E0.12049
G1 X94.866 Y88.647 F7200.000
G1 F1800
G1 X98.334 Y88.647 E0.10872
G1 X100.067 Y91.650 E0.10872
G1 X98.334 Y94.653 E0.10872
G1 X94.866 Y94.653 E0.10872
G1 X93.133 Y91.650 E0.10872
G1 X94.836 Y88.699 E0.10684
G1 X94.866 Y88.247 F7200.000
G1 X94.781 Y87.729
G1 F1800
G1 X94.354 Y87.638 E0.01370
G1 X93.955 Y87.460 E0.01370
G1 X93.601 Y87.203 E0.01370
G1 X93.309 Y86.879 E0.01370
G1 X93.090 Y86.500 E0.01370
G1 X92.955 Y86.085 E0.01370
G1 X92.910 Y85.650 E0.01370
G1 X92.955 Y85.215 E0.01370
G1 X93.090 Y84.800 E0.01370
G1 X93.309 Y84.421 E0.01370
G1 X93.601 Y84.097 E0.01370
G1 X93.955 Y83.840 E0.01370
G1 X94.354 Y83.662 E0.01370
G1 X94.781 Y83.571 E0.01370
G1 X95.219 Y83.571 E0.01370
G1 X95.646 Y83.662 E0.01370
G1 X96.045 Y83.840 E0.01370
G1 X96.399 Y84.097 E0.01370
G1 X96.691 Y84.421 E0.01370
G1 X96.910 Y84.800 E0.01370
G1 X97.045 Y85.215 E0.01370
G1 X97.090 Y85.650 E0.01370
G1 X97.045 Y86.085 E0.01370
G1 X96.910 Y86.500 E0.01370
G1 X96.691 Y86.879 E0.01370
G1 X96.399 Y87.203 E0.01370
G1 X96.045 Y87.460 E0.01370
G1 X95.646 Y87.638 E0.01370
G1 X95.219 Y87.729 E0.01370
G1 X94.841 Y87.729 E0.01182
G1 X94.841 Y87.352 F7200.000
G1 F1800
G1 X94.471 Y87.277 E0.01184
G1 X94.144 Y87.132 E0.01122
G1 X93.855 Y86.922 E0.01122
G1 X93.616 Y86.656 E0.01122
G1 X93.437 Y86.346 E0.01122
G1 X93.326 Y86.006 E0.01122
G1 X93.289 Y85.650 E0.01122
G1 X93.326 Y85.294 E0.01122
G1 X93.437 Y84.954 E0.01122
G1 X93.616 Y84.644 E0.01122
G1 X93.855 Y84.378 E0.01122
G1 X94.144 Y84.168 E0.01122
G1 X94.471 Y84.023 E0.01122
G1 X94.821 Y83.948 E0.01122
G1 X95.179 Y83.948 E0.01122
G1 X95.529 Y84.023 E0.01122
G1 X95.856 Y84.168 E0.01122
G1 X96.145 Y84.378 E0.01122
G1 X96.384 Y84.644 E0.01122
G1 X96.563 Y84.954 E0.01122
G1 X96.674 Y85.294 E0.01122
G1 X96.711 Y85.650 E0.01122
G1 X96.674 Y86.006 E0.01122
G1 X96.563 Y86.346 E0.01122
G1 X96.384 Y86.656 E0.01122
G1 X96.145 Y86.922 E0.01122
G1 X95.856 Y87.132 E0.01122
