; generated by Slic3r Prusa Edition 1.39.2+win64 on 2018-05-29 at 11:14:07

; 

; external perimeters extrusion width = 0.45mm
; perimeters extrusion width = 0.45mm
; infill extrusion width = 0.45mm
; solid infill extrusion width = 0.45mm
; top infill extrusion width = 0.45mm
; first layer extrusion width = 0.42mm

M107
M115 U3.1.0 ; tell printer latest fw version
M83  ; extruder relative mode
M104 S205 ; set extruder temp
M140 S55 ; set bed temp
M190 S55 ; wait for bed temp
M109 S205 ; wait for extruder temp
G28 W ; home all without mesh bed level
G80 ; mesh bed leveling
G1 Y-3.0 F1000.0 ; go outside print area
G92 E0.0
G1 X60.0 E9.0  F1000.0 ; intro line
G1 X100.0 E12.5  F1000.0 ; intro line
G92 E0.0
M900 K30; Filament gcode
G21 ; set units to millimeters
G90 ; use absolute coordinates
M83 ; use relative distances for extrusion
;BEFORE_LAYER_CHANGE
;0.2


G1 E-0.80000 F2100.00000
G1 Z0.600 F7200.000
;AFTER_LAYER_CHANGE
;0.2
G1 X93.962 Y93.025
G1 Z0.200
G1 E0.80000 F2100.00000
M204 S1000
G1 F1800
G1 X96.118 Y91.457 E0.08360
G1 X98.530 Y90.379 E0.08284
G1 X101.141 Y89.819 E0.08373
G1 X103.549 Y89.801 E0.07552
G1 X106.381 Y90.351 E0.09045
G1 X108.620 Y91.324 E0.07654
G1 X109.117 Y91.610 E0.01796
G1 X111.236 Y93.224 E0.08353
G1 X112.837 Y95.029 E0.07564
G1 X114.174 Y97.364 E0.08437
G1 X114.983 Y99.887 E0.08309
G1 X115.243 Y102.753 E0.09021
G1 X114.971 Y105.174 E0.07642
G1 X114.140 Y107.712 E0.08372
G1 X112.814 Y110.002 E0.08296
G1 X111.017 Y111.994 E0.08411
G1 X108.875 Y113.547 E0.08296
G1 X106.443 Y114.630 E0.08348
G1 X103.839 Y115.184 E0.08347
G1 X101.201 Y115.188 E0.08270
G1 X98.564 Y114.632 E0.08449
G1 X96.149 Y113.560 E0.08283
G1 X93.985 Y111.995 E0.08373
G1 X92.347 Y110.203 E0.07615
G1 X90.977 Y107.941 E0.08290
G1 X90.746 Y107.421 E0.01784
G1 X90.013 Y105.097 E0.07641
G1 X89.757 Y102.248 E0.08970
G1 X90.029 Y99.826 E0.07641
G1 X90.858 Y97.291 E0.08360
G1 X92.183 Y95.001 E0.08296
G1 X93.922 Y93.070 E0.08147
G1 X94.201 Y93.321 F7200.000
G1 F1800
G1 X96.310 Y91.782 E0.08188
G1 X98.656 Y90.735 E0.08054
G1 X101.186 Y90.193 E0.08113
G1 X103.549 Y90.178 E0.07409
G1 X106.280 Y90.715 E0.08726
G1 X108.467 Y91.668 E0.07481
G1 X108.897 Y91.917 E0.01558
G1 X110.956 Y93.476 E0.08098
G1 X112.526 Y95.242 E0.07409
G1 X113.825 Y97.506 E0.08184
G1 X114.613 Y99.955 E0.08066
G1 X114.867 Y102.723 E0.08715
G1 X114.603 Y105.091 E0.07469
G1 X113.798 Y107.554 E0.08124
G1 X112.512 Y109.777 E0.08054
G1 X110.769 Y111.710 E0.08161
G1 X108.686 Y113.220 E0.08065
G1 X106.326 Y114.271 E0.08101
G1 X103.795 Y114.809 E0.08113
G1 X101.230 Y114.812 E0.08042
G1 X98.680 Y114.273 E0.08172
G1 X96.332 Y113.231 E0.08054
G1 X94.233 Y111.711 E0.08125
G1 X92.631 Y109.954 E0.07457
G1 X91.304 Y107.753 E0.08060
G1 X91.105 Y107.305 E0.01538
G1 X90.385 Y105.030 E0.07481
G1 X90.133 Y102.277 E0.08667
G1 X90.397 Y99.909 E0.07469
G1 X91.200 Y97.450 E0.08113
G1 X92.488 Y95.223 E0.08066
G1 X94.160 Y93.366 E0.07835
G1 F5760
G1 X95.927 Y92.064 E-0.76000
G1 E-0.04000 F2100.00000
G1 Z0.800 F7200.000
G1 X96.833 Y96.206
G1 Z0.200
G1 E0.80000 F2100.00000
G1 F1800
G1 X98.265 Y95.165 E0.05552
G1 X99.883 Y94.445 E0.05552
G1 X101.615 Y94.077 E0.05551
G1 X103.385 Y94.077 E0.05552
G1 X105.117 Y94.445 E0.05551
G1 X106.735 Y95.165 E0.05552
G1 X108.167 Y96.206 E0.05552
G1 X109.352 Y97.522 E0.05552
G1 X110.237 Y99.055 E0.05552
G1 X110.784 Y100.739 E0.05551
G1 X110.969 Y102.500 E0.05552
G1 X110.784 Y104.261 E0.05552
G1 X110.237 Y105.945 E0.05552
G1 X109.352 Y107.478 E0.05552
G1 X108.167 Y108.794 E0.05552
G1 X106.735 Y109.835 E0.05552
G1 X105.117 Y110.555 E0.05552
G1 X103.385 Y110.923 E0.05551
G1 X101.615 Y110.923 E0.05552
G1 X99.883 Y110.555 E0.05551
G1 X98.265 Y109.835 E0.05552
G1 X96.833 Y108.794 E0.05552
G1 X95.648 Y107.478 E0.05552
G1 X94.762 Y105.944 E0.05555
G1 X94.214 Y104.241 E0.05608
G1 X94.031 Y102.500 E0.05490
G1 X94.216 Y100.739 E0.05551
G1 X94.763 Y99.055 E0.05552
G1 X95.648 Y97.522 E0.05552
G1 X96.793 Y96.251 E0.05363
G1 X97.073 Y96.503 F7200.000
G1 F1800
G1 X98.455 Y95.494 E0.05366
G1 X100.000 Y94.806 E0.05303
G1 X101.654 Y94.454 E0.05303
G1 X103.346 Y94.454 E0.05303
G1 X105.000 Y94.806 E0.05303
G1 X106.545 Y95.494 E0.05303
G1 X107.913 Y96.488 E0.05303
G1 X109.045 Y97.745 E0.05303
G1 X109.891 Y99.209 E0.05303
G1 X110.414 Y100.818 E0.05303
G1 X110.590 Y102.500 E0.05303
G1 X110.414 Y104.182 E0.05303
G1 X109.891 Y105.791 E0.05303
G1 X109.045 Y107.255 E0.05303
G1 X107.913 Y108.512 E0.05303
G1 X106.545 Y109.506 E0.05303
G1 X105.000 Y110.194 E0.05303
G1 X103.346 Y110.546 E0.05303
G1 X101.654 Y110.546 E0.05303
G1 X100.000 Y110.194 E0.05303
G1 X98.455 Y109.506 E0.05303
G1 X97.087 Y108.512 E0.05303
G1 X95.955 Y107.255 E0.05303
G1 X95.109 Y105.790 E0.05305
G1 X94.584 Y104.163 E0.05360
G1 X94.410 Y102.500 E0.05243
G1 X94.586 Y100.818 E0.05303
G1 X95.109 Y99.209 E0.05303
G1 X95.955 Y97.745 E0.05303
G1 X97.033 Y96.547 E0.05051
G1 X97.313 Y96.800 F7200.000
G1 F1800
G1 X98.644 Y95.822 E0.05180
G1 X100.117 Y95.166 E0.05055
G1 X101.694 Y94.831 E0.05054
G1 X103.306 Y94.831 E0.05055
G1 X104.883 Y95.166 E0.05054
G1 X106.356 Y95.822 E0.05055
G1 X107.660 Y96.769 E0.05055
G1 X108.738 Y97.967 E0.05054
G1 X109.544 Y99.364 E0.05055
G1 X110.043 Y100.897 E0.05054
G1 X110.211 Y102.500 E0.05054
G1 X110.043 Y104.103 E0.05054
G1 X109.544 Y105.636 E0.05055
G1 X108.738 Y107.033 E0.05055
G1 X107.660 Y108.231 E0.05054
G1 X106.356 Y109.178 E0.05055
G1 X104.883 Y109.834 E0.05055
G1 X103.306 Y110.169 E0.05054
G1 X101.694 Y110.169 E0.05055
G1 X100.117 Y109.834 E0.05054
G1 X98.644 Y109.178 E0.05055
G1 X97.340 Y108.231 E0.05055
G1 X96.262 Y107.033 E0.05054
G1 X95.455 Y105.636 E0.05055
G1 X94.955 Y104.085 E0.05111
G1 X94.789 Y102.500 E0.04996
G1 X94.957 Y100.897 E0.05054
G1 X95.456 Y99.364 E0.05055
G1 X96.262 Y97.967 E0.05055
G1 X97.273 Y96.844 E0.04739
G1 X97.228 Y96.409 F7200.000
G1 F5760
G1 X98.644 Y95.822 E-0.59252
G1 X99.086 Y95.625 E-0.16748
G1 E-0.04000 F2100.00000
G1 Z0.800 F7200.000
G1 X96.457 Y95.789
G1 Z0.200
G1 E0.80000 F2100.00000
G1 F1800
G1 X97.985 Y94.679 E0.05920
G1 X99.709 Y93.911 E0.05919
G1 X101.554 Y93.519 E0.05913
G1 X103.483 Y93.527 E0.06048
G1 X105.291 Y93.911 E0.05794
G1 X107.015 Y94.679 E0.05919
G1 X108.543 Y95.789 E0.05920
G1 X109.806 Y97.192 E0.05919
G1 X110.750 Y98.827 E0.05919
G1 X111.333 Y100.622 E0.05919
G1 X111.531 Y102.500 E0.05919
G1 X111.333 Y104.378 E0.05919
G1 X110.750 Y106.173 E0.05919
G1 X109.806 Y107.808 E0.05919
G1 X108.543 Y109.211 E0.05919
G1 X107.015 Y110.321 E0.05920
G1 X105.291 Y111.089 E0.05919
G1 X103.444 Y111.481 E0.05919
G1 X101.556 Y111.481 E0.05920
G1 X99.709 Y111.089 E0.05919
G1 X97.985 Y110.321 E0.05919
G1 X96.457 Y109.211 E0.05920
G1 X95.194 Y107.808 E0.05919
G1 X94.250 Y106.173 E0.05919
G1 X93.667 Y104.378 E0.05919
G1 X93.469 Y102.500 E0.05919
G1 X93.667 Y100.622 E0.05919
G1 X94.250 Y98.827 E0.05919
G1 X95.194 Y97.192 E0.05919
G1 X96.417 Y95.834 E0.05731
G1 X96.137 Y95.581 F7200.000
G1 F1800
G1 X96.204 Y95.507 E0.00312
G1 X97.795 Y94.351 E0.06168
G1 X99.592 Y93.551 E0.06168
G1 X101.515 Y93.142 E0.06164
G1 X103.523 Y93.150 E0.06296
G1 X105.408 Y93.551 E0.06041
G1 X107.205 Y94.351 E0.06168
G1 X108.796 Y95.507 E0.06168
G1 X110.113 Y96.969 E0.06168
G1 X111.096 Y98.673 E0.06168
G1 X111.704 Y100.544 E0.06168
G1 X111.910 Y102.500 E0.06168
G1 X111.704 Y104.456 E0.06168
G1 X111.096 Y106.327 E0.06168
G1 X110.113 Y108.031 E0.06168
G1 X108.796 Y109.493 E0.06168
G1 X107.205 Y110.649 E0.06168
G1 X105.408 Y111.449 E0.06168
G1 X103.484 Y111.858 E0.06168
G1 X101.516 Y111.858 E0.06168
G1 X99.592 Y111.449 E0.06168
G1 X97.795 Y110.649 E0.06168
G1 X96.204 Y109.493 E0.06168
G1 X94.887 Y108.031 E0.06168
G1 X93.904 Y106.327 E0.06168
G1 X93.296 Y104.456 E0.06168
G1 X93.090 Y102.500 E0.06168
G1 X93.296 Y100.544 E0.06168
G1 X93.904 Y98.673 E0.06168
G1 X94.887 Y96.969 E0.06168
G1 X96.097 Y95.626 E0.05667
G1 X95.817 Y95.374 F7200.000
G1 F1800
G1 X95.950 Y95.226 E0.00625
G1 X97.606 Y94.023 E0.06417
G1 X99.475 Y93.190 E0.06416
G1 X101.476 Y92.765 E0.06415
G1 X103.564 Y92.773 E0.06545
G1 X105.525 Y93.190 E0.06287
G1 X107.394 Y94.023 E0.06416
G1 X109.050 Y95.226 E0.06417
G1 X110.419 Y96.746 E0.06416
G1 X111.443 Y98.518 E0.06416
G1 X112.075 Y100.465 E0.06417
G1 X112.289 Y102.500 E0.06416
G1 X112.075 Y104.535 E0.06416
G1 X111.443 Y106.482 E0.06417
G1 X110.419 Y108.254 E0.06416
G1 X109.050 Y109.774 E0.06416
G1 X107.394 Y110.977 E0.06417
G1 X105.525 Y111.810 E0.06416
G1 X103.523 Y112.235 E0.06416
G1 X101.477 Y112.235 E0.06417
G1 X99.475 Y111.810 E0.06416
G1 X97.606 Y110.977 E0.06416
G1 X95.950 Y109.774 E0.06417
G1 X94.581 Y108.254 E0.06416
G1 X93.557 Y106.482 E0.06416
G1 X92.925 Y104.535 E0.06417
G1 X92.711 Y102.500 E0.06416
G1 X92.925 Y100.465 E0.06416
G1 X93.557 Y98.518 E0.06417
G1 X94.581 Y96.746 E0.06416
G1 X95.777 Y95.418 E0.05603
G1 X96.013 Y95.408 F7200.000
G1 F5760
G1 X95.950 Y95.226 E-0.08979
G1 X97.515 Y94.088 E-0.67021
G1 E-0.04000 F2100.00000
G1 Z0.800 F7200.000
G1 X96.544 Y96.109
G1 Z0.200
G1 E0.80000 F2100.00000
G1 F1800
G1 X96.653 Y95.992 E0.00241
G1 X98.134 Y94.918 E0.02759
G1 X99.796 Y94.178 E0.02745
G1 X101.595 Y93.798 E0.02773
G1 X103.423 Y93.803 E0.02758
G1 X105.204 Y94.178 E0.02745
G1 X106.875 Y94.922 E0.02759
G1 X108.361 Y96.005 E0.02773
G1 X109.579 Y97.357 E0.02745
G1 X110.493 Y98.941 E0.02759
G1 X111.059 Y100.681 E0.02759
G1 X111.250 Y102.500 E0.02759
G1 X111.059 Y104.319 E0.02759
G1 X110.493 Y106.059 E0.02759
G1 X109.579 Y107.643 E0.02759
G1 X108.355 Y109.002 E0.02759
G1 X106.875 Y110.078 E0.02759
G1 X105.204 Y110.821 E0.02759
G1 X103.415 Y111.202 E0.02759
G1 X101.595 Y111.202 E0.02745
G1 X99.796 Y110.821 E0.02773
G1 X98.134 Y110.082 E0.02745
G1 X96.639 Y108.995 E0.02787
G1 X95.421 Y107.643 E0.02745
G1 X94.507 Y106.059 E0.02759
G1 X93.943 Y104.319 E0.02759
G1 X93.750 Y102.500 E0.02759
G1 X93.941 Y100.681 E0.02759
G1 X94.507 Y98.941 E0.02759
G1 X95.421 Y97.357 E0.02759
G1 X96.504 Y96.154 E0.02441
M106 S255
;BEFORE_LAYER_CHANGE
;0.35


G1 F5760
G1 X96.653 Y95.992 E-0.07619
G1 X98.134 Y94.918 E-0.63351
G1 X98.266 Y94.859 E-0.05030
G1 E-0.04000 F2100.00000
G1 Z0.800 F7200.000
;AFTER_LAYER_CHANGE
;0.35
G1 X93.962 Y93.025
G1 Z0.350
G1 E0.80000 F2100.00000
G1 F2629
G1 X96.118 Y91.457 E0.06448
G1 X98.530 Y90.379 E0.06390
G1 X101.141 Y89.819 E0.06458
G1 X103.549 Y89.801 E0.05825
G1 X106.381 Y90.351 E0.06977
G1 X108.620 Y91.324 E0.05904
G1 X109.117 Y91.610 E0.01386
G1 X111.236 Y93.224 E0.06443
G1 X112.837 Y95.029 E0.05834
G1 X114.174 Y97.364 E0.06508
G1 X114.983 Y99.887 E0.06409
G1 X115.243 Y102.753 E0.06958
G1 X114.971 Y105.174 E0.05894
G1 X114.140 Y107.712 E0.06458
G1 X112.814 Y110.002 E0.06399
G1 X111.017 Y111.994 E0.06488
G1 X108.875 Y113.547 E0.06399
G1 X106.443 Y114.630 E0.06439
G1 X103.839 Y115.184 E0.06439
G1 X101.201 Y115.188 E0.06379
G1 X98.564 Y114.632 E0.06517
G1 X96.149 Y113.560 E0.06389
G1 X93.985 Y111.995 E0.06459
G1 X92.347 Y110.203 E0.05874
G1 X90.977 Y107.941 E0.06394
G1 X90.746 Y107.421 E0.01376
G1 X90.013 Y105.097 E0.05894
G1 X89.757 Y102.248 E0.06919
G1 X90.029 Y99.826 E0.05894
G1 X90.858 Y97.291 E0.06449
G1 X92.183 Y95.001 E0.06399
G1 X93.922 Y93.070 E0.06284
G1 F5760
G1 X95.690 Y91.771 E-0.76000
G1 E-0.04000 F2100.00000
G1 Z0.950 F7200.000
G1 X96.768 Y96.134
G1 Z0.350
G1 E0.80000 F2100.00000
M204 S800
G1 F2629
G1 X98.217 Y95.081 E0.04666
G1 X99.853 Y94.353 E0.04666
G1 X101.605 Y93.980 E0.04666
G1 X103.395 Y93.980 E0.04666
G1 X105.147 Y94.353 E0.04666
G1 X106.783 Y95.081 E0.04666
G1 X108.232 Y96.134 E0.04666
G1 X109.430 Y97.465 E0.04666
G1 X110.326 Y99.017 E0.04670
G1 X110.881 Y100.738 E0.04712
G1 X111.066 Y102.500 E0.04616
G1 X110.879 Y104.281 E0.04666
G1 X110.326 Y105.984 E0.04666
G1 X109.430 Y107.535 E0.04666
G1 X108.232 Y108.866 E0.04666
G1 X106.783 Y109.919 E0.04666
G1 X105.147 Y110.647 E0.04666
G1 X103.395 Y111.020 E0.04666
G1 X101.605 Y111.020 E0.04666
G1 X99.853 Y110.647 E0.04666
G1 X98.217 Y109.919 E0.04666
G1 X96.768 Y108.866 E0.04666
G1 X95.570 Y107.535 E0.04666
G1 X94.674 Y105.984 E0.04666
G1 X94.121 Y104.281 E0.04666
G1 X93.934 Y102.500 E0.04666
G1 X94.121 Y100.719 E0.04666
G1 X94.674 Y99.016 E0.04666
G1 X95.570 Y97.465 E0.04666
G1 X96.728 Y96.178 E0.04510
M204 S1000
G1 X97.038 Y96.458 F7200.000
M204 S800
G1 F2629
G1 X98.427 Y95.445 E0.04478
G1 X99.983 Y94.752 E0.04437
G1 X101.648 Y94.398 E0.04437
G1 X103.352 Y94.398 E0.04438
G1 X105.017 Y94.752 E0.04437
G1 X106.573 Y95.445 E0.04437
G1 X107.951 Y96.446 E0.04437
G1 X109.091 Y97.712 E0.04437
G1 X109.942 Y99.187 E0.04440
G1 X110.470 Y100.825 E0.04483
G1 X110.646 Y102.500 E0.04388
G1 X110.468 Y104.194 E0.04437
G1 X109.942 Y105.813 E0.04437
G1 X109.091 Y107.288 E0.04438
G1 X107.951 Y108.554 E0.04437
G1 X106.573 Y109.555 E0.04438
G1 X105.017 Y110.248 E0.04437
G1 X103.352 Y110.602 E0.04437
G1 X101.648 Y110.602 E0.04438
G1 X99.983 Y110.248 E0.04437
G1 X98.427 Y109.555 E0.04437
G1 X97.049 Y108.554 E0.04438
G1 X95.909 Y107.288 E0.04437
G1 X95.058 Y105.813 E0.04438
G1 X94.532 Y104.194 E0.04437
G1 X94.354 Y102.500 E0.04437
G1 X94.532 Y100.806 E0.04437
G1 X95.058 Y99.187 E0.04437
G1 X95.909 Y97.712 E0.04438
G1 X96.998 Y96.503 E0.04239
M204 S1000
G1 X97.309 Y96.782 F7200.000
M204 S800
G1 F2400
G1 X98.637 Y95.809 E0.04291
G1 X100.112 Y95.152 E0.04209
G1 X101.692 Y94.816 E0.04208
G1 X103.308 Y94.816 E0.04209
G1 X104.888 Y95.152 E0.04208
G1 X106.363 Y95.809 E0.04209
G1 X107.670 Y96.758 E0.04209
G1 X108.751 Y97.959 E0.04209
G1 X109.558 Y99.358 E0.04209
G1 X110.059 Y100.912 E0.04255
G1 X110.226 Y102.500 E0.04161
G1 X110.057 Y104.106 E0.04208
G1 X109.558 Y105.643 E0.04209
G1 X108.751 Y107.041 E0.04209
G1 X107.670 Y108.242 E0.04209
G1 X106.363 Y109.191 E0.04209
G1 X104.888 Y109.848 E0.04209
G1 X103.308 Y110.184 E0.04208
G1 X101.692 Y110.184 E0.04209
G1 X100.112 Y109.848 E0.04208
G1 X98.637 Y109.191 E0.04209
G1 X97.330 Y108.242 E0.04209
G1 X96.249 Y107.041 E0.04209
G1 X95.442 Y105.643 E0.04209
G1 X94.943 Y104.106 E0.04209
G1 X94.774 Y102.500 E0.04208
G1 X94.943 Y100.894 E0.04208
G1 X95.442 Y99.357 E0.04209
G1 X96.249 Y97.959 E0.04209
G1 X97.268 Y96.827 E0.03968
M204 S1000
G1 X97.224 Y96.391 F7200.000
G1 F5760
G1 X98.637 Y95.809 E-0.59070
G1 X99.083 Y95.610 E-0.16930
G1 E-0.04000 F2100.00000
G1 Z0.950 F7200.000
G1 X96.522 Y95.861
G1 Z0.350
G1 E0.80000 F2100.00000
M204 S800
G1 F2629
G1 X98.033 Y94.763 E0.04866
G1 X99.739 Y94.004 E0.04866
G1 X101.566 Y93.615 E0.04866
G1 X103.434 Y93.615 E0.04866
G1 X105.261 Y94.004 E0.04866
G1 X106.967 Y94.763 E0.04866
G1 X108.478 Y95.861 E0.04866
G1 X109.727 Y97.249 E0.04866
G1 X110.661 Y98.866 E0.04866
G1 X111.238 Y100.643 E0.04866
G1 X111.434 Y102.500 E0.04866
G1 X111.238 Y104.357 E0.04866
G1 X110.661 Y106.134 E0.04866
G1 X109.727 Y107.751 E0.04866
G1 X108.478 Y109.139 E0.04866
G1 X106.967 Y110.237 E0.04866
G1 X105.261 Y110.996 E0.04866
G1 X103.434 Y111.385 E0.04866
G1 X101.566 Y111.385 E0.04866
G1 X99.739 Y110.996 E0.04866
G1 X98.033 Y110.237 E0.04866
G1 X96.522 Y109.139 E0.04866
G1 X95.273 Y107.751 E0.04866
G1 X94.339 Y106.134 E0.04866
G1 X93.762 Y104.357 E0.04866
G1 X93.566 Y102.500 E0.04866
G1 X93.762 Y100.643 E0.04866
G1 X94.339 Y98.866 E0.04866
G1 X95.273 Y97.249 E0.04866
G1 X96.482 Y95.906 E0.04710
M204 S1000
G1 X96.172 Y95.626 F7200.000
M204 S800
G1 F2629
G1 X96.241 Y95.549 E0.00271
G1 X97.823 Y94.399 E0.05095
G1 X99.610 Y93.604 E0.05095
G1 X101.522 Y93.198 E0.05095
G1 X103.478 Y93.198 E0.05095
G1 X105.390 Y93.604 E0.05095
G1 X107.177 Y94.399 E0.05095
G1 X108.759 Y95.549 E0.05095
G1 X110.067 Y97.002 E0.05095
G1 X111.045 Y98.695 E0.05095
G1 X111.649 Y100.555 E0.05095
G1 X111.854 Y102.500 E0.05095
G1 X111.649 Y104.445 E0.05095
G1 X111.045 Y106.305 E0.05095
G1 X110.067 Y107.998 E0.05095
G1 X108.759 Y109.451 E0.05095
G1 X107.177 Y110.601 E0.05095
G1 X105.390 Y111.396 E0.05095
G1 X103.478 Y111.802 E0.05095
G1 X101.522 Y111.802 E0.05095
G1 X99.610 Y111.396 E0.05095
G1 X97.823 Y110.601 E0.05095
G1 X96.241 Y109.451 E0.05095
G1 X94.933 Y107.998 E0.05095
G1 X93.955 Y106.305 E0.05095
G1 X93.351 Y104.445 E0.05095
G1 X93.146 Y102.500 E0.05095
G1 X93.351 Y100.555 E0.05095
G1 X93.955 Y98.695 E0.05095
G1 X94.933 Y97.002 E0.05095
G1 X96.132 Y95.671 E0.04668
M204 S1000
