; generated by Slic3r Prusa Edition 1.39.2+win64 on 2018-05-24 at 08:02:58

; 

; external perimeters extrusion width = 0.45mm
; perimeters extrusion width = 0.45mm
; infill extrusion width = 0.45mm
; solid infill extrusion width = 0.45mm
; top infill extrusion width = 0.45mm
; first layer extrusion width = 0.42mm

M107
M115 U3.1.0 ; tell printer latest fw version
M83  ; extruder relative mode
M104 S205 ; set extruder temp
M140 S55 ; set bed temp
M190 S55 ; wait for bed temp
M109 S205 ; wait for extruder temp
G28 W ; home all without mesh bed level
G80 ; mesh bed leveling
G1 Y-3.0 F1000.0 ; go outside print area
G92 E0.0
G1 X60.0 E9.0  F1000.0 ; intro line
G1 X100.0 E12.5  F1000.0 ; intro line
G92 E0.0
M900 K30; Filament gcode
G21 ; set units to millimeters
G90 ; use absolute coordinates
M83 ; use relative distances for extrusion
;BEFORE_LAYER_CHANGE
;0.2


G1 E-0.80000 F2100.00000
G1 Z0.600 F7200.000
;AFTER_LAYER_CHANGE
;0.2
G1 X91.361 Y90.836
G1 Z0.200
G1 E0.80000 F2100.00000
M204 S1000
G1 F1800
G1 X92.120 Y90.306 E0.02901
G1 X93.032 Y89.912 E0.03115
G1 X94.021 Y89.715 E0.03161
G1 X110.554 Y89.696 E0.51840
G1 X111.379 Y89.769 E0.02596
G1 X112.182 Y89.985 E0.02608
G1 X112.933 Y90.336 E0.02598
G1 X113.617 Y90.818 E0.02625
G1 X114.194 Y91.397 E0.02562
G1 X114.672 Y92.082 E0.02619
G1 X115.021 Y92.835 E0.02604
G1 X115.239 Y93.668 E0.02698
G1 X115.304 Y94.436 E0.02418
G1 X115.299 Y110.760 E0.51181
G1 X115.205 Y111.515 E0.02386
G1 X115.017 Y112.178 E0.02162
G1 X114.696 Y112.876 E0.02408
G1 X114.319 Y113.447 E0.02147
G1 X113.604 Y114.193 E0.03239
G1 X112.741 Y114.769 E0.03254
G1 X111.775 Y115.144 E0.03248
G1 X110.744 Y115.300 E0.03272
G1 X94.229 Y115.299 E0.51781
G1 X93.494 Y115.207 E0.02322
G1 X92.848 Y115.026 E0.02104
G1 X92.166 Y114.719 E0.02346
G1 X91.579 Y114.339 E0.02190
G1 X90.787 Y113.580 E0.03441
G1 X90.223 Y112.726 E0.03209
G1 X89.852 Y111.758 E0.03252
G1 X89.700 Y110.750 E0.03194
G1 X89.701 Y94.222 E0.51824
G1 X89.798 Y93.473 E0.02367
G1 X89.985 Y92.817 E0.02139
G1 X90.302 Y92.127 E0.02381
G1 X90.680 Y91.554 E0.02151
G1 X91.320 Y90.880 E0.02917
G1 X91.593 Y91.142 F7200.000
G1 F1800
G1 X92.389 Y90.589 E0.03041
G1 X93.170 Y90.264 E0.02651
G1 X94.070 Y90.090 E0.02874
G1 X110.554 Y90.073 E0.51684
G1 X111.313 Y90.140 E0.02391
G1 X112.056 Y90.340 E0.02412
G1 X112.750 Y90.666 E0.02404
G1 X113.394 Y91.123 E0.02476
G1 X113.986 Y91.739 E0.02679
G1 X114.407 Y92.380 E0.02404
G1 X114.714 Y93.102 E0.02461
G1 X114.883 Y93.832 E0.02349
G1 X114.923 Y110.743 E0.53023
G1 X114.834 Y111.445 E0.02219
G1 X114.661 Y112.052 E0.01979
G1 X114.362 Y112.701 E0.02241
G1 X114.006 Y113.236 E0.02014
G1 X113.356 Y113.909 E0.02934
G1 X112.560 Y114.438 E0.02996
G1 X111.674 Y114.780 E0.02978
G1 X110.717 Y114.924 E0.03036
G1 X94.246 Y114.922 E0.51642
G1 X93.559 Y114.835 E0.02172
G1 X92.946 Y114.660 E0.01998
G1 X92.310 Y114.368 E0.02194
G1 X91.723 Y113.973 E0.02220
G1 X91.051 Y113.308 E0.02964
G1 X90.543 Y112.523 E0.02932
G1 X90.214 Y111.651 E0.02924
G1 X90.076 Y110.720 E0.02951
G1 X90.077 Y94.251 E0.51636
G1 X90.167 Y93.551 E0.02214
G1 X90.339 Y92.946 E0.01970
G1 X90.637 Y92.302 E0.02226
G1 X90.995 Y91.763 E0.02029
G1 X91.551 Y91.185 E0.02514
G1 F5760
G1 X92.389 Y90.589 E-0.35632
G1 X93.170 Y90.264 E-0.29285
G1 X93.484 Y90.203 E-0.11083
G1 E-0.04000 F2100.00000
G1 Z0.800 F7200.000
G1 X97.151 Y97.151
G1 Z0.200
G1 E0.80000 F2100.00000
G1 F1800
G1 X97.637 Y96.705 E0.02069
G1 X98.161 Y96.303 E0.02069
G1 X98.717 Y95.949 E0.02069
G1 X99.293 Y95.649 E0.02036
G1 X99.615 Y95.507 E0.01101
G1 X100.225 Y95.285 E0.02036
G1 X100.863 Y95.114 E0.02069
G1 X101.523 Y94.998 E0.02101
G1 X102.474 Y94.935 E0.02989
G1 X103.159 Y94.964 E0.02148
G1 X103.814 Y95.050 E0.02072
G1 X104.448 Y95.190 E0.02036
G1 X104.785 Y95.289 E0.01101
G1 X105.395 Y95.511 E0.02036
G1 X105.984 Y95.785 E0.02037
G1 X106.291 Y95.954 E0.01100
G1 X106.839 Y96.303 E0.02036
G1 X107.363 Y96.705 E0.02069
G1 X107.849 Y97.151 E0.02069
G1 X108.295 Y97.637 E0.02069
G1 X108.697 Y98.161 E0.02069
G1 X109.052 Y98.717 E0.02069
G1 X109.352 Y99.294 E0.02037
G1 X109.493 Y99.615 E0.01100
G1 X109.715 Y100.225 E0.02036
G1 X109.883 Y100.852 E0.02036
G1 X109.952 Y101.197 E0.01101
G1 X110.036 Y101.841 E0.02036
G1 X110.065 Y102.500 E0.02069
G1 X110.036 Y103.159 E0.02069
G1 X109.952 Y103.803 E0.02036
G1 X109.883 Y104.148 E0.01101
G1 X109.715 Y104.775 E0.02036
G1 X109.489 Y105.395 E0.02070
G1 X109.210 Y105.993 E0.02069
G1 X108.880 Y106.565 E0.02069
G1 X108.502 Y107.105 E0.02069
G1 X108.084 Y107.603 E0.02036
G1 X107.849 Y107.849 E0.01068
G1 X107.603 Y108.084 E0.01068
G1 X107.105 Y108.502 E0.02036
G1 X106.565 Y108.880 E0.02069
G1 X105.993 Y109.210 E0.02069
G1 X105.395 Y109.489 E0.02069
G1 X104.785 Y109.711 E0.02036
G1 X104.448 Y109.810 E0.01101
G1 X103.814 Y109.950 E0.02036
G1 X103.159 Y110.036 E0.02069
G1 X102.500 Y110.065 E0.02069
G1 X101.841 Y110.036 E0.02069
G1 X101.186 Y109.950 E0.02069
G1 X100.542 Y109.807 E0.02070
G1 X99.923 Y109.612 E0.02036
G1 X99.595 Y109.485 E0.01101
G1 X99.007 Y109.210 E0.02036
G1 X98.435 Y108.880 E0.02070
G1 X97.895 Y108.502 E0.02069
G1 X97.397 Y108.084 E0.02036
G1 X97.144 Y107.842 E0.01101
G1 X96.712 Y107.370 E0.02003
G1 X96.492 Y107.097 E0.01100
G1 X96.120 Y106.565 E0.02037
G1 X95.790 Y105.993 E0.02069
G1 X95.511 Y105.395 E0.02069
G1 X95.289 Y104.785 E0.02037
G1 X95.190 Y104.448 E0.01101
G1 X95.050 Y103.814 E0.02036
G1 X94.964 Y103.159 E0.02069
G1 X94.935 Y102.500 E0.02070
G1 X94.964 Y101.840 E0.02072
G1 X95.054 Y101.161 E0.02148
G1 X95.282 Y100.235 E0.02989
G1 X95.511 Y99.605 E0.02102
G1 X95.785 Y99.016 E0.02036
G1 X95.954 Y98.709 E0.01101
G1 X96.303 Y98.161 E0.02036
G1 X96.705 Y97.637 E0.02069
G1 X97.110 Y97.195 E0.01881
G1 X97.388 Y97.450 F7200.000
G1 F1800
G1 X97.880 Y96.994 E0.02102
G1 X98.377 Y96.612 E0.01966
G1 X98.906 Y96.275 E0.01966
G1 X99.457 Y95.989 E0.01946
G1 X99.755 Y95.857 E0.01024
G1 X100.339 Y95.645 E0.01946
G1 X100.944 Y95.483 E0.01966
G1 X101.568 Y95.373 E0.01986
G1 X102.479 Y95.312 E0.02861
G1 X103.126 Y95.340 E0.02032
G1 X103.748 Y95.422 E0.01967
G1 X104.354 Y95.556 E0.01946
G1 X104.667 Y95.647 E0.01024
G1 X105.251 Y95.859 E0.01946
G1 X105.813 Y96.122 E0.01946
G1 X106.099 Y96.279 E0.01023
G1 X106.623 Y96.612 E0.01946
G1 X107.120 Y96.994 E0.01966
G1 X107.582 Y97.418 E0.01966
G1 X108.006 Y97.880 E0.01966
G1 X108.388 Y98.377 E0.01966
G1 X108.725 Y98.906 E0.01966
G1 X109.011 Y99.457 E0.01946
G1 X109.143 Y99.755 E0.01023
G1 X109.355 Y100.339 E0.01946
G1 X109.516 Y100.938 E0.01946
G1 X109.579 Y101.258 E0.01024
G1 X109.660 Y101.874 E0.01946
G1 X109.688 Y102.500 E0.01966
G1 X109.660 Y103.126 E0.01966
G1 X109.579 Y103.742 E0.01946
G1 X109.516 Y104.062 E0.01023
G1 X109.355 Y104.661 E0.01946
G1 X109.140 Y105.251 E0.01966
G1 X108.876 Y105.819 E0.01966
G1 X108.562 Y106.362 E0.01966
G1 X108.202 Y106.876 E0.01966
G1 X107.803 Y107.351 E0.01946
G1 X107.582 Y107.582 E0.01004
G1 X107.351 Y107.803 E0.01003
G1 X106.876 Y108.202 E0.01946
G1 X106.362 Y108.562 E0.01966
G1 X105.819 Y108.876 E0.01966
G1 X105.251 Y109.140 E0.01966
G1 X104.667 Y109.353 E0.01946
G1 X104.354 Y109.444 E0.01024
G1 X103.748 Y109.579 E0.01946
G1 X103.126 Y109.660 E0.01966
G1 X102.500 Y109.688 E0.01966
G1 X101.874 Y109.660 E0.01966
G1 X101.252 Y109.579 E0.01966
G1 X100.640 Y109.443 E0.01966
G1 X100.048 Y109.256 E0.01946
G1 X99.744 Y109.138 E0.01023
G1 X99.181 Y108.876 E0.01946
G1 X98.638 Y108.562 E0.01966
G1 X98.124 Y108.202 E0.01966
G1 X97.649 Y107.803 E0.01946
G1 X97.413 Y107.578 E0.01023
G1 X96.998 Y107.125 E0.01926
G1 X96.794 Y106.870 E0.01023
G1 X96.438 Y106.362 E0.01946
G1 X96.125 Y105.819 E0.01966
G1 X95.859 Y105.251 E0.01966
G1 X95.647 Y104.667 E0.01946
G1 X95.556 Y104.354 E0.01023
G1 X95.422 Y103.748 E0.01946
G1 X95.340 Y103.127 E0.01966
G1 X95.312 Y102.500 E0.01966
G1 X95.340 Y101.873 E0.01967
G1 X95.425 Y101.231 E0.02032
G1 X95.643 Y100.345 E0.02861
G1 X95.859 Y99.749 E0.01986
G1 X96.122 Y99.187 E0.01946
G1 X96.279 Y98.901 E0.01023
G1 X96.612 Y98.377 E0.01946
G1 X96.994 Y97.880 E0.01966
G1 X97.348 Y97.494 E0.01641
G1 X97.626 Y97.749 F7200.000
G1 F1800
G1 X98.122 Y97.283 E0.02135
G1 X98.594 Y96.921 E0.01863
G1 X99.095 Y96.602 E0.01863
G1 X99.620 Y96.329 E0.01856
G1 X99.896 Y96.207 E0.00946
G1 X100.452 Y96.005 E0.01856
G1 X101.026 Y95.851 E0.01863
G1 X101.613 Y95.748 E0.01870
G1 X102.483 Y95.690 E0.02733
G1 X103.093 Y95.716 E0.01915
G1 X103.683 Y95.793 E0.01863
G1 X104.260 Y95.921 E0.01856
G1 X104.550 Y96.006 E0.00946
G1 X105.106 Y96.208 E0.01855
G1 X105.643 Y96.458 E0.01856
G1 X105.907 Y96.603 E0.00946
G1 X106.406 Y96.921 E0.01855
G1 X106.878 Y97.283 E0.01863
G1 X107.316 Y97.684 E0.01863
G1 X107.717 Y98.122 E0.01863
G1 X108.079 Y98.594 E0.01863
G1 X108.398 Y99.095 E0.01863
G1 X108.671 Y99.620 E0.01856
G1 X108.793 Y99.896 E0.00946
G1 X108.995 Y100.452 E0.01856
G1 X109.148 Y101.024 E0.01855
G1 X109.207 Y101.320 E0.00946
G1 X109.284 Y101.906 E0.01855
G1 X109.310 Y102.500 E0.01863
G1 X109.284 Y103.094 E0.01863
G1 X109.207 Y103.680 E0.01855
G1 X109.148 Y103.976 E0.00946
G1 X108.995 Y104.548 E0.01856
G1 X108.792 Y105.106 E0.01863
G1 X108.541 Y105.645 E0.01863
G1 X108.244 Y106.159 E0.01863
G1 X107.903 Y106.646 E0.01863
G1 X107.523 Y107.099 E0.01855
G1 X107.315 Y107.316 E0.00939
G1 X107.099 Y107.523 E0.00939
G1 X106.646 Y107.903 E0.01856
G1 X106.159 Y108.244 E0.01863
G1 X105.645 Y108.541 E0.01863
G1 X105.106 Y108.792 E0.01863
G1 X104.550 Y108.994 E0.01855
G1 X104.260 Y109.079 E0.00946
G1 X103.683 Y109.207 E0.01856
G1 X103.094 Y109.284 E0.01863
G1 X102.500 Y109.310 E0.01863
G1 X101.906 Y109.284 E0.01863
G1 X101.317 Y109.207 E0.01863
G1 X100.737 Y109.078 E0.01863
G1 X100.173 Y108.900 E0.01856
G1 X99.892 Y108.791 E0.00946
G1 X99.355 Y108.541 E0.01855
G1 X98.841 Y108.244 E0.01863
G1 X98.354 Y107.903 E0.01863
G1 X97.901 Y107.523 E0.01856
G1 X97.683 Y107.314 E0.00946
G1 X97.285 Y106.879 E0.01849
G1 X97.096 Y106.644 E0.00946
G1 X96.756 Y106.159 E0.01856
G1 X96.459 Y105.645 E0.01863
G1 X96.208 Y105.106 E0.01863
G1 X96.006 Y104.550 E0.01856
G1 X95.921 Y104.260 E0.00946
G1 X95.793 Y103.683 E0.01855
G1 X95.716 Y103.094 E0.01863
G1 X95.690 Y102.500 E0.01863
G1 X95.716 Y101.906 E0.01863
G1 X95.796 Y101.301 E0.01915
G1 X96.004 Y100.454 E0.02733
G1 X96.208 Y99.894 E0.01870
G1 X96.458 Y99.358 E0.01856
G1 X96.603 Y99.093 E0.00946
G1 X96.921 Y98.594 E0.01855
G1 X97.283 Y98.122 E0.01863
G1 X97.585 Y97.793 E0.01402
G1 X97.519 Y97.363 F7200.000
G1 F5760
G1 X98.122 Y97.283 E-0.25656
G1 X98.594 Y96.921 E-0.20578
G1 X99.095 Y96.602 E-0.20576
G1 X99.330 Y96.480 E-0.09190
G1 E-0.04000 F2100.00000
G1 Z0.800 F7200.000
G1 X93.689 Y93.753
G1 Z0.200
G1 E0.80000 F2100.00000
G1 F1800
G1 X93.814 Y93.638 E0.00531
G1 X94.015 Y93.516 E0.00736
G1 X94.237 Y93.441 E0.00736
G1 X94.426 Y93.416 E0.00597
G1 X110.498 Y93.414 E0.50394
G1 X110.783 Y93.445 E0.00899
G1 X110.945 Y93.496 E0.00531
G1 X111.105 Y93.580 E0.00564
G1 X111.247 Y93.689 E0.00564
G1 X111.369 Y93.822 E0.00564
G1 X111.466 Y93.973 E0.00564
G1 X111.530 Y94.130 E0.00531
G1 X111.578 Y94.371 E0.00770
G1 X111.584 Y110.574 E0.50805
G1 X111.558 Y110.773 E0.00630
G1 X111.504 Y110.945 E0.00564
G1 X111.421 Y111.105 E0.00564
G1 X111.317 Y111.239 E0.00531
G1 X111.133 Y111.401 E0.00770
G1 X110.996 Y111.480 E0.00497
G1 X110.773 Y111.556 E0.00737
G1 X110.497 Y111.586 E0.00869
G1 X94.427 Y111.584 E0.50389
G1 X94.233 Y111.559 E0.00613
G1 X94.065 Y111.508 E0.00549
G1 X93.909 Y111.429 E0.00549
G1 X93.776 Y111.331 E0.00517
G1 X93.622 Y111.163 E0.00717
G1 X93.511 Y110.974 E0.00685
G1 X93.443 Y110.767 E0.00685
G1 X93.414 Y110.499 E0.00846
G1 X93.416 Y94.426 E0.50395
G1 X93.442 Y94.227 E0.00630
G1 X93.496 Y94.055 E0.00565
G1 X93.579 Y93.895 E0.00564
G1 X93.652 Y93.800 E0.00376
G1 X93.353 Y93.571 F7200.000
G1 F1800
G1 X93.587 Y93.335 E0.01039
G1 X93.854 Y93.173 E0.00982
G1 X94.151 Y93.072 E0.00982
G1 X94.401 Y93.039 E0.00791
G1 X110.519 Y93.037 E0.50536
G1 X110.861 Y93.075 E0.01080
G1 X111.090 Y93.147 E0.00751
G1 X111.308 Y93.260 E0.00771
G1 X111.503 Y93.410 E0.00771
G1 X111.669 Y93.591 E0.00771
G1 X111.801 Y93.799 E0.00771
G1 X111.893 Y94.020 E0.00751
G1 X111.955 Y94.334 E0.01003
G1 X111.961 Y110.599 E0.50999
G1 X111.927 Y110.855 E0.00811
G1 X111.853 Y111.090 E0.00771
G1 X111.740 Y111.308 E0.00771
G1 X111.594 Y111.498 E0.00751
G1 X111.354 Y111.709 E0.01003
G1 X111.152 Y111.825 E0.00730
G1 X110.855 Y111.926 E0.00983
G1 X110.518 Y111.963 E0.01063
G1 X94.403 Y111.961 E0.50529
G1 X94.153 Y111.929 E0.00789
G1 X93.924 Y111.859 E0.00750
G1 X93.710 Y111.751 E0.00750
G1 X93.523 Y111.613 E0.00730
G1 X93.317 Y111.388 E0.00956
G1 X93.166 Y111.131 E0.00936
G1 X93.072 Y110.847 E0.00937
G1 X93.037 Y110.519 E0.01035
G1 X93.039 Y94.401 E0.50535
G1 X93.073 Y94.145 E0.00811
G1 X93.147 Y93.910 E0.00771
G1 X93.317 Y93.618 E0.01059
G1 X93.018 Y93.389 F7200.000
G1 F1800
G1 X93.131 Y93.241 E0.00583
G1 X93.359 Y93.032 E0.00971
G1 X93.694 Y92.829 E0.01228
G1 X94.065 Y92.703 E0.01228
G1 X94.377 Y92.662 E0.00985
G1 X110.540 Y92.660 E0.50678
G1 X110.939 Y92.704 E0.01261
G1 X111.235 Y92.797 E0.00971
G1 X111.511 Y92.941 E0.00978
G1 X111.759 Y93.131 E0.00978
G1 X111.969 Y93.361 E0.00978
G1 X112.137 Y93.624 E0.00978
G1 X112.256 Y93.910 E0.00971
G1 X112.332 Y94.296 E0.01236
G1 X112.338 Y110.624 E0.51193
G1 X112.297 Y110.937 E0.00992
G1 X112.203 Y111.235 E0.00978
G1 X112.059 Y111.511 E0.00978
G1 X111.871 Y111.757 E0.00971
G1 X111.574 Y112.017 E0.01236
G1 X111.308 Y112.170 E0.00963
G1 X110.937 Y112.296 E0.01228
G1 X110.539 Y112.340 E0.01257
G1 X94.378 Y112.338 E0.50669
G1 X94.073 Y112.299 E0.00965
G1 X93.783 Y112.210 E0.00952
G1 X93.512 Y112.074 E0.00952
G1 X93.270 Y111.895 E0.00944
G1 X93.012 Y111.614 E0.01196
G1 X92.820 Y111.287 E0.01188
G1 X92.701 Y110.927 E0.01188
G1 X92.660 Y110.539 E0.01224
G1 X92.662 Y94.377 E0.50676
G1 X92.703 Y94.063 E0.00992
G1 X92.797 Y93.765 E0.00978
G1 X92.981 Y93.436 E0.01182
G1 X93.203 Y93.400 F7200.000
G1 F5760
G1 X93.131 Y93.241 E-0.08513
G1 X93.359 Y93.032 E-0.10724
G1 X93.694 Y92.829 E-0.13569
G1 X94.065 Y92.703 E-0.13568
G1 X94.377 Y92.662 E-0.10884
G1 X94.918 Y92.662 E-0.18742
G1 E-0.04000 F2100.00000
G1 Z0.800 F7200.000
G1 X95.539 Y105.723
G1 Z0.200
G1 E0.80000 F2100.00000
G1 F1800
G1 X93.698 Y103.882 E0.08207
G1 X93.698 Y103.346 E0.01690
G1 X94.935 Y104.583 E0.05517
G1 X94.777 Y103.889 E0.02246
G1 X93.698 Y102.810 E0.04810
G1 X93.698 Y102.274 E0.01690
G1 X94.693 Y103.269 E0.04435
G1 X94.661 Y102.700 E0.01794
G1 X93.698 Y101.738 E0.04291
G1 X93.698 Y101.202 E0.01690
G1 X94.666 Y102.170 E0.04316
G1 X94.701 Y101.669 E0.01583
G1 X93.698 Y100.666 E0.04472
G1 X93.698 Y100.130 E0.01690
G1 X94.764 Y101.196 E0.04753
G1 X94.862 Y100.757 E0.01416
G1 X93.698 Y99.594 E0.05188
G1 X93.698 Y99.057 E0.01690
G1 X94.968 Y100.327 E0.05659
G1 X95.096 Y99.919 E0.01348
G1 X93.698 Y98.521 E0.06229
G1 X93.698 Y97.985 E0.01690
G1 X95.239 Y99.526 E0.06866
G1 X95.407 Y99.158 E0.01275
G1 X93.698 Y97.449 E0.07617
G1 X93.699 Y96.913 E0.01690
G1 X95.583 Y98.798 E0.08399
G1 X95.779 Y98.458 E0.01237
G1 X93.699 Y96.377 E0.09273
G1 X93.699 Y95.841 E0.01690
G1 X95.987 Y98.130 E0.10202
G1 X96.210 Y97.817 E0.01212
G1 X93.699 Y95.305 E0.11196
G1 X93.699 Y94.769 E0.01690
G1 X96.443 Y97.514 E0.12233
G1 X96.695 Y97.229 E0.01197
G1 X93.728 Y94.262 E0.13227
G1 X93.819 Y94.048 E0.00734
G1 X93.923 Y93.922 E0.00517
G1 X96.951 Y96.950 E0.13498
G1 X97.231 Y96.693 E0.01196
G1 X94.267 Y93.729 E0.13212
G1 X94.445 Y93.699 E0.00567
G1 X94.773 Y93.699 E0.01034
G1 X97.516 Y96.442 E0.12227
G1 X97.819 Y96.209 E0.01205
G1 X95.309 Y93.699 E0.11190
G1 X95.845 Y93.699 E0.01690
G1 X98.132 Y95.986 E0.10196
G1 X98.460 Y95.777 E0.01224
G1 X96.381 Y93.699 E0.09267
G1 X96.917 Y93.699 E0.01690
G1 X98.803 Y95.585 E0.08409
G1 X99.156 Y95.401 E0.01253
G1 X97.453 Y93.698 E0.07591
G1 X97.989 Y93.698 E0.01690
G1 X99.528 Y95.238 E0.06862
G1 X99.921 Y95.095 E0.01318
G1 X98.525 Y93.698 E0.06225
G1 X99.061 Y93.698 E0.01690
G1 X100.327 Y94.965 E0.05646
G1 X100.750 Y94.852 E0.01380
G1 X99.597 Y93.698 E0.05141
G1 X100.133 Y93.698 E0.01690
G1 X101.202 Y94.767 E0.04766
G1 X101.675 Y94.704 E0.01505
G1 X100.669 Y93.698 E0.04486
G1 X101.205 Y93.698 E0.01690
