; generated by Slic3r Prusa Edition 1.39.2+win64 on 2018-05-24 at 12:15:06

; 

; external perimeters extrusion width = 0.45mm
; perimeters extrusion width = 0.45mm
; infill extrusion width = 0.45mm
; solid infill extrusion width = 0.45mm
; top infill extrusion width = 0.45mm
; first layer extrusion width = 0.42mm

M107
M115 U3.1.0 ; tell printer latest fw version
M83  ; extruder relative mode
M104 S205 ; set extruder temp
M140 S55 ; set bed temp
M190 S55 ; wait for bed temp
M109 S205 ; wait for extruder temp
G28 W ; home all without mesh bed level
G80 ; mesh bed leveling
G1 Y-3.0 F1000.0 ; go outside print area
G92 E0.0
G1 X60.0 E9.0  F1000.0 ; intro line
G1 X100.0 E12.5  F1000.0 ; intro line
G92 E0.0
M900 K30; Filament gcode
G21 ; set units to millimeters
G90 ; use absolute coordinates
M83 ; use relative distances for extrusion
;BEFORE_LAYER_CHANGE
;0.2


G1 E-0.80000 F2100.00000
G1 Z0.600 F7200.000
;AFTER_LAYER_CHANGE
;0.2
G1 X90.672 Y93.873
G1 Z0.200
G1 E0.80000 F2100.00000
M204 S1000
G1 F1800
G1 X91.446 Y93.746 E0.02460
G1 X113.504 Y93.746 E0.69162
G1 X114.498 Y93.933 E0.03170
G1 X115.360 Y94.469 E0.03183
G1 X115.969 Y95.280 E0.03183
G1 X116.243 Y96.254 E0.03170
G1 X116.245 Y108.729 E0.39117
G1 X116.124 Y109.335 E0.01937
G1 X115.874 Y109.896 E0.01924
G1 X115.503 Y110.390 E0.01937
G1 X115.035 Y110.787 E0.01924
G1 X114.328 Y111.127 E0.02460
G1 X113.554 Y111.254 E0.02460
G1 X91.422 Y111.253 E0.69393
G1 X90.779 Y111.158 E0.02039
G1 X90.172 Y110.913 E0.02052
G1 X89.640 Y110.531 E0.02052
G1 X89.213 Y110.035 E0.02052
G1 X88.880 Y109.348 E0.02396
G1 X88.747 Y108.595 E0.02396
G1 X88.749 Y96.369 E0.38334
G1 X88.853 Y95.739 E0.02001
G1 X89.101 Y95.147 E0.02014
G1 X89.477 Y94.631 E0.02001
G1 X89.965 Y94.213 E0.02014
G1 X90.618 Y93.899 E0.02272
G1 X90.777 Y94.239 F7200.000
G1 F1800
G1 X91.461 Y94.123 E0.02174
G1 X113.504 Y94.123 E0.69114
G1 X114.367 Y94.287 E0.02755
G1 X115.115 Y94.755 E0.02767
G1 X115.638 Y95.461 E0.02755
G1 X115.870 Y96.312 E0.02767
G1 X115.870 Y108.679 E0.38774
G1 X115.768 Y109.213 E0.01704
G1 X115.547 Y109.709 E0.01704
G1 X115.219 Y110.142 E0.01704
G1 X114.801 Y110.490 E0.01704
G1 X114.199 Y110.772 E0.02083
G1 X113.539 Y110.877 E0.02095
G1 X91.435 Y110.876 E0.69305
G1 X90.871 Y110.792 E0.01787
G1 X90.340 Y110.575 E0.01799
G1 X89.877 Y110.237 E0.01799
G1 X89.510 Y109.801 E0.01787
G1 X89.231 Y109.210 E0.02048
G1 X89.124 Y108.570 E0.02036
G1 X89.125 Y96.393 E0.38178
G1 X89.216 Y95.842 E0.01752
G1 X89.434 Y95.324 E0.01763
G1 X89.768 Y94.871 E0.01763
G1 X90.199 Y94.510 E0.01763
G1 X90.723 Y94.265 E0.01813
G1 F5760
G1 X91.461 Y94.123 E-0.26025
G1 X92.904 Y94.123 E-0.49975
G1 E-0.04000 F2100.00000
G1 Z0.800 F7200.000
G1 X92.464 Y97.464
G1 Z0.200
G1 E0.80000 F2100.00000
G1 F1800
G1 X98.536 Y97.464 E0.19037
G1 X98.536 Y107.536 E0.31579
G1 X92.464 Y107.536 E0.19037
G1 X92.464 Y97.524 E0.31391
G1 X92.087 Y97.087 F7200.000
G1 F1800
G1 X98.913 Y97.087 E0.21402
G1 X98.913 Y107.913 E0.33944
G1 X92.087 Y107.913 E0.21402
G1 X92.087 Y97.147 E0.33756
G1 X91.710 Y96.710 F7200.000
G1 F1800
G1 X99.290 Y96.710 E0.23767
G1 X99.290 Y108.290 E0.36308
G1 X91.710 Y108.290 E0.23767
G1 X91.710 Y96.770 E0.36120
G1 X92.088 Y96.840 F7200.000
G1 F5760
G1 X93.904 Y96.753 E-0.76000
G1 E-0.04000 F2100.00000
G1 Z0.800 F7200.000
G1 X98.423 Y98.355
G1 Z0.200
G1 E0.80000 F2100.00000
G1 F1800
G1 X97.815 Y97.747 E0.02749
G1 X97.271 Y97.747 E0.01738
G1 X98.253 Y98.729 E0.04440
G1 X98.253 Y99.273 E0.01738
G1 X96.727 Y97.747 E0.06898
G1 X96.184 Y97.747 E0.01738
G1 X98.253 Y99.816 E0.09355
G1 X98.253 Y100.360 E0.01738
G1 X95.640 Y97.747 E0.11813
G1 X95.096 Y97.747 E0.01738
G1 X98.253 Y100.904 E0.14271
G1 X98.253 Y101.447 E0.01738
G1 X94.553 Y97.747 E0.16729
G1 X94.009 Y97.747 E0.01738
G1 X98.253 Y101.991 E0.19186
G1 X98.253 Y102.535 E0.01738
G1 X93.465 Y97.747 E0.21644
G1 X92.922 Y97.747 E0.01738
G1 X98.253 Y103.078 E0.24102
G1 X98.253 Y103.622 E0.01738
G1 X92.747 Y98.116 E0.24891
G1 X92.747 Y98.660 E0.01738
G1 X98.253 Y104.166 E0.24891
G1 X98.253 Y104.709 E0.01738
G1 X92.747 Y99.203 E0.24891
G1 X92.747 Y99.747 E0.01738
G1 X98.253 Y105.253 E0.24891
G1 X98.253 Y105.797 E0.01738
G1 X92.747 Y100.291 E0.24891
G1 X92.747 Y100.834 E0.01738
G1 X98.253 Y106.340 E0.24891
G1 X98.253 Y106.884 E0.01738
G1 X92.747 Y101.378 E0.24891
G1 X92.747 Y101.922 E0.01738
G1 X98.078 Y107.253 E0.24101
G1 X97.535 Y107.253 E0.01738
G1 X92.747 Y102.465 E0.21643
G1 X92.747 Y103.009 E0.01738
G1 X96.991 Y107.253 E0.19186
G1 X96.447 Y107.253 E0.01738
G1 X92.747 Y103.553 E0.16728
G1 X92.747 Y104.096 E0.01738
G1 X95.904 Y107.253 E0.14270
G1 X95.360 Y107.253 E0.01738
G1 X92.747 Y104.640 E0.11813
G1 X92.747 Y105.184 E0.01738
G1 X94.816 Y107.253 E0.09355
G1 X94.273 Y107.253 E0.01738
G1 X92.747 Y105.727 E0.06897
G1 X92.747 Y106.271 E0.01738
G1 X93.729 Y107.253 E0.04439
G1 X93.185 Y107.253 E0.01738
G1 X92.577 Y106.645 E0.02749
G1 F5760
G1 X93.185 Y107.253 E-0.29784
G1 X93.729 Y107.253 E-0.18830
G1 X93.170 Y106.694 E-0.27386
G1 E-0.04000 F2100.00000
G1 Z0.800 F7200.000
G1 X106.464 Y107.536
G1 Z0.200
G1 E0.80000 F2100.00000
G1 F1800
G1 X106.464 Y97.464 E0.31579
G1 X112.536 Y97.464 E0.19037
G1 X112.536 Y107.536 E0.31579
G1 X106.524 Y107.536 E0.18849
G1 X106.087 Y107.913 F7200.000
G1 F1800
G1 X106.087 Y97.087 E0.33944
G1 X112.913 Y97.087 E0.21402
G1 X112.913 Y107.913 E0.33944
G1 X106.147 Y107.913 E0.21214
G1 X105.710 Y108.290 F7200.000
G1 F1800
G1 X105.710 Y96.710 E0.36308
G1 X113.290 Y96.710 E0.23767
G1 X113.290 Y108.290 E0.36308
G1 X105.770 Y108.290 E0.23578
G1 X105.787 Y107.897 F7200.000
G1 F5760
G1 X105.759 Y106.096 E-0.76000
G1 E-0.04000 F2100.00000
G1 Z0.800 F7200.000
G1 X106.577 Y106.645
G1 Z0.200
G1 E0.80000 F2100.00000
G1 F1800
G1 X107.185 Y107.253 E0.02749
G1 X107.729 Y107.253 E0.01738
G1 X106.747 Y106.271 E0.04439
G1 X106.747 Y105.727 E0.01738
G1 X108.273 Y107.253 E0.06897
G1 X108.816 Y107.253 E0.01738
G1 X106.747 Y105.184 E0.09355
G1 X106.747 Y104.640 E0.01738
G1 X109.360 Y107.253 E0.11813
G1 X109.904 Y107.253 E0.01738
G1 X106.747 Y104.096 E0.14270
G1 X106.747 Y103.553 E0.01738
G1 X110.447 Y107.253 E0.16728
G1 X110.991 Y107.253 E0.01738
G1 X106.747 Y103.009 E0.19186
G1 X106.747 Y102.465 E0.01738
G1 X111.535 Y107.253 E0.21643
G1 X112.078 Y107.253 E0.01738
G1 X106.747 Y101.922 E0.24101
G1 X106.747 Y101.378 E0.01738
G1 X112.253 Y106.884 E0.24891
G1 X112.253 Y106.340 E0.01738
G1 X106.747 Y100.834 E0.24891
G1 X106.747 Y100.291 E0.01738
G1 X112.253 Y105.797 E0.24891
G1 X112.253 Y105.253 E0.01738
G1 X106.747 Y99.747 E0.24891
G1 X106.747 Y99.203 E0.01738
G1 X112.253 Y104.709 E0.24891
G1 X112.253 Y104.166 E0.01738
G1 X106.747 Y98.660 E0.24891
G1 X106.747 Y98.116 E0.01738
G1 X112.253 Y103.622 E0.24891
G1 X112.253 Y103.078 E0.01738
G1 X106.922 Y97.747 E0.24102
G1 X107.465 Y97.747 E0.01738
G1 X112.253 Y102.535 E0.21644
G1 X112.253 Y101.991 E0.01738
G1 X108.009 Y97.747 E0.19186
G1 X108.553 Y97.747 E0.01738
G1 X112.253 Y101.447 E0.16729
G1 X112.253 Y100.904 E0.01738
G1 X109.096 Y97.747 E0.14271
G1 X109.640 Y97.747 E0.01738
G1 X112.253 Y100.360 E0.11813
G1 X112.253 Y99.816 E0.01738
G1 X110.184 Y97.747 E0.09355
G1 X110.727 Y97.747 E0.01738
G1 X112.253 Y99.273 E0.06898
G1 X112.253 Y98.729 E0.01738
G1 X111.271 Y97.747 E0.04440
G1 X111.815 Y97.747 E0.01738
G1 X112.423 Y98.355 E0.02749
M106 S249.9
;BEFORE_LAYER_CHANGE
;0.35


G1 F5760
G1 X111.815 Y97.747 E-0.29790
G1 X111.271 Y97.747 E-0.18830
G1 X111.830 Y98.306 E-0.27380
G1 E-0.04000 F2100.00000
G1 Z0.800 F7200.000
;AFTER_LAYER_CHANGE
;0.35
G1 X115.969 Y95.280
G1 Z0.350
G1 E0.80000 F2100.00000
G1 F3000
G1 X116.243 Y96.254 E0.02445
G1 X116.245 Y108.729 E0.30172
G1 X116.124 Y109.335 E0.01494
G1 X115.874 Y109.896 E0.01484
G1 X115.503 Y110.390 E0.01494
G1 X115.035 Y110.787 E0.01484
G1 X114.328 Y111.127 E0.01897
G1 X113.554 Y111.254 E0.01897
G1 X91.422 Y111.253 E0.53526
G1 X90.779 Y111.158 E0.01573
G1 X90.172 Y110.913 E0.01583
G1 X89.640 Y110.531 E0.01583
G1 X89.213 Y110.035 E0.01583
G1 X88.880 Y109.348 E0.01848
G1 X88.747 Y108.595 E0.01848
G1 X88.749 Y96.369 E0.29569
G1 X88.853 Y95.739 E0.01543
G1 X89.101 Y95.147 E0.01553
G1 X89.477 Y94.631 E0.01543
G1 X89.965 Y94.213 E0.01553
G1 X90.672 Y93.873 E0.01897
G1 X91.446 Y93.746 E0.01897
G1 X113.504 Y93.746 E0.53347
G1 X114.498 Y93.933 E0.02445
G1 X115.360 Y94.469 E0.02455
G1 X115.933 Y95.232 E0.02310
G1 F5760
G1 X116.243 Y96.254 E-0.36963
G1 X116.243 Y97.381 E-0.39037
G1 E-0.04000 F2100.00000
G1 Z0.950 F7200.000
G1 X98.439 Y97.561
G1 Z0.350
G1 E0.80000 F2100.00000
M204 S800
G1 F1200
G1 X98.439 Y107.439 E0.25740
G1 X92.561 Y107.439 E0.15318
G1 X92.561 Y97.561 E0.25740
G1 X98.379 Y97.561 E0.15161
M204 S1000
G1 X98.857 Y97.143 F7200.000
M204 S800
G1 F1200
G1 X98.857 Y107.857 E0.27917
G1 X92.143 Y107.857 E0.17495
G1 X92.143 Y97.143 E0.27917
G1 X98.797 Y97.143 E0.17339
M204 S1000
G1 X99.275 Y96.725 F7200.000
M204 S800
G1 F1200
G1 X99.275 Y108.275 E0.30094
G1 X91.725 Y108.275 E0.19672
G1 X91.725 Y96.725 E0.30094
G1 X99.215 Y96.725 E0.19516
M204 S1000
G1 X99.198 Y97.118 F7200.000
G1 F5760
G1 X99.226 Y98.919 E-0.76000
G1 E-0.04000 F2100.00000
G1 Z0.950 F7200.000
G1 X93.564 Y97.686
G1 Z0.350
G1 E0.80000 F2100.00000
M204 S2000
G1 F3000
G1 X92.874 Y98.376 E0.02642
G1 X92.874 Y98.990 E0.01660
G1 X93.990 Y97.874 E0.04271
G1 X94.604 Y97.874 E0.01660
G1 X92.874 Y99.604 E0.06619
G1 X92.874 Y100.217 E0.01660
G1 X95.217 Y97.874 E0.08967
G1 X95.831 Y97.874 E0.01660
G1 X92.874 Y100.831 E0.11315
G1 X92.874 Y101.444 E0.01660
G1 X96.444 Y97.874 E0.13662
G1 X97.058 Y97.874 E0.01660
G1 X92.874 Y102.058 E0.16010
G1 X92.874 Y102.672 E0.01660
G1 X97.672 Y97.874 E0.18358
G1 X98.126 Y97.874 E0.01230
G1 X98.126 Y98.033 E0.00431
G1 X92.874 Y103.285 E0.20097
G1 X92.874 Y103.899 E0.01660
G1 X98.126 Y98.647 E0.20097
G1 X98.126 Y99.260 E0.01660
G1 X92.874 Y104.512 E0.20097
G1 X92.874 Y105.126 E0.01660
G1 X98.126 Y99.874 E0.20097
G1 X98.126 Y100.487 E0.01660
G1 X92.874 Y105.740 E0.20097
G1 X92.874 Y106.353 E0.01660
G1 X98.126 Y101.101 E0.20097
G1 X98.126 Y101.715 E0.01660
G1 X92.874 Y106.967 E0.20097
G1 X92.874 Y107.126 E0.00431
G1 X93.328 Y107.126 E0.01229
G1 X98.126 Y102.328 E0.18359
G1 X98.126 Y102.942 E0.01660
G1 X93.942 Y107.126 E0.16011
G1 X94.555 Y107.126 E0.01660
G1 X98.126 Y103.555 E0.13663
G1 X98.126 Y104.169 E0.01660
G1 X95.169 Y107.126 E0.11315
G1 X95.783 Y107.126 E0.01660
G1 X98.126 Y104.783 E0.08967
G1 X98.126 Y105.396 E0.01660
G1 X96.396 Y107.126 E0.06619
G1 X97.010 Y107.126 E0.01660
G1 X98.126 Y106.010 E0.04271
G1 X98.126 Y106.623 E0.01660
G1 X97.435 Y107.314 E0.02643
M204 S1000
G1 F5760
G1 X98.126 Y106.623 E-0.33830
G1 X98.126 Y106.010 E-0.21252
G1 X97.699 Y106.437 E-0.20918
G1 E-0.04000 F2100.00000
G1 Z0.950 F7200.000
G1 X106.561 Y107.314
G1 Z0.350
G1 E0.80000 F2100.00000
M204 S800
G1 F1200
G1 X106.561 Y97.561 E0.25413
G1 X112.439 Y97.561 E0.15318
G1 X112.439 Y107.439 E0.25740
G1 X106.561 Y107.439 E0.15318
G1 X106.561 Y107.374 E0.00170
M204 S1000
G1 X106.143 Y107.857 F7200.000
M204 S800
G1 F1200
G1 X106.143 Y97.143 E0.27917
G1 X112.857 Y97.143 E0.17495
G1 X112.857 Y107.857 E0.27917
G1 X106.203 Y107.857 E0.17339
M204 S1000
G1 X105.725 Y108.275 F7200.000
M204 S800
G1 F1200
G1 X105.725 Y96.725 E0.30094
G1 X113.275 Y96.725 E0.19672
G1 X113.275 Y108.275 E0.30094
G1 X105.785 Y108.275 E0.19516
M204 S1000
G1 X105.802 Y107.882 F7200.000
G1 F5760
G1 X105.774 Y106.081 E-0.76000
G1 E-0.04000 F2100.00000
G1 Z0.950 F7200.000
G1 X111.435 Y107.314
G1 Z0.350
G1 E0.80000 F2100.00000
M204 S2000
G1 F3000
G1 X112.126 Y106.623 E0.02643
G1 X112.126 Y106.010 E0.01660
G1 X111.010 Y107.126 E0.04271
G1 X110.396 Y107.126 E0.01660
G1 X112.126 Y105.396 E0.06619
G1 X112.126 Y104.783 E0.01660
G1 X109.783 Y107.126 E0.08967
G1 X109.169 Y107.126 E0.01660
G1 X112.126 Y104.169 E0.11315
G1 X112.126 Y103.555 E0.01660
G1 X108.555 Y107.126 E0.13663
G1 X107.942 Y107.126 E0.01660
G1 X112.126 Y102.942 E0.16011
G1 X112.126 Y102.328 E0.01660
G1 X107.328 Y107.126 E0.18359
G1 X106.874 Y107.126 E0.01229
G1 X106.874 Y106.967 E0.00431
G1 X112.126 Y101.715 E0.20097
G1 X112.126 Y101.101 E0.01660
G1 X106.874 Y106.353 E0.20097
G1 X106.874 Y105.740 E0.01660
G1 X112.126 Y100.487 E0.20097
G1 X112.126 Y99.874 E0.01660
G1 X106.874 Y105.126 E0.20097
G1 X106.874 Y104.512 E0.01660
G1 X112.126 Y99.260 E0.20097
G1 X112.126 Y98.647 E0.01660
G1 X106.874 Y103.899 E0.20097
G1 X106.874 Y103.285 E0.01660
G1 X112.126 Y98.033 E0.20097
G1 X112.126 Y97.874 E0.00431
G1 X111.672 Y97.874 E0.01230
G1 X106.874 Y102.672 E0.18358
G1 X106.874 Y102.058 E0.01660
G1 X111.058 Y97.874 E0.16010
G1 X110.444 Y97.874 E0.01660
G1 X106.874 Y101.444 E0.13662
G1 X106.874 Y100.831 E0.01660
G1 X109.831 Y97.874 E0.11315
G1 X109.217 Y97.874 E0.01660
G1 X106.874 Y100.217 E0.08967
G1 X106.874 Y99.604 E0.01660
G1 X108.604 Y97.874 E0.06619
G1 X107.990 Y97.874 E0.01660
G1 X106.874 Y98.990 E0.04271
G1 X106.874 Y98.376 E0.01660
G1 X107.564 Y97.686 E0.02642
M204 S1000
;BEFORE_LAYER_CHANGE
;0.5


G1 F5760
G1 X106.874 Y98.376 E-0.33823
G1 X106.874 Y98.990 E-0.21252
G1 X107.301 Y98.563 E-0.20925
G1 E-0.04000 F2100.00000
G1 Z0.950 F7200.000
;AFTER_LAYER_CHANGE
;0.5
G1 X114.498 Y93.933
G1 Z0.500
G1 E0.80000 F2100.00000
G1 F3000
G1 X115.360 Y94.469 E0.02455
G1 X115.969 Y95.280 E0.02455
G1 X116.243 Y96.254 E0.02445
G1 X116.245 Y108.729 E0.30172
G1 X116.124 Y109.335 E0.01494
G1 X115.874 Y109.896 E0.01484
G1 X115.503 Y110.390 E0.01494
G1 X115.035 Y110.787 E0.01484
G1 X114.328 Y111.127 E0.01897
G1 X113.554 Y111.254 E0.01897
G1 X91.422 Y111.253 E0.53526
G1 X90.779 Y111.158 E0.01573
G1 X90.172 Y110.913 E0.01583
G1 X89.640 Y110.531 E0.01583
G1 X89.213 Y110.035 E0.01583
G1 X88.880 Y109.348 E0.01848
G1 X88.747 Y108.595 E0.01848
G1 X88.749 Y96.369 E0.29569
G1 X88.853 Y95.739 E0.01543
G1 X89.101 Y95.147 E0.01553
G1 X89.477 Y94.631 E0.01543
G1 X89.965 Y94.213 E0.01553
G1 X90.672 Y93.873 E0.01897
G1 X91.446 Y93.746 E0.01897
G1 X113.504 Y93.746 E0.53347
G1 X114.439 Y93.922 E0.02300
G1 F5760
G1 X115.360 Y94.469 E-0.37102
G1 X115.969 Y95.280 E-0.35157
G1 X115.999 Y95.384 E-0.03740
G1 E-0.04000 F2100.00000
G1 Z1.100 F7200.000
G1 X98.439 Y97.561
G1 Z0.500
G1 E0.80000 F2100.00000
M204 S800
G1 F1200
G1 X98.439 Y107.439 E0.25740
G1 X92.561 Y107.439 E0.15318
G1 X92.561 Y97.561 E0.25740
G1 X98.379 Y97.561 E0.15161
M204 S1000
G1 X98.857 Y97.143 F7200.000
M204 S800
G1 F1200
G1 X98.857 Y107.857 E0.27917
G1 X92.143 Y107.857 E0.17495
G1 X92.143 Y97.143 E0.27917
G1 X98.797 Y97.143 E0.17339
M204 S1000
G1 X99.275 Y96.725 F7200.000
M204 S800
G1 F1200
G1 X99.275 Y108.275 E0.30094
G1 X91.725 Y108.275 E0.19672
G1 X91.725 Y96.725 E0.30094
G1 X99.215 Y96.725 E0.19516
M204 S1000
G1 X99.198 Y97.118 F7200.000
G1 F5760
G1 X99.226 Y98.919 E-0.76000
G1 E-0.04000 F2100.00000
G1 Z1.100 F7200.000
G1 X98.314 Y98.565
G1 Z0.500
G1 E0.80000 F2100.00000
M204 S2000
G1 F3000
G1 X97.623 Y97.874 E0.02643
G1 X97.010 Y97.874 E0.01660
G1 X98.126 Y98.990 E0.04271
G1 X98.126 Y99.604 E0.01660
G1 X96.396 Y97.874 E0.06619
G1 X95.783 Y97.874 E0.01660
G1 X98.126 Y100.217 E0.08967
G1 X98.126 Y100.831 E0.01660
G1 X95.169 Y97.874 E0.11315
G1 X94.555 Y97.874 E0.01660
G1 X98.126 Y101.445 E0.13663
G1 X98.126 Y102.058 E0.01660
G1 X93.942 Y97.874 E0.16011
G1 X93.328 Y97.874 E0.01660
G1 X98.126 Y102.672 E0.18359
G1 X98.126 Y103.285 E0.01660
G1 X92.874 Y98.033 E0.20097
G1 X92.874 Y98.647 E0.01660
G1 X98.126 Y103.899 E0.20097
G1 X98.126 Y104.513 E0.01660
G1 X92.874 Y99.260 E0.20097
G1 X92.874 Y99.874 E0.01660
G1 X98.126 Y105.126 E0.20097
G1 X98.126 Y105.740 E0.01660
G1 X92.874 Y100.488 E0.20097
G1 X92.874 Y101.101 E0.01660
G1 X98.126 Y106.353 E0.20097
G1 X98.126 Y106.967 E0.01660
G1 X92.874 Y101.715 E0.20097
G1 X92.874 Y102.328 E0.01660
G1 X97.672 Y107.126 E0.18358
G1 X97.058 Y107.126 E0.01660
G1 X92.874 Y102.942 E0.16010
G1 X92.874 Y103.556 E0.01660
G1 X96.444 Y107.126 E0.13662
G1 X95.831 Y107.126 E0.01660
G1 X92.874 Y104.169 E0.11315
G1 X92.874 Y104.783 E0.01660
G1 X95.217 Y107.126 E0.08967
G1 X94.604 Y107.126 E0.01660
G1 X92.874 Y105.396 E0.06619
G1 X92.874 Y106.010 E0.01660
G1 X93.990 Y107.126 E0.04271
G1 X93.376 Y107.126 E0.01660
G1 X92.686 Y106.436 E0.02642
M204 S1000
G1 F5760
