; generated by Slic3r Prusa Edition 1.39.2+win64 on 2018-08-13 at 11:10:11

; 

; external perimeters extrusion width = 0.45mm
; perimeters extrusion width = 0.45mm
; infill extrusion width = 0.45mm
; solid infill extrusion width = 0.45mm
; top infill extrusion width = 0.45mm
; first layer extrusion width = 0.42mm

M107
M115 U3.1.0 ; tell printer latest fw version
M83  ; extruder relative mode
M104 S205 ; set extruder temp
M140 S55 ; set bed temp
M190 S55 ; wait for bed temp
M109 S205 ; wait for extruder temp
G28 W ; home all without mesh bed level
G80 ; mesh bed leveling
G1 Y-3.0 F1000.0 ; go outside print area
G92 E0.0
G1 X60.0 E9.0  F1000.0 ; intro line
G1 X100.0 E12.5  F1000.0 ; intro line
G92 E0.0
M900 K30; Filament gcode
G21 ; set units to millimeters
G90 ; use absolute coordinates
M83 ; use relative distances for extrusion
;BEFORE_LAYER_CHANGE
;0.2


G1 E-0.80000 F2100.00000
G1 Z0.600 F7200.000
;AFTER_LAYER_CHANGE
;0.2
G1 X90.266 Y89.663
G1 Z0.200
G1 E0.80000 F2100.00000
M204 S1000
G1 F1800
G1 X90.682 Y88.900 E0.02727
G1 X91.084 Y88.480 E0.01822
G1 X91.569 Y88.152 E0.01835
G1 X92.112 Y87.934 E0.01835
G1 X92.689 Y87.836 E0.01835
G1 X108.925 Y87.256 E0.50940
G1 X116.994 Y87.255 E0.25301
G1 X118.015 Y87.453 E0.03258
G1 X118.889 Y88.014 E0.03258
G1 X119.493 Y88.860 E0.03258
G1 X119.741 Y89.869 E0.03258
G1 X119.744 Y102.054 E0.38206
G1 X119.252 Y118.598 E0.51895
G1 X119.090 Y119.436 E0.02676
G1 X118.679 Y120.184 E0.02676
G1 X118.255 Y120.622 E0.01912
G1 X117.745 Y120.956 E0.01912
G1 X117.175 Y121.170 E0.01912
G1 X116.566 Y121.253 E0.01924
G1 X100.713 Y121.437 E0.49710
G1 X92.649 Y121.437 E0.25286
G1 X91.780 Y121.282 E0.02765
G1 X91.005 Y120.862 E0.02765
G1 X90.562 Y120.432 E0.01937
G1 X90.224 Y119.910 E0.01950
G1 X90.011 Y119.325 E0.01950
G1 X89.936 Y118.712 E0.01937
G1 X89.936 Y106.666 E0.37769
G1 X90.108 Y90.514 E0.50647
G1 X90.255 Y89.722 E0.02526
G1 X90.622 Y89.790 F7200.000
G1 F1800
G1 X90.990 Y89.119 E0.02401
G1 X91.339 Y88.758 E0.01574
G1 X91.760 Y88.478 E0.01585
G1 X92.227 Y88.294 E0.01574
G1 X92.725 Y88.211 E0.01585
G1 X108.932 Y87.633 E0.50848
G1 X116.994 Y87.632 E0.25277
G1 X117.879 Y87.804 E0.02825
G1 X118.635 Y88.293 E0.02825
G1 X119.156 Y89.029 E0.02825
G1 X119.365 Y89.909 E0.02837
G1 X119.367 Y102.051 E0.38070
G1 X118.876 Y118.578 E0.51842
G1 X118.734 Y119.312 E0.02343
G1 X118.372 Y119.965 E0.02343
G1 X118.005 Y120.340 E0.01645
G1 X117.564 Y120.625 E0.01645
G1 X117.072 Y120.807 E0.01645
G1 X116.552 Y120.877 E0.01645
G1 X100.709 Y121.060 E0.49677
G1 X92.659 Y121.060 E0.25241
G1 X91.901 Y120.925 E0.02414
G1 X91.226 Y120.556 E0.02414
G1 X90.846 Y120.183 E0.01668
G1 X90.558 Y119.735 E0.01668
G1 X90.378 Y119.235 E0.01668
G1 X90.313 Y118.703 E0.01680
G1 X90.313 Y106.667 E0.37736
G1 X90.485 Y90.529 E0.50605
G1 X90.611 Y89.849 E0.02167
G1 F5760
G1 X90.990 Y89.119 E-0.28501
G1 X91.339 Y88.758 E-0.17382
G1 X91.760 Y88.478 E-0.17513
G1 X92.098 Y88.344 E-0.12605
G1 E-0.04000 F2100.00000
G1 Z0.800 F7200.000
G1 X109.955 Y90.973
G1 Z0.200
G1 E0.80000 F2100.00000
G1 F1800
G1 X116.026 Y90.973 E0.19037
G1 X116.026 Y101.045 E0.31579
G1 X109.955 Y101.045 E0.19037
G1 X109.955 Y91.033 E0.31391
G1 X109.577 Y90.596 F7200.000
G1 F1800
G1 X116.403 Y90.596 E0.21402
G1 X116.403 Y101.422 E0.33944
G1 X109.577 Y101.422 E0.21402
G1 X109.577 Y90.656 E0.33756
G1 X109.200 Y90.219 F7200.000
G1 F1800
G1 X116.780 Y90.219 E0.23767
G1 X116.780 Y101.799 E0.36308
G1 X109.200 Y101.799 E0.23767
G1 X109.200 Y90.279 E0.36120
G1 X109.579 Y90.349 F7200.000
G1 F5760
G1 X111.395 Y90.262 E-0.76000
G1 E-0.04000 F2100.00000
G1 Z0.800 F7200.000
G1 X115.913 Y91.864
G1 Z0.200
G1 E0.80000 F2100.00000
G1 F1800
G1 X115.305 Y91.256 E0.02749
G1 X114.761 Y91.256 E0.01738
G1 X115.743 Y92.238 E0.04440
G1 X115.743 Y92.782 E0.01738
G1 X114.218 Y91.256 E0.06898
G1 X113.674 Y91.256 E0.01738
G1 X115.743 Y93.326 E0.09355
G1 X115.743 Y93.869 E0.01738
G1 X113.130 Y91.256 E0.11813
G1 X112.587 Y91.256 E0.01738
G1 X115.743 Y94.413 E0.14271
G1 X115.743 Y94.957 E0.01738
G1 X112.043 Y91.256 E0.16729
G1 X111.499 Y91.256 E0.01738
G1 X115.743 Y95.500 E0.19186
G1 X115.743 Y96.044 E0.01738
G1 X110.956 Y91.256 E0.21644
G1 X110.412 Y91.256 E0.01738
G1 X115.743 Y96.588 E0.24102
G1 X115.743 Y97.131 E0.01738
G1 X110.237 Y91.625 E0.24891
G1 X110.237 Y92.169 E0.01738
G1 X115.743 Y97.675 E0.24891
G1 X115.743 Y98.219 E0.01738
G1 X110.237 Y92.713 E0.24891
G1 X110.237 Y93.256 E0.01738
G1 X115.743 Y98.762 E0.24891
G1 X115.743 Y99.306 E0.01738
G1 X110.237 Y93.800 E0.24891
G1 X110.237 Y94.344 E0.01738
G1 X115.743 Y99.850 E0.24891
G1 X115.743 Y100.393 E0.01738
G1 X110.237 Y94.887 E0.24891
G1 X110.237 Y95.431 E0.01738
G1 X115.569 Y100.762 E0.24101
G1 X115.025 Y100.762 E0.01738
G1 X110.237 Y95.975 E0.21643
G1 X110.237 Y96.518 E0.01738
G1 X114.481 Y100.762 E0.19186
G1 X113.938 Y100.762 E0.01738
G1 X110.237 Y97.062 E0.16728
G1 X110.237 Y97.606 E0.01738
G1 X113.394 Y100.762 E0.14270
G1 X112.850 Y100.762 E0.01738
G1 X110.237 Y98.149 E0.11813
G1 X110.237 Y98.693 E0.01738
G1 X112.307 Y100.762 E0.09355
G1 X111.763 Y100.762 E0.01738
G1 X110.237 Y99.237 E0.06897
G1 X110.237 Y99.780 E0.01738
G1 X111.219 Y100.762 E0.04439
G1 X110.676 Y100.762 E0.01738
G1 X110.068 Y100.154 E0.02749
G1 F5760
G1 X110.676 Y100.762 E-0.29784
G1 X111.219 Y100.762 E-0.18830
G1 X110.660 Y100.203 E-0.27386
G1 E-0.04000 F2100.00000
G1 Z0.800 F7200.000
G1 X99.897 Y101.620
G1 Z0.200
G1 E0.80000 F2100.00000
G1 F1800
G1 X93.825 Y101.620 E0.19037
G1 X93.825 Y91.549 E0.31579
G1 X99.897 Y91.549 E0.19037
G1 X99.897 Y101.560 E0.31391
G1 X100.274 Y101.997 F7200.000
G1 F1800
G1 X93.448 Y101.997 E0.21402
G1 X93.448 Y91.171 E0.33944
G1 X100.274 Y91.171 E0.21402
G1 X100.274 Y101.937 E0.33756
G1 X100.651 Y102.374 F7200.000
G1 F1800
G1 X93.071 Y102.374 E0.23767
G1 X93.071 Y90.794 E0.36308
G1 X100.651 Y90.794 E0.23767
G1 X100.651 Y102.314 E0.36120
G1 X100.273 Y102.245 F7200.000
G1 F5760
G1 X98.457 Y102.332 E-0.76000
G1 E-0.04000 F2100.00000
G1 Z0.800 F7200.000
G1 X93.938 Y100.729
G1 Z0.200
G1 E0.80000 F2100.00000
G1 F1800
G1 X94.546 Y101.337 E0.02749
G1 X95.090 Y101.337 E0.01738
G1 X94.108 Y100.355 E0.04439
G1 X94.108 Y99.812 E0.01738
G1 X95.634 Y101.337 E0.06897
G1 X96.177 Y101.337 E0.01738
G1 X94.108 Y99.268 E0.09355
G1 X94.108 Y98.724 E0.01738
G1 X96.721 Y101.337 E0.11813
G1 X97.265 Y101.337 E0.01738
G1 X94.108 Y98.181 E0.14270
G1 X94.108 Y97.637 E0.01738
G1 X97.808 Y101.337 E0.16728
G1 X98.352 Y101.337 E0.01738
G1 X94.108 Y97.093 E0.19186
G1 X94.108 Y96.550 E0.01738
G1 X98.896 Y101.337 E0.21643
G1 X99.439 Y101.337 E0.01738
G1 X94.108 Y96.006 E0.24101
G1 X94.108 Y95.462 E0.01738
G1 X99.614 Y100.969 E0.24891
G1 X99.614 Y100.425 E0.01738
G1 X94.108 Y94.919 E0.24891
G1 X94.108 Y94.375 E0.01738
G1 X99.614 Y99.881 E0.24891
G1 X99.614 Y99.338 E0.01738
G1 X94.108 Y93.831 E0.24891
G1 X94.108 Y93.288 E0.01738
G1 X99.614 Y98.794 E0.24891
G1 X99.614 Y98.250 E0.01738
G1 X94.108 Y92.744 E0.24891
G1 X94.108 Y92.200 E0.01738
G1 X99.614 Y97.706 E0.24891
G1 X99.614 Y97.163 E0.01738
G1 X94.283 Y91.831 E0.24102
G1 X94.826 Y91.831 E0.01738
G1 X99.614 Y96.619 E0.21644
G1 X99.614 Y96.075 E0.01738
G1 X95.370 Y91.831 E0.19186
G1 X95.914 Y91.831 E0.01738
G1 X99.614 Y95.532 E0.16729
G1 X99.614 Y94.988 E0.01738
G1 X96.457 Y91.831 E0.14271
G1 X97.001 Y91.831 E0.01738
G1 X99.614 Y94.444 E0.11813
G1 X99.614 Y93.901 E0.01738
G1 X97.545 Y91.831 E0.09355
G1 X98.088 Y91.831 E0.01738
G1 X99.614 Y93.357 E0.06898
G1 X99.614 Y92.813 E0.01738
G1 X98.632 Y91.831 E0.04440
G1 X99.176 Y91.831 E0.01738
G1 X99.784 Y92.440 E0.02749
G1 F5760
G1 X99.176 Y91.831 E-0.29790
G1 X98.632 Y91.831 E-0.18830
G1 X99.191 Y92.390 E-0.27380
G1 E-0.04000 F2100.00000
G1 Z0.800 F7200.000
G1 X99.725 Y107.647
G1 Z0.200
G1 E0.80000 F2100.00000
G1 F1800
G1 X99.725 Y117.719 E0.31579
G1 X93.654 Y117.719 E0.19037
G1 X93.654 Y107.647 E0.31579
G1 X99.665 Y107.647 E0.18849
G1 X100.103 Y107.270 F7200.000
G1 F1800
G1 X100.103 Y118.096 E0.33944
G1 X93.277 Y118.096 E0.21402
G1 X93.277 Y107.270 E0.33944
G1 X100.043 Y107.270 E0.21214
G1 X100.480 Y106.893 F7200.000
G1 F1800
G1 X100.480 Y118.473 E0.36308
G1 X92.900 Y118.473 E0.23767
G1 X92.900 Y106.893 E0.36308
G1 X100.420 Y106.893 E0.23578
G1 X100.403 Y107.285 F7200.000
G1 F5760
G1 X100.431 Y109.087 E-0.76000
G1 E-0.04000 F2100.00000
G1 Z0.800 F7200.000
G1 X99.612 Y108.538
G1 Z0.200
G1 E0.80000 F2100.00000
G1 F1800
G1 X99.004 Y107.930 E0.02749
G1 X98.461 Y107.930 E0.01738
G1 X99.443 Y108.912 E0.04440
G1 X99.443 Y109.455 E0.01738
G1 X97.917 Y107.930 E0.06898
G1 X97.373 Y107.930 E0.01738
G1 X99.443 Y109.999 E0.09355
G1 X99.443 Y110.543 E0.01738
G1 X96.830 Y107.930 E0.11813
G1 X96.286 Y107.930 E0.01738
G1 X99.443 Y111.086 E0.14271
G1 X99.443 Y111.630 E0.01738
G1 X95.742 Y107.930 E0.16729
G1 X95.199 Y107.930 E0.01738
G1 X99.443 Y112.174 E0.19186
G1 X99.443 Y112.717 E0.01738
G1 X94.655 Y107.930 E0.21644
G1 X94.111 Y107.930 E0.01738
G1 X99.443 Y113.261 E0.24102
G1 X99.443 Y113.805 E0.01738
G1 X93.937 Y108.299 E0.24891
G1 X93.937 Y108.842 E0.01738
G1 X99.443 Y114.348 E0.24891
G1 X99.443 Y114.892 E0.01738
G1 X93.937 Y109.386 E0.24891
G1 X93.937 Y109.930 E0.01738
G1 X99.443 Y115.436 E0.24891
G1 X99.443 Y115.979 E0.01738
G1 X93.937 Y110.473 E0.24891
G1 X93.937 Y111.017 E0.01738
G1 X99.443 Y116.523 E0.24891
G1 X99.443 Y117.067 E0.01738
G1 X93.937 Y111.561 E0.24891
G1 X93.937 Y112.104 E0.01738
G1 X99.268 Y117.436 E0.24101
G1 X98.724 Y117.436 E0.01738
G1 X93.937 Y112.648 E0.21643
G1 X93.937 Y113.192 E0.01738
G1 X98.181 Y117.436 E0.19186
G1 X97.637 Y117.436 E0.01738
G1 X93.937 Y113.735 E0.16728
G1 X93.937 Y114.279 E0.01738
G1 X97.093 Y117.436 E0.14270
G1 X96.550 Y117.436 E0.01738
G1 X93.937 Y114.823 E0.11813
G1 X93.937 Y115.366 E0.01738
G1 X96.006 Y117.436 E0.09355
G1 X95.462 Y117.436 E0.01738
G1 X93.937 Y115.910 E0.06897
G1 X93.937 Y116.454 E0.01738
G1 X94.919 Y117.436 E0.04439
G1 X94.375 Y117.436 E0.01738
G1 X93.767 Y116.828 E0.02749
G1 F5760
G1 X94.375 Y117.436 E-0.29784
G1 X94.919 Y117.436 E-0.18830
G1 X94.360 Y116.877 E-0.27386
G1 E-0.04000 F2100.00000
G1 Z0.800 F7200.000
G1 X109.464 Y117.536
G1 Z0.200
G1 E0.80000 F2100.00000
G1 F1800
G1 X109.464 Y107.464 E0.31579
G1 X115.536 Y107.464 E0.19037
G1 X115.536 Y117.536 E0.31579
G1 X109.524 Y117.536 E0.18849
G1 X109.087 Y117.913 F7200.000
G1 F1800
G1 X109.087 Y107.087 E0.33944
G1 X115.913 Y107.087 E0.21402
G1 X115.913 Y117.913 E0.33944
G1 X109.147 Y117.913 E0.21214
G1 X108.710 Y118.290 F7200.000
G1 F1800
G1 X108.710 Y106.710 E0.36308
G1 X116.290 Y106.710 E0.23767
G1 X116.290 Y118.290 E0.36308
G1 X108.770 Y118.290 E0.23578
G1 X108.787 Y117.897 F7200.000
G1 F5760
G1 X108.759 Y116.096 E-0.76000
G1 E-0.04000 F2100.00000
G1 Z0.800 F7200.000
G1 X109.577 Y116.645
G1 Z0.200
G1 E0.80000 F2100.00000
G1 F1800
G1 X110.185 Y117.253 E0.02749
G1 X110.729 Y117.253 E0.01738
G1 X109.747 Y116.271 E0.04439
G1 X109.747 Y115.727 E0.01738
G1 X111.273 Y117.253 E0.06897
G1 X111.816 Y117.253 E0.01738
G1 X109.747 Y115.184 E0.09355
G1 X109.747 Y114.640 E0.01738
G1 X112.360 Y117.253 E0.11813
G1 X112.904 Y117.253 E0.01738
G1 X109.747 Y114.096 E0.14270
G1 X109.747 Y113.553 E0.01738
G1 X113.447 Y117.253 E0.16728
G1 X113.991 Y117.253 E0.01738
G1 X109.747 Y113.009 E0.19186
G1 X109.747 Y112.465 E0.01738
G1 X114.535 Y117.253 E0.21643
G1 X115.078 Y117.253 E0.01738
G1 X109.747 Y111.922 E0.24101
G1 X109.747 Y111.378 E0.01738
G1 X115.253 Y116.884 E0.24891
G1 X115.253 Y116.340 E0.01738
G1 X109.747 Y110.834 E0.24891
G1 X109.747 Y110.291 E0.01738
G1 X115.253 Y115.797 E0.24891
G1 X115.253 Y115.253 E0.01738
G1 X109.747 Y109.747 E0.24891
G1 X109.747 Y109.203 E0.01738
G1 X115.253 Y114.709 E0.24891
G1 X115.253 Y114.166 E0.01738
G1 X109.747 Y108.660 E0.24891
G1 X109.747 Y108.116 E0.01738
G1 X115.253 Y113.622 E0.24891
G1 X115.253 Y113.078 E0.01738
G1 X109.922 Y107.747 E0.24102
G1 X110.465 Y107.747 E0.01738
G1 X115.253 Y112.535 E0.21644
G1 X115.253 Y111.991 E0.01738
G1 X111.009 Y107.747 E0.19186
G1 X111.553 Y107.747 E0.01738
G1 X115.253 Y111.447 E0.16729
G1 X115.253 Y110.904 E0.01738
G1 X112.096 Y107.747 E0.14271
G1 X112.640 Y107.747 E0.01738
G1 X115.253 Y110.360 E0.11813
G1 X115.253 Y109.816 E0.01738
G1 X113.184 Y107.747 E0.09355
G1 X113.727 Y107.747 E0.01738
G1 X115.253 Y109.273 E0.06898
G1 X115.253 Y108.729 E0.01738
G1 X114.271 Y107.747 E0.04440
G1 X114.815 Y107.747 E0.01738
G1 X115.423 Y108.355 E0.02749
M106 S242.25
;BEFORE_LAYER_CHANGE
;0.35


G1 F5760
G1 X114.815 Y107.747 E-0.29790
G1 X114.271 Y107.747 E-0.18830
G1 X114.830 Y108.306 E-0.27380
G1 E-0.04000 F2100.00000
G1 Z0.800 F7200.000
;AFTER_LAYER_CHANGE
;0.35
G1 X119.493 Y88.860
G1 Z0.350
G1 E0.80000 F2100.00000
G1 F3000
G1 X119.741 Y89.869 E0.02513
G1 X119.744 Y102.054 E0.29470
G1 X119.252 Y118.598 E0.40029
G1 X119.090 Y119.436 E0.02064
G1 X118.679 Y120.184 E0.02064
G1 X118.255 Y120.622 E0.01474
G1 X117.745 Y120.956 E0.01474
G1 X117.175 Y121.170 E0.01474
G1 X116.566 Y121.253 E0.01484
G1 X100.713 Y121.437 E0.38343
G1 X92.649 Y121.437 E0.19504
G1 X91.780 Y121.282 E0.02133
G1 X91.005 Y120.862 E0.02133
G1 X90.562 Y120.432 E0.01494
G1 X90.224 Y119.910 E0.01504
G1 X90.011 Y119.325 E0.01504
G1 X89.936 Y118.712 E0.01494
G1 X89.936 Y106.666 E0.29133
G1 X90.108 Y90.514 E0.39066
G1 X90.266 Y89.663 E0.02093
G1 X90.682 Y88.900 E0.02103
G1 X91.084 Y88.480 E0.01405
G1 X91.569 Y88.152 E0.01415
G1 X92.112 Y87.934 E0.01415
G1 X92.689 Y87.836 E0.01415
G1 X108.925 Y87.256 E0.39292
G1 X116.994 Y87.255 E0.19516
G1 X118.015 Y87.453 E0.02513
G1 X118.889 Y88.014 E0.02513
G1 X119.458 Y88.811 E0.02368
G1 F5760
G1 X119.741 Y89.869 E-0.37932
G1 X119.741 Y90.968 E-0.38068
G1 E-0.04000 F2100.00000
G1 Z0.950 F7200.000
G1 X115.930 Y91.070
G1 Z0.350
G1 E0.80000 F2100.00000
M204 S800
G1 F1200
G1 X115.930 Y100.949 E0.25740
G1 X110.051 Y100.949 E0.15318
G1 X110.051 Y91.070 E0.25740
G1 X115.870 Y91.070 E0.15161
M204 S1000
G1 X116.348 Y90.652 F7200.000
M204 S800
G1 F1200
G1 X116.348 Y101.366 E0.27917
G1 X109.633 Y101.366 E0.17495
G1 X109.633 Y90.652 E0.27917
G1 X116.288 Y90.652 E0.17339
M204 S1000
G1 X116.765 Y90.234 F7200.000
M204 S800
G1 F1200
G1 X116.765 Y101.784 E0.30094
G1 X109.215 Y101.784 E0.19672
G1 X109.215 Y90.234 E0.30094
G1 X116.705 Y90.234 E0.19516
M204 S1000
G1 X116.689 Y90.627 F7200.000
G1 F5760
G1 X116.717 Y92.429 E-0.76000
G1 E-0.04000 F2100.00000
G1 Z0.950 F7200.000
G1 X111.055 Y91.195
G1 Z0.350
G1 E0.80000 F2100.00000
M204 S2000
G1 F3000
G1 X110.364 Y91.886 E0.02642
G1 X110.364 Y92.499 E0.01660
G1 X111.480 Y91.383 E0.04271
G1 X112.094 Y91.383 E0.01660
G1 X110.364 Y93.113 E0.06619
G1 X110.364 Y93.727 E0.01660
G1 X112.708 Y91.383 E0.08967
G1 X113.321 Y91.383 E0.01660
G1 X110.364 Y94.340 E0.11315
G1 X110.364 Y94.954 E0.01660
G1 X113.935 Y91.383 E0.13662
G1 X114.548 Y91.383 E0.01660
G1 X110.364 Y95.567 E0.16010
G1 X110.364 Y96.181 E0.01660
G1 X115.162 Y91.383 E0.18358
G1 X115.616 Y91.383 E0.01230
G1 X115.616 Y91.542 E0.00431
G1 X110.364 Y96.794 E0.20097
G1 X110.364 Y97.408 E0.01660
G1 X115.616 Y92.156 E0.20097
G1 X115.616 Y92.770 E0.01660
G1 X110.364 Y98.022 E0.20097
G1 X110.364 Y98.635 E0.01660
G1 X115.616 Y93.383 E0.20097
G1 X115.616 Y93.997 E0.01660
G1 X110.364 Y99.249 E0.20097
G1 X110.364 Y99.862 E0.01660
G1 X115.616 Y94.610 E0.20097
G1 X115.616 Y95.224 E0.01660
G1 X110.364 Y100.476 E0.20097
G1 X110.364 Y100.635 E0.00431
G1 X110.819 Y100.635 E0.01229
G1 X115.616 Y95.838 E0.18359
G1 X115.616 Y96.451 E0.01660
G1 X111.432 Y100.635 E0.16011
G1 X112.046 Y100.635 E0.01660
G1 X115.616 Y97.065 E0.13663
G1 X115.616 Y97.678 E0.01660
G1 X112.659 Y100.635 E0.11315
G1 X113.273 Y100.635 E0.01660
G1 X115.616 Y98.292 E0.08967
G1 X115.616 Y98.905 E0.01660
G1 X113.887 Y100.635 E0.06619
G1 X114.500 Y100.635 E0.01660
G1 X115.616 Y99.519 E0.04271
G1 X115.616 Y100.133 E0.01660
G1 X114.926 Y100.823 E0.02643
M204 S1000
G1 F5760
G1 X115.616 Y100.133 E-0.33830
G1 X115.616 Y99.519 E-0.21252
G1 X115.189 Y99.946 E-0.20918
G1 E-0.04000 F2100.00000
G1 Z0.950 F7200.000
G1 X99.801 Y101.524
G1 Z0.350
G1 E0.80000 F2100.00000
M204 S800
G1 F1200
G1 X93.922 Y101.524 E0.15318
G1 X93.922 Y91.645 E0.25740
G1 X99.801 Y91.645 E0.15318
G1 X99.801 Y101.464 E0.25584
