; generated by Slic3r Prusa Edition 1.39.2+win64 on 2018-08-09 at 16:45:01

; 

; external perimeters extrusion width = 0.45mm
; perimeters extrusion width = 0.45mm
; infill extrusion width = 0.45mm
; solid infill extrusion width = 0.45mm
; top infill extrusion width = 0.45mm
; first layer extrusion width = 0.42mm

M107
M115 U3.1.0 ; tell printer latest fw version
M83  ; extruder relative mode
M104 S205 ; set extruder temp
M140 S55 ; set bed temp
M190 S55 ; wait for bed temp
M109 S205 ; wait for extruder temp
G28 W ; home all without mesh bed level
G80 ; mesh bed leveling
G1 Y-3.0 F1000.0 ; go outside print area
G92 E0.0
G1 X60.0 E9.0  F1000.0 ; intro line
G1 X100.0 E12.5  F1000.0 ; intro line
G92 E0.0
M900 K30; Filament gcode
G21 ; set units to millimeters
G90 ; use absolute coordinates
M83 ; use relative distances for extrusion
;BEFORE_LAYER_CHANGE
;0.2


G1 E-0.80000 F2100.00000
G1 Z0.600 F7200.000
;AFTER_LAYER_CHANGE
;0.2
G1 X86.233 Y84.645
G1 Z0.200
G1 E0.80000 F2100.00000
M204 S1000
G1 F1800
G1 X86.525 Y84.044 E0.02095
G1 X86.881 Y83.628 E0.01716
G1 X87.326 Y83.303 E0.01728
G1 X87.834 Y83.089 E0.01728
G1 X88.378 Y82.998 E0.01728
G1 X107.567 Y82.601 E0.60179
G1 X115.604 Y82.601 E0.25201
G1 X116.468 Y82.764 E0.02755
G1 X117.215 Y83.233 E0.02767
G1 X117.740 Y83.942 E0.02767
G1 X117.970 Y84.794 E0.02767
G1 X118.877 Y106.465 E0.68009
G1 X118.876 Y118.572 E0.37960
G1 X118.763 Y119.227 E0.02083
G1 X118.471 Y119.828 E0.02095
G1 X118.113 Y120.246 E0.01728
G1 X117.667 Y120.571 E0.01728
G1 X117.159 Y120.784 E0.01728
G1 X116.615 Y120.874 E0.01728
G1 X98.937 Y121.654 E0.55483
G1 X90.802 Y121.652 E0.25508
G1 X90.159 Y121.535 E0.02048
G1 X89.576 Y121.249 E0.02036
G1 X89.197 Y120.931 E0.01550
G1 X88.892 Y120.543 E0.01550
G1 X88.674 Y120.099 E0.01550
G1 X88.552 Y119.620 E0.01550
G1 X86.128 Y97.567 E0.69562
G1 X86.121 Y85.303 E0.38452
G1 X86.223 Y84.704 E0.01907
G1 F5760
G1 X86.525 Y84.044 E-0.25145
G1 X86.881 Y83.628 E-0.18955
G1 X87.326 Y83.303 E-0.19086
G1 X87.667 Y83.159 E-0.12813
G1 E-0.04000 F2100.00000
G1 Z0.800 F7200.000
G1 X91.868 Y108.241
G1 Z0.200
G1 E0.80000 F2100.00000
G1 F1800
G1 X97.940 Y108.241 E0.19037
G1 X97.940 Y118.313 E0.31579
G1 X91.868 Y118.313 E0.19037
G1 X91.868 Y108.301 E0.31391
G1 X91.491 Y107.864 F7200.000
G1 F1800
G1 X98.317 Y107.864 E0.21402
G1 X98.317 Y118.690 E0.33944
G1 X91.491 Y118.690 E0.21402
G1 X91.491 Y107.924 E0.33756
G1 X91.114 Y107.487 F7200.000
G1 F1800
G1 X98.694 Y107.487 E0.23767
G1 X98.694 Y119.067 E0.36308
G1 X91.114 Y119.067 E0.23767
G1 X91.114 Y107.547 E0.36120
G1 X91.493 Y107.617 F7200.000
G1 F5760
G1 X93.309 Y107.530 E-0.76000
G1 E-0.04000 F2100.00000
G1 Z0.800 F7200.000
G1 X97.827 Y109.132
G1 Z0.200
G1 E0.80000 F2100.00000
G1 F1800
G1 X97.219 Y108.524 E0.02749
G1 X96.675 Y108.524 E0.01738
G1 X97.657 Y109.506 E0.04440
G1 X97.657 Y110.050 E0.01738
G1 X96.132 Y108.524 E0.06898
G1 X95.588 Y108.524 E0.01738
G1 X97.657 Y110.594 E0.09355
G1 X97.657 Y111.137 E0.01738
G1 X95.044 Y108.524 E0.11813
G1 X94.501 Y108.524 E0.01738
G1 X97.657 Y111.681 E0.14271
G1 X97.657 Y112.225 E0.01738
G1 X93.957 Y108.524 E0.16729
G1 X93.413 Y108.524 E0.01738
G1 X97.657 Y112.768 E0.19186
G1 X97.657 Y113.312 E0.01738
G1 X92.870 Y108.524 E0.21644
G1 X92.326 Y108.524 E0.01738
G1 X97.657 Y113.856 E0.24102
G1 X97.657 Y114.399 E0.01738
G1 X92.151 Y108.893 E0.24891
G1 X92.151 Y109.437 E0.01738
G1 X97.657 Y114.943 E0.24891
G1 X97.657 Y115.487 E0.01738
G1 X92.151 Y109.981 E0.24891
G1 X92.151 Y110.524 E0.01738
G1 X97.657 Y116.030 E0.24891
G1 X97.657 Y116.574 E0.01738
G1 X92.151 Y111.068 E0.24891
G1 X92.151 Y111.612 E0.01738
G1 X97.657 Y117.118 E0.24891
G1 X97.657 Y117.661 E0.01738
G1 X92.151 Y112.155 E0.24891
G1 X92.151 Y112.699 E0.01738
G1 X97.483 Y118.030 E0.24101
G1 X96.939 Y118.030 E0.01738
G1 X92.151 Y113.243 E0.21643
G1 X92.151 Y113.786 E0.01738
G1 X96.395 Y118.030 E0.19186
G1 X95.852 Y118.030 E0.01738
G1 X92.151 Y114.330 E0.16728
G1 X92.151 Y114.874 E0.01738
G1 X95.308 Y118.030 E0.14270
G1 X94.764 Y118.030 E0.01738
G1 X92.151 Y115.417 E0.11813
G1 X92.151 Y115.961 E0.01738
G1 X94.221 Y118.030 E0.09355
G1 X93.677 Y118.030 E0.01738
G1 X92.151 Y116.505 E0.06897
G1 X92.151 Y117.048 E0.01738
G1 X93.133 Y118.030 E0.04439
G1 X92.590 Y118.030 E0.01738
G1 X91.982 Y117.422 E0.02749
G1 F5760
G1 X92.590 Y118.030 E-0.29784
G1 X93.133 Y118.030 E-0.18830
G1 X92.574 Y117.471 E-0.27386
G1 E-0.04000 F2100.00000
G1 Z0.800 F7200.000
G1 X109.464 Y117.422
G1 Z0.200
G1 E0.80000 F2100.00000
G1 F1800
G1 X109.464 Y107.464 E0.31223
G1 X115.536 Y107.464 E0.19037
G1 X115.536 Y117.536 E0.31579
G1 X109.464 Y117.536 E0.19037
G1 X109.464 Y117.482 E0.00168
G1 X109.087 Y117.913 F7200.000
G1 F1800
G1 X109.087 Y107.087 E0.33944
G1 X115.913 Y107.087 E0.21402
G1 X115.913 Y117.913 E0.33944
G1 X109.147 Y117.913 E0.21214
G1 X108.710 Y118.290 F7200.000
G1 F1800
G1 X108.710 Y106.710 E0.36308
G1 X116.290 Y106.710 E0.23767
G1 X116.290 Y118.290 E0.36308
G1 X108.770 Y118.290 E0.23578
G1 X108.787 Y117.897 F7200.000
G1 F5760
G1 X108.759 Y116.096 E-0.76000
G1 E-0.04000 F2100.00000
G1 Z0.800 F7200.000
G1 X109.577 Y116.645
G1 Z0.200
G1 E0.80000 F2100.00000
G1 F1800
G1 X110.185 Y117.253 E0.02749
G1 X110.729 Y117.253 E0.01738
G1 X109.747 Y116.271 E0.04439
G1 X109.747 Y115.727 E0.01738
G1 X111.273 Y117.253 E0.06897
G1 X111.816 Y117.253 E0.01738
G1 X109.747 Y115.184 E0.09355
G1 X109.747 Y114.640 E0.01738
G1 X112.360 Y117.253 E0.11813
G1 X112.904 Y117.253 E0.01738
G1 X109.747 Y114.096 E0.14270
G1 X109.747 Y113.553 E0.01738
G1 X113.447 Y117.253 E0.16728
G1 X113.991 Y117.253 E0.01738
G1 X109.747 Y113.009 E0.19186
G1 X109.747 Y112.465 E0.01738
G1 X114.535 Y117.253 E0.21643
G1 X115.078 Y117.253 E0.01738
G1 X109.747 Y111.922 E0.24101
G1 X109.747 Y111.378 E0.01738
G1 X115.253 Y116.884 E0.24891
G1 X115.253 Y116.340 E0.01738
G1 X109.747 Y110.834 E0.24891
G1 X109.747 Y110.291 E0.01738
G1 X115.253 Y115.797 E0.24891
G1 X115.253 Y115.253 E0.01738
G1 X109.747 Y109.747 E0.24891
G1 X109.747 Y109.203 E0.01738
G1 X115.253 Y114.709 E0.24891
G1 X115.253 Y114.166 E0.01738
G1 X109.747 Y108.660 E0.24891
G1 X109.747 Y108.116 E0.01738
G1 X115.253 Y113.622 E0.24891
G1 X115.253 Y113.078 E0.01738
G1 X109.922 Y107.747 E0.24102
G1 X110.465 Y107.747 E0.01738
G1 X115.253 Y112.535 E0.21644
G1 X115.253 Y111.991 E0.01738
G1 X111.009 Y107.747 E0.19186
G1 X111.553 Y107.747 E0.01738
G1 X115.253 Y111.447 E0.16729
G1 X115.253 Y110.904 E0.01738
G1 X112.096 Y107.747 E0.14271
G1 X112.640 Y107.747 E0.01738
G1 X115.253 Y110.360 E0.11813
G1 X115.253 Y109.816 E0.01738
G1 X113.184 Y107.747 E0.09355
G1 X113.727 Y107.747 E0.01738
G1 X115.253 Y109.273 E0.06898
G1 X115.253 Y108.729 E0.01738
G1 X114.271 Y107.747 E0.04440
G1 X114.815 Y107.747 E0.01738
G1 X115.423 Y108.355 E0.02749
G1 F5760
G1 X114.815 Y107.747 E-0.29790
G1 X114.271 Y107.747 E-0.18830
G1 X114.830 Y108.306 E-0.27380
G1 E-0.04000 F2100.00000
G1 Z0.800 F7200.000
G1 X114.636 Y96.014
G1 Z0.200
G1 E0.80000 F2100.00000
G1 F1800
G1 X108.565 Y96.014 E0.19037
G1 X108.565 Y85.942 E0.31579
G1 X114.636 Y85.942 E0.19037
G1 X114.636 Y95.954 E0.31391
G1 X115.013 Y96.391 F7200.000
G1 F1800
G1 X108.188 Y96.391 E0.21402
G1 X108.188 Y85.565 E0.33944
G1 X115.013 Y85.565 E0.21402
G1 X115.013 Y96.331 E0.33756
G1 X115.390 Y96.768 F7200.000
G1 F1800
G1 X107.810 Y96.768 E0.23767
G1 X107.810 Y85.188 E0.36308
G1 X115.390 Y85.188 E0.23767
G1 X115.390 Y96.708 E0.36120
G1 X115.012 Y96.638 F7200.000
G1 F5760
G1 X113.196 Y96.725 E-0.76000
G1 E-0.04000 F2100.00000
G1 Z0.800 F7200.000
G1 X108.678 Y95.123
G1 Z0.200
G1 E0.80000 F2100.00000
G1 F1800
G1 X109.286 Y95.731 E0.02749
G1 X109.829 Y95.731 E0.01738
G1 X108.847 Y94.749 E0.04439
G1 X108.847 Y94.205 E0.01738
G1 X110.373 Y95.731 E0.06897
G1 X110.917 Y95.731 E0.01738
G1 X108.847 Y93.661 E0.09355
G1 X108.847 Y93.118 E0.01738
G1 X111.460 Y95.731 E0.11813
G1 X112.004 Y95.731 E0.01738
G1 X108.847 Y92.574 E0.14270
G1 X108.847 Y92.030 E0.01738
G1 X112.548 Y95.731 E0.16728
G1 X113.091 Y95.731 E0.01738
G1 X108.847 Y91.487 E0.19186
G1 X108.847 Y90.943 E0.01738
G1 X113.635 Y95.731 E0.21643
G1 X114.179 Y95.731 E0.01738
G1 X108.847 Y90.399 E0.24101
G1 X108.847 Y89.856 E0.01738
G1 X114.354 Y95.362 E0.24891
G1 X114.354 Y94.818 E0.01738
G1 X108.847 Y89.312 E0.24891
G1 X108.847 Y88.768 E0.01738
G1 X114.354 Y94.275 E0.24891
G1 X114.354 Y93.731 E0.01738
G1 X108.847 Y88.225 E0.24891
G1 X108.847 Y87.681 E0.01738
G1 X114.354 Y93.187 E0.24891
G1 X114.354 Y92.644 E0.01738
G1 X108.847 Y87.137 E0.24891
G1 X108.847 Y86.594 E0.01738
G1 X114.354 Y92.100 E0.24891
G1 X114.354 Y91.556 E0.01738
G1 X109.022 Y86.225 E0.24102
G1 X109.566 Y86.225 E0.01738
G1 X114.354 Y91.013 E0.21644
G1 X114.354 Y90.469 E0.01738
G1 X110.109 Y86.225 E0.19186
G1 X110.653 Y86.225 E0.01738
G1 X114.354 Y89.925 E0.16729
G1 X114.354 Y89.382 E0.01738
G1 X111.197 Y86.225 E0.14271
G1 X111.740 Y86.225 E0.01738
G1 X114.354 Y88.838 E0.11813
G1 X114.354 Y88.294 E0.01738
G1 X112.284 Y86.225 E0.09355
G1 X112.828 Y86.225 E0.01738
G1 X114.354 Y87.751 E0.06898
G1 X114.354 Y87.207 E0.01738
G1 X113.371 Y86.225 E0.04440
G1 X113.915 Y86.225 E0.01738
G1 X114.523 Y86.833 E0.02749
G1 F5760
G1 X113.915 Y86.225 E-0.29790
G1 X113.371 Y86.225 E-0.18830
G1 X113.930 Y86.784 E-0.27380
G1 E-0.04000 F2100.00000
G1 Z0.800 F7200.000
G1 X95.532 Y86.336
G1 Z0.200
G1 E0.80000 F2100.00000
G1 F1800
G1 X95.532 Y96.408 E0.31579
G1 X89.461 Y96.408 E0.19037
G1 X89.461 Y86.336 E0.31579
G1 X95.472 Y86.336 E0.18849
G1 X95.910 Y85.959 F7200.000
G1 F1800
G1 X95.910 Y96.785 E0.33944
G1 X89.084 Y96.785 E0.21402
G1 X89.084 Y85.959 E0.33944
G1 X95.850 Y85.959 E0.21214
G1 X96.287 Y85.582 F7200.000
G1 F1800
G1 X96.287 Y97.162 E0.36308
G1 X88.707 Y97.162 E0.23767
G1 X88.707 Y85.582 E0.36308
G1 X96.227 Y85.582 E0.23578
G1 X96.210 Y85.974 F7200.000
G1 F5760
G1 X96.238 Y87.776 E-0.76000
G1 E-0.04000 F2100.00000
G1 Z0.800 F7200.000
G1 X95.419 Y87.227
G1 Z0.200
G1 E0.80000 F2100.00000
G1 F1800
G1 X94.811 Y86.619 E0.02749
G1 X94.268 Y86.619 E0.01738
G1 X95.250 Y87.601 E0.04440
G1 X95.250 Y88.145 E0.01738
G1 X93.724 Y86.619 E0.06898
G1 X93.180 Y86.619 E0.01738
G1 X95.250 Y88.688 E0.09355
G1 X95.250 Y89.232 E0.01738
G1 X92.637 Y86.619 E0.11813
G1 X92.093 Y86.619 E0.01738
G1 X95.250 Y89.776 E0.14271
G1 X95.250 Y90.319 E0.01738
G1 X91.549 Y86.619 E0.16729
G1 X91.006 Y86.619 E0.01738
G1 X95.250 Y90.863 E0.19186
G1 X95.250 Y91.407 E0.01738
G1 X90.462 Y86.619 E0.21644
G1 X89.918 Y86.619 E0.01738
G1 X95.250 Y91.950 E0.24102
G1 X95.250 Y92.494 E0.01738
G1 X89.744 Y86.988 E0.24891
G1 X89.744 Y87.531 E0.01738
G1 X95.250 Y93.038 E0.24891
G1 X95.250 Y93.581 E0.01738
G1 X89.744 Y88.075 E0.24891
G1 X89.744 Y88.619 E0.01738
G1 X95.250 Y94.125 E0.24891
G1 X95.250 Y94.669 E0.01738
G1 X89.744 Y89.162 E0.24891
G1 X89.744 Y89.706 E0.01738
G1 X95.250 Y95.212 E0.24891
G1 X95.250 Y95.756 E0.01738
G1 X89.744 Y90.250 E0.24891
G1 X89.744 Y90.793 E0.01738
G1 X95.075 Y96.125 E0.24101
G1 X94.531 Y96.125 E0.01738
G1 X89.744 Y91.337 E0.21643
G1 X89.744 Y91.881 E0.01738
G1 X93.988 Y96.125 E0.19186
G1 X93.444 Y96.125 E0.01738
G1 X89.744 Y92.424 E0.16728
G1 X89.744 Y92.968 E0.01738
G1 X92.900 Y96.125 E0.14270
G1 X92.357 Y96.125 E0.01738
G1 X89.744 Y93.512 E0.11813
G1 X89.744 Y94.055 E0.01738
G1 X91.813 Y96.125 E0.09355
G1 X91.269 Y96.125 E0.01738
G1 X89.744 Y94.599 E0.06897
G1 X89.744 Y95.143 E0.01738
G1 X90.726 Y96.125 E0.04439
G1 X90.182 Y96.125 E0.01738
G1 X89.574 Y95.517 E0.02749
M106 S242.25
;BEFORE_LAYER_CHANGE
;0.35


G1 F5760
G1 X90.182 Y96.125 E-0.29784
G1 X90.726 Y96.125 E-0.18830
G1 X90.167 Y95.566 E-0.27386
G1 E-0.04000 F2100.00000
G1 Z0.800 F7200.000
;AFTER_LAYER_CHANGE
;0.35
G1 X117.215 Y83.233
G1 Z0.350
G1 E0.80000 F2100.00000
G1 F3000
G1 X117.740 Y83.942 E0.02134
G1 X117.970 Y84.794 E0.02134
G1 X118.877 Y106.465 E0.52458
G1 X118.876 Y118.572 E0.29280
G1 X118.763 Y119.227 E0.01607
G1 X118.471 Y119.828 E0.01616
G1 X118.113 Y120.246 E0.01333
G1 X117.667 Y120.571 E0.01333
G1 X117.159 Y120.784 E0.01333
G1 X116.615 Y120.874 E0.01333
G1 X98.937 Y121.654 E0.42797
G1 X90.802 Y121.652 E0.19675
G1 X90.159 Y121.535 E0.01579
G1 X89.576 Y121.249 E0.01570
G1 X89.197 Y120.931 E0.01195
G1 X88.892 Y120.543 E0.01195
G1 X88.674 Y120.099 E0.01195
G1 X88.552 Y119.620 E0.01195
G1 X86.128 Y97.567 E0.53656
G1 X86.121 Y85.303 E0.29660
G1 X86.233 Y84.645 E0.01616
G1 X86.525 Y84.044 E0.01616
G1 X86.881 Y83.628 E0.01324
G1 X87.326 Y83.303 E0.01333
G1 X87.834 Y83.089 E0.01333
G1 X88.378 Y82.998 E0.01333
G1 X107.567 Y82.601 E0.46419
G1 X115.604 Y82.601 E0.19439
G1 X116.468 Y82.764 E0.02125
G1 X117.164 Y83.201 E0.01989
G1 F5760
G1 X117.740 Y83.942 E-0.32505
G1 X117.970 Y84.794 E-0.30561
G1 X117.986 Y85.167 E-0.12935
G1 E-0.04000 F2100.00000
G1 Z0.950 F7200.000
G1 X97.844 Y108.338
G1 Z0.350
G1 E0.80000 F2100.00000
M204 S800
G1 F1200
G1 X97.844 Y118.217 E0.25740
G1 X91.965 Y118.217 E0.15318
G1 X91.965 Y108.338 E0.25740
G1 X97.784 Y108.338 E0.15161
M204 S1000
G1 X98.262 Y107.920 F7200.000
M204 S800
G1 F1200
G1 X98.262 Y118.635 E0.27917
G1 X91.547 Y118.635 E0.17495
G1 X91.547 Y107.920 E0.27917
G1 X98.202 Y107.920 E0.17339
M204 S1000
G1 X98.679 Y107.502 F7200.000
M204 S800
G1 F1200
G1 X98.679 Y119.052 E0.30094
G1 X91.129 Y119.052 E0.19672
G1 X91.129 Y107.502 E0.30094
G1 X98.619 Y107.502 E0.19516
M204 S1000
G1 X98.603 Y107.895 F7200.000
G1 F5760
G1 X98.631 Y109.697 E-0.76000
G1 E-0.04000 F2100.00000
G1 Z0.950 F7200.000
G1 X92.969 Y108.463
G1 Z0.350
G1 E0.80000 F2100.00000
M204 S2000
G1 F3000
G1 X92.278 Y109.154 E0.02642
G1 X92.278 Y109.767 E0.01660
G1 X93.394 Y108.651 E0.04271
G1 X94.008 Y108.651 E0.01660
G1 X92.278 Y110.381 E0.06619
G1 X92.278 Y110.995 E0.01660
G1 X94.622 Y108.651 E0.08967
G1 X95.235 Y108.651 E0.01660
G1 X92.278 Y111.608 E0.11315
G1 X92.278 Y112.222 E0.01660
G1 X95.849 Y108.651 E0.13662
G1 X96.462 Y108.651 E0.01660
G1 X92.278 Y112.835 E0.16010
G1 X92.278 Y113.449 E0.01660
G1 X97.076 Y108.651 E0.18358
G1 X97.530 Y108.651 E0.01230
G1 X97.530 Y108.810 E0.00431
G1 X92.278 Y114.063 E0.20097
G1 X92.278 Y114.676 E0.01660
G1 X97.530 Y109.424 E0.20097
G1 X97.530 Y110.038 E0.01660
G1 X92.278 Y115.290 E0.20097
G1 X92.278 Y115.903 E0.01660
G1 X97.530 Y110.651 E0.20097
G1 X97.530 Y111.265 E0.01660
G1 X92.278 Y116.517 E0.20097
G1 X92.278 Y117.130 E0.01660
G1 X97.530 Y111.878 E0.20097
G1 X97.530 Y112.492 E0.01660
G1 X92.278 Y117.744 E0.20097
G1 X92.278 Y117.903 E0.00431
G1 X92.733 Y117.903 E0.01229
G1 X97.530 Y113.106 E0.18359
G1 X97.530 Y113.719 E0.01660
G1 X93.346 Y117.903 E0.16011
G1 X93.960 Y117.903 E0.01660
G1 X97.530 Y114.333 E0.13663
G1 X97.530 Y114.946 E0.01660
G1 X94.573 Y117.903 E0.11315
G1 X95.187 Y117.903 E0.01660
G1 X97.530 Y115.560 E0.08967
G1 X97.530 Y116.174 E0.01660
G1 X95.801 Y117.903 E0.06619
G1 X96.414 Y117.903 E0.01660
G1 X97.530 Y116.787 E0.04271
G1 X97.530 Y117.401 E0.01660
G1 X96.840 Y118.091 E0.02643
M204 S1000
G1 F5760
G1 X97.530 Y117.401 E-0.33830
G1 X97.530 Y116.787 E-0.21252
G1 X97.103 Y117.214 E-0.20918
G1 E-0.04000 F2100.00000
G1 Z0.950 F7200.000
G1 X109.561 Y117.439
G1 Z0.350
G1 E0.80000 F2100.00000
M204 S800
G1 F1200
G1 X109.561 Y107.561 E0.25740
G1 X115.439 Y107.561 E0.15318
G1 X115.439 Y117.439 E0.25740
G1 X109.621 Y117.439 E0.15161
M204 S1000
G1 X109.143 Y117.857 F7200.000
M204 S800
G1 F1200
G1 X109.143 Y107.143 E0.27917
G1 X115.857 Y107.143 E0.17495
G1 X115.857 Y117.857 E0.27917
G1 X109.203 Y117.857 E0.17339
M204 S1000
G1 X108.725 Y118.275 F7200.000
M204 S800
G1 F1200
G1 X108.725 Y106.725 E0.30094
G1 X116.275 Y106.725 E0.19672
G1 X116.275 Y118.275 E0.30094
G1 X108.785 Y118.275 E0.19516
M204 S1000
G1 X108.802 Y117.882 F7200.000
G1 F5760
G1 X108.774 Y116.081 E-0.76000
G1 E-0.04000 F2100.00000
G1 Z0.950 F7200.000
G1 X114.435 Y117.314
G1 Z0.350
G1 E0.80000 F2100.00000
M204 S2000
G1 F3000
G1 X115.126 Y116.623 E0.02643
G1 X115.126 Y116.010 E0.01660
G1 X114.010 Y117.126 E0.04271
G1 X113.396 Y117.126 E0.01660
G1 X115.126 Y115.396 E0.06619
G1 X115.126 Y114.783 E0.01660
G1 X112.783 Y117.126 E0.08967
G1 X112.169 Y117.126 E0.01660
G1 X115.126 Y114.169 E0.11315
G1 X115.126 Y113.555 E0.01660
G1 X111.555 Y117.126 E0.13663
G1 X110.942 Y117.126 E0.01660
