; generated by Slic3r Prusa Edition 1.39.2+win64 on 2018-05-31 at 15:49:25

; 

; external perimeters extrusion width = 0.45mm
; perimeters extrusion width = 0.45mm
; infill extrusion width = 0.45mm
; solid infill extrusion width = 0.45mm
; top infill extrusion width = 0.45mm
; first layer extrusion width = 0.42mm

M107
M115 U3.1.0 ; tell printer latest fw version
M83  ; extruder relative mode
M104 S205 ; set extruder temp
M140 S55 ; set bed temp
M190 S55 ; wait for bed temp
M109 S205 ; wait for extruder temp
G28 W ; home all without mesh bed level
G80 ; mesh bed leveling
G1 Y-3.0 F1000.0 ; go outside print area
G92 E0.0
G1 X60.0 E9.0  F1000.0 ; intro line
G1 X100.0 E12.5  F1000.0 ; intro line
G92 E0.0
M900 K30; Filament gcode
G21 ; set units to millimeters
G90 ; use absolute coordinates
M83 ; use relative distances for extrusion
;BEFORE_LAYER_CHANGE
;0.2


G1 E-0.80000 F2100.00000
G1 Z0.600 F7200.000
;AFTER_LAYER_CHANGE
;0.2
G1 X89.852 Y74.731
G1 Z0.200
G1 E0.80000 F2100.00000
M204 S1000
G1 F1800
G1 X90.198 Y74.199 E0.01989
G1 X90.676 Y73.776 E0.02000
G1 X91.248 Y73.495 E0.02000
G1 X91.875 Y73.376 E0.02000
G1 X115.504 Y73.373 E0.74086
G1 X116.388 Y73.545 E0.02825
G1 X117.142 Y74.031 E0.02813
G1 X117.662 Y74.763 E0.02813
G1 X117.874 Y75.638 E0.02825
G1 X118.377 Y100.737 E0.78710
G1 X118.377 Y129.269 E0.89461
G1 X118.318 Y129.779 E0.01609
G1 X118.148 Y130.267 E0.01621
G1 X117.795 Y130.808 E0.02024
G1 X117.310 Y131.233 E0.02024
G1 X116.728 Y131.513 E0.02024
G1 X116.089 Y131.625 E0.02036
G1 X88.981 Y131.627 E0.84994
G1 X88.471 Y131.568 E0.01609
G1 X87.983 Y131.398 E0.01621
G1 X87.445 Y131.048 E0.02012
G1 X87.021 Y130.566 E0.02012
G1 X86.741 Y129.989 E0.02012
G1 X86.625 Y129.354 E0.02024
G1 X86.624 Y100.670 E0.89936
G1 X89.641 Y75.455 E0.79622
G1 X89.836 Y74.788 E0.02178
G1 F5760
G1 X90.198 Y74.199 E-0.23963
G1 X90.676 Y73.776 E-0.22097
G1 X91.248 Y73.495 E-0.22097
G1 X91.471 Y73.453 E-0.07843
G1 E-0.04000 F2100.00000
G1 Z0.800 F7200.000
G1 X94.379 Y77.595
G1 Z0.200
G1 E0.80000 F2100.00000
G1 F1800
G1 X98.021 Y77.595 E0.11421
G1 X99.842 Y80.750 E0.11421
G1 X98.021 Y83.904 E0.11421
G1 X94.379 Y83.904 E0.11421
G1 X92.558 Y80.750 E0.11421
G1 X94.349 Y77.647 E0.11233
G1 X94.379 Y77.195 F7200.000
G1 F5760
G1 X96.543 Y77.616 E-0.76000
G1 E-0.04000 F2100.00000
G1 Z0.800 F7200.000
G1 X92.755 Y119.323
G1 Z0.200
G1 E0.80000 F2100.00000
G1 F1800
G1 X93.254 Y119.429 E0.01600
G1 X93.720 Y119.637 E0.01600
G1 X94.133 Y119.936 E0.01599
G1 X94.474 Y120.316 E0.01600
G1 X94.729 Y120.757 E0.01600
G1 X94.887 Y121.243 E0.01600
G1 X94.940 Y121.750 E0.01599
G1 X94.887 Y122.257 E0.01599
G1 X94.729 Y122.743 E0.01600
G1 X94.474 Y123.184 E0.01600
G1 X94.133 Y123.564 E0.01600
G1 X93.720 Y123.863 E0.01599
G1 X93.254 Y124.071 E0.01600
G1 X92.755 Y124.177 E0.01600
G1 X92.245 Y124.177 E0.01600
G1 X91.746 Y124.071 E0.01600
G1 X91.280 Y123.863 E0.01600
G1 X90.867 Y123.564 E0.01599
G1 X90.526 Y123.184 E0.01600
G1 X90.271 Y122.743 E0.01600
G1 X90.113 Y122.257 E0.01600
G1 X90.060 Y121.750 E0.01599
G1 X90.113 Y121.243 E0.01599
G1 X90.271 Y120.757 E0.01600
G1 X90.526 Y120.316 E0.01600
G1 X90.867 Y119.936 E0.01600
G1 X91.280 Y119.637 E0.01599
G1 X91.746 Y119.429 E0.01600
G1 X92.245 Y119.323 E0.01600
G1 X92.695 Y119.323 E0.01411
G1 X92.695 Y119.700 F7200.000
G1 F1800
G1 X93.137 Y119.790 E0.01414
G1 X93.531 Y119.965 E0.01351
G1 X93.879 Y120.218 E0.01351
G1 X94.168 Y120.538 E0.01351
G1 X94.383 Y120.912 E0.01351
G1 X94.516 Y121.322 E0.01351
G1 X94.561 Y121.750 E0.01351
G1 X94.516 Y122.178 E0.01351
G1 X94.383 Y122.588 E0.01351
G1 X94.168 Y122.962 E0.01351
G1 X93.879 Y123.282 E0.01351
G1 X93.531 Y123.535 E0.01351
G1 X93.137 Y123.710 E0.01351
G1 X92.715 Y123.800 E0.01351
G1 X92.285 Y123.800 E0.01351
G1 X91.863 Y123.710 E0.01351
G1 X91.469 Y123.535 E0.01351
G1 X91.121 Y123.282 E0.01351
G1 X90.832 Y122.962 E0.01351
G1 X90.617 Y122.588 E0.01351
G1 X90.484 Y122.178 E0.01351
G1 X90.439 Y121.750 E0.01351
G1 X90.484 Y121.322 E0.01351
G1 X90.617 Y120.912 E0.01351
G1 X90.832 Y120.538 E0.01351
G1 X91.121 Y120.218 E0.01351
G1 X91.469 Y119.965 E0.01351
G1 X91.863 Y119.790 E0.01351
G1 X92.285 Y119.700 E0.01351
G1 X92.635 Y119.700 E0.01099
G1 X92.928 Y119.375 F7200.000
G1 F5760
G1 X93.137 Y119.790 E-0.17658
G1 X93.531 Y119.965 E-0.14926
G1 X93.879 Y120.218 E-0.14923
G1 X94.168 Y120.538 E-0.14924
G1 X94.363 Y120.878 E-0.13570
G1 E-0.04000 F2100.00000
G1 Z0.800 F7200.000
G1 X92.755 Y109.177
G1 Z0.200
G1 E0.80000 F2100.00000
G1 F1800
G1 X92.245 Y109.177 E0.01600
G1 X91.746 Y109.071 E0.01600
G1 X91.280 Y108.863 E0.01600
G1 X90.867 Y108.564 E0.01599
G1 X90.526 Y108.184 E0.01600
G1 X90.271 Y107.743 E0.01600
G1 X90.113 Y107.257 E0.01600
G1 X90.060 Y106.750 E0.01599
G1 X90.113 Y106.243 E0.01599
G1 X90.271 Y105.756 E0.01605
G1 X90.533 Y105.307 E0.01629
G1 X90.867 Y104.936 E0.01565
G1 X91.280 Y104.637 E0.01599
G1 X91.746 Y104.429 E0.01600
G1 X92.245 Y104.323 E0.01600
G1 X92.755 Y104.323 E0.01600
G1 X93.254 Y104.429 E0.01600
G1 X93.720 Y104.637 E0.01600
G1 X94.133 Y104.936 E0.01599
G1 X94.474 Y105.316 E0.01600
G1 X94.729 Y105.757 E0.01600
G1 X94.887 Y106.243 E0.01600
G1 X94.940 Y106.750 E0.01599
G1 X94.887 Y107.257 E0.01599
G1 X94.729 Y107.744 E0.01605
G1 X94.467 Y108.193 E0.01629
G1 X94.133 Y108.564 E0.01565
G1 X93.720 Y108.863 E0.01599
G1 X93.254 Y109.071 E0.01600
G1 X92.814 Y109.165 E0.01412
G1 X92.735 Y108.796 F7200.000
G1 F1800
G1 X92.285 Y108.800 E0.01414
G1 X91.863 Y108.710 E0.01351
G1 X91.469 Y108.535 E0.01351
G1 X91.121 Y108.282 E0.01351
G1 X90.832 Y107.962 E0.01351
G1 X90.617 Y107.588 E0.01351
G1 X90.484 Y107.178 E0.01351
G1 X90.439 Y106.750 E0.01351
G1 X90.484 Y106.321 E0.01351
G1 X90.617 Y105.911 E0.01353
G1 X90.839 Y105.531 E0.01381
G1 X91.121 Y105.218 E0.01319
G1 X91.469 Y104.965 E0.01351
G1 X91.863 Y104.790 E0.01351
G1 X92.285 Y104.700 E0.01351
G1 X92.715 Y104.700 E0.01351
G1 X93.137 Y104.790 E0.01351
G1 X93.531 Y104.965 E0.01351
G1 X93.879 Y105.218 E0.01351
G1 X94.168 Y105.538 E0.01351
G1 X94.383 Y105.912 E0.01351
G1 X94.516 Y106.321 E0.01351
G1 X94.561 Y106.750 E0.01351
G1 X94.516 Y107.178 E0.01351
G1 X94.383 Y107.589 E0.01353
G1 X94.161 Y107.969 E0.01381
G1 X93.879 Y108.282 E0.01319
G1 X93.531 Y108.535 E0.01351
G1 X93.137 Y108.710 E0.01351
G1 X92.794 Y108.783 E0.01099
G1 X92.575 Y109.162 F7200.000
G1 F5760
G1 X92.285 Y108.800 E-0.17657
G1 X91.863 Y108.710 E-0.14925
G1 X91.469 Y108.535 E-0.14926
G1 X91.121 Y108.282 E-0.14923
G1 X90.859 Y107.991 E-0.13570
G1 E-0.04000 F2100.00000
G1 Z0.800 F7200.000
G1 X110.060 Y106.750
G1 Z0.200
G1 E0.80000 F2100.00000
G1 F1800
G1 X110.113 Y106.243 E0.01599
G1 X110.271 Y105.757 E0.01600
G1 X110.526 Y105.316 E0.01600
G1 X110.867 Y104.936 E0.01600
G1 X111.280 Y104.637 E0.01599
G1 X111.746 Y104.429 E0.01600
G1 X112.245 Y104.323 E0.01600
G1 X112.755 Y104.323 E0.01600
G1 X113.254 Y104.429 E0.01600
G1 X113.720 Y104.637 E0.01600
G1 X114.133 Y104.936 E0.01599
G1 X114.474 Y105.316 E0.01600
G1 X114.729 Y105.757 E0.01600
G1 X114.887 Y106.243 E0.01600
G1 X114.940 Y106.750 E0.01599
G1 X114.887 Y107.257 E0.01599
G1 X114.729 Y107.743 E0.01600
G1 X114.474 Y108.184 E0.01600
G1 X114.133 Y108.564 E0.01600
G1 X113.720 Y108.863 E0.01599
G1 X113.254 Y109.071 E0.01600
G1 X112.755 Y109.177 E0.01600
G1 X112.245 Y109.177 E0.01600
G1 X111.746 Y109.071 E0.01600
G1 X111.280 Y108.863 E0.01600
G1 X110.867 Y108.564 E0.01599
G1 X110.526 Y108.184 E0.01600
G1 X110.270 Y107.741 E0.01604
G1 X110.112 Y107.246 E0.01630
G1 X110.066 Y106.810 E0.01376
G1 X110.441 Y106.770 F7200.000
G1 F1800
G1 X110.484 Y106.322 E0.01413
G1 X110.617 Y105.912 E0.01351
G1 X110.832 Y105.538 E0.01351
G1 X111.121 Y105.218 E0.01351
G1 X111.469 Y104.965 E0.01351
G1 X111.863 Y104.790 E0.01351
G1 X112.285 Y104.700 E0.01351
G1 X112.715 Y104.700 E0.01351
G1 X113.137 Y104.790 E0.01351
G1 X113.531 Y104.965 E0.01351
G1 X113.879 Y105.218 E0.01351
G1 X114.168 Y105.538 E0.01351
G1 X114.383 Y105.912 E0.01351
G1 X114.516 Y106.322 E0.01351
G1 X114.561 Y106.750 E0.01351
G1 X114.516 Y107.178 E0.01351
G1 X114.383 Y107.588 E0.01351
G1 X114.168 Y107.962 E0.01351
G1 X113.879 Y108.282 E0.01351
G1 X113.531 Y108.535 E0.01351
G1 X113.137 Y108.710 E0.01351
G1 X112.715 Y108.800 E0.01351
G1 X112.285 Y108.800 E0.01351
G1 X111.863 Y108.710 E0.01351
G1 X111.469 Y108.535 E0.01351
G1 X111.121 Y108.282 E0.01351
G1 X110.832 Y107.962 E0.01351
G1 X110.617 Y107.588 E0.01353
G1 X110.483 Y107.168 E0.01381
G1 X110.447 Y106.830 E0.01067
G1 X110.093 Y106.573 F7200.000
G1 F5760
G1 X110.484 Y106.322 E-0.17656
G1 X110.617 Y105.912 E-0.14927
G1 X110.832 Y105.538 E-0.14924
G1 X111.121 Y105.218 E-0.14924
G1 X111.438 Y104.988 E-0.13569
G1 E-0.04000 F2100.00000
G1 Z0.800 F7200.000
G1 X106.943 Y76.841
G1 Z0.200
G1 E0.80000 F2100.00000
G1 F1800
G1 X111.457 Y76.841 E0.14151
G1 X111.755 Y77.358 E0.01869
G1 X113.713 Y80.750 E0.12282
G1 X111.457 Y84.659 E0.14151
G1 X106.943 Y84.659 E0.14151
G1 X104.687 Y80.750 E0.14151
G1 X106.913 Y76.893 E0.13963
G1 X107.161 Y77.218 F7200.000
G1 F1800
G1 X111.239 Y77.218 E0.12786
G1 X111.428 Y77.546 E0.01187
G1 X113.278 Y80.750 E0.11599
G1 X111.239 Y84.282 E0.12786
G1 X107.161 Y84.282 E0.12786
G1 X105.122 Y80.750 E0.12786
G1 X107.131 Y77.270 E0.12598
G1 X107.379 Y77.595 F7200.000
G1 F1800
G1 X111.021 Y77.595 E0.11421
G1 X111.102 Y77.735 E0.00504
G1 X112.842 Y80.750 E0.10917
G1 X111.021 Y83.904 E0.11421
G1 X107.379 Y83.904 E0.11421
G1 X105.558 Y80.750 E0.11421
G1 X107.349 Y77.647 E0.11233
G1 X107.379 Y77.195 F7200.000
G1 F5760
G1 X109.543 Y77.616 E-0.76000
G1 E-0.04000 F2100.00000
G1 Z0.800 F7200.000
G1 X114.536 Y101.714
G1 Z0.200
G1 E0.80000 F2100.00000
G1 F1800
G1 X115.036 Y101.714 E0.01568
G1 X115.036 Y105.534 E0.11977
G1 X114.781 Y105.093 E0.01598
G1 X114.387 Y104.655 E0.01848
G1 X113.910 Y104.308 E0.01848
G1 X113.371 Y104.068 E0.01848
G1 X112.795 Y103.946 E0.01848
G1 X112.205 Y103.946 E0.01848
G1 X111.629 Y104.068 E0.01848
G1 X111.090 Y104.308 E0.01848
G1 X110.613 Y104.655 E0.01848
G1 X110.219 Y105.093 E0.01848
G1 X109.924 Y105.603 E0.01848
G1 X109.742 Y106.164 E0.01849
G1 X109.681 Y106.750 E0.01848
G1 X109.741 Y107.324 E0.01810
G1 X109.923 Y107.895 E0.01878
G1 X110.219 Y108.407 E0.01856
G1 X110.613 Y108.845 E0.01848
G1 X111.090 Y109.192 E0.01848
G1 X111.629 Y109.431 E0.01848
G1 X112.205 Y109.554 E0.01848
G1 X112.795 Y109.554 E0.01848
G1 X113.371 Y109.431 E0.01848
G1 X113.910 Y109.192 E0.01848
G1 X114.387 Y108.845 E0.01848
G1 X114.781 Y108.407 E0.01848
G1 X115.036 Y107.966 E0.01598
G1 X115.036 Y120.534 E0.39406
G1 X114.781 Y120.093 E0.01598
G1 X114.387 Y119.655 E0.01848
G1 X113.910 Y119.308 E0.01848
G1 X113.371 Y119.068 E0.01848
G1 X112.795 Y118.946 E0.01848
G1 X112.205 Y118.946 E0.01848
G1 X111.629 Y119.068 E0.01848
G1 X111.090 Y119.308 E0.01848
G1 X110.613 Y119.655 E0.01848
G1 X110.219 Y120.093 E0.01848
G1 X109.924 Y120.603 E0.01848
G1 X109.742 Y121.164 E0.01849
G1 X109.681 Y121.750 E0.01848
G1 X109.741 Y122.324 E0.01810
G1 X109.923 Y122.895 E0.01878
G1 X110.219 Y123.407 E0.01856
G1 X110.613 Y123.845 E0.01848
G1 X111.090 Y124.192 E0.01848
G1 X111.629 Y124.432 E0.01848
G1 X112.205 Y124.554 E0.01848
G1 X112.795 Y124.554 E0.01848
G1 X113.371 Y124.432 E0.01848
G1 X113.910 Y124.192 E0.01848
G1 X114.387 Y123.845 E0.01848
G1 X114.781 Y123.407 E0.01848
G1 X115.036 Y122.966 E0.01598
G1 X115.036 Y128.286 E0.16680
G1 X89.964 Y128.286 E0.78611
G1 X89.964 Y122.966 E0.16680
G1 X90.219 Y123.407 E0.01598
G1 X90.613 Y123.845 E0.01848
G1 X91.090 Y124.192 E0.01848
G1 X91.629 Y124.432 E0.01848
G1 X92.205 Y124.554 E0.01848
G1 X92.795 Y124.554 E0.01848
G1 X93.371 Y124.432 E0.01848
G1 X93.910 Y124.192 E0.01848
G1 X94.387 Y123.845 E0.01848
G1 X94.781 Y123.407 E0.01848
G1 X95.076 Y122.897 E0.01848
G1 X95.258 Y122.336 E0.01848
G1 X95.319 Y121.750 E0.01848
G1 X95.258 Y121.164 E0.01848
G1 X95.076 Y120.603 E0.01848
G1 X94.781 Y120.093 E0.01848
G1 X94.387 Y119.655 E0.01848
G1 X93.910 Y119.308 E0.01848
G1 X93.371 Y119.068 E0.01848
G1 X92.795 Y118.946 E0.01848
G1 X92.205 Y118.946 E0.01848
G1 X91.629 Y119.068 E0.01848
G1 X91.090 Y119.308 E0.01848
G1 X90.613 Y119.655 E0.01848
G1 X90.219 Y120.093 E0.01848
G1 X89.964 Y120.534 E0.01598
G1 X89.964 Y107.966 E0.39407
G1 X90.219 Y108.407 E0.01598
G1 X90.613 Y108.845 E0.01848
G1 X91.090 Y109.192 E0.01848
G1 X91.629 Y109.431 E0.01848
G1 X92.205 Y109.554 E0.01848
G1 X92.795 Y109.554 E0.01848
G1 X93.371 Y109.431 E0.01848
G1 X93.910 Y109.192 E0.01848
G1 X94.387 Y108.845 E0.01848
G1 X94.773 Y108.416 E0.01810
G1 X95.075 Y107.899 E0.01878
G1 X95.258 Y107.336 E0.01856
G1 X95.319 Y106.750 E0.01848
G1 X95.258 Y106.164 E0.01848
G1 X95.076 Y105.603 E0.01848
G1 X94.781 Y105.093 E0.01848
G1 X94.387 Y104.655 E0.01848
G1 X93.910 Y104.308 E0.01848
G1 X93.371 Y104.068 E0.01848
G1 X92.795 Y103.946 E0.01848
G1 X92.205 Y103.946 E0.01848
G1 X91.629 Y104.068 E0.01848
G1 X91.090 Y104.308 E0.01848
G1 X90.613 Y104.655 E0.01848
G1 X90.227 Y105.084 E0.01810
G1 X89.964 Y105.534 E0.01635
G1 X89.964 Y101.714 E0.11976
G1 X92.964 Y101.714 E0.09406
G1 X92.964 Y82.963 E0.58794
G1 X93.943 Y84.659 E0.06140
G1 X98.457 Y84.659 E0.14151
G1 X100.713 Y80.750 E0.14151
G1 X98.457 Y76.841 E0.14151
G1 X93.943 Y76.841 E0.14151
G1 X92.964 Y78.537 E0.06140
G1 X92.964 Y76.714 E0.05716
G1 X114.536 Y76.714 E0.67637
G1 X114.536 Y101.654 E0.78198
G1 F5760
G1 X115.036 Y101.714 E-0.17442
G1 X115.036 Y103.405 E-0.58558
G1 E-0.04000 F2100.00000
G1 Z0.800 F7200.000
G1 X112.755 Y119.323
G1 Z0.200
G1 E0.80000 F2100.00000
G1 F1800
G1 X113.254 Y119.429 E0.01600
G1 X113.720 Y119.637 E0.01600
G1 X114.133 Y119.936 E0.01599
G1 X114.474 Y120.316 E0.01600
G1 X114.730 Y120.759 E0.01604
G1 X114.888 Y121.254 E0.01630
G1 X114.940 Y121.750 E0.01564
G1 X114.887 Y122.257 E0.01599
G1 X114.729 Y122.743 E0.01600
G1 X114.474 Y123.184 E0.01600
G1 X114.133 Y123.564 E0.01600
G1 X113.720 Y123.863 E0.01599
G1 X113.254 Y124.071 E0.01600
G1 X112.755 Y124.177 E0.01600
G1 X112.245 Y124.177 E0.01600
G1 X111.746 Y124.071 E0.01600
G1 X111.280 Y123.863 E0.01600
G1 X110.867 Y123.564 E0.01599
G1 X110.526 Y123.184 E0.01600
G1 X110.270 Y122.741 E0.01604
G1 X110.112 Y122.246 E0.01630
G1 X110.060 Y121.750 E0.01564
G1 X110.113 Y121.243 E0.01599
G1 X110.271 Y120.757 E0.01600
G1 X110.526 Y120.316 E0.01600
G1 X110.867 Y119.936 E0.01600
G1 X111.280 Y119.637 E0.01599
G1 X111.746 Y119.429 E0.01600
G1 X112.245 Y119.323 E0.01600
G1 X112.695 Y119.323 E0.01412
G1 X112.695 Y119.700 F7200.000
G1 F1800
G1 X113.137 Y119.790 E0.01414
G1 X113.531 Y119.965 E0.01351
G1 X113.879 Y120.218 E0.01351
G1 X114.168 Y120.538 E0.01351
G1 X114.383 Y120.912 E0.01353
G1 X114.517 Y121.332 E0.01381
G1 X114.561 Y121.750 E0.01319
G1 X114.516 Y122.178 E0.01351
G1 X114.383 Y122.588 E0.01351
G1 X114.168 Y122.962 E0.01351
G1 X113.879 Y123.282 E0.01351
G1 X113.531 Y123.535 E0.01351
G1 X113.137 Y123.710 E0.01351
G1 X112.715 Y123.800 E0.01351
G1 X112.285 Y123.800 E0.01351
G1 X111.863 Y123.710 E0.01351
G1 X111.469 Y123.535 E0.01351
G1 X111.121 Y123.282 E0.01351
G1 X110.832 Y122.962 E0.01351
G1 X110.617 Y122.588 E0.01353
G1 X110.483 Y122.168 E0.01381
G1 X110.439 Y121.750 E0.01319
G1 X110.484 Y121.322 E0.01351
G1 X110.617 Y120.912 E0.01351
G1 X110.832 Y120.538 E0.01351
G1 X111.121 Y120.218 E0.01351
G1 X111.469 Y119.965 E0.01351
G1 X111.863 Y119.790 E0.01351
G1 X112.285 Y119.700 E0.01351
G1 X112.635 Y119.700 E0.01099
G1 X112.928 Y119.375 F7200.000
G1 F5760
G1 X113.137 Y119.790 E-0.17658
G1 X113.531 Y119.965 E-0.14925
G1 X113.879 Y120.218 E-0.14923
G1 X114.168 Y120.538 E-0.14924
G1 X114.363 Y120.878 E-0.13570
G1 E-0.04000 F2100.00000
G1 Z0.800 F7200.000
G1 X114.913 Y101.337
G1 Z0.200
G1 E0.80000 F2100.00000
G1 F1800
G1 X115.413 Y101.337 E0.01568
G1 X115.413 Y128.663 E0.85678
G1 X89.587 Y128.663 E0.80975
G1 X89.587 Y101.337 E0.85678
G1 X92.587 Y101.337 E0.09406
G1 X92.587 Y81.555 E0.62024
G1 X94.161 Y84.282 E0.09870
G1 X98.239 Y84.282 E0.12786
G1 X100.278 Y80.750 E0.12786
G1 X98.239 Y77.218 E0.12786
G1 X94.161 Y77.218 E0.12786
G1 X92.587 Y79.945 E0.09870
G1 X92.587 Y76.337 E0.11311
G1 X114.913 Y76.337 E0.70001
G1 X114.913 Y101.277 E0.78198
G1 X115.290 Y100.960 F7200.000
G1 F1800
G1 X115.790 Y100.960 E0.01568
