; generated by Slic3r Prusa Edition 1.39.2+win64 on 2018-05-24 at 15:08:01

; 

; external perimeters extrusion width = 0.45mm
; perimeters extrusion width = 0.45mm
; infill extrusion width = 0.45mm
; solid infill extrusion width = 0.45mm
; top infill extrusion width = 0.45mm
; first layer extrusion width = 0.42mm

M107
M115 U3.1.0 ; tell printer latest fw version
M83  ; extruder relative mode
M104 S205 ; set extruder temp
M140 S55 ; set bed temp
M190 S55 ; wait for bed temp
M109 S205 ; wait for extruder temp
G28 W ; home all without mesh bed level
G80 ; mesh bed leveling
G1 Y-3.0 F1000.0 ; go outside print area
G92 E0.0
G1 X60.0 E9.0  F1000.0 ; intro line
G1 X100.0 E12.5  F1000.0 ; intro line
G92 E0.0
M900 K30; Filament gcode
G21 ; set units to millimeters
G90 ; use absolute coordinates
M83 ; use relative distances for extrusion
;BEFORE_LAYER_CHANGE
;0.2


G1 E-0.80000 F2100.00000
G1 Z0.600 F7200.000
;AFTER_LAYER_CHANGE
;0.2
G1 X90.164 Y96.810
G1 Z0.200
G1 E0.80000 F2100.00000
M204 S1000
G1 F1800
G1 X91.078 Y96.258 E0.03348
G1 X92.024 Y95.938 E0.03130
G1 X93.007 Y95.824 E0.03105
G1 X111.941 Y95.823 E0.59366
G1 X112.768 Y95.897 E0.02604
G1 X113.575 Y96.115 E0.02621
G1 X114.329 Y96.469 E0.02613
G1 X115.027 Y96.965 E0.02683
G1 X115.596 Y97.542 E0.02541
G1 X116.082 Y98.249 E0.02690
G1 X116.452 Y99.089 E0.02876
G1 X116.642 Y99.900 E0.02612
G1 X116.688 Y104.586 E0.14694
G1 X116.478 Y105.831 E0.03958
G1 X116.066 Y106.779 E0.03240
G1 X115.484 Y107.588 E0.03126
G1 X114.793 Y108.223 E0.02944
G1 X113.923 Y108.742 E0.03175
G1 X112.976 Y109.062 E0.03134
G1 X111.993 Y109.176 E0.03104
G1 X92.636 Y109.157 E0.60691
G1 X91.434 Y108.889 E0.03862
G1 X90.280 Y108.277 E0.04096
G1 X89.378 Y107.427 E0.03885
G1 X88.736 Y106.392 E0.03816
G1 X88.450 Y105.570 E0.02732
G1 X88.314 Y104.633 E0.02969
G1 X88.312 Y100.432 E0.13169
G1 X88.427 Y99.525 E0.02868
G1 X88.778 Y98.519 E0.03341
G1 X89.390 Y97.560 E0.03568
G1 X90.121 Y96.852 E0.03190
G1 X90.382 Y97.126 F7200.000
G1 F1800
G1 X90.427 Y97.083 E0.00196
G1 X91.344 Y96.552 E0.03321
G1 X92.143 Y96.298 E0.02631
G1 X93.023 Y96.201 E0.02774
G1 X111.941 Y96.200 E0.59316
G1 X112.703 Y96.268 E0.02398
G1 X113.446 Y96.469 E0.02413
G1 X114.140 Y96.795 E0.02406
G1 X114.785 Y97.254 E0.02483
G1 X115.375 Y97.869 E0.02670
G1 X115.798 Y98.515 E0.02423
G1 X116.105 Y99.243 E0.02476
G1 X116.274 Y99.987 E0.02394
G1 X116.311 Y104.577 E0.14389
G1 X116.115 Y105.726 E0.03657
G1 X115.733 Y106.602 E0.02996
G1 X115.177 Y107.365 E0.02959
G1 X114.463 Y107.997 E0.02991
G1 X113.656 Y108.448 E0.02898
G1 X112.856 Y108.702 E0.02631
G1 X111.974 Y108.799 E0.02785
G1 X92.678 Y108.783 E0.60501
G1 X91.563 Y108.534 E0.03580
G1 X90.492 Y107.965 E0.03804
G1 X89.661 Y107.177 E0.03589
G1 X89.064 Y106.202 E0.03585
G1 X88.794 Y105.388 E0.02688
G1 X88.690 Y104.604 E0.02480
G1 X88.687 Y100.528 E0.12781
G1 X88.797 Y99.601 E0.02928
G1 X89.161 Y98.596 E0.03352
G1 X89.705 Y97.770 E0.03102
G1 X90.338 Y97.168 E0.02739
G1 F5760
G1 X90.427 Y97.083 E-0.04241
G1 X91.344 Y96.552 E-0.36684
G1 X92.143 Y96.298 E-0.29059
G1 X92.316 Y96.279 E-0.06016
G1 E-0.04000 F2100.00000
G1 Z0.800 F7200.000
G1 X92.761 Y100.895
G1 Z0.200
G1 E0.80000 F2100.00000
G1 F1800
G1 X93.059 Y100.723 E0.01079
G1 X93.383 Y100.605 E0.01079
G1 X93.803 Y100.541 E0.01332
G1 X94.226 Y100.568 E0.01332
G1 X94.561 Y100.658 E0.01086
G1 X94.940 Y100.845 E0.01324
G1 X95.213 Y101.054 E0.01079
G1 X95.445 Y101.308 E0.01079
G1 X95.666 Y101.671 E0.01332
G1 X95.802 Y102.073 E0.01332
G1 X95.847 Y102.417 E0.01086
G1 X95.820 Y102.838 E0.01324
G1 X95.731 Y103.171 E0.01079
G1 X95.585 Y103.483 E0.01079
G1 X95.334 Y103.825 E0.01332
G1 X95.015 Y104.105 E0.01332
G1 X94.717 Y104.277 E0.01079
G1 X94.393 Y104.395 E0.01079
G1 X93.974 Y104.459 E0.01332
G1 X93.550 Y104.432 E0.01332
G1 X93.217 Y104.343 E0.01079
G1 X92.906 Y104.197 E0.01079
G1 X92.565 Y103.947 E0.01324
G1 X92.331 Y103.692 E0.01086
G1 X92.112 Y103.331 E0.01324
G1 X91.993 Y103.005 E0.01086
G1 X91.929 Y102.588 E0.01324
G1 X91.944 Y102.242 E0.01086
G1 X92.045 Y101.829 E0.01332
G1 X92.233 Y101.448 E0.01332
G1 X92.444 Y101.173 E0.01086
G1 X92.716 Y100.935 E0.01136
G1 X92.729 Y100.552 F7200.000
G1 F5760
G1 X93.059 Y100.723 E-0.13962
G1 X93.383 Y100.605 E-0.11918
G1 X93.803 Y100.541 E-0.14710
G1 X94.226 Y100.568 E-0.14710
G1 X94.561 Y100.658 E-0.11998
G1 X94.786 Y100.769 E-0.08702
G1 E-0.04000 F2100.00000
G1 Z0.800 F7200.000
G1 X109.192 Y102.242
G1 Z0.200
G1 E0.80000 F2100.00000
G1 F1800
G1 X109.293 Y101.829 E0.01332
G1 X109.481 Y101.448 E0.01332
G1 X109.692 Y101.173 E0.01086
G1 X110.009 Y100.895 E0.01324
G1 X110.309 Y100.722 E0.01086
G1 X110.709 Y100.586 E0.01324
G1 X111.053 Y100.541 E0.01086
G1 X111.474 Y100.568 E0.01324
G1 X111.809 Y100.658 E0.01086
G1 X112.188 Y100.845 E0.01325
G1 X112.461 Y101.054 E0.01079
G1 X112.693 Y101.308 E0.01079
G1 X112.912 Y101.669 E0.01324
G1 X113.031 Y101.995 E0.01086
G1 X113.095 Y102.414 E0.01332
G1 X113.067 Y102.838 E0.01331
G1 X112.978 Y103.171 E0.01079
G1 X112.833 Y103.483 E0.01079
G1 X112.582 Y103.825 E0.01332
G1 X112.263 Y104.105 E0.01331
G1 X111.963 Y104.278 E0.01086
G1 X111.563 Y104.414 E0.01324
G1 X111.219 Y104.459 E0.01086
G1 X110.798 Y104.432 E0.01324
G1 X110.463 Y104.342 E0.01086
G1 X110.084 Y104.155 E0.01325
G1 X109.811 Y103.946 E0.01079
G1 X109.579 Y103.692 E0.01079
G1 X109.360 Y103.331 E0.01324
G1 X109.241 Y103.005 E0.01086
G1 X109.177 Y102.588 E0.01325
G1 X109.189 Y102.302 E0.00898
G1 X108.876 Y101.996 F7200.000
G1 F5760
G1 X109.293 Y101.829 E-0.16753
G1 X109.481 Y101.448 E-0.14712
G1 X109.692 Y101.173 E-0.11997
G1 X110.009 Y100.895 E-0.14628
G1 X110.309 Y100.722 E-0.11999
G1 X110.471 Y100.667 E-0.05910
G1 E-0.04000 F2100.00000
G1 Z0.800 F7200.000
G1 X112.965 Y100.491
G1 Z0.200
G1 E0.80000 F2100.00000
G1 F1800
G1 X112.588 Y100.201 E0.01492
G1 X112.076 Y99.949 E0.01790
G1 X111.598 Y99.821 E0.01552
G1 X111.028 Y99.783 E0.01790
G1 X110.537 Y99.848 E0.01552
G1 X109.996 Y100.031 E0.01790
G1 X109.568 Y100.279 E0.01552
G1 X109.139 Y100.656 E0.01790
G1 X108.837 Y101.048 E0.01551
G1 X108.580 Y101.570 E0.01824
G1 X108.442 Y102.135 E0.01824
G1 X108.420 Y102.629 E0.01551
G1 X108.507 Y103.194 E0.01791
G1 X108.676 Y103.659 E0.01552
G1 X108.972 Y104.147 E0.01790
G1 X109.300 Y104.504 E0.01519
G1 X109.684 Y104.799 E0.01519
G1 X110.196 Y105.051 E0.01791
G1 X110.674 Y105.179 E0.01552
G1 X111.244 Y105.217 E0.01790
G1 X111.735 Y105.152 E0.01552
G1 X112.275 Y104.969 E0.01790
G1 X112.704 Y104.721 E0.01552
G1 X112.959 Y104.498 E0.01062
G1 X112.908 Y104.776 E0.00887
G1 X112.784 Y105.016 E0.00847
G1 X112.699 Y105.121 E0.00424
G1 X112.601 Y105.214 E0.00424
G1 X112.374 Y105.359 E0.00846
G1 X112.061 Y105.448 E0.01019
G1 X93.040 Y105.457 E0.59641
G1 X92.846 Y105.432 E0.00614
G1 X92.668 Y105.377 E0.00581
G1 X92.415 Y105.226 E0.00927
G1 X92.281 Y105.098 E0.00579
G1 X92.145 Y104.897 E0.00761
G1 X92.076 Y104.725 E0.00582
G1 X92.037 Y104.544 E0.00579
G1 X92.033 Y104.483 E0.00191
G1 X92.520 Y104.849 E0.01908
G1 X92.959 Y105.054 E0.01519
G1 X93.426 Y105.179 E0.01519
G1 X94.007 Y105.217 E0.01824
G1 X94.582 Y105.129 E0.01824
G1 X95.037 Y104.963 E0.01519
G1 X95.456 Y104.721 E0.01519
G1 X95.893 Y104.338 E0.01824
G1 X96.237 Y103.869 E0.01823
G1 X96.442 Y103.430 E0.01519
G1 X96.567 Y102.962 E0.01519
G1 X96.605 Y102.392 E0.01790
G1 X96.540 Y101.901 E0.01552
G1 X96.353 Y101.350 E0.01824
G1 X96.051 Y100.853 E0.01823
G1 X95.724 Y100.496 E0.01519
G1 X95.340 Y100.201 E0.01519
G1 X94.828 Y99.949 E0.01790
G1 X94.350 Y99.821 E0.01552
G1 X93.769 Y99.783 E0.01823
G1 X93.195 Y99.871 E0.01824
G1 X92.739 Y100.037 E0.01519
G1 X92.320 Y100.279 E0.01519
G1 X92.039 Y100.526 E0.01173
G1 X92.060 Y100.333 E0.00606
G1 X92.092 Y100.224 E0.00358
G1 X92.216 Y99.984 E0.00846
G1 X92.301 Y99.879 E0.00424
G1 X92.399 Y99.786 E0.00424
G1 X92.626 Y99.641 E0.00846
G1 X92.939 Y99.552 E0.01019
G1 X111.885 Y99.542 E0.59405
G1 X112.170 Y99.573 E0.00900
G1 X112.332 Y99.624 E0.00531
G1 X112.491 Y99.707 E0.00564
G1 X112.634 Y99.816 E0.00564
G1 X112.749 Y99.941 E0.00531
G1 X112.876 Y100.151 E0.00768
G1 X112.934 Y100.310 E0.00533
G1 X112.955 Y100.432 E0.00387
G1 F5760
G1 X112.588 Y100.201 E-0.15027
G1 X112.076 Y99.949 E-0.19778
G1 X111.598 Y99.821 E-0.17141
G1 X111.028 Y99.783 E-0.19775
G1 X110.905 Y99.799 E-0.04279
G1 E-0.04000 F2100.00000
G1 Z0.800 F7200.000
G1 X113.345 Y101.755
G1 Z0.200
G1 E0.80000 F2100.00000
G1 F1800
G1 X113.254 Y101.505 E0.00834
G1 X112.996 Y101.081 E0.01557
G1 X112.716 Y100.775 E0.01299
G1 X112.388 Y100.523 E0.01299
G1 X111.942 Y100.303 E0.01558
G1 X111.536 Y100.195 E0.01319
G1 X111.040 Y100.162 E0.01557
G1 X110.623 Y100.217 E0.01319
G1 X110.153 Y100.377 E0.01557
G1 X109.788 Y100.587 E0.01319
G1 X109.415 Y100.914 E0.01557
G1 X109.159 Y101.248 E0.01319
G1 X108.936 Y101.699 E0.01578
G1 X108.817 Y102.188 E0.01578
G1 X108.799 Y102.608 E0.01319
G1 X108.874 Y103.099 E0.01558
G1 X109.018 Y103.495 E0.01319
G1 X109.276 Y103.919 E0.01557
G1 X109.555 Y104.225 E0.01299
G1 X109.884 Y104.477 E0.01299
G1 X110.330 Y104.697 E0.01558
G1 X110.736 Y104.805 E0.01319
G1 X111.231 Y104.838 E0.01557
G1 X111.649 Y104.783 E0.01319
G1 X112.119 Y104.623 E0.01557
G1 X112.483 Y104.413 E0.01319
G1 X112.861 Y104.081 E0.01577
G1 X113.159 Y103.676 E0.01578
G1 X113.348 Y103.250 E0.01459
G1 X113.350 Y104.391 E0.03578
G1 X113.311 Y104.740 E0.01102
G1 X113.189 Y105.074 E0.01115
G1 X112.978 Y105.376 E0.01156
G1 X112.695 Y105.613 E0.01155
G1 X112.367 Y105.767 E0.01135
G1 X112.115 Y105.823 E0.00811
G1 X111.918 Y105.835 E0.00619
G1 X93.016 Y105.834 E0.59266
G1 X92.766 Y105.802 E0.00790
G1 X92.531 Y105.730 E0.00770
G1 X92.380 Y105.658 E0.00524
G1 X92.177 Y105.520 E0.00770
G1 X92.000 Y105.351 E0.00768
G1 X91.806 Y105.064 E0.01088
G1 X91.714 Y104.836 E0.00770
G1 X91.663 Y104.596 E0.00768
G1 X91.650 Y103.165 E0.04487
G1 X91.770 Y103.495 E0.01099
G1 X92.028 Y103.919 E0.01557
G1 X92.312 Y104.229 E0.01319
G1 X92.713 Y104.523 E0.01557
G1 X93.088 Y104.698 E0.01299
G1 X93.488 Y104.805 E0.01299
G1 X93.990 Y104.838 E0.01578
G1 X94.487 Y104.762 E0.01578
G1 X94.877 Y104.620 E0.01299
G1 X95.235 Y104.413 E0.01299
G1 X95.614 Y104.081 E0.01578
G1 X95.911 Y103.676 E0.01578
G1 X96.086 Y103.300 E0.01299
G1 X96.194 Y102.900 E0.01299
G1 X96.226 Y102.404 E0.01557
G1 X96.171 Y101.987 E0.01319
G1 X96.009 Y101.511 E0.01578
G1 X95.748 Y101.081 E0.01578
G1 X95.469 Y100.775 E0.01299
G1 X95.140 Y100.523 E0.01299
G1 X94.694 Y100.303 E0.01557
G1 X94.288 Y100.195 E0.01319
G1 X93.786 Y100.162 E0.01578
G1 X93.289 Y100.238 E0.01578
G1 X92.899 Y100.380 E0.01299
G1 X92.541 Y100.587 E0.01299
G1 X92.167 Y100.914 E0.01557
G1 X91.911 Y101.248 E0.01319
G1 X91.689 Y101.699 E0.01578
G1 X91.650 Y101.856 E0.00507
G1 X91.650 Y100.609 E0.03910
G1 X91.689 Y100.260 E0.01104
G1 X91.811 Y99.926 E0.01115
G1 X92.022 Y99.624 E0.01155
G1 X92.305 Y99.387 E0.01155
G1 X92.633 Y99.233 E0.01135
G1 X92.885 Y99.177 E0.00811
G1 X93.082 Y99.165 E0.00619
G1 X111.906 Y99.165 E0.59019
G1 X112.248 Y99.202 E0.01081
G1 X112.477 Y99.274 E0.00751
G1 X112.695 Y99.388 E0.00771
G1 X112.890 Y99.537 E0.00771
G1 X113.052 Y99.714 E0.00751
G1 X113.217 Y99.987 E0.01001
G1 X113.300 Y100.212 E0.00753
G1 X113.342 Y100.455 E0.00772
G1 X113.345 Y101.695 E0.03888
G1 F5760
G1 X113.254 Y101.505 E-0.07290
G1 X112.996 Y101.081 E-0.17199
G1 X112.716 Y100.775 E-0.14349
G1 X112.388 Y100.523 E-0.14347
G1 X111.942 Y100.303 E-0.17205
G1 X111.786 Y100.261 E-0.05611
G1 E-0.04000 F2100.00000
G1 Z0.800 F7200.000
G1 X113.559 Y99.823
G1 Z0.200
G1 E0.80000 F2100.00000
G1 F1800
G1 X113.665 Y100.114 E0.00973
G1 X113.719 Y100.422 E0.00978
G1 X113.727 Y104.411 E0.12509
G1 X113.683 Y104.814 E0.01271
G1 X113.618 Y105.035 E0.00719
G1 X113.524 Y105.249 E0.00734
G1 X113.403 Y105.449 E0.00734
G1 X113.256 Y105.632 E0.00734
G1 X113.087 Y105.793 E0.00734
G1 X112.898 Y105.932 E0.00734
G1 X112.693 Y106.044 E0.00734
G1 X112.477 Y106.128 E0.00727
G1 X112.168 Y106.197 E0.00992
G1 X111.930 Y106.213 E0.00748
G1 X92.992 Y106.211 E0.59380
G1 X92.686 Y106.172 E0.00966
G1 X92.394 Y106.082 E0.00959
G1 X92.192 Y105.986 E0.00700
G1 X91.939 Y105.815 E0.00959
G1 X91.719 Y105.604 E0.00956
G1 X91.580 Y105.425 E0.00710
G1 X91.466 Y105.230 E0.00707
G1 X91.352 Y104.946 E0.00959
G1 X91.288 Y104.648 E0.00956
G1 X91.273 Y104.416 E0.00731
G1 X91.273 Y100.589 E0.11999
G1 X91.317 Y100.186 E0.01272
G1 X91.382 Y99.965 E0.00719
G1 X91.476 Y99.751 E0.00734
G1 X91.597 Y99.551 E0.00734
G1 X91.744 Y99.368 E0.00734
G1 X91.913 Y99.207 E0.00734
G1 X92.102 Y99.068 E0.00734
G1 X92.307 Y98.956 E0.00734
G1 X92.523 Y98.872 E0.00727
G1 X92.832 Y98.803 E0.00992
G1 X93.070 Y98.787 E0.00748
G1 X111.926 Y98.787 E0.59122
G1 X112.326 Y98.831 E0.01262
G1 X112.622 Y98.924 E0.00971
G1 X112.898 Y99.068 E0.00978
G1 X113.146 Y99.258 E0.00978
G1 X113.355 Y99.487 E0.00971
G1 X113.528 Y99.771 E0.01045
G1 X113.383 Y100.078 F7200.000
G1 F5760
G1 X113.665 Y100.114 E-0.12796
G1 X113.719 Y100.422 E-0.10807
G1 X113.722 Y101.934 E-0.52397
G1 E-0.04000 F2100.00000
G1 Z0.800 F7200.000
G1 X113.039 Y100.814
G1 Z0.200
G1 E0.80000 F2100.00000
G1 F1800
G1 X113.155 Y100.920 E0.00086
G1 F5760
G1 X113.039 Y100.814 E-0.05436
G1 E-0.74564 F2100.00000
G1 Z0.800 F7200.000
G1 X113.374 Y101.941
G1 Z0.200
G1 E0.80000 F2100.00000
G1 F1800
G1 X113.409 Y102.414 E0.00991
G1 X113.395 Y102.878 E0.01086
G1 X113.372 Y103.063 E0.00448
G1 F5760
G1 X113.395 Y102.878 E-0.06450
G1 E-0.73550 F2100.00000
G1 Z0.800 F7200.000
G1 X110.170 Y99.751
G1 Z0.200
G1 E0.80000 F2100.00000
G1 F1800
G1 X109.616 Y99.857 E0.00428
G1 X109.343 Y100.326 F7200.000
G1 F1800
G1 X108.842 Y99.824 E0.02274
G1 X108.296 Y99.824 E0.01750
G1 X108.932 Y100.460 E0.02885
G1 X108.695 Y100.769 E0.01248
G1 X107.751 Y99.824 E0.04285
G1 X107.205 Y99.824 E0.01750
G1 X108.491 Y101.110 E0.05835
G1 X108.312 Y101.477 E0.01308
G1 X106.659 Y99.824 E0.07496
G1 X106.114 Y99.824 E0.01750
G1 X108.204 Y101.915 E0.09485
G1 X108.160 Y102.095 E0.00593
G1 X108.147 Y102.403 E0.00991
G1 X105.568 Y99.824 E0.11700
G1 X105.023 Y99.824 E0.01750
G1 X108.190 Y102.992 E0.14370
G1 X108.232 Y103.264 E0.00884
G1 X108.412 Y103.760 E0.01692
G1 X104.477 Y99.824 E0.17854
G1 X103.931 Y99.824 E0.01750
G1 X109.282 Y105.175 E0.24277
G1 X108.737 Y105.175 E0.01751
G1 X103.386 Y99.824 E0.24277
G1 X102.840 Y99.824 E0.01750
G1 X108.191 Y105.175 E0.24277
G1 X107.645 Y105.175 E0.01751
G1 X102.294 Y99.824 E0.24276
G1 X101.749 Y99.824 E0.01750
G1 X107.100 Y105.175 E0.24276
G1 X106.554 Y105.175 E0.01751
G1 X101.203 Y99.824 E0.24276
G1 X100.657 Y99.824 E0.01750
G1 X106.008 Y105.175 E0.24276
G1 X105.462 Y105.175 E0.01751
G1 X100.112 Y99.824 E0.24275
G1 X99.566 Y99.824 E0.01750
G1 X104.917 Y105.175 E0.24275
G1 X104.371 Y105.175 E0.01751
G1 X99.021 Y99.824 E0.24275
G1 X98.475 Y99.824 E0.01750
G1 X103.825 Y105.175 E0.24275
G1 X103.280 Y105.175 E0.01751
G1 X97.929 Y99.824 E0.24275
G1 X97.384 Y99.824 E0.01750
G1 X102.734 Y105.175 E0.24274
G1 X102.188 Y105.175 E0.01751
G1 X96.838 Y99.824 E0.24274
G1 X96.292 Y99.824 E0.01750
G1 X101.643 Y105.175 E0.24274
G1 X101.097 Y105.175 E0.01751
G1 X95.577 Y99.655 E0.25043
G1 F5760
G1 X97.129 Y101.206 E-0.76000
G1 E-0.04000 F2100.00000
G1 Z0.800 F7200.000
G1 X91.788 Y102.063
G1 Z0.200
G1 E0.80000 F2100.00000
G1 F1800
G1 X91.610 Y102.191 E0.00540
G1 X91.601 Y102.592 E0.00990
G1 X91.629 Y102.978 E0.00899
G1 F5760
G1 X91.601 Y102.592 E-0.13385
G1 E-0.66615 F2100.00000
G1 Z0.800 F7200.000
G1 X94.868 Y105.247
G1 Z0.200
G1 E0.80000 F2100.00000
G1 F1800
G1 X95.004 Y105.223 E0.00108
G1 X95.410 Y105.140 E0.00493
G1 X95.684 Y104.672 F7200.000
G1 F1800
G1 X96.186 Y105.174 E0.02278
G1 X96.731 Y105.174 E0.01751
G1 X96.095 Y104.537 E0.02890
G1 X96.327 Y104.224 E0.01251
G1 X97.277 Y105.174 E0.04310
G1 X97.823 Y105.174 E0.01751
G1 X96.539 Y103.891 E0.05824
G1 X96.711 Y103.517 E0.01319
G1 X98.369 Y105.174 E0.07519
G1 X98.914 Y105.174 E0.01751
G1 X96.827 Y103.087 E0.09471
G1 X96.848 Y103.008 E0.00262
G1 X96.875 Y102.590 E0.01345
G1 X99.460 Y105.174 E0.11727
G1 X100.006 Y105.174 E0.01751
G1 X96.839 Y102.008 E0.14365
G1 X96.817 Y101.837 E0.00555
G1 X96.613 Y101.236 E0.02034
G1 X100.721 Y105.344 E0.18638
M106 S252.45
;BEFORE_LAYER_CHANGE
;0.35


G1 F5760
