; generated by Slic3r Prusa Edition 1.39.2+win64 on 2018-05-25 at 15:01:09

; 

; external perimeters extrusion width = 0.45mm
; perimeters extrusion width = 0.45mm
; infill extrusion width = 0.45mm
; solid infill extrusion width = 0.45mm
; top infill extrusion width = 0.45mm
; first layer extrusion width = 0.42mm

M107
M115 U3.1.0 ; tell printer latest fw version
M83  ; extruder relative mode
M104 S205 ; set extruder temp
M140 S55 ; set bed temp
M190 S55 ; wait for bed temp
M109 S205 ; wait for extruder temp
G28 W ; home all without mesh bed level
G80 ; mesh bed leveling
G1 Y-3.0 F1000.0 ; go outside print area
G92 E0.0
G1 X60.0 E9.0  F1000.0 ; intro line
G1 X100.0 E12.5  F1000.0 ; intro line
G92 E0.0
M900 K30; Filament gcode
G21 ; set units to millimeters
G90 ; use absolute coordinates
M83 ; use relative distances for extrusion
;BEFORE_LAYER_CHANGE
;0.2


G1 E-0.80000 F2100.00000
G1 Z0.600 F7200.000
;AFTER_LAYER_CHANGE
;0.2
G1 X83.500 Y77.466
G1 Z0.200
G1 E0.80000 F2100.00000
M204 S1000
G1 F1800
G1 X83.860 Y77.029 E0.01775
G1 X84.314 Y76.690 E0.01775
G1 X84.835 Y76.468 E0.01775
G1 X85.393 Y76.375 E0.01775
G1 X107.504 Y76.373 E0.69326
G1 X129.600 Y76.875 E0.69298
G1 X130.303 Y77.013 E0.02249
G1 X130.934 Y77.354 E0.02249
G1 X131.317 Y77.718 E0.01657
G1 X131.611 Y78.157 E0.01657
G1 X131.800 Y78.651 E0.01657
G1 X131.876 Y79.173 E0.01657
G1 X131.876 Y93.307 E0.44315
G1 X131.773 Y93.944 E0.02024
G1 X131.501 Y94.534 E0.02036
G1 X109.471 Y127.578 E1.24521
G1 X109.129 Y127.981 E0.01657
G1 X108.707 Y128.298 E0.01657
G1 X108.137 Y128.540 E0.01941
G1 X107.524 Y128.627 E0.01941
G1 X75.496 Y128.627 E1.00421
G1 X74.831 Y128.531 E0.02107
G1 X74.216 Y128.251 E0.02119
G1 X73.820 Y127.931 E0.01597
G1 X73.500 Y127.535 E0.01597
G1 X73.272 Y127.079 E0.01597
G1 X73.147 Y126.585 E0.01597
G1 X73.162 Y120.822 E0.18070
G1 X83.188 Y78.198 E1.37291
G1 X83.476 Y77.521 E0.02308
G1 F5760
G1 X83.860 Y77.029 E-0.21611
G1 X84.314 Y76.690 E-0.19610
G1 X84.835 Y76.468 E-0.19610
G1 X85.267 Y76.396 E-0.15168
G1 E-0.04000 F2100.00000
G1 Z0.800 F7200.000
G1 X88.204 Y84.989
G1 Z0.200
G1 E0.80000 F2100.00000
G1 F1800
G1 X91.796 Y84.989 E0.11264
G1 X93.592 Y88.100 E0.11264
G1 X91.796 Y91.211 E0.11264
G1 X88.204 Y91.211 E0.11264
G1 X86.408 Y88.100 E0.11264
G1 X88.174 Y85.041 E0.11076
G1 X88.204 Y84.589 F7200.000
G1 F5760
G1 X90.368 Y85.009 E-0.76000
G1 E-0.04000 F2100.00000
G1 Z0.800 F7200.000
G1 X88.742 Y113.744
G1 Z0.200
G1 E0.80000 F2100.00000
G1 F1800
G1 X89.258 Y113.744 E0.01619
G1 X89.763 Y113.851 E0.01619
G1 X90.235 Y114.061 E0.01619
G1 X90.652 Y114.365 E0.01618
G1 X90.998 Y114.748 E0.01619
G1 X91.257 Y115.197 E0.01625
G1 X91.416 Y115.695 E0.01638
G1 X91.469 Y116.200 E0.01593
G1 X91.416 Y116.713 E0.01619
G1 X91.256 Y117.204 E0.01619
G1 X90.998 Y117.652 E0.01619
G1 X90.652 Y118.035 E0.01619
G1 X90.235 Y118.339 E0.01618
G1 X89.763 Y118.549 E0.01619
G1 X89.258 Y118.656 E0.01619
G1 X88.742 Y118.656 E0.01619
G1 X88.237 Y118.549 E0.01619
G1 X87.765 Y118.339 E0.01619
G1 X87.348 Y118.035 E0.01618
G1 X87.002 Y117.652 E0.01619
G1 X86.743 Y117.203 E0.01625
G1 X86.584 Y116.705 E0.01638
G1 X86.531 Y116.200 E0.01593
G1 X86.584 Y115.687 E0.01619
G1 X86.744 Y115.196 E0.01619
G1 X87.002 Y114.748 E0.01619
G1 X87.348 Y114.365 E0.01619
G1 X87.765 Y114.061 E0.01618
G1 X88.237 Y113.851 E0.01619
G1 X88.683 Y113.757 E0.01431
G1 X88.762 Y114.125 F7200.000
G1 F1800
G1 X89.218 Y114.121 E0.01433
G1 X89.646 Y114.212 E0.01370
G1 X90.045 Y114.390 E0.01370
G1 X90.399 Y114.647 E0.01370
G1 X90.691 Y114.971 E0.01370
G1 X90.910 Y115.351 E0.01374
G1 X91.045 Y115.773 E0.01389
G1 X91.090 Y116.200 E0.01347
G1 X91.045 Y116.635 E0.01370
G1 X90.910 Y117.050 E0.01370
G1 X90.691 Y117.429 E0.01370
G1 X90.399 Y117.753 E0.01370
G1 X90.045 Y118.010 E0.01370
G1 X89.646 Y118.188 E0.01370
G1 X89.218 Y118.279 E0.01370
G1 X88.781 Y118.279 E0.01370
G1 X88.354 Y118.188 E0.01370
G1 X87.955 Y118.010 E0.01370
G1 X87.601 Y117.753 E0.01370
G1 X87.309 Y117.429 E0.01370
G1 X87.090 Y117.049 E0.01374
G1 X86.955 Y116.627 E0.01389
G1 X86.910 Y116.200 E0.01347
G1 X86.955 Y115.765 E0.01370
G1 X87.090 Y115.350 E0.01370
G1 X87.309 Y114.971 E0.01370
G1 X87.601 Y114.647 E0.01370
G1 X87.955 Y114.390 E0.01370
G1 X88.354 Y114.212 E0.01370
G1 X88.703 Y114.138 E0.01118
G1 X88.821 Y114.498 F7200.000
G1 F1800
G1 X89.179 Y114.498 E0.01122
G1 X89.529 Y114.573 E0.01122
G1 X89.856 Y114.718 E0.01122
G1 X90.145 Y114.928 E0.01122
G1 X90.384 Y115.194 E0.01122
G1 X90.563 Y115.504 E0.01123
G1 X90.674 Y115.851 E0.01141
G1 X90.711 Y116.200 E0.01101
G1 X90.674 Y116.556 E0.01122
G1 X90.563 Y116.896 E0.01122
G1 X90.384 Y117.206 E0.01122
G1 X90.145 Y117.472 E0.01122
G1 X89.856 Y117.682 E0.01122
G1 X89.529 Y117.827 E0.01122
G1 X89.179 Y117.902 E0.01122
G1 X88.821 Y117.902 E0.01122
G1 X88.471 Y117.827 E0.01122
G1 X88.144 Y117.682 E0.01122
G1 X87.855 Y117.472 E0.01122
G1 X87.616 Y117.206 E0.01122
G1 X87.437 Y116.896 E0.01123
G1 X87.326 Y116.549 E0.01141
G1 X87.289 Y116.200 E0.01101
G1 X87.326 Y115.844 E0.01122
G1 X87.437 Y115.504 E0.01122
G1 X87.616 Y115.194 E0.01122
G1 X87.855 Y114.928 E0.01122
G1 X88.144 Y114.718 E0.01122
G1 X88.471 Y114.573 E0.01122
G1 X88.762 Y114.511 E0.00934
G1 X88.967 Y114.171 F7200.000
G1 F5760
G1 X89.179 Y114.498 E-0.14429
G1 X89.529 Y114.573 E-0.12391
G1 X89.856 Y114.718 E-0.12391
G1 X90.145 Y114.928 E-0.12389
G1 X90.384 Y115.194 E-0.12390
G1 X90.558 Y115.495 E-0.12011
G1 E-0.04000 F2100.00000
G1 Z0.800 F7200.000
G1 X88.762 Y105.656
G1 Z0.200
G1 E0.80000 F2100.00000
G1 F1800
G1 X88.237 Y105.549 E0.01682
G1 X87.765 Y105.339 E0.01619
G1 X87.348 Y105.035 E0.01618
G1 X87.002 Y104.652 E0.01619
G1 X86.743 Y104.203 E0.01625
G1 X86.584 Y103.705 E0.01638
G1 X86.531 Y103.200 E0.01593
G1 X86.584 Y102.687 E0.01619
G1 X86.744 Y102.196 E0.01619
G1 X87.002 Y101.748 E0.01619
G1 X87.348 Y101.365 E0.01619
G1 X87.765 Y101.061 E0.01618
G1 X88.237 Y100.851 E0.01619
G1 X88.742 Y100.744 E0.01619
G1 X89.258 Y100.744 E0.01619
G1 X89.763 Y100.851 E0.01619
G1 X90.235 Y101.061 E0.01619
G1 X90.652 Y101.365 E0.01618
G1 X90.998 Y101.748 E0.01619
G1 X91.257 Y102.197 E0.01625
G1 X91.416 Y102.695 E0.01638
G1 X91.469 Y103.200 E0.01593
G1 X91.416 Y103.713 E0.01619
G1 X91.256 Y104.204 E0.01619
G1 X90.998 Y104.652 E0.01619
G1 X90.652 Y105.035 E0.01619
G1 X90.235 Y105.339 E0.01618
G1 X89.763 Y105.549 E0.01619
G1 X89.258 Y105.656 E0.01619
G1 X88.822 Y105.656 E0.01366
G1 X88.781 Y105.279 F7200.000
G1 F1800
G1 X88.354 Y105.188 E0.01370
G1 X87.955 Y105.010 E0.01370
G1 X87.601 Y104.753 E0.01370
G1 X87.309 Y104.429 E0.01370
G1 X87.090 Y104.049 E0.01374
G1 X86.955 Y103.627 E0.01389
G1 X86.910 Y103.200 E0.01347
G1 X86.955 Y102.765 E0.01370
G1 X87.090 Y102.350 E0.01370
G1 X87.309 Y101.971 E0.01370
G1 X87.601 Y101.647 E0.01370
G1 X87.955 Y101.390 E0.01370
G1 X88.354 Y101.212 E0.01370
G1 X88.782 Y101.121 E0.01370
G1 X89.218 Y101.121 E0.01370
G1 X89.646 Y101.212 E0.01370
G1 X90.045 Y101.390 E0.01370
G1 X90.399 Y101.647 E0.01370
G1 X90.691 Y101.971 E0.01370
G1 X90.910 Y102.351 E0.01374
G1 X91.045 Y102.773 E0.01389
G1 X91.090 Y103.200 E0.01347
G1 X91.045 Y103.635 E0.01370
G1 X90.910 Y104.050 E0.01370
G1 X90.691 Y104.429 E0.01370
G1 X90.399 Y104.753 E0.01370
G1 X90.045 Y105.010 E0.01370
G1 X89.646 Y105.188 E0.01370
G1 X89.218 Y105.279 E0.01370
G1 X88.841 Y105.279 E0.01182
G1 X88.841 Y104.902 F7200.000
G1 F1800
G1 X88.471 Y104.827 E0.01184
G1 X88.144 Y104.682 E0.01122
G1 X87.855 Y104.472 E0.01122
G1 X87.616 Y104.206 E0.01122
G1 X87.437 Y103.896 E0.01123
G1 X87.326 Y103.549 E0.01141
G1 X87.289 Y103.200 E0.01101
G1 X87.326 Y102.844 E0.01122
G1 X87.437 Y102.504 E0.01122
G1 X87.616 Y102.194 E0.01122
G1 X87.855 Y101.928 E0.01122
G1 X88.144 Y101.718 E0.01122
G1 X88.471 Y101.573 E0.01122
G1 X88.821 Y101.498 E0.01122
G1 X89.179 Y101.498 E0.01122
G1 X89.529 Y101.573 E0.01122
G1 X89.856 Y101.718 E0.01122
G1 X90.145 Y101.928 E0.01122
G1 X90.384 Y102.194 E0.01122
G1 X90.563 Y102.504 E0.01123
G1 X90.674 Y102.851 E0.01141
G1 X90.711 Y103.200 E0.01101
G1 X90.674 Y103.556 E0.01122
G1 X90.563 Y103.896 E0.01122
G1 X90.384 Y104.206 E0.01122
G1 X90.145 Y104.472 E0.01122
G1 X89.856 Y104.682 E0.01122
G1 X89.529 Y104.827 E0.01122
G1 X89.179 Y104.902 E0.01122
G1 X88.901 Y104.902 E0.00870
G1 X88.622 Y105.209 F7200.000
G1 F5760
G1 X88.471 Y104.827 E-0.15124
G1 X88.144 Y104.682 E-0.12391
G1 X87.855 Y104.472 E-0.12389
G1 X87.616 Y104.206 E-0.12389
G1 X87.437 Y103.896 E-0.12406
G1 X87.337 Y103.585 E-0.11301
G1 E-0.04000 F2100.00000
G1 Z0.800 F7200.000
G1 X101.585 Y103.714
G1 Z0.200
G1 E0.80000 F2100.00000
G1 F1800
G1 X101.531 Y103.200 E0.01619
G1 X101.585 Y102.687 E0.01619
G1 X101.745 Y102.194 E0.01625
G1 X102.008 Y101.742 E0.01638
G1 X102.348 Y101.365 E0.01593
G1 X102.765 Y101.061 E0.01618
G1 X103.237 Y100.851 E0.01619
G1 X103.742 Y100.744 E0.01619
G1 X104.258 Y100.744 E0.01619
G1 X104.763 Y100.851 E0.01619
G1 X105.235 Y101.061 E0.01619
G1 X105.652 Y101.365 E0.01618
G1 X105.998 Y101.748 E0.01619
G1 X106.256 Y102.196 E0.01619
G1 X106.415 Y102.687 E0.01618
G1 X106.469 Y103.200 E0.01619
G1 X106.415 Y103.714 E0.01619
G1 X106.255 Y104.206 E0.01625
G1 X105.992 Y104.658 E0.01638
G1 X105.652 Y105.035 E0.01593
G1 X105.235 Y105.339 E0.01618
G1 X104.763 Y105.549 E0.01619
G1 X104.258 Y105.656 E0.01619
G1 X103.742 Y105.656 E0.01619
G1 X103.237 Y105.549 E0.01619
G1 X102.765 Y105.339 E0.01619
G1 X102.348 Y105.035 E0.01618
G1 X102.002 Y104.652 E0.01619
G1 X101.744 Y104.204 E0.01619
G1 X101.603 Y103.771 E0.01430
G1 X101.962 Y103.654 F7200.000
G1 F1800
G1 X101.910 Y103.200 E0.01433
G1 X101.955 Y102.765 E0.01370
G1 X102.091 Y102.349 E0.01374
G1 X102.314 Y101.966 E0.01390
G1 X102.601 Y101.647 E0.01347
G1 X102.955 Y101.390 E0.01370
G1 X103.354 Y101.212 E0.01370
G1 X103.781 Y101.121 E0.01370
G1 X104.219 Y101.121 E0.01370
G1 X104.646 Y101.212 E0.01370
G1 X105.045 Y101.390 E0.01370
G1 X105.399 Y101.647 E0.01370
G1 X105.691 Y101.971 E0.01370
G1 X105.910 Y102.350 E0.01370
G1 X106.045 Y102.765 E0.01370
G1 X106.090 Y103.200 E0.01370
G1 X106.045 Y103.635 E0.01370
G1 X105.909 Y104.051 E0.01374
G1 X105.686 Y104.434 E0.01389
G1 X105.399 Y104.753 E0.01347
G1 X105.045 Y105.010 E0.01370
G1 X104.646 Y105.188 E0.01370
G1 X104.219 Y105.279 E0.01370
G1 X103.781 Y105.279 E0.01370
G1 X103.354 Y105.188 E0.01370
G1 X102.955 Y105.010 E0.01370
G1 X102.601 Y104.753 E0.01370
G1 X102.309 Y104.429 E0.01370
G1 X102.090 Y104.050 E0.01370
G1 X101.980 Y103.711 E0.01118
G1 X102.326 Y103.556 F7200.000
G1 F1800
G1 X102.289 Y103.200 E0.01122
G1 X102.326 Y102.844 E0.01122
G1 X102.437 Y102.504 E0.01123
G1 X102.620 Y102.189 E0.01141
G1 X102.855 Y101.928 E0.01101
G1 X103.144 Y101.718 E0.01122
G1 X103.471 Y101.573 E0.01122
G1 X103.821 Y101.498 E0.01122
G1 X104.179 Y101.498 E0.01122
G1 X104.529 Y101.573 E0.01122
G1 X104.856 Y101.718 E0.01122
G1 X105.145 Y101.928 E0.01122
G1 X105.384 Y102.194 E0.01122
G1 X105.563 Y102.504 E0.01122
G1 X105.674 Y102.844 E0.01121
G1 X105.711 Y103.200 E0.01122
G1 X105.674 Y103.556 E0.01122
G1 X105.563 Y103.896 E0.01123
G1 X105.380 Y104.211 E0.01141
G1 X105.145 Y104.472 E0.01100
G1 X104.856 Y104.682 E0.01122
G1 X104.529 Y104.827 E0.01122
G1 X104.179 Y104.902 E0.01122
G1 X103.821 Y104.902 E0.01122
G1 X103.471 Y104.827 E0.01122
G1 X103.144 Y104.682 E0.01122
G1 X102.855 Y104.472 E0.01122
G1 X102.616 Y104.206 E0.01122
G1 X102.437 Y103.896 E0.01122
G1 X102.345 Y103.613 E0.00933
G1 X101.986 Y103.445 F7200.000
G1 F5760
G1 X102.289 Y103.200 E-0.14431
G1 X102.326 Y102.844 E-0.12391
G1 X102.437 Y102.504 E-0.12404
G1 X102.620 Y102.189 E-0.12604
G1 X102.855 Y101.928 E-0.12157
G1 X103.136 Y101.725 E-0.12014
G1 E-0.04000 F2100.00000
G1 Z0.800 F7200.000
G1 X103.742 Y113.744
G1 Z0.200
G1 E0.80000 F2100.00000
G1 F1800
G1 X104.258 Y113.744 E0.01619
G1 X104.763 Y113.851 E0.01619
G1 X105.235 Y114.061 E0.01619
G1 X105.652 Y114.365 E0.01618
G1 X105.998 Y114.748 E0.01619
G1 X106.256 Y115.196 E0.01619
G1 X106.415 Y115.687 E0.01618
G1 X106.469 Y116.200 E0.01619
G1 X106.415 Y116.714 E0.01619
G1 X106.255 Y117.206 E0.01625
G1 X105.992 Y117.658 E0.01638
G1 X105.652 Y118.035 E0.01593
G1 X105.235 Y118.339 E0.01618
G1 X104.763 Y118.549 E0.01619
G1 X104.258 Y118.656 E0.01619
G1 X103.742 Y118.656 E0.01619
G1 X103.237 Y118.549 E0.01619
G1 X102.765 Y118.339 E0.01619
G1 X102.348 Y118.035 E0.01618
G1 X102.002 Y117.652 E0.01619
G1 X101.744 Y117.204 E0.01619
G1 X101.585 Y116.714 E0.01618
G1 X101.531 Y116.200 E0.01619
G1 X101.585 Y115.687 E0.01619
G1 X101.745 Y115.194 E0.01625
G1 X102.008 Y114.742 E0.01638
G1 X102.348 Y114.365 E0.01593
G1 X102.765 Y114.061 E0.01618
G1 X103.237 Y113.851 E0.01619
G1 X103.683 Y113.757 E0.01431
G1 X103.762 Y114.125 F7200.000
G1 F1800
G1 X104.218 Y114.121 E0.01433
G1 X104.646 Y114.212 E0.01370
G1 X105.045 Y114.390 E0.01370
G1 X105.399 Y114.647 E0.01370
G1 X105.691 Y114.971 E0.01370
G1 X105.910 Y115.350 E0.01370
G1 X106.045 Y115.765 E0.01370
G1 X106.090 Y116.200 E0.01370
G1 X106.045 Y116.635 E0.01370
G1 X105.909 Y117.051 E0.01374
G1 X105.686 Y117.434 E0.01390
G1 X105.399 Y117.753 E0.01347
G1 X105.045 Y118.010 E0.01370
G1 X104.646 Y118.188 E0.01370
G1 X104.219 Y118.279 E0.01370
G1 X103.781 Y118.279 E0.01370
G1 X103.354 Y118.188 E0.01370
G1 X102.955 Y118.010 E0.01370
G1 X102.601 Y117.753 E0.01370
G1 X102.309 Y117.429 E0.01370
G1 X102.090 Y117.050 E0.01370
G1 X101.955 Y116.635 E0.01370
G1 X101.910 Y116.200 E0.01370
G1 X101.955 Y115.765 E0.01370
G1 X102.091 Y115.349 E0.01374
G1 X102.314 Y114.966 E0.01389
G1 X102.601 Y114.647 E0.01347
G1 X102.955 Y114.390 E0.01370
G1 X103.354 Y114.212 E0.01370
G1 X103.703 Y114.138 E0.01118
G1 X103.821 Y114.498 F7200.000
G1 F1800
G1 X104.179 Y114.498 E0.01122
G1 X104.529 Y114.573 E0.01122
G1 X104.856 Y114.718 E0.01122
G1 X105.145 Y114.928 E0.01122
G1 X105.384 Y115.194 E0.01122
G1 X105.563 Y115.504 E0.01122
G1 X105.674 Y115.844 E0.01122
G1 X105.711 Y116.200 E0.01122
G1 X105.674 Y116.556 E0.01122
G1 X105.563 Y116.896 E0.01123
G1 X105.380 Y117.211 E0.01141
G1 X105.145 Y117.472 E0.01100
G1 X104.856 Y117.682 E0.01122
G1 X104.529 Y117.827 E0.01122
G1 X104.179 Y117.902 E0.01122
G1 X103.821 Y117.902 E0.01122
G1 X103.471 Y117.827 E0.01122
G1 X103.144 Y117.682 E0.01122
G1 X102.855 Y117.472 E0.01122
G1 X102.616 Y117.206 E0.01121
G1 X102.437 Y116.896 E0.01122
G1 X102.326 Y116.556 E0.01121
G1 X102.289 Y116.200 E0.01122
G1 X102.326 Y115.844 E0.01122
G1 X102.437 Y115.504 E0.01123
G1 X102.620 Y115.189 E0.01141
G1 X102.855 Y114.928 E0.01101
G1 X103.144 Y114.718 E0.01122
G1 X103.471 Y114.573 E0.01122
G1 X103.762 Y114.511 E0.00933
G1 X103.967 Y114.171 F7200.000
G1 F5760
G1 X104.179 Y114.498 E-0.14430
G1 X104.529 Y114.573 E-0.12390
G1 X104.856 Y114.718 E-0.12392
G1 X105.145 Y114.928 E-0.12389
G1 X105.384 Y115.194 E-0.12389
G1 X105.558 Y115.495 E-0.12011
G1 E-0.04000 F2100.00000
G1 Z0.800 F7200.000
G1 X100.768 Y84.235
G1 Z0.200
G1 E0.80000 F2100.00000
G1 F1800
G1 X105.232 Y84.235 E0.13994
G1 X107.463 Y88.100 E0.13994
G1 X105.232 Y91.965 E0.13994
G1 X100.768 Y91.965 E0.13994
G1 X98.537 Y88.100 E0.13994
G1 X100.738 Y84.287 E0.13806
G1 X100.986 Y84.612 F7200.000
G1 F1800
G1 X105.014 Y84.612 E0.12629
G1 X107.028 Y88.100 E0.12629
G1 X105.014 Y91.588 E0.12629
G1 X100.986 Y91.588 E0.12629
G1 X98.972 Y88.100 E0.12629
G1 X100.956 Y84.664 E0.12441
G1 X101.204 Y84.989 F7200.000
G1 F1800
G1 X104.796 Y84.989 E0.11264
G1 X106.592 Y88.100 E0.11264
G1 X104.796 Y91.211 E0.11264
G1 X101.204 Y91.211 E0.11264
G1 X99.408 Y88.100 E0.11264
G1 X101.174 Y85.041 E0.11076
G1 X101.204 Y84.589 F7200.000
G1 F5760
G1 X103.368 Y85.009 E-0.76000
G1 E-0.04000 F2100.00000
G1 Z0.800 F7200.000
G1 X114.031 Y86.250
G1 Z0.200
G1 E0.80000 F2100.00000
G1 F1800
G1 X114.117 Y85.425 E0.02602
G1 X114.374 Y84.636 E0.02602
G1 X114.789 Y83.917 E0.02602
G1 X115.344 Y83.300 E0.02602
G1 X116.015 Y82.812 E0.02602
G1 X116.773 Y82.475 E0.02602
G1 X117.585 Y82.302 E0.02602
G1 X118.415 Y82.302 E0.02602
G1 X119.227 Y82.475 E0.02602
G1 X119.985 Y82.812 E0.02602
G1 X120.656 Y83.300 E0.02602
G1 X121.211 Y83.917 E0.02602
G1 X121.626 Y84.636 E0.02602
G1 X121.883 Y85.425 E0.02602
G1 X121.969 Y86.250 E0.02602
G1 X121.883 Y87.075 E0.02602
G1 X121.626 Y87.864 E0.02602
