; generated by Slic3r Prusa Edition 1.39.2+win64 on 2018-05-25 at 14:17:59

; 

; external perimeters extrusion width = 0.45mm
; perimeters extrusion width = 0.45mm
; infill extrusion width = 0.45mm
; solid infill extrusion width = 0.45mm
; top infill extrusion width = 0.45mm
; first layer extrusion width = 0.42mm

M107
M115 U3.1.0 ; tell printer latest fw version
M83  ; extruder relative mode
M104 S205 ; set extruder temp
M140 S55 ; set bed temp
M190 S55 ; wait for bed temp
M109 S205 ; wait for extruder temp
G28 W ; home all without mesh bed level
G80 ; mesh bed leveling
G1 Y-3.0 F1000.0 ; go outside print area
G92 E0.0
G1 X60.0 E9.0  F1000.0 ; intro line
G1 X100.0 E12.5  F1000.0 ; intro line
G92 E0.0
M900 K30; Filament gcode
G21 ; set units to millimeters
G90 ; use absolute coordinates
M83 ; use relative distances for extrusion
;BEFORE_LAYER_CHANGE
;0.2


G1 E-0.80000 F2100.00000
G1 Z0.600 F7200.000
;AFTER_LAYER_CHANGE
;0.2
G1 X69.058 Y34.726
G1 Z0.200
G1 E0.80000 F2100.00000
M204 S1000
G1 F1800
G1 X69.703 Y34.623 E0.02048
G1 X135.254 Y34.623 E2.05529
G1 X136.152 Y34.801 E0.02872
G1 X136.920 Y35.308 E0.02884
G1 X137.435 Y36.065 E0.02872
G1 X137.627 Y36.961 E0.02872
G1 X137.627 Y169.004 E4.14011
G1 X137.566 Y169.536 E0.01680
G1 X137.387 Y170.041 E0.01680
G1 X137.025 Y170.581 E0.02036
G1 X136.528 Y171.004 E0.02048
G1 X135.934 Y171.276 E0.02048
G1 X135.289 Y171.377 E0.02048
G1 X69.742 Y171.377 E2.05517
G1 X69.214 Y171.316 E0.01668
G1 X68.709 Y171.137 E0.01680
G1 X68.164 Y170.770 E0.02060
G1 X67.740 Y170.268 E0.02060
G1 X67.469 Y169.670 E0.02060
G1 X67.373 Y169.020 E0.02060
G1 X67.373 Y36.996 E4.13952
G1 X67.434 Y36.464 E0.01680
G1 X67.613 Y35.959 E0.01680
G1 X67.975 Y35.419 E0.02036
G1 X68.469 Y34.998 E0.02036
G1 X69.004 Y34.751 E0.01848
G1 F5760
G1 X69.703 Y34.623 E-0.24626
G1 X71.186 Y34.623 E-0.51374
G1 E-0.04000 F2100.00000
G1 Z0.800 F7200.000
G1 X98.893 Y160.784
G1 Z0.200
G1 E0.80000 F2100.00000
G1 F1800
G1 X102.607 Y160.784 E0.11643
G1 X104.463 Y164.000 E0.11643
G1 X102.607 Y167.216 E0.11643
G1 X98.893 Y167.216 E0.11643
G1 X97.037 Y164.000 E0.11643
G1 X98.863 Y160.836 E0.11455
G1 X99.111 Y161.161 F7200.000
G1 F1800
G1 X102.389 Y161.161 E0.10278
G1 X104.028 Y164.000 E0.10278
G1 X102.389 Y166.839 E0.10278
G1 X99.111 Y166.839 E0.10278
G1 X97.472 Y164.000 E0.10278
G1 X99.081 Y161.213 E0.10090
G1 X99.329 Y161.538 F7200.000
G1 F1800
G1 X102.171 Y161.538 E0.08912
G1 X103.592 Y164.000 E0.08913
G1 X102.171 Y166.462 E0.08913
G1 X99.329 Y166.462 E0.08912
G1 X97.908 Y164.000 E0.08913
G1 X99.299 Y161.590 E0.08724
G1 X99.329 Y161.138 F7200.000
G1 F5760
G1 X101.493 Y161.551 E-0.76000
G1 E-0.04000 F2100.00000
G1 Z0.800 F7200.000
G1 X98.893 Y140.784
G1 Z0.200
G1 E0.80000 F2100.00000
G1 F1800
G1 X102.607 Y140.784 E0.11643
G1 X104.463 Y144.000 E0.11643
G1 X102.607 Y147.216 E0.11643
G1 X98.893 Y147.216 E0.11643
G1 X97.037 Y144.000 E0.11643
G1 X98.863 Y140.836 E0.11455
G1 X99.111 Y141.161 F7200.000
G1 F1800
G1 X102.389 Y141.161 E0.10278
G1 X104.028 Y144.000 E0.10278
G1 X102.389 Y146.839 E0.10278
G1 X99.111 Y146.839 E0.10278
G1 X97.472 Y144.000 E0.10278
G1 X99.081 Y141.213 E0.10090
G1 X99.329 Y141.538 F7200.000
G1 F1800
G1 X102.171 Y141.538 E0.08912
G1 X103.592 Y144.000 E0.08913
G1 X102.171 Y146.462 E0.08912
G1 X99.329 Y146.462 E0.08912
G1 X97.908 Y144.000 E0.08912
G1 X99.299 Y141.590 E0.08724
G1 X99.329 Y141.138 F7200.000
G1 F5760
G1 X101.493 Y141.551 E-0.76000
G1 E-0.04000 F2100.00000
G1 Z0.800 F7200.000
G1 X98.893 Y120.784
G1 Z0.200
G1 E0.80000 F2100.00000
G1 F1800
G1 X102.607 Y120.784 E0.11643
G1 X104.463 Y124.000 E0.11643
G1 X102.607 Y127.216 E0.11643
G1 X98.893 Y127.216 E0.11643
G1 X97.037 Y124.000 E0.11643
G1 X98.863 Y120.836 E0.11455
G1 X99.111 Y121.161 F7200.000
G1 F1800
G1 X102.389 Y121.161 E0.10278
G1 X104.028 Y124.000 E0.10278
G1 X102.389 Y126.839 E0.10278
G1 X99.111 Y126.839 E0.10278
G1 X97.472 Y124.000 E0.10278
G1 X99.081 Y121.213 E0.10090
G1 X99.329 Y121.538 F7200.000
G1 F1800
G1 X102.171 Y121.538 E0.08912
G1 X103.592 Y124.000 E0.08912
G1 X102.171 Y126.462 E0.08912
G1 X99.329 Y126.462 E0.08912
G1 X97.908 Y124.000 E0.08912
G1 X99.299 Y121.590 E0.08724
G1 X99.329 Y121.138 F7200.000
G1 F5760
G1 X101.493 Y121.551 E-0.76000
G1 E-0.04000 F2100.00000
G1 Z0.800 F7200.000
G1 X98.893 Y100.784
G1 Z0.200
G1 E0.80000 F2100.00000
G1 F1800
G1 X102.607 Y100.784 E0.11643
G1 X104.463 Y104.000 E0.11643
G1 X102.607 Y107.216 E0.11643
G1 X98.893 Y107.216 E0.11643
G1 X97.037 Y104.000 E0.11643
G1 X98.863 Y100.836 E0.11455
G1 X99.111 Y101.161 F7200.000
G1 F1800
G1 X102.389 Y101.161 E0.10278
G1 X104.028 Y104.000 E0.10278
G1 X102.389 Y106.839 E0.10278
G1 X99.111 Y106.839 E0.10278
G1 X97.472 Y104.000 E0.10278
G1 X99.081 Y101.213 E0.10090
G1 X99.329 Y101.538 F7200.000
G1 F1800
G1 X102.171 Y101.538 E0.08912
G1 X103.592 Y104.000 E0.08912
G1 X102.171 Y106.462 E0.08913
G1 X99.329 Y106.462 E0.08912
G1 X97.908 Y104.000 E0.08913
G1 X99.299 Y101.590 E0.08724
G1 X99.329 Y101.138 F7200.000
G1 F5760
G1 X101.493 Y101.551 E-0.76000
G1 E-0.04000 F2100.00000
G1 Z0.800 F7200.000
G1 X98.893 Y80.784
G1 Z0.200
G1 E0.80000 F2100.00000
G1 F1800
G1 X102.607 Y80.784 E0.11643
G1 X104.463 Y84.000 E0.11643
G1 X102.607 Y87.216 E0.11643
G1 X98.893 Y87.216 E0.11643
G1 X97.037 Y84.000 E0.11643
G1 X98.863 Y80.836 E0.11455
G1 X99.111 Y81.161 F7200.000
G1 F1800
G1 X102.389 Y81.161 E0.10278
G1 X104.028 Y84.000 E0.10278
G1 X102.389 Y86.839 E0.10278
G1 X99.111 Y86.839 E0.10278
G1 X97.472 Y84.000 E0.10278
G1 X99.081 Y81.213 E0.10090
G1 X99.329 Y81.538 F7200.000
G1 F1800
G1 X102.171 Y81.538 E0.08912
G1 X103.592 Y84.000 E0.08912
G1 X102.171 Y86.462 E0.08912
G1 X99.329 Y86.462 E0.08912
G1 X97.908 Y84.000 E0.08912
G1 X99.299 Y81.590 E0.08724
G1 X99.329 Y81.138 F7200.000
G1 F5760
G1 X101.493 Y81.551 E-0.76000
G1 E-0.04000 F2100.00000
G1 Z0.800 F7200.000
G1 X81.654 Y83.383
G1 Z0.200
G1 E0.80000 F2100.00000
G1 F1800
G1 X81.720 Y84.000 E0.01947
G1 X81.654 Y84.617 E0.01947
G1 X81.463 Y85.208 E0.01945
G1 X81.152 Y85.746 E0.01948
G1 X80.737 Y86.207 E0.01947
G1 X80.235 Y86.572 E0.01945
G1 X79.668 Y86.824 E0.01947
G1 X79.060 Y86.953 E0.01947
G1 X78.440 Y86.953 E0.01946
G1 X77.832 Y86.824 E0.01947
G1 X77.265 Y86.572 E0.01947
G1 X76.763 Y86.207 E0.01945
G1 X76.348 Y85.746 E0.01947
G1 X76.037 Y85.208 E0.01948
G1 X75.846 Y84.617 E0.01945
G1 X75.780 Y84.000 E0.01947
G1 X75.846 Y83.383 E0.01947
G1 X76.037 Y82.792 E0.01945
G1 X76.348 Y82.254 E0.01948
G1 X76.763 Y81.793 E0.01946
G1 X77.265 Y81.428 E0.01945
G1 X77.833 Y81.176 E0.01947
G1 X78.440 Y81.047 E0.01946
G1 X79.060 Y81.047 E0.01946
G1 X79.667 Y81.176 E0.01946
G1 X80.235 Y81.428 E0.01947
G1 X80.737 Y81.793 E0.01945
G1 X81.152 Y82.254 E0.01946
G1 X81.463 Y82.792 E0.01948
G1 X81.636 Y83.325 E0.01757
G1 X81.277 Y83.442 F7200.000
G1 F1800
G1 X81.340 Y84.000 E0.01761
G1 X81.283 Y84.539 E0.01698
G1 X81.116 Y85.053 E0.01697
G1 X80.846 Y85.523 E0.01699
G1 X80.483 Y85.925 E0.01698
G1 X80.045 Y86.243 E0.01697
G1 X79.550 Y86.464 E0.01698
G1 X79.021 Y86.576 E0.01698
G1 X78.479 Y86.576 E0.01697
G1 X77.950 Y86.464 E0.01698
G1 X77.455 Y86.243 E0.01698
G1 X77.017 Y85.925 E0.01697
G1 X76.654 Y85.523 E0.01698
G1 X76.384 Y85.053 E0.01699
G1 X76.217 Y84.539 E0.01697
G1 X76.160 Y84.000 E0.01698
G1 X76.217 Y83.461 E0.01698
G1 X76.384 Y82.947 E0.01697
G1 X76.654 Y82.477 E0.01699
G1 X77.017 Y82.075 E0.01698
G1 X77.455 Y81.757 E0.01697
G1 X77.950 Y81.536 E0.01698
G1 X78.479 Y81.424 E0.01698
G1 X79.021 Y81.424 E0.01697
G1 X79.550 Y81.536 E0.01698
G1 X80.045 Y81.757 E0.01698
G1 X80.483 Y82.075 E0.01697
G1 X80.846 Y82.477 E0.01698
G1 X81.116 Y82.947 E0.01699
G1 X81.258 Y83.385 E0.01444
G1 X80.900 Y83.501 F7200.000
G1 F1800
G1 X80.961 Y84.000 E0.01576
G1 X80.913 Y84.460 E0.01449
G1 X80.770 Y84.899 E0.01449
G1 X80.539 Y85.300 E0.01450
G1 X80.229 Y85.643 E0.01450
G1 X79.856 Y85.915 E0.01448
G1 X79.433 Y86.103 E0.01450
G1 X78.981 Y86.199 E0.01449
G1 X78.519 Y86.199 E0.01449
G1 X78.067 Y86.103 E0.01449
G1 X77.644 Y85.915 E0.01450
G1 X77.271 Y85.643 E0.01448
G1 X76.961 Y85.300 E0.01450
G1 X76.730 Y84.899 E0.01450
G1 X76.587 Y84.460 E0.01449
G1 X76.539 Y84.000 E0.01449
G1 X76.587 Y83.540 E0.01449
G1 X76.730 Y83.101 E0.01449
G1 X76.961 Y82.700 E0.01450
G1 X77.271 Y82.357 E0.01450
G1 X77.644 Y82.085 E0.01449
G1 X78.067 Y81.897 E0.01450
G1 X78.519 Y81.801 E0.01449
G1 X78.981 Y81.801 E0.01449
G1 X79.433 Y81.897 E0.01449
G1 X79.856 Y82.085 E0.01450
G1 X80.229 Y82.357 E0.01449
G1 X80.539 Y82.700 E0.01450
G1 X80.770 Y83.101 E0.01450
G1 X80.881 Y83.444 E0.01132
G1 X81.282 Y83.620 F7200.000
G1 F5760
G1 X80.961 Y84.000 E-0.19454
G1 X80.913 Y84.460 E-0.16011
G1 X80.770 Y84.899 E-0.16007
G1 X80.539 Y85.300 E-0.16013
G1 X80.374 Y85.482 E-0.08514
G1 E-0.04000 F2100.00000
G1 Z0.800 F7200.000
G1 X79.060 Y66.953
G1 Z0.200
G1 E0.80000 F2100.00000
G1 F1800
G1 X78.440 Y66.953 E0.01946
G1 X77.832 Y66.824 E0.01947
G1 X77.265 Y66.572 E0.01947
G1 X76.763 Y66.207 E0.01945
G1 X76.348 Y65.746 E0.01947
G1 X76.037 Y65.208 E0.01948
G1 X75.846 Y64.617 E0.01945
G1 X75.780 Y64.000 E0.01947
G1 X75.846 Y63.383 E0.01947
G1 X76.037 Y62.792 E0.01945
G1 X76.348 Y62.254 E0.01948
G1 X76.763 Y61.793 E0.01947
G1 X77.265 Y61.428 E0.01945
G1 X77.832 Y61.176 E0.01947
G1 X78.440 Y61.047 E0.01947
G1 X79.060 Y61.047 E0.01946
G1 X79.668 Y61.176 E0.01947
G1 X80.235 Y61.428 E0.01947
G1 X80.737 Y61.793 E0.01945
G1 X81.152 Y62.254 E0.01947
G1 X81.463 Y62.792 E0.01948
G1 X81.654 Y63.383 E0.01945
G1 X81.720 Y64.000 E0.01947
G1 X81.654 Y64.617 E0.01947
G1 X81.463 Y65.208 E0.01945
G1 X81.152 Y65.746 E0.01948
G1 X80.737 Y66.207 E0.01947
G1 X80.235 Y66.572 E0.01945
G1 X79.668 Y66.824 E0.01947
G1 X79.119 Y66.941 E0.01758
G1 X79.041 Y66.572 F7200.000
G1 F1800
G1 X78.479 Y66.576 E0.01760
G1 X77.950 Y66.464 E0.01698
G1 X77.455 Y66.243 E0.01698
G1 X77.017 Y65.925 E0.01697
G1 X76.654 Y65.523 E0.01698
G1 X76.384 Y65.053 E0.01699
G1 X76.217 Y64.539 E0.01697
G1 X76.160 Y64.000 E0.01698
G1 X76.217 Y63.461 E0.01698
G1 X76.384 Y62.947 E0.01697
G1 X76.654 Y62.477 E0.01699
G1 X77.017 Y62.075 E0.01698
G1 X77.455 Y61.757 E0.01697
G1 X77.950 Y61.536 E0.01698
G1 X78.479 Y61.424 E0.01698
G1 X79.021 Y61.424 E0.01697
G1 X79.550 Y61.536 E0.01698
G1 X80.045 Y61.757 E0.01698
G1 X80.483 Y62.075 E0.01697
G1 X80.846 Y62.477 E0.01698
G1 X81.116 Y62.947 E0.01699
G1 X81.283 Y63.461 E0.01697
G1 X81.340 Y64.000 E0.01698
G1 X81.283 Y64.539 E0.01698
G1 X81.116 Y65.053 E0.01697
G1 X80.846 Y65.523 E0.01699
G1 X80.483 Y65.925 E0.01698
G1 X80.045 Y66.243 E0.01697
G1 X79.550 Y66.464 E0.01698
G1 X79.099 Y66.559 E0.01446
G1 X78.981 Y66.199 F7200.000
G1 F1800
G1 X78.519 Y66.199 E0.01449
G1 X78.067 Y66.103 E0.01449
G1 X77.644 Y65.915 E0.01450
G1 X77.271 Y65.643 E0.01448
G1 X76.961 Y65.300 E0.01450
G1 X76.730 Y64.899 E0.01450
G1 X76.587 Y64.460 E0.01449
G1 X76.539 Y64.000 E0.01449
G1 X76.587 Y63.540 E0.01449
G1 X76.730 Y63.101 E0.01449
G1 X76.961 Y62.700 E0.01450
G1 X77.271 Y62.357 E0.01450
G1 X77.644 Y62.085 E0.01448
G1 X78.067 Y61.897 E0.01450
G1 X78.519 Y61.801 E0.01449
G1 X78.981 Y61.801 E0.01449
G1 X79.433 Y61.897 E0.01449
G1 X79.856 Y62.085 E0.01450
G1 X80.229 Y62.357 E0.01448
G1 X80.539 Y62.700 E0.01450
G1 X80.770 Y63.101 E0.01450
G1 X80.913 Y63.540 E0.01449
G1 X80.961 Y64.000 E0.01449
G1 X80.913 Y64.460 E0.01449
G1 X80.770 Y64.899 E0.01449
G1 X80.539 Y65.300 E0.01450
G1 X80.229 Y65.643 E0.01450
G1 X79.856 Y65.915 E0.01448
G1 X79.433 Y66.103 E0.01450
G1 X79.040 Y66.187 E0.01261
G1 X78.818 Y66.564 F7200.000
G1 F5760
G1 X78.519 Y66.199 E-0.18044
G1 X78.067 Y66.103 E-0.16011
G1 X77.644 Y65.915 E-0.16013
G1 X77.271 Y65.643 E-0.16000
G1 X77.079 Y65.430 E-0.09932
G1 E-0.04000 F2100.00000
G1 Z0.800 F7200.000
G1 X79.040 Y46.953
G1 Z0.200
G1 E0.80000 F2100.00000
G1 F1800
G1 X78.440 Y46.953 E0.01881
G1 X77.832 Y46.824 E0.01947
G1 X77.265 Y46.572 E0.01947
G1 X76.763 Y46.207 E0.01945
G1 X76.348 Y45.746 E0.01947
G1 X76.037 Y45.208 E0.01948
G1 X75.846 Y44.617 E0.01945
G1 X75.780 Y44.000 E0.01947
G1 X75.846 Y43.383 E0.01947
G1 X76.037 Y42.792 E0.01945
G1 X76.348 Y42.254 E0.01948
G1 X76.763 Y41.793 E0.01947
G1 X77.265 Y41.428 E0.01945
G1 X77.832 Y41.176 E0.01947
G1 X78.440 Y41.047 E0.01947
G1 X79.060 Y41.047 E0.01946
G1 X79.668 Y41.176 E0.01947
G1 X80.235 Y41.428 E0.01947
G1 X80.737 Y41.793 E0.01945
G1 X81.152 Y42.254 E0.01947
G1 X81.463 Y42.792 E0.01948
G1 X81.654 Y43.383 E0.01945
G1 X81.720 Y44.000 E0.01947
G1 X81.654 Y44.617 E0.01947
G1 X81.463 Y45.208 E0.01945
G1 X81.152 Y45.746 E0.01948
G1 X80.737 Y46.207 E0.01947
G1 X80.235 Y46.572 E0.01945
G1 X79.668 Y46.824 E0.01947
G1 X79.099 Y46.945 E0.01823
G1 X79.021 Y46.576 F7200.000
G1 F1800
G1 X78.479 Y46.576 E0.01697
G1 X77.950 Y46.464 E0.01698
G1 X77.455 Y46.243 E0.01698
G1 X77.017 Y45.925 E0.01697
G1 X76.654 Y45.523 E0.01698
G1 X76.384 Y45.053 E0.01699
G1 X76.217 Y44.539 E0.01697
G1 X76.160 Y44.000 E0.01698
G1 X76.217 Y43.461 E0.01698
G1 X76.384 Y42.947 E0.01697
G1 X76.654 Y42.477 E0.01699
G1 X77.017 Y42.075 E0.01698
G1 X77.455 Y41.757 E0.01697
G1 X77.950 Y41.536 E0.01698
G1 X78.479 Y41.424 E0.01698
G1 X79.021 Y41.424 E0.01697
G1 X79.550 Y41.536 E0.01698
G1 X80.045 Y41.757 E0.01698
G1 X80.483 Y42.075 E0.01697
G1 X80.846 Y42.477 E0.01698
G1 X81.116 Y42.947 E0.01699
G1 X81.283 Y43.461 E0.01697
G1 X81.340 Y44.000 E0.01698
G1 X81.283 Y44.539 E0.01698
G1 X81.116 Y45.053 E0.01697
G1 X80.846 Y45.523 E0.01699
G1 X80.483 Y45.925 E0.01698
G1 X80.045 Y46.243 E0.01697
G1 X79.550 Y46.464 E0.01698
G1 X79.079 Y46.564 E0.01510
G1 X79.001 Y46.195 F7200.000
G1 F1800
G1 X78.519 Y46.199 E0.01512
G1 X78.067 Y46.103 E0.01449
G1 X77.644 Y45.915 E0.01450
G1 X77.271 Y45.643 E0.01448
G1 X76.961 Y45.300 E0.01450
G1 X76.730 Y44.899 E0.01450
G1 X76.587 Y44.460 E0.01449
G1 X76.539 Y44.000 E0.01449
G1 X76.587 Y43.540 E0.01449
G1 X76.730 Y43.101 E0.01449
G1 X76.961 Y42.700 E0.01450
G1 X77.271 Y42.357 E0.01450
G1 X77.644 Y42.085 E0.01448
G1 X78.067 Y41.897 E0.01450
G1 X78.519 Y41.801 E0.01449
G1 X78.981 Y41.801 E0.01449
G1 X79.433 Y41.897 E0.01449
G1 X79.856 Y42.085 E0.01450
G1 X80.229 Y42.357 E0.01448
G1 X80.539 Y42.700 E0.01450
G1 X80.770 Y43.101 E0.01450
G1 X80.913 Y43.540 E0.01449
G1 X80.961 Y44.000 E0.01449
G1 X80.913 Y44.460 E0.01449
G1 X80.770 Y44.899 E0.01449
G1 X80.539 Y45.300 E0.01450
G1 X80.229 Y45.643 E0.01450
G1 X79.856 Y45.915 E0.01448
G1 X79.433 Y46.103 E0.01450
G1 X79.060 Y46.182 E0.01197
G1 X78.841 Y46.561 F7200.000
G1 F5760
G1 X78.519 Y46.199 E-0.18738
G1 X78.067 Y46.103 E-0.16011
G1 X77.644 Y45.915 E-0.16013
G1 X77.271 Y45.643 E-0.16000
G1 X77.092 Y45.445 E-0.09237
G1 E-0.04000 F2100.00000
G1 Z0.800 F7200.000
G1 X79.060 Y101.047
G1 Z0.200
G1 E0.80000 F2100.00000
G1 F1800
G1 X79.667 Y101.176 E0.01948
G1 X80.235 Y101.428 E0.01947
G1 X80.737 Y101.793 E0.01945
G1 X81.152 Y102.254 E0.01946
G1 X81.463 Y102.792 E0.01948
G1 X81.654 Y103.383 E0.01945
G1 X81.720 Y104.000 E0.01947
G1 X81.654 Y104.617 E0.01947
G1 X81.463 Y105.208 E0.01945
G1 X81.152 Y105.746 E0.01948
G1 X80.737 Y106.207 E0.01947
G1 X80.235 Y106.572 E0.01945
G1 X79.668 Y106.824 E0.01947
G1 X79.060 Y106.953 E0.01947
G1 X78.440 Y106.953 E0.01946
G1 X77.832 Y106.824 E0.01947
G1 X77.265 Y106.572 E0.01947
G1 X76.763 Y106.207 E0.01945
G1 X76.348 Y105.746 E0.01947
G1 X76.037 Y105.208 E0.01948
G1 X75.846 Y104.617 E0.01945
G1 X75.780 Y104.000 E0.01947
G1 X75.846 Y103.383 E0.01947
G1 X76.037 Y102.792 E0.01945
G1 X76.348 Y102.254 E0.01948
G1 X76.763 Y101.793 E0.01946
G1 X77.265 Y101.428 E0.01945
G1 X77.833 Y101.176 E0.01947
G1 X78.440 Y101.047 E0.01946
G1 X79.000 Y101.047 E0.01756
G1 X79.000 Y101.424 F7200.000
G1 F1800
G1 X79.550 Y101.536 E0.01762
G1 X80.045 Y101.757 E0.01698
G1 X80.483 Y102.075 E0.01697
G1 X80.846 Y102.477 E0.01698
G1 X81.116 Y102.947 E0.01699
G1 X81.283 Y103.461 E0.01697
G1 X81.340 Y104.000 E0.01698
G1 X81.283 Y104.539 E0.01698
G1 X81.116 Y105.053 E0.01697
G1 X80.846 Y105.523 E0.01699
G1 X80.483 Y105.925 E0.01698
G1 X80.045 Y106.243 E0.01697
G1 X79.550 Y106.464 E0.01698
G1 X79.021 Y106.576 E0.01698
G1 X78.479 Y106.576 E0.01697
G1 X77.950 Y106.464 E0.01698
G1 X77.455 Y106.243 E0.01698
G1 X77.017 Y105.925 E0.01697
G1 X76.654 Y105.523 E0.01698
