; generated by Slic3r Prusa Edition 1.39.2+win64 on 2018-05-24 at 15:01:06

; 

; external perimeters extrusion width = 0.45mm
; perimeters extrusion width = 0.45mm
; infill extrusion width = 0.45mm
; solid infill extrusion width = 0.45mm
; top infill extrusion width = 0.45mm
; first layer extrusion width = 0.42mm

M107
M115 U3.1.0 ; tell printer latest fw version
M83  ; extruder relative mode
M104 S205 ; set extruder temp
M140 S55 ; set bed temp
M190 S55 ; wait for bed temp
M109 S205 ; wait for extruder temp
G28 W ; home all without mesh bed level
G80 ; mesh bed leveling
G1 Y-3.0 F1000.0 ; go outside print area
G92 E0.0
G1 X60.0 E9.0  F1000.0 ; intro line
G1 X100.0 E12.5  F1000.0 ; intro line
G92 E0.0
M900 K30; Filament gcode
G21 ; set units to millimeters
G90 ; use absolute coordinates
M83 ; use relative distances for extrusion
;BEFORE_LAYER_CHANGE
;0.2


G1 E-0.80000 F2100.00000
G1 Z0.600 F7200.000
;AFTER_LAYER_CHANGE
;0.2
G1 X90.586 Y92.902
G1 Z0.200
G1 E0.80000 F2100.00000
M204 S1000
G1 F1800
G1 X91.434 Y92.747 E0.02701
G1 X113.504 Y92.746 E0.69200
G1 X114.498 Y92.933 E0.03170
G1 X115.360 Y93.469 E0.03183
G1 X115.969 Y94.280 E0.03183
G1 X116.243 Y95.258 E0.03183
G1 X116.248 Y109.680 E0.45221
G1 X116.148 Y110.257 E0.01835
G1 X115.927 Y110.803 E0.01848
G1 X115.596 Y111.286 E0.01835
G1 X115.169 Y111.691 E0.01848
G1 X114.414 Y112.098 E0.02689
G1 X113.566 Y112.253 E0.02701
G1 X91.443 Y112.254 E0.69367
G1 X90.830 Y112.171 E0.01937
G1 X90.252 Y111.955 E0.01937
G1 X89.736 Y111.615 E0.01937
G1 X89.309 Y111.169 E0.01937
G1 X88.906 Y110.425 E0.02651
G1 X88.748 Y109.599 E0.02638
G1 X88.747 Y95.418 E0.44464
G1 X88.833 Y94.814 E0.01912
G1 X89.051 Y94.241 E0.01924
G1 X89.390 Y93.730 E0.01924
G1 X89.831 Y93.309 E0.01912
G1 X90.533 Y92.930 E0.02501
G1 X90.708 Y93.263 F7200.000
G1 F1800
G1 X91.453 Y93.123 E0.02376
G1 X113.504 Y93.123 E0.69138
G1 X114.367 Y93.287 E0.02755
G1 X115.115 Y93.755 E0.02767
G1 X115.640 Y94.465 E0.02767
G1 X115.870 Y95.316 E0.02767
G1 X115.873 Y109.641 E0.44914
G1 X115.786 Y110.151 E0.01621
G1 X115.592 Y110.629 E0.01621
G1 X115.298 Y111.055 E0.01621
G1 X114.919 Y111.407 E0.01621
G1 X114.268 Y111.750 E0.02308
G1 X113.547 Y111.877 E0.02296
G1 X91.454 Y111.877 E0.69269
G1 X90.919 Y111.805 E0.01692
G1 X90.414 Y111.615 E0.01692
G1 X89.962 Y111.313 E0.01704
G1 X89.593 Y110.919 E0.01692
G1 X89.255 Y110.282 E0.02260
G1 X89.124 Y109.573 E0.02260
G1 X89.124 Y95.435 E0.44329
G1 X89.199 Y94.905 E0.01680
G1 X89.391 Y94.404 E0.01680
G1 X89.690 Y93.959 E0.01680
G1 X90.081 Y93.593 E0.01680
G1 X90.655 Y93.291 E0.02035
G1 F5760
G1 X91.453 Y93.123 E-0.28238
G1 X92.832 Y93.123 E-0.47762
G1 E-0.04000 F2100.00000
G1 Z0.800 F7200.000
G1 X106.924 Y99.153
G1 Z0.200
G1 E0.80000 F2100.00000
G1 F1800
G1 X107.219 Y98.643 E0.01848
G1 X107.613 Y98.205 E0.01848
G1 X108.090 Y97.858 E0.01848
G1 X108.629 Y97.618 E0.01848
G1 X109.205 Y97.496 E0.01848
G1 X109.795 Y97.496 E0.01848
G1 X110.371 Y97.618 E0.01848
G1 X110.910 Y97.858 E0.01848
G1 X111.387 Y98.205 E0.01848
G1 X111.781 Y98.643 E0.01848
G1 X112.077 Y99.155 E0.01856
G1 X112.259 Y99.727 E0.01880
G1 X112.319 Y100.300 E0.01807
G1 X112.258 Y100.886 E0.01848
G1 X112.076 Y101.447 E0.01849
G1 X111.781 Y101.957 E0.01848
G1 X111.387 Y102.395 E0.01848
G1 X110.910 Y102.742 E0.01848
G1 X110.371 Y102.981 E0.01848
G1 X109.795 Y103.104 E0.01848
G1 X109.205 Y103.104 E0.01848
G1 X108.629 Y102.981 E0.01848
G1 X108.090 Y102.742 E0.01848
G1 X107.613 Y102.395 E0.01848
G1 X107.219 Y101.957 E0.01848
G1 X106.924 Y101.447 E0.01848
G1 X106.742 Y100.886 E0.01849
G1 X106.681 Y100.300 E0.01848
G1 X106.742 Y99.714 E0.01848
G1 X106.906 Y99.210 E0.01660
G1 X107.264 Y99.327 F7200.000
G1 F1800
G1 X107.526 Y98.866 E0.01662
G1 X107.867 Y98.486 E0.01600
G1 X108.280 Y98.187 E0.01599
G1 X108.746 Y97.979 E0.01600
G1 X109.245 Y97.873 E0.01600
G1 X109.755 Y97.873 E0.01600
G1 X110.254 Y97.979 E0.01600
G1 X110.720 Y98.187 E0.01600
G1 X111.133 Y98.486 E0.01599
G1 X111.474 Y98.866 E0.01600
G1 X111.730 Y99.309 E0.01605
G1 X111.888 Y99.805 E0.01632
G1 X111.940 Y100.300 E0.01562
G1 X111.887 Y100.807 E0.01599
G1 X111.729 Y101.293 E0.01600
G1 X111.474 Y101.734 E0.01600
G1 X111.133 Y102.114 E0.01600
G1 X110.720 Y102.413 E0.01599
G1 X110.254 Y102.621 E0.01600
G1 X109.755 Y102.727 E0.01600
G1 X109.245 Y102.727 E0.01600
G1 X108.746 Y102.621 E0.01600
G1 X108.280 Y102.413 E0.01600
G1 X107.867 Y102.114 E0.01599
G1 X107.526 Y101.734 E0.01600
G1 X107.271 Y101.293 E0.01600
G1 X107.113 Y100.807 E0.01600
G1 X107.060 Y100.300 E0.01599
G1 X107.113 Y99.793 E0.01599
G1 X107.246 Y99.384 E0.01348
G1 X107.617 Y99.462 F7200.000
G1 F1800
G1 X107.832 Y99.088 E0.01351
G1 X108.121 Y98.768 E0.01351
G1 X108.469 Y98.515 E0.01351
G1 X108.863 Y98.340 E0.01351
G1 X109.285 Y98.250 E0.01351
G1 X109.715 Y98.250 E0.01351
G1 X110.137 Y98.340 E0.01351
G1 X110.531 Y98.515 E0.01351
G1 X110.879 Y98.768 E0.01351
G1 X111.168 Y99.088 E0.01351
G1 X111.383 Y99.462 E0.01353
G1 X111.517 Y99.882 E0.01383
G1 X111.561 Y100.300 E0.01317
G1 X111.516 Y100.728 E0.01351
G1 X111.383 Y101.138 E0.01351
G1 X111.168 Y101.512 E0.01351
G1 X110.879 Y101.832 E0.01351
G1 X110.531 Y102.085 E0.01351
G1 X110.137 Y102.260 E0.01351
G1 X109.715 Y102.350 E0.01351
G1 X109.285 Y102.350 E0.01351
G1 X108.863 Y102.260 E0.01351
G1 X108.469 Y102.085 E0.01351
G1 X108.121 Y101.832 E0.01351
G1 X107.832 Y101.512 E0.01351
G1 X107.617 Y101.138 E0.01351
G1 X107.484 Y100.728 E0.01351
G1 X107.439 Y100.300 E0.01351
G1 X107.484 Y99.872 E0.01351
G1 X107.598 Y99.519 E0.01163
G1 X107.382 Y99.138 F7200.000
G1 F5760
G1 X107.832 Y99.088 E-0.16962
G1 X108.121 Y98.768 E-0.14924
G1 X108.469 Y98.515 E-0.14923
G1 X108.863 Y98.340 E-0.14925
G1 X109.266 Y98.254 E-0.14266
G1 E-0.04000 F2100.00000
G1 Z0.800 F7200.000
G1 X99.319 Y100.300
G1 Z0.200
G1 E0.80000 F2100.00000
G1 F1800
G1 X99.258 Y100.886 E0.01848
G1 X99.075 Y101.449 E0.01857
G1 X98.772 Y101.967 E0.01880
G1 X98.387 Y102.395 E0.01807
G1 X97.910 Y102.742 E0.01848
G1 X97.371 Y102.981 E0.01848
G1 X96.795 Y103.104 E0.01848
G1 X96.205 Y103.104 E0.01848
G1 X95.629 Y102.981 E0.01848
G1 X95.090 Y102.742 E0.01848
G1 X94.613 Y102.395 E0.01848
G1 X94.219 Y101.957 E0.01848
G1 X93.924 Y101.447 E0.01848
G1 X93.742 Y100.886 E0.01848
G1 X93.681 Y100.300 E0.01848
G1 X93.742 Y99.714 E0.01848
G1 X93.924 Y99.153 E0.01848
G1 X94.219 Y98.643 E0.01848
G1 X94.613 Y98.205 E0.01848
G1 X95.090 Y97.858 E0.01848
G1 X95.629 Y97.618 E0.01848
G1 X96.205 Y97.496 E0.01848
G1 X96.795 Y97.496 E0.01848
G1 X97.371 Y97.618 E0.01849
G1 X97.910 Y97.858 E0.01848
G1 X98.387 Y98.205 E0.01848
G1 X98.781 Y98.643 E0.01848
G1 X99.076 Y99.153 E0.01848
G1 X99.258 Y99.714 E0.01848
G1 X99.313 Y100.240 E0.01660
G1 X98.938 Y100.280 F7200.000
G1 F1800
G1 X98.887 Y100.807 E0.01662
G1 X98.729 Y101.294 E0.01605
G1 X98.466 Y101.743 E0.01631
G1 X98.133 Y102.114 E0.01562
G1 X97.720 Y102.413 E0.01599
G1 X97.254 Y102.621 E0.01600
G1 X96.755 Y102.727 E0.01600
G1 X96.245 Y102.727 E0.01600
G1 X95.746 Y102.621 E0.01600
G1 X95.280 Y102.413 E0.01600
G1 X94.867 Y102.114 E0.01599
G1 X94.526 Y101.734 E0.01600
G1 X94.271 Y101.293 E0.01600
G1 X94.113 Y100.807 E0.01600
G1 X94.060 Y100.300 E0.01599
G1 X94.113 Y99.793 E0.01599
G1 X94.271 Y99.307 E0.01600
G1 X94.526 Y98.866 E0.01600
G1 X94.867 Y98.486 E0.01600
G1 X95.280 Y98.187 E0.01599
G1 X95.746 Y97.979 E0.01600
G1 X96.245 Y97.873 E0.01600
G1 X96.755 Y97.873 E0.01599
G1 X97.254 Y97.979 E0.01600
G1 X97.720 Y98.187 E0.01600
G1 X98.133 Y98.486 E0.01599
G1 X98.474 Y98.866 E0.01600
G1 X98.729 Y99.307 E0.01600
G1 X98.887 Y99.793 E0.01600
G1 X98.932 Y100.220 E0.01347
G1 X98.561 Y100.300 F7200.000
G1 F1800
G1 X98.516 Y100.728 E0.01351
G1 X98.383 Y101.139 E0.01353
G1 X98.160 Y101.520 E0.01383
G1 X97.879 Y101.832 E0.01317
G1 X97.531 Y102.085 E0.01351
G1 X97.137 Y102.260 E0.01351
G1 X96.715 Y102.350 E0.01351
G1 X96.285 Y102.350 E0.01351
G1 X95.863 Y102.260 E0.01351
G1 X95.469 Y102.085 E0.01351
G1 X95.121 Y101.832 E0.01351
G1 X94.833 Y101.512 E0.01351
G1 X94.617 Y101.138 E0.01351
G1 X94.484 Y100.728 E0.01351
G1 X94.439 Y100.300 E0.01351
G1 X94.484 Y99.872 E0.01351
G1 X94.617 Y99.462 E0.01351
G1 X94.833 Y99.088 E0.01351
G1 X95.121 Y98.768 E0.01351
G1 X95.469 Y98.515 E0.01351
G1 X95.863 Y98.340 E0.01351
G1 X96.285 Y98.250 E0.01351
G1 X96.715 Y98.250 E0.01351
G1 X97.137 Y98.340 E0.01351
G1 X97.531 Y98.515 E0.01351
G1 X97.879 Y98.768 E0.01351
G1 X98.167 Y99.088 E0.01351
G1 X98.383 Y99.462 E0.01351
G1 X98.516 Y99.872 E0.01351
G1 X98.555 Y100.240 E0.01163
G1 X98.908 Y100.500 F7200.000
G1 F5760
G1 X98.516 Y100.728 E-0.16961
G1 X98.383 Y101.139 E-0.14947
G1 X98.160 Y101.520 E-0.15273
G1 X97.879 Y101.832 E-0.14547
G1 X97.546 Y102.074 E-0.14272
G1 E-0.04000 F2100.00000
G1 Z0.800 F7200.000
G1 X92.464 Y96.464
G1 Z0.200
G1 E0.80000 F2100.00000
G1 F1800
G1 X112.536 Y96.464 E0.62933
G1 X112.536 Y108.536 E0.37850
G1 X92.464 Y108.536 E0.62933
G1 X92.464 Y96.524 E0.37662
G1 X92.087 Y96.087 F7200.000
G1 F1800
G1 X112.913 Y96.087 E0.65298
G1 X112.913 Y108.913 E0.40215
G1 X92.087 Y108.913 E0.65298
G1 X92.087 Y96.147 E0.40026
G1 X91.710 Y95.710 F7200.000
G1 F1800
G1 X113.290 Y95.710 E0.67663
G1 X113.290 Y109.290 E0.42579
G1 X91.710 Y109.290 E0.67663
G1 X91.710 Y95.770 E0.42391
G1 X92.103 Y95.784 F7200.000
G1 F5760
G1 X93.904 Y95.764 E-0.76000
G1 E-0.04000 F2100.00000
G1 Z0.800 F7200.000
G1 X97.594 Y97.594
G1 Z0.200
G1 E0.80000 F2100.00000
G1 F1800
G1 X96.747 Y96.747 E0.03791
G1 X96.208 Y96.747 E0.01704
G1 X96.675 Y97.213 E0.02087
G1 X96.143 Y97.220 E0.01683
G1 X95.670 Y96.747 E0.02118
G1 X95.132 Y96.747 E0.01704
G1 X95.699 Y97.314 E0.02540
G1 X95.541 Y97.348 E0.00513
G1 X95.301 Y97.455 E0.00830
G1 X94.593 Y96.747 E0.03169
G1 X94.055 Y96.747 E0.01704
G1 X94.932 Y97.624 E0.03926
G1 X94.620 Y97.850 E0.01220
G1 X93.516 Y96.747 E0.04940
G1 X92.978 Y96.747 E0.01704
G1 X94.329 Y98.098 E0.06048
G1 X94.074 Y98.381 E0.01207
G1 X92.747 Y97.054 E0.05941
G1 X92.747 Y97.593 E0.01704
G1 X93.858 Y98.703 E0.04972
G1 X93.662 Y99.046 E0.01249
G1 X92.747 Y98.131 E0.04096
G1 X92.747 Y98.670 E0.01704
G1 X93.530 Y99.452 E0.03505
G1 X93.464 Y99.655 E0.00674
G1 X93.438 Y99.899 E0.00778
G1 X92.747 Y99.208 E0.03095
G1 X92.747 Y99.746 E0.01704
G1 X93.407 Y100.407 E0.02957
G1 X93.464 Y100.945 E0.01714
G1 X93.491 Y101.029 E0.00279
G1 X92.747 Y100.285 E0.03332
G1 X92.747 Y100.823 E0.01704
G1 X100.177 Y108.253 E0.33263
G1 X99.638 Y108.253 E0.01704
G1 X92.747 Y101.362 E0.30853
G1 X92.747 Y101.900 E0.01704
G1 X99.100 Y108.253 E0.28442
G1 X98.562 Y108.253 E0.01704
G1 X92.747 Y102.438 E0.26032
G1 X92.747 Y102.977 E0.01704
G1 X98.023 Y108.253 E0.23621
G1 X97.485 Y108.253 E0.01704
G1 X92.747 Y103.515 E0.21211
G1 X92.747 Y104.054 E0.01704
G1 X96.946 Y108.253 E0.18800
G1 X96.408 Y108.253 E0.01704
G1 X92.747 Y104.592 E0.16390
G1 X92.747 Y105.130 E0.01704
G1 X95.870 Y108.253 E0.13980
G1 X95.331 Y108.253 E0.01704
G1 X92.747 Y105.669 E0.11569
G1 X92.747 Y106.207 E0.01704
G1 X94.793 Y108.253 E0.09159
G1 X94.254 Y108.253 E0.01704
G1 X92.747 Y106.746 E0.06748
G1 X92.747 Y107.284 E0.01704
G1 X93.716 Y108.253 E0.04338
G1 X93.177 Y108.253 E0.01704
G1 X92.577 Y107.653 E0.02687
G1 F5760
G1 X93.177 Y108.253 E-0.29399
G1 X93.716 Y108.253 E-0.18648
G1 X93.145 Y107.682 E-0.27953
G1 E-0.04000 F2100.00000
G1 Z0.800 F7200.000
G1 X95.518 Y103.056
G1 Z0.200
G1 E0.80000 F2100.00000
G1 F1800
G1 X100.715 Y108.253 E0.23266
G1 X101.254 Y108.253 E0.01704
G1 X96.387 Y103.387 E0.21786
G1 X96.824 Y103.387 E0.01383
G1 X96.908 Y103.369 E0.00271
G1 X101.792 Y108.253 E0.21865
G1 X102.330 Y108.253 E0.01704
G1 X97.352 Y103.275 E0.22288
G1 X97.459 Y103.252 E0.00347
G1 X97.742 Y103.126 E0.00979
G1 X102.869 Y108.253 E0.22953
G1 X103.407 Y108.253 E0.01704
G1 X98.104 Y102.950 E0.23742
G1 X98.416 Y102.723 E0.01220
G1 X103.946 Y108.253 E0.24756
G1 X104.484 Y108.253 E0.01704
G1 X98.700 Y102.469 E0.25893
G1 X98.956 Y102.186 E0.01207
G1 X105.023 Y108.253 E0.27162
G1 X105.561 Y108.253 E0.01704
G1 X99.164 Y101.857 E0.28637
G1 X99.353 Y101.507 E0.01258
G1 X106.099 Y108.253 E0.30201
G1 X106.638 Y108.253 E0.01704
G1 X99.485 Y101.101 E0.32020
G1 X99.536 Y100.945 E0.00518
G1 X99.568 Y100.644 E0.00957
G1 X107.176 Y108.253 E0.34063
G1 X107.715 Y108.253 E0.01704
G1 X99.585 Y100.124 E0.36394
G1 X99.536 Y99.655 E0.01493
G1 X99.479 Y99.479 E0.00585
G1 X108.253 Y108.253 E0.39281
G1 X108.791 Y108.253 E0.01704
G1 X97.285 Y96.747 E0.51512
G1 X97.824 Y96.747 E0.01704
G1 X109.330 Y108.253 E0.51512
G1 X109.868 Y108.253 E0.01704
G1 X98.362 Y96.747 E0.51512
G1 X98.901 Y96.747 E0.01704
G1 X110.407 Y108.253 E0.51512
G1 X110.945 Y108.253 E0.01704
G1 X99.439 Y96.747 E0.51512
G1 X99.977 Y96.747 E0.01704
G1 X111.483 Y108.253 E0.51512
G1 X112.022 Y108.253 E0.01704
G1 X100.516 Y96.747 E0.51512
G1 X101.054 Y96.747 E0.01704
G1 X112.423 Y108.115 E0.50896
G1 F5760
G1 X110.871 Y106.564 E-0.76000
G1 E-0.04000 F2100.00000
G1 Z0.800 F7200.000
G1 X111.798 Y102.107
G1 Z0.200
G1 E0.80000 F2100.00000
G1 F1800
G1 X112.253 Y102.562 E0.02036
G1 X112.253 Y103.100 E0.01704
G1 X111.663 Y102.510 E0.02640
G1 X111.577 Y102.607 E0.00410
G1 X111.371 Y102.756 E0.00806
G1 X112.253 Y103.639 E0.03950
G1 X112.253 Y104.177 E0.01704
G1 X111.059 Y102.983 E0.05346
G1 X110.688 Y103.150 E0.01289
G1 X112.253 Y104.715 E0.07007
G1 X112.253 Y105.254 E0.01704
G1 X110.288 Y103.288 E0.08799
G1 X109.844 Y103.383 E0.01437
G1 X112.253 Y105.792 E0.10787
G1 X112.253 Y106.331 E0.01704
G1 X109.309 Y103.387 E0.13179
G1 X109.176 Y103.387 E0.00424
G1 X108.662 Y103.278 E0.01663
G1 X112.253 Y106.869 E0.16078
G1 X112.253 Y107.407 E0.01704
G1 X101.593 Y96.747 E0.47726
G1 X102.131 Y96.747 E0.01704
G1 X106.529 Y101.145 E0.19688
G1 X106.464 Y100.945 E0.00664
G1 X106.417 Y100.494 E0.01436
G1 X102.669 Y96.747 E0.16776
G1 X103.208 Y96.747 E0.01704
G1 X106.431 Y99.970 E0.14429
G1 X106.464 Y99.655 E0.01003
G1 X106.511 Y99.511 E0.00478
G1 X103.746 Y96.747 E0.12376
G1 X104.285 Y96.747 E0.01704
G1 X106.643 Y99.105 E0.10556
G1 X106.829 Y98.753 E0.01261
G1 X104.823 Y96.747 E0.08980
G1 X105.361 Y96.747 E0.01704
G1 X107.037 Y98.422 E0.07501
G1 X107.292 Y98.139 E0.01207
G1 X105.900 Y96.747 E0.06232
G1 X106.438 Y96.747 E0.01704
G1 X107.575 Y97.883 E0.05087
G1 X107.887 Y97.657 E0.01220
G1 X106.977 Y96.747 E0.04073
G1 X107.515 Y96.747 E0.01704
G1 X108.247 Y97.479 E0.03277
G1 X108.541 Y97.348 E0.01018
G1 X108.635 Y97.328 E0.00304
G1 X108.054 Y96.747 E0.02602
G1 X108.592 Y96.747 E0.01704
G1 X109.079 Y97.234 E0.02179
G1 X109.176 Y97.213 E0.00313
G1 X109.597 Y97.213 E0.01333
G1 X109.130 Y96.747 E0.02087
G1 X109.669 Y96.747 E0.01704
G1 X110.219 Y97.297 E0.02462
G1 X110.459 Y97.348 E0.00778
G1 X111.052 Y97.612 E0.02054
G1 X111.127 Y97.666 E0.00292
G1 X110.207 Y96.747 E0.04116
G1 X110.746 Y96.747 E0.01704
G1 X112.253 Y98.254 E0.06749
G1 X112.253 Y97.716 E0.01704
G1 X111.284 Y96.747 E0.04338
G1 X111.822 Y96.747 E0.01704
G1 X112.423 Y97.347 E0.02687
G1 F5760
G1 X111.822 Y96.747 E-0.29404
G1 X111.284 Y96.747 E-0.18648
G1 X111.855 Y97.318 E-0.27948
G1 E-0.04000 F2100.00000
G1 Z0.800 F7200.000
G1 X112.225 Y98.720
G1 Z0.200
G1 E0.80000 F2100.00000
G1 F1800
G1 X112.326 Y99.245 E0.00441
G1 F5760
G1 X112.225 Y98.720 E-0.18514
G1 E-0.61486 F2100.00000
G1 Z0.800 F7200.000
G1 X112.326 Y101.355
G1 Z0.200
G1 E0.80000 F2100.00000
G1 F1800
G1 X112.311 Y101.447 E0.00059
G1 X112.224 Y101.880 E0.00386
M106 S249.9
;BEFORE_LAYER_CHANGE
;0.35


G1 F5760
G1 X112.311 Y101.447 E-0.15266
G1 E-0.64734 F2100.00000
G1 Z0.800 F7200.000
;AFTER_LAYER_CHANGE
;0.35
G1 X115.969 Y94.280
G1 Z0.350
G1 E0.80000 F2100.00000
G1 F3000
G1 X116.243 Y95.258 E0.02455
G1 X116.248 Y109.680 E0.34881
G1 X116.148 Y110.257 E0.01415
G1 X115.927 Y110.803 E0.01425
G1 X115.596 Y111.286 E0.01415
G1 X115.169 Y111.691 E0.01425
G1 X114.414 Y112.098 E0.02074
G1 X113.566 Y112.253 E0.02084
G1 X91.443 Y112.254 E0.53506
G1 X90.830 Y112.171 E0.01494
G1 X90.252 Y111.955 E0.01494
G1 X89.736 Y111.615 E0.01494
G1 X89.309 Y111.169 E0.01494
G1 X88.906 Y110.425 E0.02044
G1 X88.748 Y109.599 E0.02035
G1 X88.747 Y95.418 E0.34297
G1 X88.833 Y94.814 E0.01474
G1 X89.051 Y94.241 E0.01484
G1 X89.390 Y93.730 E0.01484
G1 X89.831 Y93.309 E0.01474
G1 X90.586 Y92.902 E0.02074
