; generated by Slic3r Prusa Edition 1.39.2+win64 on 2018-05-30 at 08:20:01

; 

; external perimeters extrusion width = 0.45mm
; perimeters extrusion width = 0.45mm
; infill extrusion width = 0.45mm
; solid infill extrusion width = 0.45mm
; top infill extrusion width = 0.45mm
; first layer extrusion width = 0.42mm

M107
M115 U3.1.0 ; tell printer latest fw version
M83  ; extruder relative mode
M104 S205 ; set extruder temp
M140 S55 ; set bed temp
M190 S55 ; wait for bed temp
M109 S205 ; wait for extruder temp
G28 W ; home all without mesh bed level
G80 ; mesh bed leveling
G1 Y-3.0 F1000.0 ; go outside print area
G92 E0.0
G1 X60.0 E9.0  F1000.0 ; intro line
G1 X100.0 E12.5  F1000.0 ; intro line
G92 E0.0
M900 K30; Filament gcode
G21 ; set units to millimeters
G90 ; use absolute coordinates
M83 ; use relative distances for extrusion
;BEFORE_LAYER_CHANGE
;0.2


G1 E-0.80000 F2100.00000
G1 Z0.600 F7200.000
;AFTER_LAYER_CHANGE
;0.2
G1 X47.086 Y78.806
G1 Z0.200
G1 E0.80000 F2100.00000
M204 S1000
G1 F1800
G1 X47.995 Y78.623 E0.02907
G1 X157.004 Y78.623 E3.41789
G1 X157.899 Y78.799 E0.02860
G1 X158.664 Y79.303 E0.02872
G1 X159.182 Y80.058 E0.02872
G1 X159.377 Y80.953 E0.02872
G1 X159.376 Y124.076 E1.35209
G1 X159.258 Y124.742 E0.02119
G1 X158.956 Y125.350 E0.02130
G1 X158.494 Y125.849 E0.02130
G1 X157.914 Y126.194 E0.02119
G1 X157.005 Y126.377 E0.02907
G1 X47.973 Y126.377 E3.41861
G1 X47.291 Y126.269 E0.02166
G1 X46.672 Y125.971 E0.02154
G1 X46.161 Y125.506 E0.02166
G1 X45.806 Y124.914 E0.02166
G1 X45.623 Y124.009 E0.02896
G1 X45.624 Y80.935 E1.35054
G1 X45.739 Y80.266 E0.02130
G1 X46.039 Y79.656 E0.02130
G1 X46.503 Y79.154 E0.02142
G1 X47.035 Y78.836 E0.01942
G1 F5760
G1 X47.995 Y78.623 E-0.34081
G1 X49.205 Y78.623 E-0.41919
G1 E-0.04000 F2100.00000
G1 Z0.800 F7200.000
G1 X52.752 Y117.336
G1 Z0.200
G1 E0.80000 F2100.00000
G1 F1800
G1 X53.248 Y117.336 E0.01553
G1 X53.732 Y117.438 E0.01553
G1 X54.185 Y117.640 E0.01553
G1 X54.585 Y117.931 E0.01553
G1 X54.917 Y118.299 E0.01553
G1 X55.166 Y118.731 E0.01563
G1 X55.319 Y119.212 E0.01583
G1 X55.369 Y119.692 E0.01512
G1 X55.318 Y120.185 E0.01553
G1 X55.165 Y120.656 E0.01553
G1 X54.917 Y121.085 E0.01553
G1 X54.585 Y121.453 E0.01553
G1 X54.185 Y121.744 E0.01553
G1 X53.732 Y121.946 E0.01553
G1 X53.248 Y122.048 E0.01553
G1 X52.752 Y122.048 E0.01553
G1 X52.268 Y121.946 E0.01553
G1 X51.815 Y121.744 E0.01553
G1 X51.415 Y121.453 E0.01553
G1 X51.083 Y121.085 E0.01553
G1 X50.834 Y120.653 E0.01563
G1 X50.681 Y120.172 E0.01583
G1 X50.631 Y119.692 E0.01512
G1 X50.682 Y119.199 E0.01553
G1 X50.835 Y118.728 E0.01553
G1 X51.083 Y118.299 E0.01553
G1 X51.415 Y117.931 E0.01553
G1 X51.815 Y117.640 E0.01553
G1 X52.268 Y117.438 E0.01553
G1 X52.694 Y117.348 E0.01365
G1 X52.772 Y117.717 F7200.000
G1 F1800
G1 X53.208 Y117.713 E0.01367
G1 X53.615 Y117.799 E0.01305
G1 X53.995 Y117.968 E0.01305
G1 X54.332 Y118.213 E0.01304
G1 X54.610 Y118.522 E0.01305
G1 X54.819 Y118.884 E0.01311
G1 X54.948 Y119.290 E0.01334
G1 X54.990 Y119.692 E0.01268
G1 X54.947 Y120.106 E0.01305
G1 X54.818 Y120.502 E0.01304
G1 X54.610 Y120.862 E0.01305
G1 X54.332 Y121.171 E0.01305
G1 X53.995 Y121.416 E0.01304
G1 X53.615 Y121.585 E0.01305
G1 X53.208 Y121.671 E0.01305
G1 X52.792 Y121.671 E0.01304
G1 X52.385 Y121.585 E0.01305
G1 X52.005 Y121.416 E0.01305
G1 X51.668 Y121.171 E0.01304
G1 X51.390 Y120.862 E0.01305
G1 X51.181 Y120.500 E0.01311
G1 X51.052 Y120.094 E0.01334
G1 X51.010 Y119.692 E0.01268
G1 X51.053 Y119.278 E0.01305
G1 X51.182 Y118.882 E0.01304
G1 X51.390 Y118.522 E0.01305
G1 X51.668 Y118.213 E0.01305
G1 X52.005 Y117.968 E0.01304
G1 X52.385 Y117.799 E0.01305
G1 X52.713 Y117.729 E0.01053
G1 X52.832 Y118.090 F7200.000
G1 F1800
G1 X53.168 Y118.090 E0.01056
G1 X53.498 Y118.160 E0.01056
G1 X53.806 Y118.297 E0.01056
G1 X54.078 Y118.495 E0.01056
G1 X54.303 Y118.745 E0.01056
G1 X54.472 Y119.037 E0.01058
G1 X54.577 Y119.367 E0.01086
G1 X54.611 Y119.692 E0.01023
G1 X54.576 Y120.027 E0.01056
G1 X54.472 Y120.347 E0.01056
G1 X54.303 Y120.639 E0.01056
G1 X54.078 Y120.889 E0.01056
G1 X53.806 Y121.087 E0.01056
G1 X53.498 Y121.224 E0.01056
G1 X53.168 Y121.294 E0.01056
G1 X52.832 Y121.294 E0.01056
G1 X52.502 Y121.224 E0.01056
G1 X52.194 Y121.087 E0.01056
G1 X51.922 Y120.889 E0.01056
G1 X51.697 Y120.639 E0.01056
G1 X51.528 Y120.347 E0.01058
G1 X51.423 Y120.017 E0.01086
G1 X51.389 Y119.692 E0.01023
G1 X51.424 Y119.357 E0.01056
G1 X51.528 Y119.037 E0.01056
G1 X51.697 Y118.745 E0.01056
G1 X51.922 Y118.495 E0.01056
G1 X52.194 Y118.297 E0.01056
G1 X52.502 Y118.160 E0.01056
G1 X52.773 Y118.102 E0.00868
G1 X52.969 Y117.782 F7200.000
G1 F5760
G1 X53.168 Y118.090 E-0.13704
G1 X53.498 Y118.160 E-0.11666
G1 X53.806 Y118.297 E-0.11667
G1 X54.078 Y118.495 E-0.11665
G1 X54.303 Y118.745 E-0.11666
G1 X54.472 Y119.037 E-0.11691
G1 X54.507 Y119.146 E-0.03940
G1 E-0.04000 F2100.00000
G1 Z0.800 F7200.000
G1 X63.286 Y103.432
G1 Z0.200
G1 E0.80000 F2100.00000
G1 F1800
G1 X62.900 Y102.998 E0.01820
G1 X62.624 Y102.519 E0.01734
G1 X62.448 Y101.978 E0.01783
G1 X62.389 Y101.413 E0.01782
G1 X62.448 Y100.848 E0.01783
G1 X62.624 Y100.307 E0.01783
G1 X62.908 Y99.815 E0.01782
G1 X63.288 Y99.392 E0.01783
G1 X63.748 Y99.058 E0.01783
G1 X64.268 Y98.827 E0.01783
G1 X64.824 Y98.708 E0.01783
G1 X65.392 Y98.708 E0.01782
G1 X65.948 Y98.827 E0.01783
G1 X66.468 Y99.058 E0.01783
G1 X66.928 Y99.392 E0.01783
G1 X67.308 Y99.815 E0.01783
G1 X67.594 Y100.310 E0.01793
G1 X67.770 Y100.863 E0.01820
G1 X67.827 Y101.413 E0.01734
G1 X67.768 Y101.978 E0.01782
G1 X67.592 Y102.519 E0.01783
G1 X67.308 Y103.011 E0.01782
G1 X66.928 Y103.434 E0.01783
G1 X66.468 Y103.768 E0.01783
G1 X65.948 Y103.999 E0.01782
G1 X65.392 Y104.118 E0.01783
G1 X64.824 Y104.118 E0.01783
G1 X64.268 Y103.999 E0.01783
G1 X63.748 Y103.768 E0.01782
G1 X63.334 Y103.467 E0.01605
G1 X63.556 Y103.162 F7200.000
G1 F1800
G1 X63.208 Y102.776 E0.01630
G1 X62.970 Y102.365 E0.01489
G1 X62.819 Y101.900 E0.01534
G1 X62.768 Y101.413 E0.01534
G1 X62.819 Y100.926 E0.01534
G1 X62.970 Y100.461 E0.01534
G1 X63.215 Y100.037 E0.01534
G1 X63.542 Y99.674 E0.01534
G1 X63.938 Y99.386 E0.01534
G1 X64.385 Y99.187 E0.01534
G1 X64.863 Y99.086 E0.01534
G1 X65.353 Y99.086 E0.01534
G1 X65.831 Y99.187 E0.01534
G1 X66.278 Y99.386 E0.01534
G1 X66.674 Y99.674 E0.01534
G1 X67.001 Y100.037 E0.01534
G1 X67.247 Y100.463 E0.01540
G1 X67.399 Y100.941 E0.01572
G1 X67.448 Y101.413 E0.01490
G1 X67.397 Y101.900 E0.01534
G1 X67.246 Y102.365 E0.01534
G1 X67.001 Y102.789 E0.01534
G1 X66.674 Y103.152 E0.01534
G1 X66.278 Y103.440 E0.01534
G1 X65.831 Y103.639 E0.01534
G1 X65.353 Y103.740 E0.01534
G1 X64.863 Y103.740 E0.01534
G1 X64.385 Y103.639 E0.01534
G1 X63.938 Y103.440 E0.01534
G1 X63.604 Y103.197 E0.01292
G1 X63.795 Y102.870 F7200.000
G1 F1800
G1 X63.515 Y102.555 E0.01323
G1 X63.316 Y102.211 E0.01245
G1 X63.190 Y101.821 E0.01286
G1 X63.147 Y101.413 E0.01285
G1 X63.190 Y101.005 E0.01286
G1 X63.316 Y100.615 E0.01286
G1 X63.521 Y100.260 E0.01285
G1 X63.796 Y99.956 E0.01286
G1 X64.127 Y99.715 E0.01286
G1 X64.502 Y99.548 E0.01285
G1 X64.903 Y99.463 E0.01286
G1 X65.313 Y99.463 E0.01285
G1 X65.714 Y99.548 E0.01286
G1 X66.089 Y99.715 E0.01285
G1 X66.420 Y99.956 E0.01286
G1 X66.695 Y100.260 E0.01286
G1 X66.900 Y100.616 E0.01288
G1 X67.028 Y101.018 E0.01323
G1 X67.069 Y101.413 E0.01245
G1 X67.026 Y101.821 E0.01285
G1 X66.900 Y102.211 E0.01286
G1 X66.695 Y102.566 E0.01285
G1 X66.420 Y102.870 E0.01286
G1 X66.089 Y103.111 E0.01285
G1 X65.714 Y103.278 E0.01285
G1 X65.313 Y103.363 E0.01286
G1 X64.903 Y103.363 E0.01285
G1 X64.502 Y103.278 E0.01286
G1 X64.127 Y103.111 E0.01285
G1 X63.844 Y102.905 E0.01100
G1 X63.414 Y102.992 F7200.000
G1 F5760
G1 X63.515 Y102.555 E-0.16650
G1 X63.316 Y102.211 E-0.13751
G1 X63.190 Y101.821 E-0.14203
G1 X63.147 Y101.413 E-0.14198
G1 X63.190 Y101.005 E-0.14200
G1 X63.216 Y100.923 E-0.02997
G1 E-0.04000 F2100.00000
G1 Z0.800 F7200.000
G1 X71.436 Y100.528
G1 Z0.200
G1 E0.80000 F2100.00000
G1 F1800
G1 X90.864 Y100.528 E0.60916
G1 X90.864 Y107.156 E0.20783
G1 X71.436 Y107.156 E0.60916
G1 X71.436 Y100.588 E0.20594
G1 X71.813 Y100.905 F7200.000
G1 F1800
G1 X90.487 Y100.905 E0.58552
G1 X90.487 Y106.779 E0.18418
G1 X71.813 Y106.779 E0.58552
G1 X71.813 Y100.965 E0.18230
G1 X72.190 Y101.282 F7200.000
G1 F1800
G1 X90.110 Y101.282 E0.56187
G1 X90.110 Y106.402 E0.16053
G1 X72.190 Y106.402 E0.56187
G1 X72.190 Y101.342 E0.15865
G1 X72.023 Y100.919 F7200.000
G1 F5760
G1 X74.384 Y101.335 E-0.76000
G1 E-0.04000 F2100.00000
G1 Z0.800 F7200.000
G1 X71.436 Y89.828
G1 Z0.200
G1 E0.80000 F2100.00000
G1 F1800
G1 X90.864 Y89.828 E0.60916
G1 X90.864 Y96.456 E0.20783
G1 X71.436 Y96.456 E0.60916
G1 X71.436 Y89.888 E0.20594
G1 X71.813 Y90.205 F7200.000
G1 F1800
G1 X90.487 Y90.205 E0.58552
G1 X90.487 Y96.079 E0.18418
G1 X71.813 Y96.079 E0.58552
G1 X71.813 Y90.265 E0.18230
G1 X72.190 Y90.582 F7200.000
G1 F1800
G1 X90.110 Y90.582 E0.56187
G1 X90.110 Y95.702 E0.16053
G1 X72.190 Y95.702 E0.56187
G1 X72.190 Y90.642 E0.15865
G1 X72.023 Y90.219 F7200.000
G1 F5760
G1 X74.384 Y90.635 E-0.76000
G1 E-0.04000 F2100.00000
G1 Z0.800 F7200.000
G1 X55.318 Y85.185
G1 Z0.200
G1 E0.80000 F2100.00000
G1 F1800
G1 X55.165 Y85.656 E0.01553
G1 X54.917 Y86.085 E0.01553
G1 X54.585 Y86.453 E0.01553
G1 X54.185 Y86.744 E0.01553
G1 X53.732 Y86.946 E0.01553
G1 X53.248 Y87.048 E0.01553
G1 X52.752 Y87.048 E0.01553
G1 X52.268 Y86.946 E0.01553
G1 X51.815 Y86.744 E0.01553
G1 X51.415 Y86.453 E0.01553
G1 X51.083 Y86.085 E0.01553
G1 X50.834 Y85.653 E0.01563
G1 X50.681 Y85.172 E0.01583
G1 X50.631 Y84.692 E0.01512
G1 X50.682 Y84.199 E0.01553
G1 X50.835 Y83.728 E0.01553
G1 X51.083 Y83.299 E0.01553
G1 X51.415 Y82.931 E0.01553
G1 X51.815 Y82.640 E0.01553
G1 X52.268 Y82.439 E0.01553
G1 X52.752 Y82.336 E0.01553
G1 X53.248 Y82.336 E0.01553
G1 X53.732 Y82.439 E0.01553
G1 X54.185 Y82.640 E0.01553
G1 X54.585 Y82.931 E0.01553
G1 X54.917 Y83.299 E0.01553
G1 X55.166 Y83.731 E0.01563
G1 X55.319 Y84.212 E0.01583
G1 X55.369 Y84.692 E0.01512
G1 X55.324 Y85.125 E0.01365
G1 X54.949 Y85.086 F7200.000
G1 F1800
G1 X54.818 Y85.502 E0.01367
G1 X54.610 Y85.862 E0.01305
G1 X54.332 Y86.171 E0.01305
G1 X53.995 Y86.416 E0.01305
G1 X53.615 Y86.585 E0.01305
G1 X53.208 Y86.671 E0.01305
G1 X52.792 Y86.671 E0.01305
G1 X52.385 Y86.585 E0.01305
G1 X52.005 Y86.416 E0.01305
G1 X51.668 Y86.171 E0.01305
G1 X51.390 Y85.862 E0.01305
G1 X51.181 Y85.500 E0.01311
G1 X51.052 Y85.094 E0.01335
G1 X51.010 Y84.692 E0.01268
G1 X51.053 Y84.278 E0.01305
G1 X51.182 Y83.882 E0.01305
G1 X51.390 Y83.522 E0.01305
G1 X51.668 Y83.213 E0.01305
G1 X52.005 Y82.968 E0.01305
G1 X52.385 Y82.799 E0.01305
G1 X52.792 Y82.713 E0.01305
G1 X53.208 Y82.713 E0.01305
G1 X53.615 Y82.799 E0.01305
G1 X53.995 Y82.968 E0.01305
G1 X54.332 Y83.213 E0.01305
G1 X54.610 Y83.522 E0.01305
G1 X54.819 Y83.884 E0.01311
G1 X54.948 Y84.290 E0.01335
G1 X54.990 Y84.692 E0.01268
G1 X54.955 Y85.026 E0.01053
G1 X54.576 Y85.027 F7200.000
G1 F1800
G1 X54.472 Y85.347 E0.01056
G1 X54.303 Y85.639 E0.01056
G1 X54.078 Y85.889 E0.01056
G1 X53.806 Y86.087 E0.01056
G1 X53.498 Y86.224 E0.01056
G1 X53.168 Y86.294 E0.01056
G1 X52.832 Y86.294 E0.01056
G1 X52.502 Y86.224 E0.01056
G1 X52.194 Y86.087 E0.01056
G1 X51.922 Y85.889 E0.01056
G1 X51.697 Y85.639 E0.01056
G1 X51.528 Y85.347 E0.01058
G1 X51.423 Y85.017 E0.01086
G1 X51.389 Y84.692 E0.01023
G1 X51.424 Y84.357 E0.01056
G1 X51.528 Y84.037 E0.01056
G1 X51.697 Y83.745 E0.01056
G1 X51.922 Y83.495 E0.01056
G1 X52.194 Y83.297 E0.01056
G1 X52.502 Y83.160 E0.01056
G1 X52.832 Y83.090 E0.01056
G1 X53.168 Y83.090 E0.01056
G1 X53.498 Y83.160 E0.01056
G1 X53.806 Y83.297 E0.01056
G1 X54.078 Y83.495 E0.01056
G1 X54.303 Y83.745 E0.01056
G1 X54.472 Y84.037 E0.01058
G1 X54.577 Y84.367 E0.01086
G1 X54.611 Y84.692 E0.01023
G1 X54.582 Y84.967 E0.00868
G1 X54.826 Y85.253 F7200.000
G1 F5760
G1 X54.472 Y85.347 E-0.13705
G1 X54.303 Y85.639 E-0.11666
G1 X54.078 Y85.889 E-0.11666
G1 X53.806 Y86.087 E-0.11666
G1 X53.498 Y86.224 E-0.11666
G1 X53.168 Y86.294 E-0.11666
G1 X53.054 Y86.294 E-0.03964
G1 E-0.04000 F2100.00000
G1 Z0.800 F7200.000
G1 X100.631 Y84.692
G1 Z0.200
G1 E0.80000 F2100.00000
G1 F1800
G1 X100.682 Y84.199 E0.01553
G1 X100.835 Y83.728 E0.01553
G1 X101.083 Y83.299 E0.01553
G1 X101.414 Y82.931 E0.01553
G1 X101.815 Y82.640 E0.01553
G1 X102.268 Y82.438 E0.01553
G1 X102.752 Y82.336 E0.01553
G1 X103.248 Y82.336 E0.01553
G1 X103.732 Y82.438 E0.01553
G1 X104.185 Y82.640 E0.01553
G1 X104.586 Y82.931 E0.01553
G1 X104.917 Y83.299 E0.01553
G1 X105.165 Y83.728 E0.01553
G1 X105.318 Y84.199 E0.01553
G1 X105.369 Y84.692 E0.01553
G1 X105.318 Y85.185 E0.01553
G1 X105.165 Y85.656 E0.01553
G1 X104.917 Y86.085 E0.01553
G1 X104.586 Y86.453 E0.01553
G1 X104.185 Y86.744 E0.01553
G1 X103.732 Y86.946 E0.01553
G1 X103.248 Y87.048 E0.01553
G1 X102.752 Y87.048 E0.01553
G1 X102.268 Y86.946 E0.01553
G1 X101.815 Y86.744 E0.01553
G1 X101.414 Y86.453 E0.01553
G1 X101.083 Y86.085 E0.01553
G1 X100.835 Y85.656 E0.01553
G1 X100.682 Y85.185 E0.01553
G1 X100.637 Y84.752 E0.01365
G1 X101.012 Y84.712 F7200.000
G1 F1800
G1 X101.053 Y84.278 E0.01367
G1 X101.182 Y83.882 E0.01305
G1 X101.390 Y83.522 E0.01305
G1 X101.668 Y83.213 E0.01304
G1 X102.005 Y82.968 E0.01305
G1 X102.385 Y82.799 E0.01305
G1 X102.792 Y82.713 E0.01305
G1 X103.208 Y82.713 E0.01304
G1 X103.615 Y82.799 E0.01305
G1 X103.995 Y82.968 E0.01305
G1 X104.332 Y83.213 E0.01305
G1 X104.610 Y83.522 E0.01304
G1 X104.818 Y83.882 E0.01305
G1 X104.947 Y84.278 E0.01305
G1 X104.990 Y84.692 E0.01305
G1 X104.947 Y85.106 E0.01305
G1 X104.818 Y85.502 E0.01305
G1 X104.610 Y85.862 E0.01305
G1 X104.332 Y86.171 E0.01304
G1 X103.995 Y86.416 E0.01305
G1 X103.615 Y86.585 E0.01305
G1 X103.208 Y86.671 E0.01305
G1 X102.792 Y86.671 E0.01304
G1 X102.385 Y86.585 E0.01305
G1 X102.005 Y86.416 E0.01305
G1 X101.668 Y86.171 E0.01305
G1 X101.390 Y85.862 E0.01304
G1 X101.182 Y85.502 E0.01305
G1 X101.053 Y85.106 E0.01305
G1 X101.018 Y84.772 E0.01053
G1 X101.389 Y84.692 F7200.000
G1 F1800
G1 X101.424 Y84.357 E0.01056
G1 X101.528 Y84.037 E0.01056
G1 X101.697 Y83.745 E0.01056
G1 X101.922 Y83.495 E0.01056
G1 X102.194 Y83.297 E0.01056
G1 X102.502 Y83.160 E0.01056
G1 X102.832 Y83.090 E0.01056
G1 X103.168 Y83.090 E0.01056
G1 X103.498 Y83.160 E0.01056
G1 X103.806 Y83.297 E0.01056
G1 X104.078 Y83.495 E0.01056
G1 X104.303 Y83.745 E0.01056
G1 X104.472 Y84.037 E0.01056
G1 X104.576 Y84.357 E0.01056
G1 X104.611 Y84.692 E0.01056
G1 X104.576 Y85.027 E0.01056
G1 X104.472 Y85.347 E0.01056
G1 X104.303 Y85.639 E0.01056
G1 X104.078 Y85.889 E0.01056
G1 X103.806 Y86.087 E0.01056
G1 X103.498 Y86.224 E0.01056
G1 X103.168 Y86.294 E0.01056
G1 X102.832 Y86.294 E0.01056
G1 X102.502 Y86.224 E0.01056
G1 X102.194 Y86.087 E0.01056
G1 X101.922 Y85.889 E0.01056
G1 X101.697 Y85.639 E0.01056
G1 X101.528 Y85.347 E0.01056
G1 X101.424 Y85.027 E0.01056
G1 X101.395 Y84.752 E0.00868
G1 X101.097 Y84.524 F7200.000
G1 F5760
G1 X101.424 Y84.357 E-0.13705
G1 X101.528 Y84.037 E-0.11666
G1 X101.697 Y83.745 E-0.11667
G1 X101.922 Y83.495 E-0.11665
G1 X102.194 Y83.297 E-0.11667
G1 X102.502 Y83.160 E-0.11667
G1 X102.614 Y83.136 E-0.03963
G1 E-0.04000 F2100.00000
G1 Z0.800 F7200.000
G1 X117.836 Y89.828
G1 Z0.200
G1 E0.80000 F2100.00000
G1 F1800
G1 X132.164 Y89.828 E0.44925
G1 X132.164 Y96.456 E0.20783
G1 X117.836 Y96.456 E0.44925
G1 X117.836 Y89.888 E0.20594
G1 X118.213 Y90.205 F7200.000
G1 F1800
G1 X131.787 Y90.205 E0.42561
G1 X131.787 Y96.079 E0.18418
G1 X118.213 Y96.079 E0.42561
G1 X118.213 Y90.265 E0.18230
G1 X118.590 Y90.582 F7200.000
G1 F1800
G1 X131.410 Y90.582 E0.40196
G1 X131.410 Y95.702 E0.16053
G1 X118.590 Y95.702 E0.40196
G1 X118.590 Y90.642 E0.15865
G1 X118.435 Y90.213 F7200.000
G1 F5760
G1 X120.784 Y90.632 E-0.76000
G1 E-0.04000 F2100.00000
G1 Z0.800 F7200.000
G1 X117.836 Y100.528
G1 Z0.200
G1 E0.80000 F2100.00000
G1 F1800
G1 X132.164 Y100.528 E0.44925
G1 X132.164 Y107.156 E0.20783
G1 X117.836 Y107.156 E0.44925
G1 X117.836 Y100.588 E0.20594
G1 X118.213 Y100.905 F7200.000
G1 F1800
G1 X131.787 Y100.905 E0.42561
G1 X131.787 Y106.779 E0.18418
G1 X118.213 Y106.779 E0.42561
G1 X118.213 Y100.965 E0.18230
G1 X118.590 Y101.282 F7200.000
G1 F1800
