; generated by Slic3r Prusa Edition 1.39.2+win64 on 2018-08-10 at 16:02:57

; 

; external perimeters extrusion width = 0.45mm
; perimeters extrusion width = 0.45mm
; infill extrusion width = 0.45mm
; solid infill extrusion width = 0.45mm
; top infill extrusion width = 0.45mm
; first layer extrusion width = 0.42mm

M107
M115 U3.1.0 ; tell printer latest fw version
M83  ; extruder relative mode
M104 S205 ; set extruder temp
M140 S55 ; set bed temp
M190 S55 ; wait for bed temp
M109 S205 ; wait for extruder temp
G28 W ; home all without mesh bed level
G80 ; mesh bed leveling
G1 Y-3.0 F1000.0 ; go outside print area
G92 E0.0
G1 X60.0 E9.0  F1000.0 ; intro line
G1 X100.0 E12.5  F1000.0 ; intro line
G92 E0.0
M900 K30; Filament gcode
G21 ; set units to millimeters
G90 ; use absolute coordinates
M83 ; use relative distances for extrusion
;BEFORE_LAYER_CHANGE
;0.2


G1 E-0.80000 F2100.00000
G1 Z0.600 F7200.000
;AFTER_LAYER_CHANGE
;0.2
G1 X47.086 Y78.806
G1 Z0.200
G1 E0.80000 F2100.00000
M204 S1000
G1 F1800
G1 X47.995 Y78.623 E0.02907
G1 X157.004 Y78.623 E3.41789
G1 X157.899 Y78.799 E0.02860
G1 X158.664 Y79.303 E0.02872
G1 X159.182 Y80.058 E0.02872
G1 X159.377 Y80.953 E0.02872
G1 X159.376 Y124.076 E1.35209
G1 X159.258 Y124.742 E0.02119
G1 X158.956 Y125.350 E0.02130
G1 X158.494 Y125.849 E0.02130
G1 X157.914 Y126.194 E0.02119
G1 X157.005 Y126.377 E0.02907
G1 X47.973 Y126.377 E3.41861
G1 X47.291 Y126.269 E0.02166
G1 X46.672 Y125.971 E0.02154
G1 X46.161 Y125.506 E0.02166
G1 X45.806 Y124.914 E0.02166
G1 X45.623 Y124.009 E0.02896
G1 X45.624 Y80.935 E1.35054
G1 X45.739 Y80.266 E0.02130
G1 X46.039 Y79.656 E0.02130
G1 X46.503 Y79.154 E0.02142
G1 X47.035 Y78.836 E0.01942
G1 F5760
G1 X47.995 Y78.623 E-0.34081
G1 X49.205 Y78.623 E-0.41919
G1 E-0.04000 F2100.00000
G1 Z0.800 F7200.000
G1 X52.752 Y117.336
G1 Z0.200
G1 E0.80000 F2100.00000
G1 F1800
G1 X53.248 Y117.336 E0.01553
G1 X53.732 Y117.438 E0.01553
G1 X54.185 Y117.640 E0.01553
G1 X54.585 Y117.931 E0.01553
G1 X54.917 Y118.299 E0.01553
G1 X55.166 Y118.731 E0.01563
G1 X55.319 Y119.212 E0.01583
G1 X55.369 Y119.692 E0.01512
G1 X55.318 Y120.185 E0.01553
G1 X55.165 Y120.656 E0.01553
G1 X54.917 Y121.085 E0.01553
G1 X54.585 Y121.453 E0.01553
G1 X54.185 Y121.744 E0.01553
G1 X53.732 Y121.946 E0.01553
G1 X53.248 Y122.048 E0.01553
G1 X52.752 Y122.048 E0.01553
G1 X52.268 Y121.946 E0.01553
G1 X51.815 Y121.744 E0.01553
G1 X51.415 Y121.453 E0.01553
G1 X51.083 Y121.085 E0.01553
G1 X50.834 Y120.653 E0.01563
G1 X50.681 Y120.172 E0.01583
G1 X50.631 Y119.692 E0.01512
G1 X50.682 Y119.199 E0.01553
G1 X50.835 Y118.728 E0.01553
G1 X51.083 Y118.299 E0.01553
G1 X51.415 Y117.931 E0.01553
G1 X51.815 Y117.640 E0.01553
G1 X52.268 Y117.438 E0.01553
G1 X52.694 Y117.348 E0.01365
G1 X52.772 Y117.717 F7200.000
G1 F1800
G1 X53.208 Y117.713 E0.01367
G1 X53.615 Y117.799 E0.01305
G1 X53.995 Y117.968 E0.01305
G1 X54.332 Y118.213 E0.01304
G1 X54.610 Y118.522 E0.01305
G1 X54.819 Y118.884 E0.01311
G1 X54.948 Y119.290 E0.01334
G1 X54.990 Y119.692 E0.01268
G1 X54.947 Y120.106 E0.01305
G1 X54.818 Y120.502 E0.01304
G1 X54.610 Y120.862 E0.01305
G1 X54.332 Y121.171 E0.01305
G1 X53.995 Y121.416 E0.01304
G1 X53.615 Y121.585 E0.01305
G1 X53.208 Y121.671 E0.01305
G1 X52.792 Y121.671 E0.01304
G1 X52.385 Y121.585 E0.01305
G1 X52.005 Y121.416 E0.01305
G1 X51.668 Y121.171 E0.01304
G1 X51.390 Y120.862 E0.01305
G1 X51.181 Y120.500 E0.01311
G1 X51.052 Y120.094 E0.01334
G1 X51.010 Y119.692 E0.01268
G1 X51.053 Y119.278 E0.01305
G1 X51.182 Y118.882 E0.01304
G1 X51.390 Y118.522 E0.01305
G1 X51.668 Y118.213 E0.01305
G1 X52.005 Y117.968 E0.01304
G1 X52.385 Y117.799 E0.01305
G1 X52.713 Y117.729 E0.01053
G1 X52.832 Y118.090 F7200.000
G1 F1800
G1 X53.168 Y118.090 E0.01056
G1 X53.498 Y118.160 E0.01056
G1 X53.806 Y118.297 E0.01056
G1 X54.078 Y118.495 E0.01056
G1 X54.303 Y118.745 E0.01056
G1 X54.472 Y119.037 E0.01058
G1 X54.577 Y119.367 E0.01086
G1 X54.611 Y119.692 E0.01023
G1 X54.576 Y120.027 E0.01056
G1 X54.472 Y120.347 E0.01056
G1 X54.303 Y120.639 E0.01056
G1 X54.078 Y120.889 E0.01056
G1 X53.806 Y121.087 E0.01056
G1 X53.498 Y121.224 E0.01056
G1 X53.168 Y121.294 E0.01056
G1 X52.832 Y121.294 E0.01056
G1 X52.502 Y121.224 E0.01056
G1 X52.194 Y121.087 E0.01056
G1 X51.922 Y120.889 E0.01056
G1 X51.697 Y120.639 E0.01056
G1 X51.528 Y120.347 E0.01058
G1 X51.423 Y120.017 E0.01086
G1 X51.389 Y119.692 E0.01023
G1 X51.424 Y119.357 E0.01056
G1 X51.528 Y119.037 E0.01056
G1 X51.697 Y118.745 E0.01056
G1 X51.922 Y118.495 E0.01056
G1 X52.194 Y118.297 E0.01056
G1 X52.502 Y118.160 E0.01056
G1 X52.773 Y118.102 E0.00868
G1 X52.969 Y117.782 F7200.000
G1 F5760
G1 X53.168 Y118.090 E-0.13704
G1 X53.498 Y118.160 E-0.11666
G1 X53.806 Y118.297 E-0.11667
G1 X54.078 Y118.495 E-0.11665
G1 X54.303 Y118.745 E-0.11666
G1 X54.472 Y119.037 E-0.11691
G1 X54.507 Y119.146 E-0.03940
G1 E-0.04000 F2100.00000
G1 Z0.800 F7200.000
G1 X63.286 Y103.432
G1 Z0.200
G1 E0.80000 F2100.00000
G1 F1800
G1 X62.900 Y102.998 E0.01820
G1 X62.624 Y102.519 E0.01734
G1 X62.448 Y101.978 E0.01783
G1 X62.389 Y101.413 E0.01782
G1 X62.448 Y100.848 E0.01782
G1 X62.624 Y100.307 E0.01783
G1 X62.908 Y99.815 E0.01782
G1 X63.288 Y99.392 E0.01783
G1 X63.748 Y99.058 E0.01782
G1 X64.268 Y98.827 E0.01783
G1 X64.824 Y98.708 E0.01783
G1 X65.392 Y98.708 E0.01782
G1 X65.948 Y98.827 E0.01783
G1 X66.468 Y99.058 E0.01783
G1 X66.928 Y99.392 E0.01782
G1 X67.308 Y99.815 E0.01783
G1 X67.594 Y100.310 E0.01793
G1 X67.770 Y100.863 E0.01820
G1 X67.827 Y101.413 E0.01734
G1 X67.768 Y101.978 E0.01782
G1 X67.592 Y102.519 E0.01783
G1 X67.308 Y103.011 E0.01782
G1 X66.928 Y103.434 E0.01783
G1 X66.468 Y103.768 E0.01783
G1 X65.948 Y103.999 E0.01782
G1 X65.392 Y104.118 E0.01783
G1 X64.824 Y104.118 E0.01783
G1 X64.268 Y103.999 E0.01783
G1 X63.748 Y103.768 E0.01782
G1 X63.334 Y103.467 E0.01605
G1 X63.556 Y103.162 F7200.000
G1 F1800
G1 X63.208 Y102.776 E0.01630
G1 X62.970 Y102.365 E0.01489
G1 X62.819 Y101.900 E0.01534
G1 X62.768 Y101.413 E0.01534
G1 X62.819 Y100.926 E0.01534
G1 X62.970 Y100.461 E0.01534
G1 X63.215 Y100.037 E0.01534
G1 X63.542 Y99.674 E0.01534
G1 X63.938 Y99.386 E0.01534
G1 X64.385 Y99.187 E0.01534
G1 X64.863 Y99.086 E0.01534
G1 X65.353 Y99.086 E0.01534
G1 X65.831 Y99.187 E0.01534
G1 X66.278 Y99.386 E0.01534
G1 X66.674 Y99.674 E0.01534
G1 X67.001 Y100.037 E0.01534
G1 X67.247 Y100.463 E0.01540
G1 X67.399 Y100.941 E0.01572
G1 X67.448 Y101.413 E0.01489
G1 X67.397 Y101.900 E0.01534
G1 X67.246 Y102.365 E0.01534
G1 X67.001 Y102.789 E0.01534
G1 X66.674 Y103.152 E0.01534
G1 X66.278 Y103.440 E0.01534
G1 X65.831 Y103.639 E0.01534
G1 X65.353 Y103.740 E0.01534
G1 X64.863 Y103.740 E0.01534
G1 X64.385 Y103.639 E0.01534
G1 X63.938 Y103.440 E0.01534
G1 X63.604 Y103.197 E0.01292
G1 X63.795 Y102.870 F7200.000
G1 F1800
G1 X63.515 Y102.555 E0.01323
G1 X63.316 Y102.211 E0.01245
G1 X63.190 Y101.821 E0.01286
G1 X63.147 Y101.413 E0.01285
G1 X63.190 Y101.005 E0.01285
G1 X63.316 Y100.615 E0.01286
G1 X63.521 Y100.260 E0.01285
G1 X63.796 Y99.956 E0.01286
G1 X64.127 Y99.715 E0.01285
G1 X64.502 Y99.548 E0.01286
G1 X64.903 Y99.463 E0.01286
G1 X65.313 Y99.463 E0.01285
G1 X65.714 Y99.548 E0.01286
G1 X66.089 Y99.715 E0.01286
G1 X66.420 Y99.956 E0.01285
G1 X66.695 Y100.260 E0.01286
G1 X66.900 Y100.616 E0.01288
G1 X67.028 Y101.018 E0.01323
G1 X67.069 Y101.413 E0.01245
G1 X67.026 Y101.821 E0.01285
G1 X66.900 Y102.211 E0.01286
G1 X66.695 Y102.566 E0.01285
G1 X66.420 Y102.870 E0.01286
G1 X66.089 Y103.111 E0.01285
G1 X65.714 Y103.278 E0.01285
G1 X65.313 Y103.363 E0.01286
G1 X64.903 Y103.363 E0.01285
G1 X64.502 Y103.278 E0.01286
G1 X64.127 Y103.111 E0.01285
G1 X63.844 Y102.905 E0.01100
G1 X63.414 Y102.992 F7200.000
G1 F5760
G1 X63.515 Y102.555 E-0.16650
G1 X63.316 Y102.211 E-0.13751
G1 X63.190 Y101.821 E-0.14203
G1 X63.147 Y101.413 E-0.14198
G1 X63.190 Y101.005 E-0.14198
G1 X63.216 Y100.923 E-0.02998
G1 E-0.04000 F2100.00000
G1 Z0.800 F7200.000
G1 X71.436 Y100.528
G1 Z0.200
G1 E0.80000 F2100.00000
G1 F1800
G1 X90.864 Y100.528 E0.60916
G1 X90.864 Y109.156 E0.27053
G1 X71.436 Y109.156 E0.60916
G1 X71.436 Y100.588 E0.26865
G1 X71.813 Y100.905 F7200.000
G1 F1800
G1 X90.487 Y100.905 E0.58552
G1 X90.487 Y108.779 E0.24689
G1 X71.813 Y108.779 E0.58552
G1 X71.813 Y100.965 E0.24501
G1 X72.190 Y101.282 F7200.000
G1 F1800
G1 X90.110 Y101.282 E0.56187
G1 X90.110 Y108.402 E0.22324
G1 X72.190 Y108.402 E0.56187
G1 X72.190 Y101.342 E0.22136
G1 X72.035 Y100.913 F7200.000
G1 F5760
G1 X74.384 Y101.335 E-0.76000
G1 E-0.04000 F2100.00000
G1 Z0.800 F7200.000
G1 X54.917 Y86.085
G1 Z0.200
G1 E0.80000 F2100.00000
G1 F1800
G1 X54.585 Y86.453 E0.01553
G1 X54.185 Y86.744 E0.01553
G1 X53.732 Y86.946 E0.01553
G1 X53.248 Y87.048 E0.01553
G1 X52.752 Y87.048 E0.01553
G1 X52.268 Y86.946 E0.01553
G1 X51.815 Y86.744 E0.01553
G1 X51.415 Y86.453 E0.01553
G1 X51.083 Y86.085 E0.01553
G1 X50.834 Y85.653 E0.01563
G1 X50.681 Y85.172 E0.01583
G1 X50.631 Y84.692 E0.01512
G1 X50.682 Y84.199 E0.01553
G1 X50.835 Y83.728 E0.01553
G1 X51.083 Y83.299 E0.01553
G1 X51.415 Y82.931 E0.01553
G1 X51.815 Y82.640 E0.01553
G1 X52.268 Y82.438 E0.01553
G1 X52.752 Y82.336 E0.01553
G1 X53.248 Y82.336 E0.01553
G1 X53.732 Y82.438 E0.01553
G1 X54.185 Y82.640 E0.01553
G1 X54.585 Y82.931 E0.01553
G1 X54.917 Y83.299 E0.01553
G1 X55.166 Y83.731 E0.01563
G1 X55.319 Y84.212 E0.01583
G1 X55.369 Y84.692 E0.01512
G1 X55.318 Y85.185 E0.01553
G1 X55.165 Y85.656 E0.01553
G1 X54.947 Y86.033 E0.01365
G1 X54.620 Y85.844 F7200.000
G1 F1800
G1 X54.332 Y86.171 E0.01367
G1 X53.995 Y86.416 E0.01304
G1 X53.615 Y86.585 E0.01305
G1 X53.208 Y86.671 E0.01305
G1 X52.792 Y86.671 E0.01304
G1 X52.385 Y86.585 E0.01305
G1 X52.005 Y86.416 E0.01305
G1 X51.668 Y86.171 E0.01304
G1 X51.390 Y85.862 E0.01305
G1 X51.181 Y85.500 E0.01311
G1 X51.052 Y85.094 E0.01334
G1 X51.010 Y84.692 E0.01268
G1 X51.053 Y84.278 E0.01305
G1 X51.182 Y83.882 E0.01304
G1 X51.390 Y83.522 E0.01305
G1 X51.668 Y83.213 E0.01305
G1 X52.005 Y82.968 E0.01304
G1 X52.385 Y82.799 E0.01305
G1 X52.792 Y82.713 E0.01305
G1 X53.208 Y82.713 E0.01304
G1 X53.615 Y82.799 E0.01305
G1 X53.995 Y82.968 E0.01305
G1 X54.332 Y83.213 E0.01304
G1 X54.610 Y83.522 E0.01305
G1 X54.819 Y83.884 E0.01311
G1 X54.948 Y84.290 E0.01334
G1 X54.990 Y84.692 E0.01268
G1 X54.947 Y85.106 E0.01305
G1 X54.818 Y85.502 E0.01304
G1 X54.650 Y85.792 E0.01053
G1 X54.303 Y85.639 F7200.000
G1 F1800
G1 X54.078 Y85.889 E0.01056
G1 X53.806 Y86.087 E0.01056
G1 X53.498 Y86.224 E0.01056
G1 X53.168 Y86.294 E0.01056
G1 X52.832 Y86.294 E0.01056
G1 X52.502 Y86.224 E0.01056
G1 X52.194 Y86.087 E0.01056
G1 X51.922 Y85.889 E0.01056
G1 X51.697 Y85.639 E0.01056
G1 X51.528 Y85.347 E0.01058
G1 X51.423 Y85.017 E0.01086
G1 X51.389 Y84.692 E0.01023
G1 X51.424 Y84.357 E0.01056
G1 X51.528 Y84.037 E0.01056
G1 X51.697 Y83.745 E0.01056
G1 X51.922 Y83.495 E0.01056
G1 X52.194 Y83.297 E0.01056
G1 X52.502 Y83.160 E0.01056
G1 X52.832 Y83.090 E0.01056
G1 X53.168 Y83.090 E0.01056
G1 X53.498 Y83.160 E0.01056
G1 X53.806 Y83.297 E0.01056
G1 X54.078 Y83.495 E0.01056
G1 X54.303 Y83.745 E0.01056
G1 X54.472 Y84.037 E0.01058
G1 X54.577 Y84.367 E0.01086
G1 X54.611 Y84.692 E0.01023
G1 X54.576 Y85.027 E0.01056
G1 X54.472 Y85.347 E0.01056
G1 X54.333 Y85.587 E0.00868
G1 X54.440 Y85.947 F7200.000
G1 F5760
G1 X54.078 Y85.889 E-0.13706
G1 X53.806 Y86.087 E-0.11665
G1 X53.498 Y86.224 E-0.11667
G1 X53.168 Y86.294 E-0.11666
G1 X52.832 Y86.294 E-0.11665
G1 X52.502 Y86.224 E-0.11666
G1 X52.398 Y86.178 E-0.03965
G1 E-0.04000 F2100.00000
G1 Z0.800 F7200.000
G1 X116.836 Y99.528
G1 Z0.200
G1 E0.80000 F2100.00000
G1 F1800
G1 X133.164 Y99.528 E0.51196
G1 X133.164 Y108.156 E0.27053
G1 X116.836 Y108.156 E0.51196
G1 X116.836 Y99.588 E0.26865
G1 X117.213 Y99.905 F7200.000
G1 F1800
G1 X132.787 Y99.905 E0.48832
G1 X132.787 Y107.779 E0.24689
G1 X117.213 Y107.779 E0.48832
G1 X117.213 Y99.965 E0.24501
G1 X117.590 Y100.282 F7200.000
G1 F1800
G1 X132.410 Y100.282 E0.46467
G1 X132.410 Y107.402 E0.22324
G1 X117.590 Y107.402 E0.46467
G1 X117.590 Y100.342 E0.22136
G1 X117.444 Y99.910 F7200.000
G1 F5760
G1 X119.784 Y100.333 E-0.76000
G1 E-0.04000 F2100.00000
G1 Z0.800 F7200.000
G1 X136.081 Y101.413
G1 Z0.200
G1 E0.80000 F2100.00000
G1 F1800
G1 X136.140 Y100.848 E0.01782
G1 X136.316 Y100.307 E0.01783
G1 X136.600 Y99.815 E0.01782
G1 X136.980 Y99.392 E0.01783
G1 X137.440 Y99.058 E0.01782
G1 X137.960 Y98.827 E0.01783
G1 X138.516 Y98.708 E0.01783
G1 X139.084 Y98.708 E0.01782
G1 X139.640 Y98.827 E0.01783
G1 X140.160 Y99.058 E0.01783
G1 X140.620 Y99.392 E0.01782
G1 X141.000 Y99.815 E0.01783
G1 X141.284 Y100.307 E0.01782
G1 X141.460 Y100.848 E0.01783
G1 X141.519 Y101.413 E0.01782
G1 X141.460 Y101.978 E0.01782
G1 X141.284 Y102.519 E0.01783
G1 X141.000 Y103.011 E0.01782
G1 X140.620 Y103.434 E0.01783
G1 X140.160 Y103.768 E0.01783
G1 X139.640 Y103.999 E0.01782
G1 X139.084 Y104.118 E0.01783
G1 X138.516 Y104.118 E0.01783
G1 X137.960 Y103.999 E0.01783
G1 X137.440 Y103.768 E0.01782
G1 X136.978 Y103.432 E0.01793
G1 X136.592 Y102.998 E0.01820
G1 X136.316 Y102.519 E0.01734
G1 X136.140 Y101.978 E0.01783
G1 X136.087 Y101.473 E0.01594
G1 X136.462 Y101.433 F7200.000
G1 F1800
G1 X136.511 Y100.926 E0.01596
G1 X136.662 Y100.461 E0.01534
G1 X136.907 Y100.037 E0.01534
G1 X137.234 Y99.674 E0.01534
G1 X137.630 Y99.386 E0.01534
G1 X138.077 Y99.187 E0.01534
G1 X138.555 Y99.086 E0.01534
G1 X139.045 Y99.086 E0.01534
G1 X139.523 Y99.187 E0.01534
G1 X139.970 Y99.386 E0.01534
G1 X140.366 Y99.674 E0.01534
G1 X140.693 Y100.037 E0.01534
G1 X140.938 Y100.461 E0.01534
G1 X141.089 Y100.926 E0.01534
G1 X141.140 Y101.413 E0.01534
G1 X141.089 Y101.900 E0.01534
G1 X140.938 Y102.365 E0.01534
G1 X140.693 Y102.789 E0.01534
G1 X140.366 Y103.152 E0.01534
G1 X139.970 Y103.440 E0.01534
G1 X139.523 Y103.639 E0.01534
G1 X139.045 Y103.740 E0.01534
G1 X138.555 Y103.740 E0.01534
G1 X138.077 Y103.639 E0.01534
G1 X137.630 Y103.440 E0.01534
G1 X137.232 Y103.151 E0.01540
G1 X136.900 Y102.776 E0.01572
G1 X136.662 Y102.365 E0.01489
G1 X136.511 Y101.900 E0.01534
G1 X136.468 Y101.493 E0.01282
G1 X136.839 Y101.413 F7200.000
G1 F1800
G1 X136.882 Y101.005 E0.01285
G1 X137.008 Y100.615 E0.01286
G1 X137.213 Y100.260 E0.01285
G1 X137.488 Y99.956 E0.01286
G1 X137.819 Y99.715 E0.01285
G1 X138.194 Y99.548 E0.01286
G1 X138.595 Y99.463 E0.01286
G1 X139.005 Y99.463 E0.01285
G1 X139.406 Y99.548 E0.01286
G1 X139.781 Y99.715 E0.01286
G1 X140.112 Y99.956 E0.01285
G1 X140.387 Y100.260 E0.01286
G1 X140.592 Y100.615 E0.01285
G1 X140.718 Y101.005 E0.01286
G1 X140.761 Y101.413 E0.01285
G1 X140.718 Y101.821 E0.01285
G1 X140.592 Y102.211 E0.01286
G1 X140.387 Y102.566 E0.01285
G1 X140.112 Y102.870 E0.01286
G1 X139.781 Y103.111 E0.01285
G1 X139.406 Y103.278 E0.01285
G1 X139.005 Y103.363 E0.01286
G1 X138.595 Y103.363 E0.01285
G1 X138.194 Y103.278 E0.01286
G1 X137.819 Y103.111 E0.01285
G1 X137.487 Y102.870 E0.01288
G1 X137.207 Y102.555 E0.01323
G1 X137.008 Y102.211 E0.01245
G1 X136.882 Y101.821 E0.01286
G1 X136.845 Y101.473 E0.01097
G1 X136.492 Y101.213 F7200.000
G1 F5760
G1 X136.882 Y101.005 E-0.16237
G1 X137.008 Y100.615 E-0.14203
G1 X137.213 Y100.260 E-0.14198
G1 X137.488 Y99.956 E-0.14201
G1 X137.819 Y99.715 E-0.14199
G1 X137.898 Y99.680 E-0.02961
G1 E-0.04000 F2100.00000
G1 Z0.800 F7200.000
G1 X151.415 Y86.453
G1 Z0.200
G1 E0.80000 F2100.00000
G1 F1800
G1 X151.083 Y86.085 E0.01553
G1 X150.835 Y85.656 E0.01553
G1 X150.682 Y85.185 E0.01553
G1 X150.631 Y84.692 E0.01553
G1 X150.682 Y84.199 E0.01553
G1 X150.835 Y83.728 E0.01553
G1 X151.083 Y83.299 E0.01553
G1 X151.415 Y82.931 E0.01553
G1 X151.815 Y82.640 E0.01553
G1 X152.268 Y82.438 E0.01553
G1 X152.752 Y82.336 E0.01553
G1 X153.247 Y82.336 E0.01551
G1 X153.733 Y82.438 E0.01556
G1 X154.185 Y82.640 E0.01552
G1 X154.585 Y82.931 E0.01552
G1 X154.918 Y83.299 E0.01556
G1 X155.165 Y83.729 E0.01555
G1 X155.317 Y84.199 E0.01549
G1 X155.370 Y84.692 E0.01553
G1 X155.317 Y85.185 E0.01553
G1 X155.165 Y85.655 E0.01549
G1 X154.918 Y86.085 E0.01555
G1 X154.585 Y86.453 E0.01556
G1 X154.185 Y86.744 E0.01552
G1 X153.733 Y86.946 E0.01552
G1 X153.247 Y87.048 E0.01556
G1 X152.752 Y87.048 E0.01551
G1 X152.268 Y86.946 E0.01553
G1 X151.815 Y86.744 E0.01553
