; generated by Slic3r Prusa Edition 1.39.2+win64 on 2018-05-26 at 09:02:13

; 

; external perimeters extrusion width = 0.45mm
; perimeters extrusion width = 0.45mm
; infill extrusion width = 0.45mm
; solid infill extrusion width = 0.45mm
; top infill extrusion width = 0.45mm
; first layer extrusion width = 0.42mm

M107
M115 U3.1.0 ; tell printer latest fw version
M83  ; extruder relative mode
M104 S205 ; set extruder temp
M140 S55 ; set bed temp
M190 S55 ; wait for bed temp
M109 S205 ; wait for extruder temp
G28 W ; home all without mesh bed level
G80 ; mesh bed leveling
G1 Y-3.0 F1000.0 ; go outside print area
G92 E0.0
G1 X60.0 E9.0  F1000.0 ; intro line
G1 X100.0 E12.5  F1000.0 ; intro line
G92 E0.0
M900 K30; Filament gcode
G21 ; set units to millimeters
G90 ; use absolute coordinates
M83 ; use relative distances for extrusion
;BEFORE_LAYER_CHANGE
;0.2


G1 E-0.80000 F2100.00000
G1 Z0.600 F7200.000
;AFTER_LAYER_CHANGE
;0.2
G1 X150.385 Y80.808
G1 Z0.200
G1 E0.80000 F2100.00000
M204 S1000
G1 F1800
G1 X150.901 Y81.565 E0.02872
G1 X151.093 Y82.465 E0.02884
G1 X151.091 Y122.595 E1.25827
G1 X150.947 Y123.321 E0.02319
G1 X150.584 Y123.970 E0.02331
G1 X150.042 Y124.473 E0.02319
G1 X149.367 Y124.786 E0.02331
G1 X148.724 Y124.877 E0.02036
G1 X130.499 Y124.867 E0.57145
G1 X65.679 Y117.063 E2.04707
G1 X62.469 Y115.991 E0.10609
G1 X59.974 Y114.537 E0.09056
G1 X57.833 Y112.628 E0.08994
G1 X55.845 Y109.959 E0.10435
G1 X54.542 Y107.015 E0.10095
G1 X53.920 Y104.049 E0.09502
G1 X53.921 Y100.939 E0.09752
G1 X54.566 Y97.904 E0.09728
G1 X55.829 Y95.066 E0.09740
G1 X57.655 Y92.553 E0.09739
G1 X59.957 Y90.475 E0.09723
G1 X62.646 Y88.919 E0.09741
G1 X65.464 Y87.987 E0.09308
G1 X130.492 Y80.133 E2.05373
G1 X148.720 Y80.123 E0.57150
G1 X149.618 Y80.301 E0.02872
G1 X150.335 Y80.775 E0.02696
G1 F5760
G1 X150.901 Y81.565 E-0.33659
G1 X151.093 Y82.465 E-0.31856
G1 X151.093 Y82.767 E-0.10485
G1 E-0.04000 F2100.00000
G1 Z0.800 F7200.000
G1 X140.066 Y111.468
G1 Z0.200
G1 E0.80000 F2100.00000
G1 F1800
G1 X140.667 Y111.814 E0.02176
G1 X141.183 Y112.279 E0.02176
G1 X141.591 Y112.840 E0.02176
G1 X141.873 Y113.474 E0.02176
G1 X142.017 Y114.153 E0.02176
G1 X142.017 Y114.847 E0.02175
G1 X141.873 Y115.526 E0.02176
G1 X141.591 Y116.160 E0.02176
G1 X141.183 Y116.721 E0.02176
G1 X140.667 Y117.186 E0.02176
G1 X140.066 Y117.532 E0.02176
G1 X139.406 Y117.747 E0.02175
G1 X138.716 Y117.819 E0.02176
G1 X138.026 Y117.747 E0.02176
G1 X137.366 Y117.532 E0.02175
G1 X136.765 Y117.186 E0.02176
G1 X136.249 Y116.721 E0.02176
G1 X135.841 Y116.160 E0.02176
G1 X135.559 Y115.526 E0.02176
G1 X135.414 Y114.847 E0.02176
G1 X135.414 Y114.153 E0.02175
G1 X135.559 Y113.474 E0.02176
G1 X135.841 Y112.840 E0.02176
G1 X136.249 Y112.279 E0.02176
G1 X136.765 Y111.814 E0.02176
G1 X137.366 Y111.468 E0.02176
G1 X138.026 Y111.253 E0.02175
G1 X138.716 Y111.181 E0.02176
G1 X139.406 Y111.253 E0.02176
G1 X140.009 Y111.449 E0.01987
G1 X139.892 Y111.808 F7200.000
G1 F1800
G1 X140.444 Y112.121 E0.01990
G1 X140.901 Y112.532 E0.01927
G1 X141.262 Y113.030 E0.01928
G1 X141.512 Y113.591 E0.01927
G1 X141.640 Y114.193 E0.01927
G1 X141.640 Y114.807 E0.01927
G1 X141.512 Y115.409 E0.01927
G1 X141.262 Y115.970 E0.01927
G1 X140.901 Y116.468 E0.01928
G1 X140.444 Y116.879 E0.01927
G1 X139.912 Y117.186 E0.01927
G1 X139.327 Y117.376 E0.01927
G1 X138.716 Y117.440 E0.01928
G1 X138.104 Y117.376 E0.01927
G1 X137.520 Y117.186 E0.01927
G1 X136.988 Y116.879 E0.01927
G1 X136.531 Y116.468 E0.01927
G1 X136.169 Y115.970 E0.01928
G1 X135.919 Y115.409 E0.01927
G1 X135.792 Y114.807 E0.01927
G1 X135.792 Y114.193 E0.01927
G1 X135.919 Y113.591 E0.01927
G1 X136.169 Y113.030 E0.01927
G1 X136.531 Y112.532 E0.01928
G1 X136.988 Y112.121 E0.01927
G1 X137.520 Y111.814 E0.01927
G1 X138.104 Y111.624 E0.01927
G1 X138.716 Y111.560 E0.01927
G1 X139.327 Y111.624 E0.01927
G1 X139.835 Y111.789 E0.01675
G1 X139.719 Y112.148 F7200.000
G1 F1800
G1 X140.221 Y112.428 E0.01804
G1 X140.619 Y112.786 E0.01679
G1 X140.934 Y113.219 E0.01679
G1 X141.152 Y113.709 E0.01679
G1 X141.263 Y114.232 E0.01679
G1 X141.263 Y114.768 E0.01678
G1 X141.152 Y115.291 E0.01679
G1 X140.934 Y115.781 E0.01679
G1 X140.619 Y116.214 E0.01679
G1 X140.221 Y116.572 E0.01679
G1 X139.757 Y116.840 E0.01679
G1 X139.248 Y117.005 E0.01679
G1 X138.716 Y117.061 E0.01679
G1 X138.183 Y117.005 E0.01679
G1 X137.674 Y116.840 E0.01679
G1 X137.210 Y116.572 E0.01679
G1 X136.812 Y116.214 E0.01679
G1 X136.498 Y115.781 E0.01679
G1 X136.280 Y115.291 E0.01679
G1 X136.169 Y114.768 E0.01679
G1 X136.169 Y114.232 E0.01678
G1 X136.280 Y113.709 E0.01679
G1 X136.498 Y113.219 E0.01679
G1 X136.812 Y112.786 E0.01679
G1 X137.210 Y112.428 E0.01679
G1 X137.674 Y112.160 E0.01679
G1 X138.183 Y111.995 E0.01679
G1 X138.716 Y111.939 E0.01679
G1 X139.248 Y111.995 E0.01679
G1 X139.662 Y112.129 E0.01363
G1 X140.040 Y111.909 F7200.000
G1 F5760
G1 X140.221 Y112.428 E-0.21971
G1 X140.619 Y112.786 E-0.18545
G1 X140.934 Y113.219 E-0.18547
G1 X141.133 Y113.666 E-0.16937
G1 E-0.04000 F2100.00000
G1 Z0.800 F7200.000
G1 X138.716 Y93.819
G1 Z0.200
G1 E0.80000 F2100.00000
G1 F1800
G1 X138.026 Y93.747 E0.02175
G1 X137.365 Y93.532 E0.02178
G1 X136.764 Y93.185 E0.02177
G1 X136.249 Y92.721 E0.02175
G1 X135.841 Y92.160 E0.02174
G1 X135.559 Y91.526 E0.02177
G1 X135.414 Y90.847 E0.02174
G1 X135.414 Y90.153 E0.02178
G1 X135.559 Y89.474 E0.02174
G1 X135.841 Y88.840 E0.02177
G1 X136.249 Y88.279 E0.02175
G1 X136.764 Y87.815 E0.02175
G1 X137.365 Y87.468 E0.02177
G1 X138.026 Y87.253 E0.02178
G1 X138.716 Y87.181 E0.02175
G1 X139.406 Y87.253 E0.02175
G1 X140.066 Y87.468 E0.02178
G1 X140.667 Y87.815 E0.02177
G1 X141.183 Y88.279 E0.02175
G1 X141.590 Y88.840 E0.02174
G1 X141.873 Y89.474 E0.02177
G1 X142.017 Y90.153 E0.02174
G1 X142.017 Y90.847 E0.02178
G1 X141.873 Y91.526 E0.02174
G1 X141.590 Y92.160 E0.02177
G1 X141.182 Y92.721 E0.02175
G1 X140.667 Y93.185 E0.02175
G1 X140.066 Y93.532 E0.02177
G1 X139.406 Y93.747 E0.02178
G1 X138.775 Y93.813 E0.01987
G1 X138.736 Y93.438 F7200.000
G1 F1800
G1 X138.105 Y93.376 E0.01990
G1 X137.520 Y93.186 E0.01929
G1 X136.987 Y92.878 E0.01928
G1 X136.531 Y92.467 E0.01927
G1 X136.169 Y91.970 E0.01926
G1 X135.919 Y91.408 E0.01928
G1 X135.792 Y90.808 E0.01925
G1 X135.792 Y90.192 E0.01930
G1 X135.919 Y89.592 E0.01925
G1 X136.169 Y89.030 E0.01928
G1 X136.531 Y88.533 E0.01926
G1 X136.987 Y88.122 E0.01927
G1 X137.520 Y87.814 E0.01928
G1 X138.105 Y87.624 E0.01929
G1 X138.716 Y87.560 E0.01927
G1 X139.327 Y87.624 E0.01927
G1 X139.912 Y87.814 E0.01929
G1 X140.444 Y88.122 E0.01928
G1 X140.901 Y88.533 E0.01927
G1 X141.262 Y89.030 E0.01926
G1 X141.512 Y89.592 E0.01928
G1 X141.640 Y90.192 E0.01925
G1 X141.640 Y90.808 E0.01930
G1 X141.512 Y91.408 E0.01925
G1 X141.262 Y91.970 E0.01928
G1 X140.901 Y92.467 E0.01926
G1 X140.444 Y92.878 E0.01927
G1 X139.912 Y93.186 E0.01928
G1 X139.327 Y93.376 E0.01929
G1 X138.796 Y93.432 E0.01674
G1 X138.757 Y93.057 F7200.000
G1 F1800
G1 X138.183 Y93.006 E0.01805
G1 X137.674 Y92.840 E0.01679
G1 X137.210 Y92.572 E0.01679
G1 X136.812 Y92.213 E0.01679
G1 X136.498 Y91.781 E0.01678
G1 X136.280 Y91.291 E0.01680
G1 X136.169 Y90.768 E0.01677
G1 X136.169 Y90.232 E0.01681
G1 X136.280 Y89.709 E0.01677
G1 X136.498 Y89.219 E0.01679
G1 X136.812 Y88.787 E0.01678
G1 X137.210 Y88.428 E0.01679
G1 X137.674 Y88.160 E0.01679
G1 X138.183 Y87.994 E0.01679
G1 X138.716 Y87.939 E0.01679
G1 X139.248 Y87.994 E0.01679
G1 X139.758 Y88.160 E0.01679
G1 X140.221 Y88.428 E0.01679
G1 X140.619 Y88.787 E0.01679
G1 X140.934 Y89.219 E0.01678
G1 X141.152 Y89.709 E0.01680
G1 X141.263 Y90.232 E0.01677
G1 X141.263 Y90.768 E0.01681
G1 X141.152 Y91.291 E0.01677
G1 X140.934 Y91.781 E0.01679
G1 X140.619 Y92.213 E0.01678
G1 X140.221 Y92.572 E0.01679
G1 X139.758 Y92.840 E0.01679
G1 X139.248 Y93.006 E0.01679
G1 X138.816 Y93.051 E0.01361
G1 X138.561 Y93.406 F7200.000
G1 F5760
G1 X138.183 Y93.006 E-0.21987
G1 X137.674 Y92.840 E-0.18550
G1 X137.210 Y92.572 E-0.18552
G1 X136.848 Y92.245 E-0.16911
G1 E-0.04000 F2100.00000
G1 Z0.800 F7200.000
G1 X77.338 Y101.594
G1 Z0.200
G1 E0.80000 F2100.00000
G1 F1800
G1 X77.338 Y103.406 E0.05683
G1 X76.961 Y105.179 E0.05682
G1 X76.224 Y106.835 E0.05683
G1 X75.158 Y108.301 E0.05683
G1 X73.811 Y109.514 E0.05683
G1 X72.242 Y110.420 E0.05683
G1 X70.518 Y110.980 E0.05683
G1 X68.716 Y111.169 E0.05683
G1 X66.913 Y110.980 E0.05683
G1 X65.190 Y110.420 E0.05683
G1 X63.620 Y109.514 E0.05683
G1 X62.273 Y108.301 E0.05683
G1 X61.208 Y106.835 E0.05683
G1 X60.471 Y105.179 E0.05683
G1 X60.094 Y103.406 E0.05682
G1 X60.094 Y101.594 E0.05683
G1 X60.471 Y99.821 E0.05682
G1 X61.208 Y98.165 E0.05683
G1 X62.273 Y96.699 E0.05683
G1 X63.620 Y95.486 E0.05683
G1 X65.189 Y94.580 E0.05682
G1 X66.913 Y94.020 E0.05683
G1 X68.716 Y93.831 E0.05683
G1 X70.518 Y94.020 E0.05683
G1 X72.242 Y94.580 E0.05683
G1 X73.811 Y95.486 E0.05682
G1 X75.158 Y96.699 E0.05683
G1 X76.224 Y98.165 E0.05683
G1 X76.961 Y99.821 E0.05683
G1 X77.325 Y101.535 E0.05494
G1 X76.956 Y101.613 F7200.000
G1 F1800
G1 X76.961 Y103.367 E0.05497
G1 X76.600 Y105.062 E0.05434
G1 X75.895 Y106.645 E0.05434
G1 X74.877 Y108.047 E0.05434
G1 X73.589 Y109.207 E0.05434
G1 X72.088 Y110.074 E0.05434
G1 X70.439 Y110.609 E0.05434
G1 X68.716 Y110.790 E0.05434
G1 X66.992 Y110.609 E0.05434
G1 X65.344 Y110.074 E0.05434
G1 X63.843 Y109.207 E0.05434
G1 X62.555 Y108.047 E0.05434
G1 X61.536 Y106.645 E0.05434
G1 X60.831 Y105.062 E0.05434
G1 X60.471 Y103.367 E0.05434
G1 X60.471 Y101.633 E0.05434
G1 X60.831 Y99.938 E0.05434
G1 X61.536 Y98.355 E0.05434
G1 X62.555 Y96.953 E0.05434
G1 X63.843 Y95.793 E0.05434
G1 X65.344 Y94.927 E0.05433
G1 X66.992 Y94.391 E0.05435
G1 X68.716 Y94.210 E0.05434
G1 X70.439 Y94.391 E0.05434
G1 X72.088 Y94.927 E0.05435
G1 X73.589 Y95.793 E0.05433
G1 X74.877 Y96.953 E0.05434
G1 X75.895 Y98.355 E0.05434
G1 X76.600 Y99.938 E0.05434
G1 X76.944 Y101.555 E0.05182
G1 X76.575 Y101.633 F7200.000
G1 F1800
G1 X76.584 Y103.327 E0.05311
G1 X76.240 Y104.945 E0.05185
G1 X75.567 Y106.456 E0.05186
G1 X74.595 Y107.794 E0.05186
G1 X73.366 Y108.900 E0.05186
G1 X71.934 Y109.727 E0.05185
G1 X70.361 Y110.238 E0.05186
G1 X68.716 Y110.411 E0.05186
G1 X67.071 Y110.238 E0.05186
G1 X65.498 Y109.727 E0.05186
G1 X64.066 Y108.900 E0.05185
G1 X62.837 Y107.794 E0.05186
G1 X61.864 Y106.456 E0.05186
G1 X61.192 Y104.945 E0.05186
G1 X60.848 Y103.327 E0.05185
G1 X60.848 Y101.673 E0.05186
G1 X61.192 Y100.055 E0.05185
G1 X61.864 Y98.544 E0.05186
G1 X62.837 Y97.206 E0.05186
G1 X64.066 Y96.100 E0.05186
G1 X65.498 Y95.273 E0.05185
G1 X67.071 Y94.761 E0.05186
G1 X68.716 Y94.589 E0.05186
G1 X70.361 Y94.761 E0.05186
G1 X71.934 Y95.273 E0.05186
G1 X73.366 Y96.100 E0.05185
G1 X74.595 Y97.206 E0.05186
G1 X75.567 Y98.544 E0.05186
G1 X76.240 Y100.055 E0.05186
G1 X76.563 Y101.574 E0.04870
G1 X76.941 Y101.795 F7200.000
G1 F5760
G1 X76.584 Y103.327 E-0.60702
G1 X76.492 Y103.759 E-0.15298
G1 E-0.04000 F2100.00000
G1 Z0.800 F7200.000
G1 X131.680 Y111.536
G1 Z0.200
G1 E0.80000 F2100.00000
G1 F1800
G1 X126.680 Y111.536 E0.15677
G1 X126.680 Y105.536 E0.18813
G1 X90.752 Y105.536 E1.12651
G1 X90.752 Y111.536 E0.18813
G1 X75.818 Y111.536 E0.46823
G1 X75.493 Y111.828 E0.01371
G1 X73.406 Y113.034 E0.07558
G1 X71.113 Y113.779 E0.07558
G1 X68.716 Y114.031 E0.07558
G1 X66.318 Y113.779 E0.07558
G1 X64.026 Y113.034 E0.07558
G1 X61.938 Y111.828 E0.07558
G1 X60.147 Y110.215 E0.07558
G1 X58.730 Y108.265 E0.07558
G1 X57.750 Y106.063 E0.07558
G1 X57.248 Y103.705 E0.07558
G1 X57.248 Y101.295 E0.07558
G1 X57.750 Y98.937 E0.07558
G1 X58.730 Y96.735 E0.07558
G1 X60.147 Y94.785 E0.07558
G1 X61.938 Y93.171 E0.07559
G1 X64.026 Y91.967 E0.07557
G1 X66.318 Y91.221 E0.07559
G1 X68.716 Y90.969 E0.07558
G1 X71.113 Y91.221 E0.07558
G1 X73.406 Y91.967 E0.07559
G1 X75.493 Y93.171 E0.07556
G1 X75.818 Y93.464 E0.01371
G1 X90.752 Y93.464 E0.46825
G1 X90.752 Y99.464 E0.18813
G1 X126.680 Y99.464 E1.12651
G1 X126.680 Y93.464 E0.18813
G1 X131.680 Y93.464 E0.15677
G1 X131.680 Y83.464 E0.31354
G1 X147.752 Y83.464 E0.50392
G1 X147.752 Y121.536 E1.19371
G1 X131.680 Y121.536 E0.50392
G1 X131.680 Y111.596 E0.31166
G1 X131.303 Y111.913 F7200.000
G1 F1800
G1 X126.303 Y111.913 E0.15677
G1 X126.303 Y105.913 E0.18813
G1 X91.129 Y105.913 E1.10286
G1 X91.129 Y111.913 E0.18813
G1 X75.963 Y111.913 E0.47551
G1 X75.716 Y112.135 E0.01041
G1 X73.560 Y113.380 E0.07807
G1 X71.192 Y114.149 E0.07807
G1 X68.716 Y114.410 E0.07807
G1 X66.240 Y114.149 E0.07807
G1 X63.872 Y113.380 E0.07807
G1 X61.715 Y112.135 E0.07807
G1 X59.865 Y110.469 E0.07807
G1 X58.402 Y108.455 E0.07807
G1 X57.389 Y106.180 E0.07807
G1 X56.871 Y103.745 E0.07807
G1 X56.871 Y101.255 E0.07807
G1 X57.389 Y98.820 E0.07807
G1 X58.402 Y96.545 E0.07807
G1 X59.865 Y94.531 E0.07806
G1 X61.715 Y92.865 E0.07807
G1 X63.872 Y91.620 E0.07806
G1 X66.240 Y90.850 E0.07807
G1 X68.716 Y90.590 E0.07806
G1 X71.192 Y90.850 E0.07806
G1 X73.560 Y91.620 E0.07807
G1 X75.716 Y92.864 E0.07805
G1 X75.963 Y93.087 E0.01042
G1 X91.129 Y93.087 E0.47552
G1 X91.129 Y99.087 E0.18813
G1 X126.303 Y99.087 E1.10286
G1 X126.303 Y93.087 E0.18813
G1 X131.303 Y93.087 E0.15677
G1 X131.303 Y83.087 E0.31354
G1 X148.129 Y83.087 E0.52756
G1 X148.129 Y121.913 E1.21736
G1 X131.303 Y121.913 E0.52756
G1 X131.303 Y111.973 E0.31166
G1 X130.926 Y112.290 F7200.000
G1 F1800
G1 X125.926 Y112.290 E0.15677
G1 X125.926 Y106.290 E0.18813
G1 X91.506 Y106.290 E1.07921
G1 X91.506 Y112.290 E0.18813
G1 X76.108 Y112.290 E0.48280
G1 X75.939 Y112.442 E0.00712
G1 X73.714 Y113.726 E0.08055
G1 X71.271 Y114.520 E0.08055
G1 X68.716 Y114.789 E0.08055
G1 X66.161 Y114.520 E0.08055
G1 X63.717 Y113.726 E0.08055
G1 X61.493 Y112.442 E0.08055
G1 X59.583 Y110.723 E0.08055
G1 X58.073 Y108.644 E0.08055
G1 X57.028 Y106.297 E0.08055
G1 X56.494 Y103.785 E0.08055
G1 X56.494 Y101.215 E0.08055
G1 X57.028 Y98.703 E0.08055
G1 X58.073 Y96.356 E0.08055
G1 X59.583 Y94.277 E0.08055
G1 X61.493 Y92.558 E0.08056
G1 X63.717 Y91.274 E0.08054
G1 X66.161 Y90.480 E0.08056
G1 X68.716 Y90.211 E0.08055
G1 X71.271 Y90.480 E0.08055
G1 X73.714 Y91.274 E0.08056
G1 X75.939 Y92.558 E0.08054
G1 X76.108 Y92.710 E0.00712
G1 X91.506 Y92.710 E0.48280
G1 X91.506 Y98.710 E0.18813
G1 X125.926 Y98.710 E1.07921
G1 X125.926 Y92.710 E0.18813
G1 X130.926 Y92.710 E0.15677
G1 X130.926 Y82.710 E0.31354
G1 X148.506 Y82.710 E0.55121
G1 X148.506 Y122.290 E1.24100
G1 X130.926 Y122.290 E0.55121
G1 X130.926 Y112.350 E0.31166
G1 X130.788 Y111.914 F7200.000
G1 F5760
G1 X128.732 Y112.324 E-0.76000
G1 E-0.04000 F2100.00000
G1 Z0.800 F7200.000
G1 X131.354 Y111.423
G1 Z0.200
G1 E0.80000 F2100.00000
G1 F1800
G1 X126.963 Y107.032 E0.19547
G1 X126.963 Y107.567 E0.01685
G1 X130.649 Y111.253 E0.16408
G1 X130.113 Y111.253 E0.01685
G1 X126.963 Y108.103 E0.14025
G1 X126.963 Y108.638 E0.01685
G1 X129.578 Y111.253 E0.11642
G1 X129.043 Y111.253 E0.01685
G1 X126.963 Y109.173 E0.09259
G1 X126.963 Y109.709 E0.01685
G1 X128.507 Y111.253 E0.06875
G1 X127.972 Y111.253 E0.01685
G1 X126.963 Y110.244 E0.04492
G1 X126.963 Y110.779 E0.01685
G1 X127.606 Y111.423 E0.02864
G1 F5760
G1 X126.963 Y110.779 E-0.31515
G1 X126.963 Y110.244 E-0.18543
G1 X127.492 Y110.774 E-0.25943
G1 E-0.04000 F2100.00000
G1 Z0.800 F7200.000
G1 X126.424 Y105.423
G1 Z0.200
G1 E0.80000 F2100.00000
G1 F1800
G1 X120.749 Y99.747 E0.25266
G1 X120.213 Y99.747 E0.01685
G1 X125.719 Y105.253 E0.24511
G1 X125.184 Y105.253 E0.01685
G1 X119.678 Y99.747 E0.24511
G1 X119.143 Y99.747 E0.01685
G1 X124.649 Y105.253 E0.24511
G1 X124.113 Y105.253 E0.01685
G1 X118.607 Y99.747 E0.24511
G1 X118.072 Y99.747 E0.01685
G1 X123.578 Y105.253 E0.24511
G1 X123.043 Y105.253 E0.01685
G1 X117.536 Y99.747 E0.24511
G1 X117.001 Y99.747 E0.01685
G1 X122.507 Y105.253 E0.24511
G1 X121.972 Y105.253 E0.01685
G1 X116.466 Y99.747 E0.24511
G1 X115.930 Y99.747 E0.01685
G1 X121.436 Y105.253 E0.24511
G1 X120.901 Y105.253 E0.01685
G1 X115.395 Y99.747 E0.24511
G1 X114.860 Y99.747 E0.01685
G1 X120.366 Y105.253 E0.24511
G1 X119.830 Y105.253 E0.01685
G1 X114.324 Y99.747 E0.24511
G1 X113.789 Y99.747 E0.01685
G1 X119.295 Y105.253 E0.24511
G1 X118.760 Y105.253 E0.01685
G1 X113.253 Y99.747 E0.24511
G1 X112.718 Y99.747 E0.01685
G1 X118.224 Y105.253 E0.24511
