; generated by Slic3r Prusa Edition 1.39.2+win64 on 2018-05-29 at 12:00:46

; 

; external perimeters extrusion width = 0.45mm
; perimeters extrusion width = 0.45mm
; infill extrusion width = 0.45mm
; solid infill extrusion width = 0.45mm
; top infill extrusion width = 0.45mm
; first layer extrusion width = 0.42mm

M107
M115 U3.1.0 ; tell printer latest fw version
M83  ; extruder relative mode
M104 S205 ; set extruder temp
M140 S55 ; set bed temp
M190 S55 ; wait for bed temp
M109 S205 ; wait for extruder temp
G28 W ; home all without mesh bed level
G80 ; mesh bed leveling
G1 Y-3.0 F1000.0 ; go outside print area
G92 E0.0
G1 X60.0 E9.0  F1000.0 ; intro line
G1 X100.0 E12.5  F1000.0 ; intro line
G92 E0.0
M900 K30; Filament gcode
G21 ; set units to millimeters
G90 ; use absolute coordinates
M83 ; use relative distances for extrusion
;BEFORE_LAYER_CHANGE
;0.2


G1 E-0.80000 F2100.00000
G1 Z0.600 F7200.000
;AFTER_LAYER_CHANGE
;0.2
G1 X77.822 Y94.049
G1 Z0.200
G1 E0.80000 F2100.00000
M204 S1000
G1 F1800
G1 X78.316 Y93.322 E0.02755
G1 X78.735 Y92.988 E0.01680
G1 X79.218 Y92.755 E0.01680
G1 X97.441 Y86.663 E0.60248
G1 X100.753 Y85.965 E0.10610
G1 X103.994 Y85.951 E0.10163
G1 X107.644 Y86.689 E0.11675
G1 X125.790 Y92.758 E0.59995
G1 X126.330 Y93.029 E0.01894
G1 X126.783 Y93.428 E0.01894
G1 X127.208 Y94.119 E0.02543
G1 X127.376 Y94.917 E0.02555
G1 X127.377 Y110.011 E0.47328
G1 X127.195 Y110.913 E0.02884
G1 X126.684 Y111.678 E0.02884
G1 X126.265 Y112.012 E0.01680
G1 X125.782 Y112.245 E0.01680
G1 X107.639 Y118.313 E0.59985
G1 X103.990 Y119.049 E0.11671
G1 X100.755 Y119.035 E0.10142
G1 X97.444 Y118.338 E0.10611
G1 X79.221 Y112.246 E0.60245
G1 X78.741 Y112.016 E0.01668
G1 X78.321 Y111.683 E0.01680
G1 X77.805 Y110.912 E0.02907
G1 X77.623 Y110.000 E0.02917
G1 X77.625 Y94.901 E0.47342
G1 X77.808 Y94.107 E0.02555
G1 F5760
G1 X78.316 Y93.322 E-0.32377
G1 X78.735 Y92.988 E-0.18562
G1 X79.218 Y92.755 E-0.18562
G1 X79.396 Y92.696 E-0.06499
G1 E-0.04000 F2100.00000
G1 Z0.800 F7200.000
G1 X91.588 Y97.642
G1 Z0.200
G1 E0.80000 F2100.00000
G1 F1800
G1 X92.837 Y95.479 E0.07829
G1 X94.507 Y93.624 E0.07829
G1 X96.527 Y92.156 E0.07829
G1 X98.809 Y91.140 E0.07832
G1 X101.252 Y90.621 E0.07828
G1 X103.748 Y90.621 E0.07828
G1 X106.191 Y91.140 E0.07828
G1 X108.472 Y92.156 E0.07831
G1 X110.492 Y93.624 E0.07829
G1 X112.163 Y95.479 E0.07830
G1 X113.412 Y97.642 E0.07829
G1 X114.183 Y100.017 E0.07829
G1 X114.444 Y102.500 E0.07829
G1 X114.183 Y104.983 E0.07829
G1 X113.412 Y107.358 E0.07829
G1 X112.163 Y109.521 E0.07829
G1 X110.492 Y111.376 E0.07830
G1 X108.472 Y112.844 E0.07830
G1 X106.191 Y113.860 E0.07831
G1 X103.748 Y114.379 E0.07828
G1 X101.252 Y114.379 E0.07828
G1 X98.809 Y113.860 E0.07828
G1 X96.527 Y112.844 E0.07832
G1 X94.507 Y111.376 E0.07829
G1 X92.837 Y109.521 E0.07829
G1 X91.588 Y107.358 E0.07829
G1 X90.817 Y104.983 E0.07829
G1 X90.556 Y102.500 E0.07829
G1 X90.817 Y100.017 E0.07829
G1 X91.570 Y97.699 E0.07641
G1 X91.928 Y97.815 F7200.000
G1 F1800
G1 X93.143 Y95.702 E0.07643
G1 X94.761 Y93.905 E0.07581
G1 X96.717 Y92.484 E0.07581
G1 X98.927 Y91.501 E0.07584
G1 X101.291 Y90.998 E0.07580
G1 X103.709 Y90.998 E0.07580
G1 X106.073 Y91.501 E0.07580
G1 X108.283 Y92.484 E0.07582
G1 X110.239 Y93.905 E0.07581
G1 X111.857 Y95.702 E0.07581
G1 X113.065 Y97.796 E0.07581
G1 X113.813 Y100.095 E0.07581
G1 X114.065 Y102.500 E0.07581
G1 X113.813 Y104.905 E0.07581
G1 X113.065 Y107.204 E0.07581
G1 X111.857 Y109.298 E0.07581
G1 X110.239 Y111.095 E0.07581
G1 X108.283 Y112.516 E0.07581
G1 X106.073 Y113.499 E0.07582
G1 X103.709 Y114.002 E0.07580
G1 X101.291 Y114.002 E0.07580
G1 X98.927 Y113.499 E0.07580
G1 X96.717 Y112.516 E0.07584
G1 X94.761 Y111.095 E0.07581
G1 X93.143 Y109.298 E0.07581
G1 X91.935 Y107.204 E0.07580
G1 X91.188 Y104.905 E0.07581
G1 X90.935 Y102.500 E0.07581
G1 X91.188 Y100.095 E0.07581
G1 X91.910 Y97.872 E0.07329
G1 X92.269 Y97.989 F7200.000
G1 F1800
G1 X93.450 Y95.925 E0.07457
G1 X95.015 Y94.187 E0.07332
G1 X96.906 Y92.813 E0.07332
G1 X99.044 Y91.861 E0.07335
G1 X101.331 Y91.375 E0.07332
G1 X103.669 Y91.375 E0.07331
G1 X105.956 Y91.861 E0.07332
G1 X108.093 Y92.813 E0.07334
G1 X109.985 Y94.187 E0.07332
G1 X111.550 Y95.925 E0.07333
G1 X112.719 Y97.950 E0.07332
G1 X113.442 Y100.174 E0.07332
G1 X113.686 Y102.500 E0.07332
G1 X113.442 Y104.826 E0.07332
G1 X112.719 Y107.050 E0.07332
G1 X111.550 Y109.075 E0.07332
G1 X109.985 Y110.813 E0.07333
G1 X108.093 Y112.187 E0.07332
G1 X105.956 Y113.139 E0.07334
G1 X103.669 Y113.625 E0.07331
G1 X101.331 Y113.625 E0.07331
G1 X99.044 Y113.139 E0.07331
G1 X96.906 Y112.187 E0.07335
G1 X95.015 Y110.813 E0.07332
G1 X93.450 Y109.075 E0.07332
G1 X92.281 Y107.050 E0.07332
G1 X91.558 Y104.826 E0.07332
G1 X91.314 Y102.500 E0.07332
G1 X91.558 Y100.174 E0.07332
G1 X92.250 Y98.046 E0.07016
G1 X92.033 Y97.666 F7200.000
G1 F5760
G1 X93.331 Y96.136 E-0.76000
G1 E-0.04000 F2100.00000
G1 Z0.800 F7200.000
G1 X87.532 Y101.149
G1 Z0.200
G1 E0.80000 F2100.00000
G1 F1800
G1 X87.747 Y101.810 E0.02178
G1 X87.819 Y102.500 E0.02175
G1 X87.747 Y103.190 E0.02175
G1 X87.532 Y103.851 E0.02178
G1 X87.185 Y104.452 E0.02177
G1 X86.721 Y104.967 E0.02175
G1 X86.160 Y105.375 E0.02174
G1 X85.526 Y105.657 E0.02177
G1 X84.847 Y105.801 E0.02174
G1 X84.153 Y105.801 E0.02179
G1 X83.474 Y105.657 E0.02174
G1 X82.840 Y105.375 E0.02177
G1 X82.279 Y104.967 E0.02174
G1 X81.815 Y104.452 E0.02175
G1 X81.468 Y103.851 E0.02177
G1 X81.253 Y103.190 E0.02178
G1 X81.181 Y102.500 E0.02175
G1 X81.253 Y101.810 E0.02175
G1 X81.468 Y101.149 E0.02178
G1 X81.815 Y100.548 E0.02177
G1 X82.279 Y100.033 E0.02175
G1 X82.840 Y99.625 E0.02174
G1 X83.474 Y99.343 E0.02177
G1 X84.153 Y99.199 E0.02174
G1 X84.847 Y99.199 E0.02179
G1 X85.526 Y99.343 E0.02174
G1 X86.160 Y99.625 E0.02177
G1 X86.721 Y100.033 E0.02174
G1 X87.185 Y100.548 E0.02175
G1 X87.502 Y101.097 E0.01988
G1 X87.176 Y101.286 F7200.000
G1 F1800
G1 X87.376 Y101.889 E0.01991
G1 X87.440 Y102.500 E0.01927
G1 X87.376 Y103.111 E0.01927
G1 X87.186 Y103.696 E0.01929
G1 X86.878 Y104.228 E0.01928
G1 X86.467 Y104.685 E0.01927
G1 X85.970 Y105.046 E0.01926
G1 X85.408 Y105.296 E0.01928
G1 X84.808 Y105.424 E0.01925
G1 X84.192 Y105.424 E0.01930
G1 X83.592 Y105.296 E0.01925
G1 X83.030 Y105.046 E0.01928
G1 X82.533 Y104.685 E0.01926
G1 X82.122 Y104.228 E0.01927
G1 X81.814 Y103.696 E0.01928
G1 X81.624 Y103.111 E0.01929
G1 X81.560 Y102.500 E0.01927
G1 X81.624 Y101.889 E0.01927
G1 X81.814 Y101.304 E0.01929
G1 X82.122 Y100.771 E0.01928
G1 X82.533 Y100.315 E0.01927
G1 X83.030 Y99.954 E0.01926
G1 X83.592 Y99.704 E0.01928
G1 X84.192 Y99.576 E0.01925
G1 X84.808 Y99.576 E0.01930
G1 X85.408 Y99.704 E0.01925
G1 X85.970 Y99.954 E0.01928
G1 X86.467 Y100.315 E0.01926
G1 X86.878 Y100.771 E0.01927
G1 X87.146 Y101.234 E0.01676
G1 X86.820 Y101.423 F7200.000
G1 F1800
G1 X87.006 Y101.968 E0.01804
G1 X87.061 Y102.500 E0.01679
G1 X87.006 Y103.032 E0.01679
G1 X86.840 Y103.542 E0.01679
G1 X86.572 Y104.005 E0.01679
G1 X86.213 Y104.403 E0.01679
G1 X85.781 Y104.718 E0.01678
G1 X85.291 Y104.936 E0.01679
G1 X84.768 Y105.047 E0.01677
G1 X84.232 Y105.047 E0.01681
G1 X83.709 Y104.936 E0.01677
G1 X83.219 Y104.718 E0.01679
G1 X82.787 Y104.403 E0.01678
G1 X82.428 Y104.005 E0.01679
G1 X82.160 Y103.542 E0.01679
G1 X81.994 Y103.032 E0.01679
G1 X81.939 Y102.500 E0.01679
G1 X81.994 Y101.968 E0.01679
G1 X82.160 Y101.458 E0.01679
G1 X82.428 Y100.994 E0.01679
G1 X82.787 Y100.597 E0.01679
G1 X83.219 Y100.282 E0.01678
G1 X83.709 Y100.064 E0.01679
G1 X84.232 Y99.953 E0.01677
G1 X84.768 Y99.953 E0.01681
G1 X85.291 Y100.064 E0.01677
G1 X85.781 Y100.282 E0.01679
G1 X86.213 Y100.597 E0.01678
G1 X86.572 Y100.994 E0.01679
G1 X86.789 Y101.371 E0.01364
G1 X87.218 Y101.460 F7200.000
G1 F5760
G1 X87.006 Y101.968 E-0.21972
G1 X87.061 Y102.500 E-0.18542
G1 X87.006 Y103.032 E-0.18542
G1 X86.854 Y103.498 E-0.16943
G1 E-0.04000 F2100.00000
G1 Z0.800 F7200.000
G1 X117.181 Y102.500
G1 Z0.200
G1 E0.80000 F2100.00000
G1 F1800
G1 X117.253 Y101.810 E0.02176
G1 X117.468 Y101.150 E0.02175
G1 X117.814 Y100.549 E0.02176
G1 X118.279 Y100.033 E0.02176
G1 X118.840 Y99.625 E0.02176
G1 X119.474 Y99.343 E0.02176
G1 X120.153 Y99.199 E0.02176
G1 X120.847 Y99.199 E0.02175
G1 X121.526 Y99.343 E0.02176
G1 X122.160 Y99.625 E0.02176
G1 X122.721 Y100.033 E0.02176
G1 X123.186 Y100.549 E0.02176
G1 X123.532 Y101.150 E0.02176
G1 X123.747 Y101.810 E0.02175
G1 X123.819 Y102.500 E0.02176
G1 X123.747 Y103.190 E0.02176
G1 X123.532 Y103.850 E0.02175
G1 X123.186 Y104.451 E0.02176
G1 X122.721 Y104.967 E0.02176
G1 X122.160 Y105.375 E0.02176
G1 X121.526 Y105.657 E0.02176
G1 X120.847 Y105.801 E0.02176
G1 X120.153 Y105.801 E0.02175
G1 X119.474 Y105.657 E0.02176
G1 X118.840 Y105.375 E0.02176
G1 X118.279 Y104.967 E0.02176
G1 X117.814 Y104.451 E0.02176
G1 X117.468 Y103.850 E0.02176
G1 X117.253 Y103.190 E0.02175
G1 X117.187 Y102.560 E0.01988
G1 X117.562 Y102.520 F7200.000
G1 F1800
G1 X117.624 Y101.889 E0.01990
G1 X117.814 Y101.304 E0.01927
G1 X118.121 Y100.772 E0.01927
G1 X118.532 Y100.315 E0.01927
G1 X119.030 Y99.954 E0.01928
G1 X119.591 Y99.704 E0.01927
G1 X120.193 Y99.576 E0.01927
G1 X120.807 Y99.576 E0.01927
G1 X121.409 Y99.704 E0.01927
G1 X121.970 Y99.954 E0.01927
G1 X122.468 Y100.315 E0.01928
G1 X122.879 Y100.772 E0.01927
G1 X123.186 Y101.304 E0.01927
G1 X123.376 Y101.889 E0.01927
G1 X123.440 Y102.500 E0.01927
G1 X123.376 Y103.111 E0.01927
G1 X123.186 Y103.696 E0.01927
G1 X122.879 Y104.228 E0.01927
G1 X122.468 Y104.685 E0.01927
G1 X121.970 Y105.046 E0.01928
G1 X121.409 Y105.296 E0.01927
G1 X120.807 Y105.424 E0.01927
G1 X120.193 Y105.424 E0.01927
G1 X119.591 Y105.296 E0.01927
G1 X119.030 Y105.046 E0.01927
G1 X118.532 Y104.685 E0.01928
G1 X118.121 Y104.228 E0.01927
G1 X117.814 Y103.696 E0.01927
G1 X117.624 Y103.111 E0.01927
G1 X117.568 Y102.580 E0.01676
G1 X117.943 Y102.540 F7200.000
G1 F1800
G1 X117.995 Y101.967 E0.01804
G1 X118.160 Y101.458 E0.01679
G1 X118.428 Y100.995 E0.01679
G1 X118.786 Y100.597 E0.01679
G1 X119.219 Y100.282 E0.01679
G1 X119.709 Y100.064 E0.01679
G1 X120.232 Y99.953 E0.01679
G1 X120.768 Y99.953 E0.01678
G1 X121.291 Y100.064 E0.01679
G1 X121.781 Y100.282 E0.01679
G1 X122.214 Y100.597 E0.01679
G1 X122.572 Y100.995 E0.01679
G1 X122.840 Y101.458 E0.01679
G1 X123.005 Y101.967 E0.01679
G1 X123.061 Y102.500 E0.01679
G1 X123.005 Y103.032 E0.01679
G1 X122.840 Y103.542 E0.01679
G1 X122.572 Y104.005 E0.01679
G1 X122.214 Y104.403 E0.01679
G1 X121.781 Y104.718 E0.01679
G1 X121.291 Y104.936 E0.01679
G1 X120.768 Y105.047 E0.01679
G1 X120.232 Y105.047 E0.01678
G1 X119.709 Y104.936 E0.01679
G1 X119.219 Y104.718 E0.01679
G1 X118.786 Y104.403 E0.01679
G1 X118.428 Y104.005 E0.01679
G1 X118.160 Y103.542 E0.01679
G1 X117.995 Y103.032 E0.01679
G1 X117.949 Y102.600 E0.01363
G1 X117.594 Y102.344 F7200.000
G1 F5760
G1 X117.995 Y101.967 E-0.21968
G1 X118.160 Y101.458 E-0.18543
G1 X118.428 Y100.995 E-0.18545
G1 X118.755 Y100.631 E-0.16945
G1 E-0.04000 F2100.00000
G1 Z0.800 F7200.000
G1 X113.978 Y95.964
G1 Z0.200
G1 E0.80000 F2100.00000
G1 F1800
G1 X124.036 Y95.964 E0.31537
G1 X124.036 Y109.036 E0.40985
G1 X113.978 Y109.036 E0.31537
G1 X113.244 Y110.306 E0.04599
G1 X111.386 Y112.369 E0.08705
G1 X109.140 Y114.001 E0.08705
G1 X106.603 Y115.131 E0.08707
G1 X103.889 Y115.708 E0.08702
G1 X101.111 Y115.708 E0.08708
G1 X98.397 Y115.131 E0.08702
G1 X95.860 Y114.001 E0.08707
G1 X93.614 Y112.369 E0.08705
G1 X91.756 Y110.306 E0.08705
G1 X91.022 Y109.036 E0.04599
G1 X80.964 Y109.036 E0.31537
G1 X80.964 Y95.964 E0.40985
G1 X91.022 Y95.964 E0.31537
G1 X91.756 Y94.694 E0.04599
G1 X93.614 Y92.631 E0.08705
G1 X95.860 Y90.999 E0.08705
G1 X98.397 Y89.869 E0.08707
G1 X101.111 Y89.292 E0.08700
G1 X103.912 Y89.297 E0.08784
G1 X106.603 Y89.869 E0.08627
G1 X109.140 Y90.999 E0.08707
G1 X111.386 Y92.631 E0.08705
G1 X113.244 Y94.694 E0.08705
G1 X113.948 Y95.912 E0.04411
G1 X114.195 Y95.587 F7200.000
G1 F1800
G1 X124.413 Y95.587 E0.32037
G1 X124.413 Y109.413 E0.43350
G1 X114.195 Y109.413 E0.32037
G1 X113.551 Y110.529 E0.04040
G1 X111.640 Y112.651 E0.08954
G1 X109.330 Y114.330 E0.08954
G1 X106.721 Y115.491 E0.08955
G1 X103.928 Y116.085 E0.08951
G1 X101.072 Y116.085 E0.08957
G1 X98.279 Y115.491 E0.08951
G1 X95.670 Y114.330 E0.08955
G1 X93.360 Y112.651 E0.08953
G1 X91.450 Y110.529 E0.08953
G1 X90.805 Y109.413 E0.04041
G1 X80.587 Y109.413 E0.32037
G1 X80.587 Y95.587 E0.43350
G1 X90.805 Y95.587 E0.32037
G1 X91.450 Y94.471 E0.04041
G1 X93.360 Y92.349 E0.08953
G1 X95.670 Y90.670 E0.08953
G1 X98.279 Y89.509 E0.08955
G1 X101.071 Y88.915 E0.08949
G1 X103.952 Y88.920 E0.09033
G1 X106.721 Y89.509 E0.08875
G1 X109.330 Y90.670 E0.08955
G1 X111.640 Y92.349 E0.08954
G1 X113.551 Y94.471 E0.08954
G1 X114.165 Y95.535 E0.03852
G1 X114.413 Y95.210 F7200.000
G1 F1800
G1 X124.790 Y95.210 E0.32536
G1 X124.790 Y109.790 E0.45715
G1 X114.413 Y109.790 E0.32536
G1 X113.858 Y110.752 E0.03482
G1 X111.894 Y112.933 E0.09202
G1 X109.519 Y114.658 E0.09202
G1 X106.838 Y115.852 E0.09204
G1 X103.968 Y116.462 E0.09199
G1 X101.032 Y116.462 E0.09205
G1 X98.162 Y115.852 E0.09199
G1 X95.481 Y114.658 E0.09204
G1 X93.106 Y112.933 E0.09202
G1 X91.143 Y110.752 E0.09202
G1 X90.587 Y109.790 E0.03483
G1 X80.210 Y109.790 E0.32537
G1 X80.210 Y95.210 E0.45715
G1 X90.587 Y95.210 E0.32537
G1 X91.143 Y94.248 E0.03483
G1 X93.106 Y92.067 E0.09202
G1 X95.481 Y90.342 E0.09202
G1 X98.162 Y89.148 E0.09204
G1 X101.032 Y88.538 E0.09199
G1 X103.992 Y88.543 E0.09281
G1 X106.838 Y89.148 E0.09122
G1 X109.519 Y90.342 E0.09204
G1 X111.894 Y92.067 E0.09202
G1 X113.858 Y94.248 E0.09202
G1 X114.383 Y95.158 E0.03294
G1 X114.502 Y95.600 F7200.000
G1 X113.737 Y95.774
G1 F1800
G1 X109.042 Y91.079 E0.20935
G1 F5760
G1 X110.593 Y92.630 E-0.76000
G1 E-0.04000 F2100.00000
G1 Z0.800 F7200.000
G1 X108.318 Y91.963
G1 Z0.200
G1 E0.80000 F2100.00000
G1 F1800
G1 X106.489 Y90.134 E0.08155
G1 X105.808 Y89.989 E0.02195
G1 X107.017 Y91.198 E0.05391
G1 X106.278 Y90.870 E0.02548
G1 X106.118 Y90.836 E0.00518
G1 X105.127 Y89.845 E0.04419
G1 X104.446 Y89.700 E0.02195
G1 X105.437 Y90.691 E0.04419
G1 X104.756 Y90.546 E0.02195
G1 X103.789 Y89.580 E0.04308
G1 X103.252 Y89.579 E0.01693
G1 X104.075 Y90.401 E0.03666
G1 X103.778 Y90.338 E0.00956
G1 X103.475 Y90.338 E0.00954
G1 X102.715 Y89.578 E0.03389
G1 X102.178 Y89.577 E0.01693
G1 X102.939 Y90.338 E0.03393
G1 X102.403 Y90.338 E0.01691
G1 X101.641 Y89.576 E0.03398
G1 X101.140 Y89.575 E0.01579
G1 X101.110 Y89.582 E0.00096
G1 X101.867 Y90.338 E0.03373
G1 X101.331 Y90.338 E0.01691
G1 X100.668 Y89.676 E0.02954
G1 X100.226 Y89.770 E0.01425
G1 X100.869 Y90.413 E0.02869
G1 X100.427 Y90.507 E0.01425
G1 X99.784 Y89.864 E0.02869
G1 X99.341 Y89.958 E0.01425
G1 X99.985 Y90.601 E0.02869
G1 X99.543 Y90.695 E0.01425
G1 X98.899 Y90.052 E0.02869
G1 X98.461 Y90.150 E0.01415
G1 X99.100 Y90.789 E0.02849
G1 X98.668 Y90.893 E0.01401
G1 X98.090 Y90.315 E0.02578
G1 X97.719 Y90.480 E0.01280
G1 X98.297 Y91.059 E0.02578
G1 X97.926 Y91.224 E0.01281
G1 X97.348 Y90.646 E0.02577
G1 X96.977 Y90.811 E0.01280
G1 X97.555 Y91.389 E0.02577
G1 X97.184 Y91.554 E0.01281
G1 X96.606 Y90.976 E0.02577
G1 X96.235 Y91.141 E0.01280
G1 X96.813 Y91.719 E0.02577
G1 X96.442 Y91.884 E0.01281
G1 X95.887 Y91.329 E0.02477
G1 X95.576 Y91.554 E0.01210
G1 X96.122 Y92.101 E0.02435
G1 X95.812 Y92.326 E0.01210
G1 X95.265 Y91.780 E0.02435
G1 X94.955 Y92.006 E0.01210
G1 X95.501 Y92.552 E0.02435
G1 X95.190 Y92.778 E0.01210
G1 X94.644 Y92.231 E0.02435
G1 X94.334 Y92.457 E0.01210
G1 X94.880 Y93.003 E0.02435
G1 X94.569 Y93.229 E0.01210
G1 X94.023 Y92.683 E0.02435
G1 X93.804 Y92.842 E0.00854
G1 X93.729 Y92.925 E0.00352
G1 X94.269 Y93.465 E0.02408
G1 X94.015 Y93.747 E0.01197
G1 X93.475 Y93.207 E0.02408
G1 X93.221 Y93.489 E0.01197
G1 X93.761 Y94.029 E0.02408
G1 X93.507 Y94.312 E0.01197
G1 X92.967 Y93.772 E0.02408
G1 X92.713 Y94.054 E0.01197
G1 X93.253 Y94.594 E0.02408
G1 X92.999 Y94.876 E0.01197
G1 X92.459 Y94.336 E0.02408
G1 X92.205 Y94.618 E0.01197
G1 X92.745 Y95.158 E0.02408
G1 X92.607 Y95.312 E0.00653
G1 X92.517 Y95.467 E0.00562
G1 X91.959 Y94.908 E0.02490
G1 X91.763 Y95.248 E0.01237
G1 X92.321 Y95.807 E0.02490
G1 X92.125 Y96.147 E0.01238
G1 X91.566 Y95.588 E0.02490
