; generated by Slic3r Prusa Edition 1.39.2+win64 on 2018-05-29 at 08:55:26

; 

; external perimeters extrusion width = 0.45mm
; perimeters extrusion width = 0.45mm
; infill extrusion width = 0.45mm
; solid infill extrusion width = 0.45mm
; top infill extrusion width = 0.45mm
; first layer extrusion width = 0.42mm

M107
M115 U3.1.0 ; tell printer latest fw version
M83  ; extruder relative mode
M104 S205 ; set extruder temp
M140 S55 ; set bed temp
M190 S55 ; wait for bed temp
M109 S205 ; wait for extruder temp
G28 W ; home all without mesh bed level
G80 ; mesh bed leveling
G1 Y-3.0 F1000.0 ; go outside print area
G92 E0.0
G1 X60.0 E9.0  F1000.0 ; intro line
G1 X100.0 E12.5  F1000.0 ; intro line
G92 E0.0
M900 K30; Filament gcode
G21 ; set units to millimeters
G90 ; use absolute coordinates
M83 ; use relative distances for extrusion
;BEFORE_LAYER_CHANGE
;0.2


G1 E-0.80000 F2100.00000
G1 Z0.600 F7200.000
;AFTER_LAYER_CHANGE
;0.2
G1 X109.456 Y74.864
G1 Z0.200
G1 E0.80000 F2100.00000
M204 S1000
G1 F1800
G1 X110.383 Y74.626 E0.03001
G1 X125.504 Y74.623 E0.47409
G1 X126.392 Y74.797 E0.02837
G1 X127.153 Y75.292 E0.02849
G1 X127.673 Y76.037 E0.02849
G1 X127.876 Y76.923 E0.02849
G1 X127.877 Y128.027 E1.60233
G1 X127.724 Y128.839 E0.02590
G1 X127.300 Y129.552 E0.02602
G1 X126.931 Y129.898 E0.01585
G1 X126.498 Y130.158 E0.01585
G1 X126.019 Y130.320 E0.01585
G1 X125.513 Y130.377 E0.01597
G1 X79.470 Y130.377 E1.44365
G1 X78.658 Y130.223 E0.02590
G1 X77.948 Y129.800 E0.02590
G1 X77.611 Y129.444 E0.01538
G1 X77.354 Y129.022 E0.01550
G1 X77.189 Y128.556 E0.01550
G1 X77.124 Y128.070 E0.01538
G1 X77.123 Y112.954 E0.47393
G1 X77.208 Y112.371 E0.01846
G1 X77.431 Y111.831 E0.01835
G1 X108.699 Y75.449 E1.50413
G1 X109.409 Y74.901 E0.02813
G1 F5760
G1 X110.383 Y74.626 E-0.35069
G1 X111.565 Y74.626 E-0.40931
G1 E-0.04000 F2100.00000
G1 Z0.800 F7200.000
G1 X113.559 Y115.000
G1 Z0.200
G1 E0.80000 F2100.00000
G1 F1800
G1 X113.614 Y114.500 E0.01578
G1 X113.559 Y114.000 E0.01576
G1 X113.614 Y113.500 E0.01578
G1 X113.560 Y113.001 E0.01572
G1 X113.624 Y112.389 E0.01932
G1 X113.814 Y111.804 E0.01927
G1 X114.121 Y111.272 E0.01927
G1 X114.532 Y110.815 E0.01927
G1 X115.030 Y110.454 E0.01928
G1 X115.591 Y110.204 E0.01927
G1 X116.193 Y110.076 E0.01927
G1 X116.807 Y110.076 E0.01927
G1 X117.409 Y110.204 E0.01927
G1 X117.970 Y110.454 E0.01927
G1 X118.468 Y110.815 E0.01928
G1 X118.879 Y111.272 E0.01927
G1 X119.186 Y111.804 E0.01927
G1 X119.376 Y112.389 E0.01927
G1 X119.440 Y113.001 E0.01932
G1 X119.386 Y113.500 E0.01573
G1 X119.441 Y114.000 E0.01576
G1 X119.386 Y114.500 E0.01578
G1 X119.441 Y115.000 E0.01576
G1 X119.432 Y115.076 E0.00240
G1 X119.807 Y115.076 E0.01176
G1 X120.000 Y115.117 E0.00618
G1 X120.193 Y115.076 E0.00618
G1 X120.807 Y115.076 E0.01926
G1 X121.000 Y115.117 E0.00618
G1 X121.193 Y115.076 E0.00618
G1 X121.807 Y115.076 E0.01926
G1 X122.409 Y115.204 E0.01928
G1 X122.971 Y115.454 E0.01932
G1 X123.475 Y115.824 E0.01958
G1 X123.879 Y116.272 E0.01892
G1 X124.186 Y116.804 E0.01926
G1 X124.376 Y117.388 E0.01927
G1 X124.440 Y118.000 E0.01929
G1 X124.376 Y118.612 E0.01929
G1 X124.186 Y119.196 E0.01927
G1 X123.879 Y119.728 E0.01926
G1 X123.468 Y120.185 E0.01926
G1 X122.970 Y120.546 E0.01927
G1 X122.409 Y120.796 E0.01928
G1 X121.807 Y120.924 E0.01928
G1 X121.193 Y120.924 E0.01926
G1 X121.000 Y120.883 E0.00618
G1 X120.807 Y120.924 E0.00618
G1 X120.193 Y120.924 E0.01926
G1 X120.000 Y120.883 E0.00618
G1 X119.807 Y120.924 E0.00618
G1 X119.432 Y120.924 E0.01176
G1 X119.441 Y121.000 E0.00239
G1 X119.386 Y121.500 E0.01578
G1 X119.441 Y122.000 E0.01576
G1 X119.386 Y122.500 E0.01578
G1 X119.440 Y122.999 E0.01572
G1 X119.376 Y123.612 E0.01933
G1 X119.186 Y124.196 E0.01927
G1 X118.879 Y124.728 E0.01926
G1 X118.468 Y125.185 E0.01926
G1 X117.970 Y125.546 E0.01927
G1 X117.409 Y125.796 E0.01928
G1 X116.807 Y125.924 E0.01928
G1 X116.193 Y125.924 E0.01926
G1 X115.591 Y125.796 E0.01928
G1 X115.029 Y125.546 E0.01932
G1 X114.525 Y125.176 E0.01958
G1 X114.121 Y124.728 E0.01892
G1 X113.814 Y124.196 E0.01926
G1 X113.624 Y123.612 E0.01927
G1 X113.560 Y122.999 E0.01933
G1 X113.614 Y122.500 E0.01573
G1 X113.559 Y122.000 E0.01576
G1 X113.614 Y121.500 E0.01578
G1 X113.559 Y121.000 E0.01576
G1 X113.568 Y120.924 E0.00240
G1 X113.193 Y120.924 E0.01176
G1 X113.000 Y120.883 E0.00618
G1 X112.807 Y120.924 E0.00618
G1 X112.193 Y120.924 E0.01927
G1 X112.000 Y120.883 E0.00618
G1 X111.807 Y120.924 E0.00618
G1 X111.193 Y120.924 E0.01927
G1 X110.591 Y120.796 E0.01928
G1 X110.030 Y120.546 E0.01928
G1 X109.532 Y120.185 E0.01927
G1 X109.121 Y119.728 E0.01926
G1 X108.814 Y119.196 E0.01926
G1 X108.624 Y118.612 E0.01927
G1 X108.560 Y118.000 E0.01929
G1 X108.624 Y117.388 E0.01929
G1 X108.814 Y116.804 E0.01927
G1 X109.121 Y116.272 E0.01926
G1 X109.532 Y115.815 E0.01926
G1 X110.030 Y115.454 E0.01927
G1 X110.591 Y115.204 E0.01928
G1 X111.193 Y115.076 E0.01928
G1 X111.807 Y115.076 E0.01927
G1 X112.000 Y115.117 E0.00618
G1 X112.193 Y115.076 E0.00618
G1 X112.807 Y115.076 E0.01927
G1 X113.000 Y115.117 E0.00618
G1 X113.193 Y115.076 E0.00618
G1 X113.568 Y115.076 E0.01176
G1 X113.566 Y115.060 E0.00051
G1 X113.994 Y115.499 F7200.000
G1 F1800
G1 X113.939 Y115.000 E0.01574
G1 X113.994 Y114.500 E0.01578
G1 X113.939 Y114.000 E0.01576
G1 X113.994 Y113.500 E0.01578
G1 X113.939 Y113.001 E0.01575
G1 X113.995 Y112.467 E0.01680
G1 X114.160 Y111.958 E0.01679
G1 X114.428 Y111.495 E0.01679
G1 X114.786 Y111.097 E0.01679
G1 X115.219 Y110.782 E0.01679
G1 X115.709 Y110.564 E0.01679
G1 X116.232 Y110.453 E0.01679
G1 X116.768 Y110.453 E0.01678
G1 X117.291 Y110.564 E0.01679
G1 X117.781 Y110.782 E0.01679
G1 X118.214 Y111.097 E0.01679
G1 X118.572 Y111.495 E0.01679
G1 X118.840 Y111.958 E0.01679
G1 X119.005 Y112.467 E0.01679
G1 X119.061 Y113.001 E0.01680
G1 X119.006 Y113.500 E0.01576
G1 X119.061 Y114.000 E0.01576
G1 X119.006 Y114.500 E0.01578
G1 X119.061 Y115.000 E0.01576
G1 X119.007 Y115.501 E0.01580
G1 X119.232 Y115.453 E0.00724
G1 X119.768 Y115.453 E0.01678
G1 X120.000 Y115.502 E0.00745
G1 X120.232 Y115.453 E0.00745
G1 X120.768 Y115.453 E0.01678
G1 X121.000 Y115.502 E0.00745
G1 X121.232 Y115.453 E0.00745
G1 X121.768 Y115.453 E0.01678
G1 X122.291 Y115.564 E0.01679
G1 X122.781 Y115.782 E0.01681
G1 X123.221 Y116.105 E0.01709
G1 X123.572 Y116.495 E0.01646
G1 X123.840 Y116.958 E0.01677
G1 X124.005 Y117.467 E0.01678
G1 X124.061 Y118.000 E0.01680
G1 X124.005 Y118.533 E0.01680
G1 X123.840 Y119.042 E0.01678
G1 X123.572 Y119.505 E0.01677
G1 X123.214 Y119.903 E0.01678
G1 X122.781 Y120.218 E0.01679
G1 X122.291 Y120.436 E0.01679
G1 X121.768 Y120.547 E0.01679
G1 X121.232 Y120.547 E0.01678
G1 X121.000 Y120.498 E0.00745
G1 X120.768 Y120.547 E0.00745
G1 X120.232 Y120.547 E0.01678
G1 X120.000 Y120.498 E0.00745
G1 X119.768 Y120.547 E0.00745
G1 X119.232 Y120.547 E0.01678
G1 X119.007 Y120.499 E0.00724
G1 X119.061 Y121.000 E0.01580
G1 X119.006 Y121.500 E0.01578
G1 X119.061 Y122.000 E0.01576
G1 X119.006 Y122.500 E0.01578
G1 X119.061 Y122.999 E0.01575
G1 X119.005 Y123.533 E0.01682
G1 X118.840 Y124.042 E0.01678
G1 X118.572 Y124.505 E0.01677
G1 X118.214 Y124.903 E0.01678
G1 X117.781 Y125.218 E0.01679
G1 X117.291 Y125.436 E0.01679
G1 X116.768 Y125.547 E0.01679
G1 X116.232 Y125.547 E0.01678
G1 X115.709 Y125.436 E0.01679
G1 X115.219 Y125.218 E0.01681
G1 X114.779 Y124.895 E0.01709
G1 X114.428 Y124.505 E0.01646
G1 X114.160 Y124.042 E0.01677
G1 X113.995 Y123.533 E0.01678
G1 X113.939 Y122.999 E0.01682
G1 X113.994 Y122.500 E0.01576
G1 X113.939 Y122.000 E0.01576
G1 X113.994 Y121.500 E0.01578
G1 X113.939 Y121.000 E0.01576
G1 X113.993 Y120.499 E0.01580
G1 X113.768 Y120.547 E0.00724
G1 X113.232 Y120.547 E0.01678
G1 X113.000 Y120.498 E0.00745
G1 X112.768 Y120.547 E0.00745
G1 X112.232 Y120.547 E0.01678
G1 X112.000 Y120.498 E0.00745
G1 X111.768 Y120.547 E0.00745
G1 X111.232 Y120.547 E0.01678
G1 X110.709 Y120.436 E0.01679
G1 X110.219 Y120.218 E0.01679
G1 X109.786 Y119.903 E0.01679
G1 X109.428 Y119.505 E0.01678
G1 X109.160 Y119.042 E0.01677
G1 X108.995 Y118.533 E0.01678
G1 X108.939 Y118.000 E0.01680
G1 X108.995 Y117.467 E0.01680
G1 X109.160 Y116.958 E0.01678
G1 X109.428 Y116.495 E0.01677
G1 X109.786 Y116.097 E0.01678
G1 X110.219 Y115.782 E0.01679
G1 X110.709 Y115.564 E0.01679
G1 X111.232 Y115.453 E0.01679
G1 X111.768 Y115.453 E0.01678
G1 X112.000 Y115.502 E0.00745
G1 X112.232 Y115.453 E0.00745
G1 X112.768 Y115.453 E0.01678
G1 X113.000 Y115.502 E0.00745
G1 X113.232 Y115.453 E0.00745
G1 X113.768 Y115.453 E0.01678
G1 X113.937 Y115.489 E0.00542
G1 X113.776 Y115.164 F7200.000
G1 F5760
G1 X113.939 Y115.000 E-0.16933
G1 X113.994 Y114.500 E-0.17430
G1 X113.939 Y114.000 E-0.17414
G1 X113.994 Y113.500 E-0.17430
G1 X113.972 Y113.305 E-0.06793
G1 E-0.04000 F2100.00000
G1 Z0.800 F7200.000
G1 X99.747 Y117.309
G1 Z0.200
G1 E0.80000 F2100.00000
G1 F1800
G1 X99.819 Y118.000 E0.02177
G1 X99.747 Y118.691 E0.02177
G1 X99.532 Y119.351 E0.02176
G1 X99.185 Y119.951 E0.02174
G1 X98.721 Y120.466 E0.02174
G1 X98.160 Y120.874 E0.02176
G1 X97.526 Y121.157 E0.02177
G1 X96.847 Y121.301 E0.02176
G1 X96.153 Y121.301 E0.02175
G1 X96.000 Y121.269 E0.00491
G1 X95.847 Y121.301 E0.00491
G1 X95.153 Y121.301 E0.02175
G1 X95.000 Y121.269 E0.00491
G1 X94.847 Y121.301 E0.00491
G1 X94.153 Y121.301 E0.02175
G1 X94.000 Y121.269 E0.00491
G1 X93.847 Y121.301 E0.00491
G1 X93.153 Y121.301 E0.02175
G1 X93.000 Y121.269 E0.00491
G1 X92.847 Y121.301 E0.00491
G1 X92.153 Y121.301 E0.02175
G1 X92.000 Y121.269 E0.00491
G1 X91.847 Y121.301 E0.00491
G1 X91.153 Y121.301 E0.02175
G1 X91.000 Y121.269 E0.00491
G1 X90.847 Y121.301 E0.00491
G1 X90.153 Y121.301 E0.02175
G1 X90.000 Y121.269 E0.00491
G1 X89.847 Y121.301 E0.00491
G1 X89.153 Y121.301 E0.02175
G1 X89.000 Y121.269 E0.00491
G1 X88.847 Y121.301 E0.00491
G1 X88.153 Y121.301 E0.02175
G1 X88.000 Y121.269 E0.00491
G1 X87.847 Y121.301 E0.00491
G1 X87.153 Y121.301 E0.02175
G1 X87.000 Y121.269 E0.00491
G1 X86.847 Y121.301 E0.00491
G1 X86.153 Y121.301 E0.02175
G1 X85.474 Y121.157 E0.02176
G1 X84.840 Y120.874 E0.02177
G1 X84.279 Y120.466 E0.02176
G1 X83.815 Y119.951 E0.02174
G1 X83.468 Y119.351 E0.02174
G1 X83.253 Y118.691 E0.02176
G1 X83.181 Y118.000 E0.02177
G1 X83.253 Y117.309 E0.02177
G1 X83.468 Y116.649 E0.02176
G1 X83.815 Y116.049 E0.02174
G1 X84.279 Y115.534 E0.02174
G1 X84.840 Y115.126 E0.02176
G1 X85.474 Y114.843 E0.02177
G1 X86.153 Y114.699 E0.02176
G1 X86.847 Y114.699 E0.02175
G1 X87.000 Y114.731 E0.00491
G1 X87.153 Y114.699 E0.00491
G1 X87.847 Y114.699 E0.02175
G1 X88.000 Y114.731 E0.00491
G1 X88.153 Y114.699 E0.00491
G1 X88.847 Y114.699 E0.02175
G1 X89.000 Y114.731 E0.00491
G1 X89.153 Y114.699 E0.00491
G1 X89.847 Y114.699 E0.02175
G1 X90.000 Y114.731 E0.00491
G1 X90.153 Y114.699 E0.00491
G1 X90.847 Y114.699 E0.02175
G1 X91.000 Y114.731 E0.00491
G1 X91.153 Y114.699 E0.00491
G1 X91.847 Y114.699 E0.02175
G1 X92.000 Y114.731 E0.00491
G1 X92.153 Y114.699 E0.00491
G1 X92.847 Y114.699 E0.02175
G1 X93.000 Y114.731 E0.00491
G1 X93.153 Y114.699 E0.00491
G1 X93.847 Y114.699 E0.02175
G1 X94.000 Y114.731 E0.00491
G1 X94.153 Y114.699 E0.00491
G1 X94.847 Y114.699 E0.02175
G1 X95.000 Y114.731 E0.00491
G1 X95.153 Y114.699 E0.00491
G1 X95.847 Y114.699 E0.02175
G1 X96.000 Y114.731 E0.00491
G1 X96.153 Y114.699 E0.00491
G1 X96.847 Y114.699 E0.02175
G1 X97.526 Y114.843 E0.02176
G1 X98.160 Y115.126 E0.02177
G1 X98.721 Y115.534 E0.02176
G1 X99.185 Y116.049 E0.02174
G1 X99.532 Y116.649 E0.02174
G1 X99.728 Y117.252 E0.01988
G1 X99.370 Y117.369 F7200.000
G1 F1800
G1 X99.440 Y118.000 E0.01991
G1 X99.376 Y118.612 E0.01929
G1 X99.186 Y119.196 E0.01927
G1 X98.879 Y119.728 E0.01926
G1 X98.468 Y120.185 E0.01926
G1 X97.970 Y120.546 E0.01927
G1 X97.409 Y120.796 E0.01928
G1 X96.807 Y120.924 E0.01928
G1 X96.193 Y120.924 E0.01927
G1 X96.000 Y120.883 E0.00618
G1 X95.807 Y120.924 E0.00618
G1 X95.193 Y120.924 E0.01926
G1 X95.000 Y120.883 E0.00618
G1 X94.807 Y120.924 E0.00618
G1 X94.193 Y120.924 E0.01926
G1 X94.000 Y120.883 E0.00618
G1 X93.807 Y120.924 E0.00618
G1 X93.193 Y120.924 E0.01926
G1 X93.000 Y120.883 E0.00618
G1 X92.807 Y120.924 E0.00618
G1 X92.193 Y120.924 E0.01926
G1 X92.000 Y120.883 E0.00618
G1 X91.807 Y120.924 E0.00618
G1 X91.193 Y120.924 E0.01926
G1 X91.000 Y120.883 E0.00618
G1 X90.807 Y120.924 E0.00618
G1 X90.193 Y120.924 E0.01926
G1 X90.000 Y120.883 E0.00618
G1 X89.807 Y120.924 E0.00618
G1 X89.193 Y120.924 E0.01926
G1 X89.000 Y120.883 E0.00618
G1 X88.807 Y120.924 E0.00618
G1 X88.193 Y120.924 E0.01926
G1 X88.000 Y120.883 E0.00618
G1 X87.807 Y120.924 E0.00618
G1 X87.193 Y120.924 E0.01926
G1 X87.000 Y120.883 E0.00618
G1 X86.807 Y120.924 E0.00618
G1 X86.193 Y120.924 E0.01926
G1 X85.591 Y120.796 E0.01928
G1 X85.030 Y120.546 E0.01928
G1 X84.532 Y120.185 E0.01927
G1 X84.121 Y119.728 E0.01926
G1 X83.814 Y119.196 E0.01926
G1 X83.624 Y118.612 E0.01927
G1 X83.560 Y118.000 E0.01929
G1 X83.624 Y117.388 E0.01929
G1 X83.814 Y116.804 E0.01927
G1 X84.121 Y116.272 E0.01926
G1 X84.532 Y115.815 E0.01926
G1 X85.030 Y115.454 E0.01927
G1 X85.591 Y115.204 E0.01928
G1 X86.193 Y115.076 E0.01928
G1 X86.807 Y115.076 E0.01926
G1 X87.000 Y115.117 E0.00618
G1 X87.193 Y115.076 E0.00618
G1 X87.807 Y115.076 E0.01926
G1 X88.000 Y115.117 E0.00618
G1 X88.193 Y115.076 E0.00618
G1 X88.807 Y115.076 E0.01926
G1 X89.000 Y115.117 E0.00618
G1 X89.193 Y115.076 E0.00618
G1 X89.807 Y115.076 E0.01926
G1 X90.000 Y115.117 E0.00618
G1 X90.193 Y115.076 E0.00618
G1 X90.807 Y115.076 E0.01926
G1 X91.000 Y115.117 E0.00618
G1 X91.193 Y115.076 E0.00618
G1 X91.807 Y115.076 E0.01926
G1 X92.000 Y115.117 E0.00618
G1 X92.193 Y115.076 E0.00618
G1 X92.807 Y115.076 E0.01926
G1 X93.000 Y115.117 E0.00618
G1 X93.193 Y115.076 E0.00618
G1 X93.807 Y115.076 E0.01926
G1 X94.000 Y115.117 E0.00618
G1 X94.193 Y115.076 E0.00618
G1 X94.807 Y115.076 E0.01926
G1 X95.000 Y115.117 E0.00618
G1 X95.193 Y115.076 E0.00618
G1 X95.807 Y115.076 E0.01926
G1 X96.000 Y115.117 E0.00618
G1 X96.193 Y115.076 E0.00618
G1 X96.807 Y115.076 E0.01926
G1 X97.409 Y115.204 E0.01928
G1 X97.970 Y115.454 E0.01928
G1 X98.468 Y115.815 E0.01927
G1 X98.879 Y116.272 E0.01926
G1 X99.186 Y116.804 E0.01926
G1 X99.351 Y117.312 E0.01675
G1 F5760
G1 X99.440 Y118.000 E-0.24034
G1 X99.376 Y118.612 E-0.21305
G1 X99.186 Y119.196 E-0.21287
G1 X99.051 Y119.431 E-0.09374
G1 E-0.04000 F2100.00000
G1 Z0.800 F7200.000
G1 X96.000 Y115.502
G1 Z0.200
G1 E0.80000 F2100.00000
G1 F1800
G1 X96.232 Y115.453 E0.00745
G1 X96.768 Y115.453 E0.01678
G1 X97.291 Y115.564 E0.01679
G1 X97.781 Y115.782 E0.01679
G1 X98.214 Y116.097 E0.01679
G1 X98.572 Y116.495 E0.01678
G1 X98.840 Y116.958 E0.01677
G1 X99.005 Y117.467 E0.01678
G1 X99.061 Y118.000 E0.01680
G1 X99.005 Y118.533 E0.01680
G1 X98.840 Y119.042 E0.01678
G1 X98.572 Y119.505 E0.01677
G1 X98.214 Y119.903 E0.01678
G1 X97.781 Y120.218 E0.01679
G1 X97.291 Y120.436 E0.01679
G1 X96.768 Y120.547 E0.01679
G1 X96.232 Y120.547 E0.01678
G1 X96.000 Y120.498 E0.00745
G1 X95.768 Y120.547 E0.00745
G1 X95.232 Y120.547 E0.01678
G1 X95.000 Y120.498 E0.00745
G1 X94.768 Y120.547 E0.00745
G1 X94.232 Y120.547 E0.01678
G1 X94.000 Y120.498 E0.00745
G1 X93.768 Y120.547 E0.00745
G1 X93.232 Y120.547 E0.01678
G1 X93.000 Y120.498 E0.00745
G1 X92.768 Y120.547 E0.00745
G1 X92.232 Y120.547 E0.01678
G1 X92.000 Y120.498 E0.00745
G1 X91.768 Y120.547 E0.00745
G1 X91.232 Y120.547 E0.01678
G1 X91.000 Y120.498 E0.00745
G1 X90.768 Y120.547 E0.00745
G1 X90.232 Y120.547 E0.01678
G1 X90.000 Y120.498 E0.00745
G1 X89.768 Y120.547 E0.00745
G1 X89.232 Y120.547 E0.01678
G1 X89.000 Y120.498 E0.00745
G1 X88.768 Y120.547 E0.00745
G1 X88.232 Y120.547 E0.01678
G1 X88.000 Y120.498 E0.00745
G1 X87.768 Y120.547 E0.00745
G1 X87.232 Y120.547 E0.01678
G1 X87.000 Y120.498 E0.00745
G1 X86.768 Y120.547 E0.00745
G1 X86.232 Y120.547 E0.01678
G1 X85.709 Y120.436 E0.01679
G1 X85.219 Y120.218 E0.01679
G1 X84.786 Y119.903 E0.01679
G1 X84.428 Y119.505 E0.01678
G1 X84.160 Y119.042 E0.01677
G1 X83.995 Y118.533 E0.01678
G1 X83.939 Y118.000 E0.01680
G1 X83.995 Y117.467 E0.01680
G1 X84.160 Y116.958 E0.01678
G1 X84.428 Y116.495 E0.01677
G1 X84.786 Y116.097 E0.01678
G1 X85.219 Y115.782 E0.01679
G1 X85.709 Y115.564 E0.01679
