; generated by Slic3r Prusa Edition 1.39.2+win64 on 2018-05-24 at 07:57:50

; 

; external perimeters extrusion width = 0.45mm
; perimeters extrusion width = 0.45mm
; infill extrusion width = 0.45mm
; solid infill extrusion width = 0.45mm
; top infill extrusion width = 0.45mm
; first layer extrusion width = 0.42mm

M107
M115 U3.1.0 ; tell printer latest fw version
M83  ; extruder relative mode
M104 S205 ; set extruder temp
M140 S55 ; set bed temp
M190 S55 ; wait for bed temp
M109 S205 ; wait for extruder temp
G28 W ; home all without mesh bed level
G80 ; mesh bed leveling
G1 Y-3.0 F1000.0 ; go outside print area
G92 E0.0
G1 X60.0 E9.0  F1000.0 ; intro line
G1 X100.0 E12.5  F1000.0 ; intro line
G92 E0.0
M900 K30; Filament gcode
G21 ; set units to millimeters
G90 ; use absolute coordinates
M83 ; use relative distances for extrusion
;BEFORE_LAYER_CHANGE
;0.2


G1 E-0.80000 F2100.00000
G1 Z0.600 F7200.000
;AFTER_LAYER_CHANGE
;0.2
G1 X80.541 Y89.825
G1 Z0.200
G1 E0.80000 F2100.00000
M204 S1000
G1 F1800
G1 X81.461 Y89.623 E0.02954
G1 X123.504 Y89.623 E1.31823
G1 X124.392 Y89.797 E0.02837
G1 X125.151 Y90.289 E0.02837
G1 X125.670 Y91.030 E0.02837
G1 X125.875 Y91.911 E0.02837
G1 X125.877 Y134.034 E1.32074
G1 X125.702 Y134.895 E0.02755
G1 X125.226 Y135.634 E0.02755
G1 X124.442 Y136.182 E0.03001
G1 X123.505 Y136.377 E0.03001
G1 X81.466 Y136.377 E1.31811
G1 X80.605 Y136.202 E0.02755
G1 X79.866 Y135.726 E0.02755
G1 X79.318 Y134.942 E0.03001
G1 X79.123 Y134.005 E0.03001
G1 X79.123 Y91.966 E1.31811
G1 X79.298 Y91.105 E0.02755
G1 X79.774 Y90.366 E0.02755
G1 X80.492 Y89.860 E0.02754
G1 F5760
G1 X81.461 Y89.623 E-0.34557
G1 X82.657 Y89.623 E-0.41443
G1 E-0.04000 F2100.00000
G1 Z0.800 F7200.000
G1 X93.233 Y104.656
G1 Z0.200
G1 E0.80000 F2100.00000
G1 F1800
G1 X95.171 Y102.912 E0.08174
G1 X97.428 Y101.609 E0.08173
G1 X99.907 Y100.803 E0.08174
G1 X102.450 Y100.536 E0.08017
G1 X105.091 Y100.802 E0.08321
G1 X107.572 Y101.609 E0.08180
G1 X109.829 Y102.912 E0.08173
G1 X111.767 Y104.656 E0.08174
G1 X113.299 Y106.765 E0.08174
G1 X114.359 Y109.147 E0.08173
G1 X114.901 Y111.697 E0.08173
G1 X114.901 Y114.303 E0.08174
G1 X114.359 Y116.853 E0.08173
G1 X113.299 Y119.235 E0.08173
G1 X111.767 Y121.344 E0.08174
G1 X109.829 Y123.088 E0.08174
G1 X107.572 Y124.391 E0.08173
G1 X105.093 Y125.197 E0.08174
G1 X102.500 Y125.469 E0.08174
G1 X99.907 Y125.197 E0.08174
G1 X97.428 Y124.391 E0.08174
G1 X95.171 Y123.088 E0.08173
G1 X93.271 Y121.377 E0.08017
G1 X91.702 Y119.237 E0.08321
G1 X90.641 Y116.853 E0.08180
G1 X90.099 Y114.303 E0.08173
G1 X90.099 Y111.697 E0.08174
G1 X90.641 Y109.147 E0.08173
G1 X91.701 Y106.765 E0.08173
G1 X93.198 Y104.705 E0.07985
G1 X93.503 Y104.926 F7200.000
G1 F1800
G1 X95.394 Y103.219 E0.07988
G1 X97.582 Y101.955 E0.07925
G1 X99.986 Y101.174 E0.07925
G1 X102.451 Y100.915 E0.07770
G1 X105.013 Y101.174 E0.08073
G1 X107.418 Y101.955 E0.07929
G1 X109.606 Y103.219 E0.07925
G1 X111.485 Y104.910 E0.07925
G1 X112.971 Y106.955 E0.07925
G1 X113.999 Y109.264 E0.07925
G1 X114.524 Y111.736 E0.07925
G1 X114.524 Y114.264 E0.07925
G1 X113.999 Y116.736 E0.07925
G1 X112.971 Y119.045 E0.07925
G1 X111.485 Y121.090 E0.07925
G1 X109.606 Y122.781 E0.07925
G1 X107.418 Y124.045 E0.07925
G1 X105.014 Y124.826 E0.07925
G1 X102.500 Y125.090 E0.07925
G1 X99.986 Y124.826 E0.07925
G1 X97.582 Y124.045 E0.07925
G1 X95.394 Y122.781 E0.07925
G1 X93.552 Y121.123 E0.07771
G1 X92.030 Y119.046 E0.08073
G1 X91.001 Y116.736 E0.07929
G1 X90.476 Y114.264 E0.07925
G1 X90.476 Y111.736 E0.07925
G1 X91.001 Y109.264 E0.07925
G1 X92.029 Y106.955 E0.07925
G1 X93.468 Y104.975 E0.07673
G1 X93.773 Y105.197 F7200.000
G1 F1800
G1 X95.616 Y103.525 E0.07802
G1 X97.737 Y102.301 E0.07676
G1 X100.065 Y101.545 E0.07677
G1 X102.452 Y101.294 E0.07524
G1 X104.934 Y101.545 E0.07824
G1 X107.263 Y102.301 E0.07678
G1 X109.384 Y103.525 E0.07676
G1 X111.203 Y105.164 E0.07677
G1 X112.642 Y107.144 E0.07676
G1 X113.638 Y109.381 E0.07676
G1 X114.147 Y111.776 E0.07676
G1 X114.147 Y114.224 E0.07677
G1 X113.638 Y116.619 E0.07676
G1 X112.642 Y118.856 E0.07676
G1 X111.203 Y120.836 E0.07676
G1 X109.384 Y122.475 E0.07677
G1 X107.263 Y123.699 E0.07676
G1 X104.935 Y124.455 E0.07677
G1 X102.500 Y124.711 E0.07677
G1 X100.065 Y124.455 E0.07677
G1 X97.737 Y123.699 E0.07677
G1 X95.616 Y122.475 E0.07676
G1 X93.833 Y120.869 E0.07525
G1 X92.358 Y118.856 E0.07824
G1 X91.362 Y116.619 E0.07678
G1 X90.853 Y114.224 E0.07676
G1 X90.853 Y111.776 E0.07677
G1 X91.362 Y109.381 E0.07676
G1 X92.358 Y107.144 E0.07676
G1 X93.738 Y105.245 E0.07361
G1 X93.648 Y104.817 F7200.000
G1 F5760
G1 X95.356 Y103.764 E-0.76000
G1 E-0.04000 F2100.00000
G1 Z0.800 F7200.000
G1 X88.657 Y99.781
G1 Z0.200
G1 E0.80000 F2100.00000
G1 F1800
G1 X88.147 Y100.076 E0.01848
G1 X87.586 Y100.258 E0.01849
G1 X87.000 Y100.319 E0.01848
G1 X86.414 Y100.258 E0.01848
G1 X85.853 Y100.076 E0.01849
G1 X85.343 Y99.781 E0.01848
G1 X84.905 Y99.387 E0.01848
G1 X84.558 Y98.910 E0.01848
G1 X84.319 Y98.371 E0.01848
G1 X84.196 Y97.795 E0.01848
G1 X84.196 Y97.205 E0.01848
G1 X84.319 Y96.629 E0.01848
G1 X84.558 Y96.090 E0.01848
G1 X84.905 Y95.613 E0.01848
G1 X85.343 Y95.219 E0.01848
G1 X85.853 Y94.924 E0.01848
G1 X86.414 Y94.742 E0.01849
G1 X86.990 Y94.682 E0.01817
G1 X87.584 Y94.741 E0.01871
G1 X88.147 Y94.924 E0.01855
G1 X88.657 Y95.219 E0.01848
G1 X89.095 Y95.613 E0.01848
G1 X89.442 Y96.090 E0.01848
G1 X89.681 Y96.629 E0.01848
G1 X89.804 Y97.205 E0.01848
G1 X89.804 Y97.795 E0.01848
G1 X89.681 Y98.371 E0.01848
G1 X89.442 Y98.910 E0.01848
G1 X89.095 Y99.387 E0.01848
G1 X88.702 Y99.741 E0.01660
G1 X88.450 Y99.461 F7200.000
G1 F1800
G1 X87.993 Y99.729 E0.01662
G1 X87.507 Y99.887 E0.01600
G1 X87.000 Y99.940 E0.01599
G1 X86.493 Y99.887 E0.01599
G1 X86.007 Y99.729 E0.01600
G1 X85.566 Y99.474 E0.01600
G1 X85.186 Y99.133 E0.01600
G1 X84.887 Y98.720 E0.01599
G1 X84.679 Y98.254 E0.01600
G1 X84.573 Y97.755 E0.01600
G1 X84.573 Y97.245 E0.01600
G1 X84.679 Y96.746 E0.01600
G1 X84.887 Y96.280 E0.01600
G1 X85.186 Y95.867 E0.01599
G1 X85.566 Y95.526 E0.01600
G1 X86.007 Y95.271 E0.01600
G1 X86.493 Y95.113 E0.01600
G1 X86.991 Y95.061 E0.01571
G1 X87.506 Y95.113 E0.01623
G1 X87.993 Y95.271 E0.01604
G1 X88.434 Y95.526 E0.01600
G1 X88.814 Y95.867 E0.01600
G1 X89.113 Y96.280 E0.01599
G1 X89.321 Y96.746 E0.01600
G1 X89.427 Y97.245 E0.01600
G1 X89.427 Y97.755 E0.01600
G1 X89.321 Y98.254 E0.01600
G1 X89.113 Y98.720 E0.01600
G1 X88.814 Y99.133 E0.01599
G1 X88.494 Y99.420 E0.01347
G1 X88.212 Y99.168 F7200.000
G1 F1800
G1 X87.838 Y99.383 E0.01351
G1 X87.428 Y99.516 E0.01351
G1 X87.000 Y99.561 E0.01351
G1 X86.572 Y99.516 E0.01351
G1 X86.162 Y99.383 E0.01351
G1 X85.788 Y99.168 E0.01351
G1 X85.468 Y98.879 E0.01351
G1 X85.215 Y98.531 E0.01351
G1 X85.040 Y98.137 E0.01351
G1 X84.950 Y97.715 E0.01351
G1 X84.950 Y97.285 E0.01351
G1 X85.040 Y96.863 E0.01351
G1 X85.215 Y96.469 E0.01351
G1 X85.468 Y96.121 E0.01351
G1 X85.788 Y95.832 E0.01351
G1 X86.162 Y95.617 E0.01351
G1 X86.572 Y95.484 E0.01351
G1 X86.992 Y95.440 E0.01325
G1 X87.428 Y95.484 E0.01375
G1 X87.838 Y95.617 E0.01353
G1 X88.212 Y95.832 E0.01351
G1 X88.532 Y96.121 E0.01351
G1 X88.785 Y96.469 E0.01351
G1 X88.960 Y96.863 E0.01351
G1 X89.050 Y97.285 E0.01351
G1 X89.050 Y97.715 E0.01351
G1 X88.960 Y98.137 E0.01351
G1 X88.785 Y98.531 E0.01351
G1 X88.532 Y98.879 E0.01351
G1 X88.256 Y99.127 E0.01163
G1 X88.253 Y99.565 F7200.000
G1 F5760
G1 X87.838 Y99.383 E-0.16962
G1 X87.428 Y99.516 E-0.14927
G1 X87.000 Y99.561 E-0.14922
G1 X86.572 Y99.516 E-0.14922
G1 X86.180 Y99.389 E-0.14266
G1 E-0.04000 F2100.00000
G1 Z0.800 F7200.000
G1 X115.196 Y97.795
G1 Z0.200
G1 E0.80000 F2100.00000
G1 F1800
G1 X115.196 Y97.205 E0.01848
G1 X115.318 Y96.629 E0.01848
G1 X115.558 Y96.090 E0.01848
G1 X115.905 Y95.613 E0.01848
G1 X116.343 Y95.219 E0.01848
G1 X116.853 Y94.924 E0.01848
G1 X117.414 Y94.742 E0.01849
G1 X117.990 Y94.682 E0.01817
G1 X118.584 Y94.741 E0.01871
G1 X119.147 Y94.924 E0.01855
G1 X119.657 Y95.219 E0.01848
G1 X120.095 Y95.613 E0.01848
G1 X120.442 Y96.090 E0.01848
G1 X120.682 Y96.629 E0.01848
G1 X120.804 Y97.205 E0.01848
G1 X120.804 Y97.795 E0.01848
G1 X120.682 Y98.371 E0.01848
G1 X120.442 Y98.910 E0.01848
G1 X120.095 Y99.387 E0.01848
G1 X119.657 Y99.781 E0.01848
G1 X119.147 Y100.076 E0.01848
G1 X118.586 Y100.258 E0.01849
G1 X118.000 Y100.319 E0.01848
G1 X117.414 Y100.258 E0.01848
G1 X116.853 Y100.076 E0.01849
G1 X116.343 Y99.781 E0.01848
G1 X115.905 Y99.387 E0.01848
G1 X115.558 Y98.910 E0.01848
G1 X115.318 Y98.371 E0.01848
G1 X115.208 Y97.853 E0.01660
G1 X115.577 Y97.775 F7200.000
G1 F1800
G1 X115.573 Y97.245 E0.01662
G1 X115.679 Y96.746 E0.01600
G1 X115.887 Y96.280 E0.01600
G1 X116.186 Y95.867 E0.01599
G1 X116.566 Y95.526 E0.01600
G1 X117.007 Y95.271 E0.01600
G1 X117.493 Y95.113 E0.01600
G1 X117.991 Y95.061 E0.01571
G1 X118.506 Y95.113 E0.01623
G1 X118.993 Y95.271 E0.01604
G1 X119.434 Y95.526 E0.01600
G1 X119.814 Y95.867 E0.01600
G1 X120.113 Y96.280 E0.01599
G1 X120.321 Y96.746 E0.01600
G1 X120.427 Y97.245 E0.01600
G1 X120.427 Y97.755 E0.01600
G1 X120.321 Y98.254 E0.01600
G1 X120.113 Y98.720 E0.01600
G1 X119.814 Y99.133 E0.01599
G1 X119.434 Y99.474 E0.01600
G1 X118.993 Y99.729 E0.01600
G1 X118.507 Y99.887 E0.01600
G1 X118.000 Y99.940 E0.01599
G1 X117.493 Y99.887 E0.01599
G1 X117.007 Y99.729 E0.01600
G1 X116.566 Y99.474 E0.01600
G1 X116.186 Y99.133 E0.01600
G1 X115.887 Y98.720 E0.01599
G1 X115.679 Y98.254 E0.01600
G1 X115.590 Y97.834 E0.01348
G1 X115.950 Y97.715 F7200.000
G1 F1800
G1 X115.950 Y97.285 E0.01351
G1 X116.040 Y96.863 E0.01351
G1 X116.215 Y96.469 E0.01351
G1 X116.468 Y96.121 E0.01351
G1 X116.788 Y95.832 E0.01351
G1 X117.162 Y95.617 E0.01351
G1 X117.572 Y95.484 E0.01351
G1 X117.992 Y95.440 E0.01325
G1 X118.428 Y95.484 E0.01375
G1 X118.838 Y95.617 E0.01353
G1 X119.212 Y95.832 E0.01351
G1 X119.532 Y96.121 E0.01351
G1 X119.785 Y96.469 E0.01351
G1 X119.960 Y96.863 E0.01351
G1 X120.050 Y97.285 E0.01351
G1 X120.050 Y97.715 E0.01351
G1 X119.960 Y98.137 E0.01351
G1 X119.785 Y98.531 E0.01351
G1 X119.532 Y98.879 E0.01351
G1 X119.212 Y99.168 E0.01351
G1 X118.838 Y99.383 E0.01351
G1 X118.428 Y99.516 E0.01351
G1 X118.000 Y99.561 E0.01351
G1 X117.572 Y99.516 E0.01351
G1 X117.162 Y99.383 E0.01351
G1 X116.788 Y99.168 E0.01351
G1 X116.468 Y98.879 E0.01351
G1 X116.215 Y98.531 E0.01351
G1 X116.040 Y98.137 E0.01351
G1 X115.963 Y97.774 E0.01163
G1 X115.585 Y97.553 F7200.000
G1 F5760
G1 X115.950 Y97.285 E-0.16964
G1 X116.040 Y96.863 E-0.14925
G1 X116.215 Y96.469 E-0.14925
G1 X116.468 Y96.121 E-0.14923
G1 X116.774 Y95.845 E-0.14263
G1 E-0.04000 F2100.00000
G1 Z0.800 F7200.000
G1 X121.214 Y126.036
G1 Z0.200
G1 E0.80000 F2100.00000
G1 F1800
G1 X120.640 Y126.036 E0.01800
G1 X120.442 Y125.590 E0.01530
G1 X120.095 Y125.113 E0.01848
G1 X119.657 Y124.719 E0.01848
G1 X119.147 Y124.424 E0.01848
G1 X118.586 Y124.242 E0.01849
G1 X118.000 Y124.181 E0.01848
G1 X117.414 Y124.242 E0.01848
G1 X116.853 Y124.424 E0.01849
G1 X116.343 Y124.719 E0.01848
G1 X115.905 Y125.113 E0.01848
G1 X115.558 Y125.590 E0.01848
G1 X115.360 Y126.036 E0.01530
G1 X114.786 Y126.036 E0.01800
G1 X114.786 Y133.036 E0.21948
G1 X89.964 Y133.036 E0.77827
G1 X89.964 Y126.036 E0.21948
G1 X89.640 Y126.036 E0.01016
G1 X89.442 Y125.590 E0.01530
G1 X89.095 Y125.113 E0.01848
G1 X88.657 Y124.719 E0.01848
G1 X88.147 Y124.424 E0.01848
G1 X87.586 Y124.242 E0.01849
G1 X87.000 Y124.181 E0.01848
G1 X86.414 Y124.242 E0.01848
G1 X85.853 Y124.424 E0.01849
G1 X85.343 Y124.719 E0.01848
G1 X84.905 Y125.113 E0.01848
G1 X84.558 Y125.590 E0.01848
G1 X84.360 Y126.036 E0.01530
G1 X83.536 Y126.036 E0.02584
G1 X83.536 Y133.036 E0.21948
G1 X82.464 Y133.036 E0.03360
G1 X82.464 Y92.964 E1.25642
G1 X122.536 Y92.964 E1.25642
G1 X122.536 Y133.036 E1.25642
G1 X121.214 Y133.036 E0.04144
G1 X121.214 Y126.096 E0.21760
G1 X120.837 Y126.413 F7200.000
G1 F1800
G1 X120.356 Y126.413 E0.01507
G1 X120.321 Y126.246 E0.00536
G1 X120.113 Y125.780 E0.01600
G1 X119.814 Y125.367 E0.01599
G1 X119.434 Y125.026 E0.01600
G1 X118.993 Y124.771 E0.01600
G1 X118.507 Y124.613 E0.01600
G1 X118.000 Y124.560 E0.01599
G1 X117.493 Y124.613 E0.01599
G1 X117.007 Y124.771 E0.01600
G1 X116.566 Y125.026 E0.01600
G1 X116.186 Y125.367 E0.01600
G1 X115.887 Y125.780 E0.01599
G1 X115.679 Y126.246 E0.01600
G1 X115.644 Y126.413 E0.00536
G1 X115.163 Y126.413 E0.01507
G1 X115.163 Y133.413 E0.21948
G1 X89.587 Y133.413 E0.80191
G1 X89.587 Y126.413 E0.21948
G1 X89.356 Y126.413 E0.00723
G1 X89.321 Y126.246 E0.00536
G1 X89.113 Y125.780 E0.01600
G1 X88.814 Y125.367 E0.01599
G1 X88.434 Y125.026 E0.01600
G1 X87.993 Y124.771 E0.01600
G1 X87.507 Y124.613 E0.01600
G1 X87.000 Y124.560 E0.01599
G1 X86.493 Y124.613 E0.01599
G1 X86.007 Y124.771 E0.01600
G1 X85.566 Y125.026 E0.01600
G1 X85.186 Y125.367 E0.01600
G1 X84.887 Y125.780 E0.01599
G1 X84.679 Y126.246 E0.01600
G1 X84.644 Y126.413 E0.00536
G1 X83.913 Y126.413 E0.02291
G1 X83.913 Y133.413 E0.21948
G1 X82.087 Y133.413 E0.05725
G1 X82.087 Y92.587 E1.28007
G1 X122.913 Y92.587 E1.28007
G1 X122.913 Y133.413 E1.28007
G1 X120.837 Y133.413 E0.06509
G1 X120.837 Y126.473 E0.21760
G1 X120.460 Y126.790 F7200.000
G1 F1800
G1 X120.050 Y126.790 E0.01286
G1 X119.960 Y126.363 E0.01368
G1 X119.785 Y125.969 E0.01351
G1 X119.532 Y125.621 E0.01351
G1 X119.212 Y125.332 E0.01351
G1 X118.838 Y125.117 E0.01351
G1 X118.428 Y124.984 E0.01351
G1 X118.000 Y124.939 E0.01351
G1 X117.572 Y124.984 E0.01351
G1 X117.162 Y125.117 E0.01351
G1 X116.788 Y125.332 E0.01351
G1 X116.468 Y125.621 E0.01351
G1 X116.215 Y125.969 E0.01351
G1 X116.040 Y126.363 E0.01351
G1 X115.950 Y126.790 E0.01368
G1 X115.540 Y126.790 E0.01286
G1 X115.540 Y133.790 E0.21948
G1 X89.210 Y133.790 E0.82556
G1 X89.210 Y126.790 E0.21948
G1 X89.050 Y126.790 E0.00502
G1 X88.960 Y126.363 E0.01368
G1 X88.785 Y125.969 E0.01351
G1 X88.532 Y125.621 E0.01351
G1 X88.212 Y125.332 E0.01351
G1 X87.838 Y125.117 E0.01351
G1 X87.428 Y124.984 E0.01351
G1 X87.000 Y124.939 E0.01351
G1 X86.572 Y124.984 E0.01351
G1 X86.162 Y125.117 E0.01351
G1 X85.788 Y125.332 E0.01351
G1 X85.468 Y125.621 E0.01351
G1 X85.215 Y125.969 E0.01351
G1 X85.040 Y126.363 E0.01351
G1 X84.950 Y126.790 E0.01368
G1 X84.290 Y126.790 E0.02070
G1 X84.290 Y133.790 E0.21948
G1 X81.710 Y133.790 E0.08089
G1 X81.710 Y92.210 E1.30371
G1 X123.290 Y92.210 E1.30371
G1 X123.290 Y133.790 E1.30371
G1 X120.460 Y133.790 E0.08873
G1 X120.460 Y126.850 E0.21760
G1 X120.409 Y126.393 F7200.000
G1 F5760
G1 X120.050 Y126.790 E-0.14355
G1 X119.960 Y126.363 E-0.15110
G1 X119.785 Y125.969 E-0.14925
G1 X119.532 Y125.621 E-0.14923
G1 X119.212 Y125.332 E-0.14924
G1 X119.167 Y125.307 E-0.01763
G1 E-0.04000 F2100.00000
G1 Z0.800 F7200.000
G1 X121.312 Y125.923
G1 Z0.200
G1 E0.80000 F2100.00000
G1 F1800
G1 X113.921 Y118.532 E0.32898
G1 X114.086 Y118.162 E0.01276
G1 X122.253 Y126.329 E0.36355
G1 X122.253 Y125.794 E0.01685
G1 X114.251 Y117.791 E0.35620
G1 X114.416 Y117.421 E0.01276
G1 X122.253 Y125.258 E0.34886
G1 X122.253 Y124.723 E0.01685
G1 X114.581 Y117.051 E0.34152
G1 X114.630 Y116.941 E0.00377
G1 X114.696 Y116.630 E0.01001
G1 X122.253 Y124.188 E0.33641
G1 X122.253 Y123.652 E0.01685
G1 X114.790 Y116.189 E0.33223
G1 X114.883 Y115.747 E0.01421
G1 X122.253 Y123.117 E0.32805
G1 X122.253 Y122.582 E0.01685
G1 X114.977 Y115.306 E0.32388
G1 X115.071 Y114.864 E0.01421
G1 X122.253 Y122.046 E0.31970
G1 X122.253 Y121.511 E0.01685
G1 X115.165 Y114.423 E0.31552
G1 X115.184 Y114.333 E0.00288
G1 X115.184 Y113.906 E0.01343
G1 X122.253 Y120.975 E0.31467
G1 X122.253 Y120.440 E0.01685
G1 X115.184 Y113.371 E0.31467
G1 X115.184 Y112.836 E0.01685
G1 X122.253 Y119.905 E0.31467
G1 X122.253 Y119.369 E0.01685
G1 X115.184 Y112.300 E0.31467
G1 X115.184 Y111.765 E0.01685
G1 X122.253 Y118.834 E0.31467
G1 X122.253 Y118.299 E0.01685
G1 X115.066 Y111.112 E0.31993
G1 X114.921 Y110.432 E0.02188
G1 X122.253 Y117.763 E0.32636
G1 X122.253 Y117.228 E0.01685
G1 X114.777 Y109.752 E0.33279
G1 X114.632 Y109.072 E0.02188
G1 X122.253 Y116.693 E0.33923
G1 X122.253 Y116.157 E0.01685
G1 X114.208 Y108.113 E0.35811
G1 X113.779 Y107.148 E0.03325
G1 X122.423 Y115.792 E0.38478
G1 F5760
G1 X120.871 Y114.240 E-0.76000
G1 E-0.04000 F2100.00000
