; generated by Slic3r Prusa Edition 1.39.2+win64 on 2018-08-30 at 17:08:57

; 

; external perimeters extrusion width = 0.45mm
; perimeters extrusion width = 0.45mm
; infill extrusion width = 0.45mm
; solid infill extrusion width = 0.45mm
; top infill extrusion width = 0.45mm
; first layer extrusion width = 0.42mm

M107
M115 U3.1.0 ; tell printer latest fw version
M83  ; extruder relative mode
M104 S205 ; set extruder temp
M140 S55 ; set bed temp
M190 S55 ; wait for bed temp
M109 S205 ; wait for extruder temp
G28 W ; home all without mesh bed level
G80 ; mesh bed leveling
G1 Y-3.0 F1000.0 ; go outside print area
G92 E0.0
G1 X60.0 E9.0  F1000.0 ; intro line
G1 X100.0 E12.5  F1000.0 ; intro line
G92 E0.0
M900 K30; Filament gcode
G21 ; set units to millimeters
G90 ; use absolute coordinates
M83 ; use relative distances for extrusion
;BEFORE_LAYER_CHANGE
;0.2


G1 E-0.80000 F2100.00000
G1 Z0.600 F7200.000
;AFTER_LAYER_CHANGE
;0.2
G1 X64.661 Y90.536
G1 Z0.200
G1 E0.80000 F2100.00000
M204 S1000
G1 F1800
G1 X65.305 Y90.227 E0.02237
G1 X65.995 Y90.123 E0.02190
G1 X139.004 Y90.123 E2.28914
G1 X139.895 Y90.298 E0.02849
G1 X140.659 Y90.797 E0.02860
G1 X141.176 Y91.544 E0.02849
G1 X141.376 Y92.434 E0.02860
G1 X141.370 Y112.679 E0.63476
G1 X141.212 Y113.371 E0.02225
G1 X140.856 Y113.985 E0.02225
G1 X140.335 Y114.467 E0.02225
G1 X139.695 Y114.773 E0.02225
G1 X139.005 Y114.877 E0.02190
G1 X65.950 Y114.877 E2.29057
G1 X65.222 Y114.746 E0.02319
G1 X64.566 Y114.396 E0.02331
G1 X64.053 Y113.864 E0.02319
G1 X63.727 Y113.195 E0.02331
G1 X63.623 Y112.513 E0.02166
G1 X63.629 Y92.336 E0.63261
G1 X63.784 Y91.640 E0.02237
G1 X64.139 Y91.021 E0.02237
G1 X64.617 Y90.576 E0.02049
G1 F5760
G1 X65.305 Y90.227 E-0.26700
G1 X65.995 Y90.123 E-0.24187
G1 X66.720 Y90.123 E-0.25113
G1 E-0.04000 F2100.00000
G1 Z0.800 F7200.000
G1 X132.025 Y102.080
G1 Z0.200
G1 E0.80000 F2100.00000
G1 F1800
G1 X132.155 Y101.679 E0.01324
G1 X132.366 Y101.313 E0.01323
G1 X132.649 Y100.999 E0.01324
G1 X132.990 Y100.751 E0.01324
G1 X133.376 Y100.579 E0.01324
G1 X133.789 Y100.492 E0.01324
G1 X134.211 Y100.492 E0.01324
G1 X134.624 Y100.579 E0.01324
G1 X135.010 Y100.751 E0.01324
G1 X135.351 Y100.999 E0.01324
G1 X135.634 Y101.313 E0.01324
G1 X135.845 Y101.679 E0.01323
G1 X135.975 Y102.080 E0.01324
G1 X136.019 Y102.500 E0.01324
G1 X135.975 Y102.920 E0.01324
G1 X135.845 Y103.321 E0.01324
G1 X135.634 Y103.687 E0.01323
G1 X135.351 Y104.001 E0.01324
G1 X135.010 Y104.249 E0.01324
G1 X134.624 Y104.421 E0.01324
G1 X134.211 Y104.508 E0.01324
G1 X133.789 Y104.508 E0.01324
G1 X133.376 Y104.421 E0.01324
G1 X132.990 Y104.249 E0.01324
G1 X132.649 Y104.001 E0.01324
G1 X132.366 Y103.687 E0.01324
G1 X132.155 Y103.321 E0.01323
G1 X132.025 Y102.920 E0.01324
G1 X131.981 Y102.500 E0.01324
G1 X132.018 Y102.140 E0.01136
G1 X132.393 Y102.179 F7200.000
G1 F1800
G1 X132.502 Y101.833 E0.01137
G1 X132.673 Y101.536 E0.01075
G1 X132.902 Y101.281 E0.01076
G1 X133.180 Y101.079 E0.01075
G1 X133.493 Y100.940 E0.01075
G1 X133.828 Y100.869 E0.01075
G1 X134.172 Y100.869 E0.01076
G1 X134.507 Y100.940 E0.01075
G1 X134.820 Y101.079 E0.01075
G1 X135.098 Y101.281 E0.01075
G1 X135.327 Y101.536 E0.01075
G1 X135.498 Y101.833 E0.01075
G1 X135.605 Y102.159 E0.01075
G1 X135.640 Y102.500 E0.01075
G1 X135.605 Y102.841 E0.01075
G1 X135.498 Y103.167 E0.01075
G1 X135.327 Y103.464 E0.01075
G1 X135.098 Y103.719 E0.01076
G1 X134.820 Y103.921 E0.01075
G1 X134.507 Y104.060 E0.01075
G1 X134.172 Y104.131 E0.01075
G1 X133.828 Y104.131 E0.01076
G1 X133.493 Y104.060 E0.01075
G1 X133.180 Y103.921 E0.01075
G1 X132.902 Y103.719 E0.01075
G1 X132.673 Y103.464 E0.01076
G1 X132.502 Y103.167 E0.01075
G1 X132.395 Y102.841 E0.01075
G1 X132.360 Y102.500 E0.01075
G1 X132.387 Y102.239 E0.00824
G1 X132.766 Y102.238 F7200.000
G1 F1800
G1 X132.848 Y101.987 E0.00827
G1 X132.980 Y101.759 E0.00826
G1 X133.156 Y101.563 E0.00827
G1 X133.369 Y101.408 E0.00827
G1 X133.610 Y101.301 E0.00827
G1 X133.868 Y101.246 E0.00827
G1 X134.132 Y101.246 E0.00827
G1 X134.390 Y101.301 E0.00827
G1 X134.631 Y101.408 E0.00827
G1 X134.844 Y101.563 E0.00827
G1 X135.020 Y101.759 E0.00827
G1 X135.152 Y101.987 E0.00826
G1 X135.234 Y102.238 E0.00827
G1 X135.261 Y102.500 E0.00827
G1 X135.234 Y102.762 E0.00827
G1 X135.152 Y103.013 E0.00827
G1 X135.020 Y103.241 E0.00827
G1 X134.844 Y103.437 E0.00827
G1 X134.631 Y103.592 E0.00827
G1 X134.390 Y103.699 E0.00827
G1 X134.132 Y103.754 E0.00827
G1 X133.868 Y103.754 E0.00827
G1 X133.610 Y103.699 E0.00827
G1 X133.369 Y103.592 E0.00827
G1 X133.156 Y103.437 E0.00827
G1 X132.980 Y103.241 E0.00827
G1 X132.848 Y103.013 E0.00826
G1 X132.766 Y102.762 E0.00827
G1 X132.739 Y102.500 E0.00827
G1 X132.760 Y102.297 E0.00639
G1 X132.570 Y102.061 F7200.000
G1 F5760
G1 X132.848 Y101.987 E-0.11173
G1 X132.980 Y101.759 E-0.09129
G1 X133.156 Y101.563 E-0.09133
G1 X133.369 Y101.408 E-0.09131
G1 X133.610 Y101.301 E-0.09130
G1 X133.868 Y101.246 E-0.09132
G1 X134.132 Y101.246 E-0.09135
G1 X134.390 Y101.301 E-0.09132
G1 X134.414 Y101.311 E-0.00903
G1 E-0.04000 F2100.00000
G1 Z0.800 F7200.000
G1 X127.019 Y102.500
G1 Z0.200
G1 E0.80000 F2100.00000
G1 F1800
G1 X126.975 Y102.920 E0.01324
G1 X126.845 Y103.321 E0.01324
G1 X126.634 Y103.687 E0.01323
G1 X126.351 Y104.001 E0.01324
G1 X126.010 Y104.249 E0.01324
G1 X125.624 Y104.421 E0.01324
G1 X125.211 Y104.508 E0.01324
G1 X124.789 Y104.508 E0.01324
G1 X124.376 Y104.421 E0.01324
G1 X123.990 Y104.249 E0.01324
G1 X123.649 Y104.001 E0.01324
G1 X123.366 Y103.687 E0.01324
G1 X123.155 Y103.321 E0.01323
G1 X123.025 Y102.920 E0.01324
G1 X122.981 Y102.500 E0.01324
G1 X123.025 Y102.080 E0.01324
G1 X123.155 Y101.679 E0.01324
G1 X123.366 Y101.313 E0.01323
G1 X123.649 Y100.999 E0.01324
G1 X123.990 Y100.751 E0.01324
G1 X124.376 Y100.579 E0.01324
G1 X124.789 Y100.492 E0.01324
G1 X125.211 Y100.492 E0.01324
G1 X125.624 Y100.579 E0.01324
G1 X126.010 Y100.751 E0.01324
G1 X126.351 Y100.999 E0.01324
G1 X126.634 Y101.313 E0.01324
G1 X126.845 Y101.679 E0.01323
G1 X126.975 Y102.080 E0.01324
G1 X127.013 Y102.440 E0.01136
G1 X126.638 Y102.480 F7200.000
G1 F1800
G1 X126.605 Y102.841 E0.01138
G1 X126.498 Y103.167 E0.01075
G1 X126.327 Y103.464 E0.01075
G1 X126.098 Y103.719 E0.01075
G1 X125.820 Y103.921 E0.01075
G1 X125.507 Y104.060 E0.01075
G1 X125.172 Y104.131 E0.01075
G1 X124.828 Y104.131 E0.01076
G1 X124.493 Y104.060 E0.01075
G1 X124.180 Y103.921 E0.01075
G1 X123.902 Y103.719 E0.01075
G1 X123.673 Y103.464 E0.01075
G1 X123.502 Y103.167 E0.01075
G1 X123.395 Y102.841 E0.01075
G1 X123.360 Y102.500 E0.01075
G1 X123.395 Y102.159 E0.01075
G1 X123.502 Y101.833 E0.01075
G1 X123.673 Y101.536 E0.01075
G1 X123.902 Y101.281 E0.01075
G1 X124.180 Y101.079 E0.01075
G1 X124.493 Y100.940 E0.01075
G1 X124.828 Y100.869 E0.01075
G1 X125.172 Y100.869 E0.01076
G1 X125.507 Y100.940 E0.01075
G1 X125.820 Y101.079 E0.01075
G1 X126.098 Y101.281 E0.01075
G1 X126.327 Y101.536 E0.01075
G1 X126.498 Y101.833 E0.01075
G1 X126.605 Y102.159 E0.01075
G1 X126.632 Y102.420 E0.00823
G1 X126.261 Y102.500 F7200.000
G1 F1800
G1 X126.234 Y102.762 E0.00827
G1 X126.152 Y103.013 E0.00827
G1 X126.020 Y103.241 E0.00826
G1 X125.844 Y103.437 E0.00827
G1 X125.631 Y103.592 E0.00827
G1 X125.390 Y103.699 E0.00827
G1 X125.132 Y103.754 E0.00827
G1 X124.868 Y103.754 E0.00827
G1 X124.610 Y103.699 E0.00827
G1 X124.369 Y103.592 E0.00827
G1 X124.156 Y103.437 E0.00827
G1 X123.980 Y103.241 E0.00827
G1 X123.848 Y103.013 E0.00827
G1 X123.766 Y102.762 E0.00827
G1 X123.739 Y102.500 E0.00827
G1 X123.766 Y102.238 E0.00827
G1 X123.848 Y101.987 E0.00827
G1 X123.980 Y101.759 E0.00826
G1 X124.156 Y101.563 E0.00827
G1 X124.369 Y101.408 E0.00827
G1 X124.610 Y101.301 E0.00827
G1 X124.868 Y101.246 E0.00827
G1 X125.132 Y101.246 E0.00827
G1 X125.390 Y101.301 E0.00827
G1 X125.631 Y101.408 E0.00827
G1 X125.844 Y101.563 E0.00827
G1 X126.020 Y101.759 E0.00827
G1 X126.152 Y101.987 E0.00827
G1 X126.234 Y102.238 E0.00827
G1 X126.255 Y102.440 E0.00639
G1 X126.490 Y102.632 F7200.000
G1 F5760
G1 X126.234 Y102.762 E-0.11173
G1 X126.152 Y103.013 E-0.09133
G1 X126.020 Y103.241 E-0.09130
G1 X125.844 Y103.437 E-0.09133
G1 X125.631 Y103.592 E-0.09131
G1 X125.390 Y103.699 E-0.09131
G1 X125.132 Y103.754 E-0.09131
G1 X124.868 Y103.754 E-0.09135
G1 X124.843 Y103.749 E-0.00902
G1 E-0.04000 F2100.00000
G1 Z0.800 F7200.000
G1 X118.019 Y102.500
G1 Z0.200
G1 E0.80000 F2100.00000
G1 F1800
G1 X117.975 Y102.920 E0.01324
G1 X117.845 Y103.321 E0.01324
G1 X117.634 Y103.687 E0.01323
G1 X117.351 Y104.001 E0.01324
G1 X117.010 Y104.249 E0.01324
G1 X116.624 Y104.421 E0.01324
G1 X116.211 Y104.508 E0.01324
G1 X115.789 Y104.508 E0.01324
G1 X115.376 Y104.421 E0.01324
G1 X114.990 Y104.249 E0.01324
G1 X114.649 Y104.001 E0.01324
G1 X114.366 Y103.687 E0.01324
G1 X114.155 Y103.321 E0.01323
G1 X114.025 Y102.920 E0.01324
G1 X113.981 Y102.500 E0.01324
G1 X114.025 Y102.080 E0.01324
G1 X114.155 Y101.679 E0.01324
G1 X114.366 Y101.313 E0.01323
G1 X114.649 Y100.999 E0.01324
G1 X114.990 Y100.751 E0.01324
G1 X115.376 Y100.579 E0.01324
G1 X115.789 Y100.492 E0.01324
G1 X116.211 Y100.492 E0.01324
G1 X116.624 Y100.579 E0.01324
G1 X117.010 Y100.751 E0.01324
G1 X117.351 Y100.999 E0.01324
G1 X117.634 Y101.313 E0.01324
G1 X117.845 Y101.679 E0.01323
G1 X117.975 Y102.080 E0.01324
G1 X118.013 Y102.440 E0.01136
G1 X117.638 Y102.480 F7200.000
G1 F1800
G1 X117.605 Y102.841 E0.01138
G1 X117.498 Y103.167 E0.01075
G1 X117.327 Y103.464 E0.01075
G1 X117.098 Y103.719 E0.01075
G1 X116.820 Y103.921 E0.01075
G1 X116.507 Y104.060 E0.01075
G1 X116.172 Y104.131 E0.01075
G1 X115.828 Y104.131 E0.01076
G1 X115.493 Y104.060 E0.01075
G1 X115.180 Y103.921 E0.01075
G1 X114.902 Y103.719 E0.01075
G1 X114.673 Y103.464 E0.01075
G1 X114.502 Y103.167 E0.01075
G1 X114.395 Y102.841 E0.01075
G1 X114.360 Y102.500 E0.01075
G1 X114.395 Y102.159 E0.01075
G1 X114.502 Y101.833 E0.01075
G1 X114.673 Y101.536 E0.01075
G1 X114.902 Y101.281 E0.01075
G1 X115.180 Y101.079 E0.01075
G1 X115.493 Y100.940 E0.01075
G1 X115.828 Y100.869 E0.01075
G1 X116.172 Y100.869 E0.01076
G1 X116.507 Y100.940 E0.01075
G1 X116.820 Y101.079 E0.01075
G1 X117.098 Y101.281 E0.01075
G1 X117.327 Y101.536 E0.01075
G1 X117.498 Y101.833 E0.01075
G1 X117.605 Y102.159 E0.01075
G1 X117.632 Y102.420 E0.00823
G1 X117.261 Y102.500 F7200.000
G1 F1800
G1 X117.234 Y102.762 E0.00827
G1 X117.152 Y103.013 E0.00827
G1 X117.020 Y103.241 E0.00826
G1 X116.844 Y103.437 E0.00827
G1 X116.631 Y103.592 E0.00827
G1 X116.390 Y103.699 E0.00827
G1 X116.132 Y103.754 E0.00827
G1 X115.868 Y103.754 E0.00827
G1 X115.610 Y103.699 E0.00827
G1 X115.369 Y103.592 E0.00827
G1 X115.156 Y103.437 E0.00827
G1 X114.980 Y103.241 E0.00827
G1 X114.848 Y103.013 E0.00827
G1 X114.766 Y102.762 E0.00827
G1 X114.739 Y102.500 E0.00827
G1 X114.766 Y102.238 E0.00827
G1 X114.848 Y101.987 E0.00827
G1 X114.980 Y101.759 E0.00826
G1 X115.156 Y101.563 E0.00827
G1 X115.369 Y101.408 E0.00827
G1 X115.610 Y101.301 E0.00827
G1 X115.868 Y101.246 E0.00827
G1 X116.132 Y101.246 E0.00827
G1 X116.390 Y101.301 E0.00827
G1 X116.631 Y101.408 E0.00827
G1 X116.844 Y101.563 E0.00827
G1 X117.020 Y101.759 E0.00827
G1 X117.152 Y101.987 E0.00827
G1 X117.234 Y102.238 E0.00827
G1 X117.255 Y102.440 E0.00639
G1 X117.490 Y102.632 F7200.000
G1 F5760
G1 X117.234 Y102.762 E-0.11173
G1 X117.152 Y103.013 E-0.09133
G1 X117.020 Y103.241 E-0.09130
G1 X116.844 Y103.437 E-0.09133
G1 X116.631 Y103.592 E-0.09131
G1 X116.390 Y103.699 E-0.09131
G1 X116.132 Y103.754 E-0.09131
G1 X115.868 Y103.754 E-0.09135
G1 X115.843 Y103.749 E-0.00902
G1 E-0.04000 F2100.00000
G1 Z0.800 F7200.000
G1 X109.019 Y102.500
G1 Z0.200
G1 E0.80000 F2100.00000
G1 F1800
G1 X108.975 Y102.920 E0.01324
G1 X108.845 Y103.321 E0.01324
G1 X108.634 Y103.687 E0.01323
G1 X108.351 Y104.001 E0.01324
G1 X108.010 Y104.249 E0.01324
G1 X107.624 Y104.421 E0.01324
G1 X107.211 Y104.508 E0.01324
G1 X106.789 Y104.508 E0.01324
G1 X106.376 Y104.421 E0.01324
G1 X105.990 Y104.249 E0.01324
G1 X105.649 Y104.001 E0.01324
G1 X105.366 Y103.687 E0.01324
G1 X105.155 Y103.321 E0.01323
G1 X105.025 Y102.920 E0.01324
G1 X104.981 Y102.500 E0.01324
G1 X105.025 Y102.080 E0.01324
G1 X105.155 Y101.679 E0.01324
G1 X105.366 Y101.313 E0.01323
G1 X105.649 Y100.999 E0.01324
G1 X105.990 Y100.751 E0.01324
G1 X106.376 Y100.579 E0.01324
G1 X106.789 Y100.492 E0.01324
G1 X107.211 Y100.492 E0.01324
G1 X107.624 Y100.579 E0.01324
G1 X108.010 Y100.751 E0.01324
G1 X108.351 Y100.999 E0.01324
G1 X108.634 Y101.313 E0.01324
G1 X108.845 Y101.679 E0.01323
G1 X108.975 Y102.080 E0.01324
G1 X109.013 Y102.440 E0.01136
G1 X108.638 Y102.480 F7200.000
G1 F1800
G1 X108.605 Y102.841 E0.01138
G1 X108.498 Y103.167 E0.01075
G1 X108.327 Y103.464 E0.01075
G1 X108.098 Y103.719 E0.01075
G1 X107.820 Y103.921 E0.01075
G1 X107.507 Y104.060 E0.01075
G1 X107.172 Y104.131 E0.01075
G1 X106.828 Y104.131 E0.01076
G1 X106.493 Y104.060 E0.01075
G1 X106.180 Y103.921 E0.01075
G1 X105.902 Y103.719 E0.01075
G1 X105.673 Y103.464 E0.01075
G1 X105.502 Y103.167 E0.01075
G1 X105.395 Y102.841 E0.01075
G1 X105.360 Y102.500 E0.01075
G1 X105.395 Y102.159 E0.01075
G1 X105.502 Y101.833 E0.01075
G1 X105.673 Y101.536 E0.01075
G1 X105.902 Y101.281 E0.01075
G1 X106.180 Y101.079 E0.01075
G1 X106.493 Y100.940 E0.01075
G1 X106.828 Y100.869 E0.01075
G1 X107.172 Y100.869 E0.01076
G1 X107.507 Y100.940 E0.01075
G1 X107.820 Y101.079 E0.01075
G1 X108.098 Y101.281 E0.01075
G1 X108.327 Y101.536 E0.01075
G1 X108.498 Y101.833 E0.01075
G1 X108.605 Y102.159 E0.01075
G1 X108.632 Y102.420 E0.00823
G1 X108.261 Y102.500 F7200.000
G1 F1800
G1 X108.234 Y102.762 E0.00827
G1 X108.152 Y103.013 E0.00827
G1 X108.020 Y103.241 E0.00826
G1 X107.844 Y103.437 E0.00827
G1 X107.631 Y103.592 E0.00827
G1 X107.390 Y103.699 E0.00827
G1 X107.132 Y103.754 E0.00827
G1 X106.868 Y103.754 E0.00827
G1 X106.610 Y103.699 E0.00827
G1 X106.369 Y103.592 E0.00827
G1 X106.156 Y103.437 E0.00827
G1 X105.980 Y103.241 E0.00827
G1 X105.848 Y103.013 E0.00827
G1 X105.766 Y102.762 E0.00827
G1 X105.739 Y102.500 E0.00827
G1 X105.766 Y102.238 E0.00827
G1 X105.848 Y101.987 E0.00827
G1 X105.980 Y101.759 E0.00826
G1 X106.156 Y101.563 E0.00827
G1 X106.369 Y101.408 E0.00827
G1 X106.610 Y101.301 E0.00827
G1 X106.868 Y101.246 E0.00827
G1 X107.132 Y101.246 E0.00827
G1 X107.390 Y101.301 E0.00827
G1 X107.631 Y101.408 E0.00827
G1 X107.844 Y101.563 E0.00827
G1 X108.020 Y101.759 E0.00827
G1 X108.152 Y101.987 E0.00827
G1 X108.234 Y102.238 E0.00827
G1 X108.255 Y102.440 E0.00639
G1 X108.490 Y102.632 F7200.000
G1 F5760
G1 X108.234 Y102.762 E-0.11173
G1 X108.152 Y103.013 E-0.09133
G1 X108.020 Y103.241 E-0.09130
G1 X107.844 Y103.437 E-0.09133
G1 X107.631 Y103.592 E-0.09131
G1 X107.390 Y103.699 E-0.09131
G1 X107.132 Y103.754 E-0.09131
G1 X106.868 Y103.754 E-0.09135
G1 X106.843 Y103.749 E-0.00902
G1 E-0.04000 F2100.00000
G1 Z0.800 F7200.000
G1 X100.019 Y102.500
G1 Z0.200
G1 E0.80000 F2100.00000
G1 F1800
G1 X99.975 Y102.920 E0.01324
G1 X99.845 Y103.321 E0.01324
G1 X99.634 Y103.687 E0.01323
G1 X99.351 Y104.001 E0.01324
G1 X99.010 Y104.249 E0.01324
G1 X98.624 Y104.421 E0.01324
G1 X98.211 Y104.508 E0.01324
G1 X97.789 Y104.508 E0.01324
G1 X97.376 Y104.421 E0.01324
G1 X96.990 Y104.249 E0.01324
G1 X96.649 Y104.001 E0.01324
G1 X96.366 Y103.687 E0.01324
G1 X96.155 Y103.321 E0.01323
G1 X96.025 Y102.920 E0.01324
G1 X95.981 Y102.500 E0.01324
G1 X96.025 Y102.080 E0.01324
G1 X96.155 Y101.679 E0.01324
G1 X96.366 Y101.313 E0.01323
G1 X96.649 Y100.999 E0.01324
G1 X96.990 Y100.751 E0.01324
G1 X97.376 Y100.579 E0.01324
G1 X97.789 Y100.492 E0.01324
G1 X98.211 Y100.492 E0.01324
G1 X98.624 Y100.579 E0.01324
G1 X99.010 Y100.751 E0.01324
G1 X99.351 Y100.999 E0.01324
G1 X99.634 Y101.313 E0.01324
G1 X99.845 Y101.679 E0.01323
G1 X99.975 Y102.080 E0.01324
G1 X100.013 Y102.440 E0.01136
G1 X99.638 Y102.480 F7200.000
G1 F1800
G1 X99.605 Y102.841 E0.01138
G1 X99.498 Y103.167 E0.01075
G1 X99.327 Y103.464 E0.01075
G1 X99.098 Y103.719 E0.01075
G1 X98.820 Y103.921 E0.01075
G1 X98.507 Y104.060 E0.01075
G1 X98.172 Y104.131 E0.01075
G1 X97.828 Y104.131 E0.01076
G1 X97.493 Y104.060 E0.01075
G1 X97.180 Y103.921 E0.01075
G1 X96.902 Y103.719 E0.01075
G1 X96.673 Y103.464 E0.01075
