; generated by Slic3r Prusa Edition 1.39.2+win64 on 2018-05-29 at 11:54:45

; 

; external perimeters extrusion width = 0.45mm
; perimeters extrusion width = 0.45mm
; infill extrusion width = 0.45mm
; solid infill extrusion width = 0.45mm
; top infill extrusion width = 0.45mm
; first layer extrusion width = 0.42mm

M107
M115 U3.1.0 ; tell printer latest fw version
M83  ; extruder relative mode
M104 S205 ; set extruder temp
M140 S55 ; set bed temp
M190 S55 ; wait for bed temp
M109 S205 ; wait for extruder temp
G28 W ; home all without mesh bed level
G80 ; mesh bed leveling
G1 Y-3.0 F1000.0 ; go outside print area
G92 E0.0
G1 X60.0 E9.0  F1000.0 ; intro line
G1 X100.0 E12.5  F1000.0 ; intro line
G92 E0.0
M900 K30; Filament gcode
G21 ; set units to millimeters
G90 ; use absolute coordinates
M83 ; use relative distances for extrusion
;BEFORE_LAYER_CHANGE
;0.2


G1 E-0.80000 F2100.00000
G1 Z0.600 F7200.000
;AFTER_LAYER_CHANGE
;0.2
G1 X93.560 Y92.580
G1 Z0.200
G1 E0.80000 F2100.00000
M204 S1000
G1 F1800
G1 X95.822 Y90.936 E0.08767
G1 X98.348 Y89.808 E0.08675
G1 X101.078 Y89.222 E0.08756
G1 X103.612 Y89.204 E0.07944
G1 X106.352 Y89.726 E0.08747
G1 X106.913 Y89.910 E0.01851
G1 X109.229 Y90.966 E0.07979
G1 X111.248 Y92.421 E0.07804
G1 X111.638 Y92.778 E0.01656
G1 X113.320 Y94.673 E0.07945
G1 X114.722 Y97.120 E0.08843
G1 X115.570 Y99.758 E0.08689
G1 X115.843 Y102.752 E0.09427
G1 X115.557 Y105.299 E0.08035
G1 X114.688 Y107.957 E0.08766
G1 X113.300 Y110.355 E0.08690
G1 X111.418 Y112.439 E0.08804
G1 X109.175 Y114.066 E0.08689
G1 X106.629 Y115.200 E0.08739
G1 X103.901 Y115.780 E0.08743
G1 X101.138 Y115.784 E0.08663
G1 X98.382 Y115.204 E0.08831
G1 X95.849 Y114.080 E0.08689
G1 X93.584 Y112.441 E0.08766
G1 X91.861 Y110.555 E0.08009
G1 X90.429 Y108.185 E0.08683
G1 X90.198 Y107.665 E0.01784
G1 X89.428 Y105.225 E0.08023
G1 X89.158 Y102.244 E0.09385
G1 X89.443 Y99.700 E0.08024
G1 X90.309 Y97.048 E0.08748
G1 X91.697 Y94.648 E0.08692
G1 X93.520 Y92.624 E0.08541
G1 X93.799 Y92.875 F7200.000
G1 F1800
G1 X96.010 Y91.262 E0.08583
G1 X98.470 Y90.164 E0.08445
G1 X101.123 Y89.596 E0.08508
G1 X103.612 Y89.581 E0.07802
G1 X106.274 Y90.094 E0.08500
G1 X106.760 Y90.255 E0.01604
G1 X109.027 Y91.284 E0.07807
G1 X111.358 Y93.030 E0.09131
G1 X113.011 Y94.890 E0.07803
G1 X114.373 Y97.262 E0.08577
G1 X115.199 Y99.830 E0.08459
G1 X115.467 Y102.723 E0.09108
G1 X115.190 Y105.215 E0.07862
G1 X114.346 Y107.798 E0.08518
G1 X112.997 Y110.130 E0.08447
G1 X111.170 Y112.156 E0.08553
G1 X108.990 Y113.738 E0.08447
G1 X106.512 Y114.841 E0.08505
G1 X103.858 Y115.406 E0.08508
G1 X101.168 Y115.408 E0.08435
G1 X98.494 Y114.844 E0.08566
G1 X96.029 Y113.749 E0.08458
G1 X93.832 Y112.157 E0.08506
G1 X92.145 Y110.307 E0.07851
G1 X90.755 Y107.997 E0.08453
G1 X90.555 Y107.545 E0.01549
G1 X89.799 Y105.158 E0.07853
G1 X89.533 Y102.277 E0.09070
G1 X89.811 Y99.784 E0.07865
G1 X90.651 Y97.206 E0.08502
G1 X92.002 Y94.870 E0.08461
G1 X93.759 Y92.920 E0.08230
G1 F5760
G1 X95.526 Y91.619 E-0.76000
G1 E-0.04000 F2100.00000
G1 Z0.800 F7200.000
G1 X97.836 Y97.321
G1 Z0.200
G1 E0.80000 F2100.00000
G1 F1800
G1 X99.015 Y96.464 E0.04569
G1 X100.346 Y95.872 E0.04568
G1 X101.772 Y95.569 E0.04568
G1 X103.228 Y95.569 E0.04567
G1 X104.654 Y95.872 E0.04568
G1 X105.985 Y96.464 E0.04568
G1 X107.164 Y97.321 E0.04569
G1 X108.138 Y98.404 E0.04568
G1 X108.867 Y99.665 E0.04568
G1 X109.317 Y101.051 E0.04568
G1 X109.469 Y102.500 E0.04568
G1 X109.317 Y103.949 E0.04568
G1 X108.867 Y105.335 E0.04568
G1 X108.138 Y106.596 E0.04568
G1 X107.164 Y107.679 E0.04568
G1 X105.985 Y108.536 E0.04569
G1 X104.654 Y109.128 E0.04568
G1 X103.228 Y109.431 E0.04568
G1 X101.772 Y109.431 E0.04567
G1 X100.346 Y109.128 E0.04568
G1 X99.015 Y108.536 E0.04568
G1 X97.836 Y107.679 E0.04569
G1 X96.862 Y106.596 E0.04568
G1 X96.133 Y105.335 E0.04567
G1 X95.683 Y103.949 E0.04569
G1 X95.531 Y102.500 E0.04569
G1 X95.683 Y101.051 E0.04569
G1 X96.133 Y99.665 E0.04569
G1 X96.862 Y98.404 E0.04567
G1 X97.796 Y97.365 E0.04380
G1 X98.076 Y97.618 F7200.000
G1 F1800
G1 X99.205 Y96.793 E0.04383
G1 X100.464 Y96.232 E0.04320
G1 X101.811 Y95.946 E0.04320
G1 X103.189 Y95.946 E0.04319
G1 X104.536 Y96.232 E0.04320
G1 X105.795 Y96.793 E0.04320
G1 X106.910 Y97.602 E0.04321
G1 X107.832 Y98.626 E0.04319
G1 X108.521 Y99.819 E0.04320
G1 X108.946 Y101.130 E0.04320
G1 X109.090 Y102.500 E0.04320
G1 X108.946 Y103.870 E0.04320
G1 X108.521 Y105.181 E0.04320
G1 X107.832 Y106.374 E0.04320
G1 X106.910 Y107.398 E0.04319
G1 X105.795 Y108.207 E0.04321
G1 X104.536 Y108.768 E0.04320
G1 X103.189 Y109.054 E0.04320
G1 X101.811 Y109.054 E0.04319
G1 X100.464 Y108.768 E0.04320
G1 X99.205 Y108.207 E0.04320
G1 X98.090 Y107.398 E0.04321
G1 X97.168 Y106.374 E0.04319
G1 X96.480 Y105.181 E0.04319
G1 X96.054 Y103.870 E0.04320
G1 X95.910 Y102.500 E0.04320
G1 X96.054 Y101.130 E0.04320
G1 X96.480 Y99.819 E0.04320
G1 X97.168 Y98.626 E0.04319
G1 X98.036 Y97.662 E0.04068
G1 X98.317 Y97.914 F7200.000
G1 F1800
G1 X99.394 Y97.121 E0.04197
G1 X100.581 Y96.593 E0.04071
G1 X101.851 Y96.323 E0.04071
G1 X103.149 Y96.323 E0.04070
G1 X104.419 Y96.593 E0.04071
G1 X105.606 Y97.121 E0.04071
G1 X106.656 Y97.884 E0.04072
G1 X107.525 Y98.849 E0.04071
G1 X108.174 Y99.974 E0.04072
G1 X108.575 Y101.209 E0.04071
G1 X108.711 Y102.500 E0.04071
G1 X108.575 Y103.791 E0.04071
G1 X108.174 Y105.026 E0.04071
G1 X107.525 Y106.151 E0.04072
G1 X106.656 Y107.116 E0.04071
G1 X105.606 Y107.879 E0.04072
G1 X104.419 Y108.407 E0.04071
G1 X103.149 Y108.677 E0.04071
G1 X101.851 Y108.677 E0.04070
G1 X100.581 Y108.407 E0.04071
G1 X99.394 Y107.879 E0.04071
G1 X98.344 Y107.116 E0.04072
G1 X97.475 Y106.151 E0.04071
G1 X96.826 Y105.026 E0.04071
G1 X96.424 Y103.791 E0.04072
G1 X96.289 Y102.500 E0.04071
G1 X96.424 Y101.209 E0.04071
G1 X96.826 Y99.974 E0.04072
G1 X97.475 Y98.849 E0.04071
G1 X98.276 Y97.959 E0.03755
G1 X98.231 Y97.524 F7200.000
G1 F5760
G1 X99.394 Y97.121 E-0.48395
G1 X100.123 Y96.797 E-0.27605
G1 E-0.04000 F2100.00000
G1 Z0.800 F7200.000
G1 X96.056 Y95.343
G1 Z0.200
G1 E0.80000 F2100.00000
G1 F1800
G1 X97.685 Y94.160 E0.06314
G1 X99.524 Y93.341 E0.06311
G1 X101.492 Y92.922 E0.06311
G1 X103.524 Y92.926 E0.06369
G1 X105.476 Y93.341 E0.06259
G1 X107.315 Y94.160 E0.06311
G1 X108.944 Y95.343 E0.06313
G1 X110.291 Y96.839 E0.06313
G1 X111.298 Y98.583 E0.06313
G1 X111.920 Y100.498 E0.06312
G1 X112.131 Y102.500 E0.06313
G1 X111.920 Y104.502 E0.06313
G1 X111.298 Y106.417 E0.06312
G1 X110.291 Y108.161 E0.06313
G1 X108.944 Y109.657 E0.06313
G1 X107.315 Y110.840 E0.06313
G1 X105.476 Y111.659 E0.06311
G1 X103.507 Y112.078 E0.06314
G1 X101.493 Y112.078 E0.06313
G1 X99.524 Y111.659 E0.06314
G1 X97.685 Y110.840 E0.06311
G1 X96.056 Y109.657 E0.06314
G1 X94.708 Y108.161 E0.06313
G1 X93.702 Y106.417 E0.06312
G1 X93.080 Y104.502 E0.06312
G1 X92.869 Y102.500 E0.06313
G1 X93.080 Y100.498 E0.06313
G1 X93.702 Y98.583 E0.06312
G1 X94.708 Y96.839 E0.06312
G1 X96.016 Y95.388 E0.06125
G1 X95.735 Y95.135 F7200.000
G1 F1800
G1 X95.802 Y95.061 E0.00312
G1 X97.495 Y93.831 E0.06562
G1 X99.406 Y92.980 E0.06560
G1 X101.453 Y92.545 E0.06561
G1 X103.564 Y92.549 E0.06618
G1 X105.594 Y92.980 E0.06506
G1 X107.505 Y93.831 E0.06560
G1 X109.198 Y95.061 E0.06561
G1 X110.598 Y96.616 E0.06561
G1 X111.644 Y98.429 E0.06561
G1 X112.291 Y100.419 E0.06561
G1 X112.510 Y102.500 E0.06561
G1 X112.291 Y104.581 E0.06561
G1 X111.644 Y106.571 E0.06561
G1 X110.598 Y108.384 E0.06561
G1 X109.198 Y109.939 E0.06561
G1 X107.505 Y111.169 E0.06561
G1 X105.594 Y112.020 E0.06560
G1 X103.546 Y112.455 E0.06562
G1 X101.454 Y112.455 E0.06561
G1 X99.406 Y112.020 E0.06562
G1 X97.495 Y111.169 E0.06560
G1 X95.802 Y109.939 E0.06562
G1 X94.402 Y108.384 E0.06562
G1 X93.355 Y106.571 E0.06561
G1 X92.709 Y104.581 E0.06560
G1 X92.490 Y102.500 E0.06562
G1 X92.709 Y100.419 E0.06562
G1 X93.355 Y98.429 E0.06560
G1 X94.402 Y96.616 E0.06561
G1 X95.695 Y95.180 E0.06061
G1 X95.415 Y94.928 F7200.000
G1 F1800
G1 X95.548 Y94.780 E0.00625
G1 X97.306 Y93.503 E0.06810
G1 X99.289 Y92.620 E0.06808
G1 X101.414 Y92.168 E0.06810
G1 X103.604 Y92.172 E0.06866
G1 X105.711 Y92.620 E0.06754
G1 X107.694 Y93.503 E0.06808
G1 X109.451 Y94.780 E0.06810
G1 X110.905 Y96.394 E0.06810
G1 X111.991 Y98.274 E0.06810
G1 X112.662 Y100.340 E0.06810
G1 X112.889 Y102.500 E0.06810
G1 X112.662 Y104.660 E0.06810
G1 X111.991 Y106.726 E0.06810
G1 X110.905 Y108.606 E0.06810
G1 X109.451 Y110.220 E0.06810
G1 X107.694 Y111.497 E0.06810
G1 X105.711 Y112.380 E0.06808
G1 X103.586 Y112.832 E0.06811
G1 X101.414 Y112.832 E0.06810
G1 X99.289 Y112.380 E0.06811
G1 X97.306 Y111.497 E0.06808
G1 X95.548 Y110.220 E0.06810
G1 X94.095 Y108.606 E0.06810
G1 X93.009 Y106.726 E0.06810
G1 X92.339 Y104.660 E0.06809
G1 X92.111 Y102.500 E0.06810
G1 X92.339 Y100.340 E0.06810
G1 X93.009 Y98.274 E0.06809
G1 X94.095 Y96.394 E0.06810
G1 X95.375 Y94.972 E0.05997
G1 X95.611 Y94.962 F7200.000
G1 F5760
G1 X95.548 Y94.780 E-0.08979
G1 X97.114 Y93.642 E-0.67021
G1 E-0.04000 F2100.00000
G1 Z0.800 F7200.000
G1 X105.593 Y96.166
G1 Z0.200
G1 E0.80000 F2100.00000
G1 F1800
G1 X102.634 Y93.207 E0.13253
G1 X102.094 Y93.206 E0.01709
G1 X104.421 Y95.533 E0.10423
G1 X103.737 Y95.388 E0.02215
G1 X101.555 Y93.205 E0.09776
G1 X101.522 Y93.205 E0.00104
G1 X101.105 Y93.294 E0.01351
G1 X103.097 Y95.286 E0.08923
G1 X102.558 Y95.286 E0.01706
G1 X100.660 Y93.388 E0.08500
G1 X100.216 Y93.483 E0.01439
G1 X102.019 Y95.286 E0.08077
G1 X101.742 Y95.286 E0.00879
G1 X101.526 Y95.332 E0.00698
G1 X99.772 Y93.577 E0.07859
G1 X99.611 Y93.611 E0.00520
G1 X99.373 Y93.717 E0.00826
G1 X101.082 Y95.426 E0.07654
G1 X100.638 Y95.521 E0.01439
G1 X99.001 Y93.883 E0.07334
G1 X98.628 Y94.049 E0.01292
G1 X100.204 Y95.625 E0.07060
G1 X99.831 Y95.791 E0.01292
G1 X98.255 Y94.215 E0.07060
G1 X97.882 Y94.381 E0.01292
G1 X99.459 Y95.957 E0.07060
G1 X99.086 Y96.123 E0.01292
G1 X97.561 Y94.599 E0.06828
G1 X97.249 Y94.825 E0.01221
G1 X98.739 Y96.315 E0.06673
G1 X98.427 Y96.542 E0.01222
G1 X96.937 Y95.052 E0.06673
G1 X96.625 Y95.279 E0.01221
G1 X98.115 Y96.769 E0.06673
G1 X97.803 Y96.995 E0.01222
G1 X96.313 Y95.506 E0.06673
G1 X96.246 Y95.555 E0.00264
G1 X96.046 Y95.777 E0.00947
G1 X97.519 Y97.250 E0.06600
G1 X97.264 Y97.534 E0.01208
G1 X95.791 Y96.060 E0.06600
G1 X95.535 Y96.344 E0.01208
G1 X97.009 Y97.817 E0.06601
G1 X96.754 Y98.101 E0.01208
G1 X95.280 Y96.627 E0.06601
G1 X95.025 Y96.910 E0.01208
G1 X96.529 Y98.414 E0.06737
G1 X96.332 Y98.756 E0.01249
G1 X94.808 Y97.232 E0.06825
G1 X94.611 Y97.574 E0.01249
G1 X96.135 Y99.098 E0.06825
G1 X95.937 Y99.439 E0.01249
G1 X94.414 Y97.915 E0.06825
G1 X94.216 Y98.257 E0.01249
G1 X95.784 Y99.825 E0.07022
G1 X95.652 Y100.231 E0.01354
G1 X94.019 Y98.598 E0.07313
G1 X93.962 Y98.698 E0.00366
G1 X93.868 Y98.986 E0.00957
G1 X95.520 Y100.637 E0.07398
G1 X95.398 Y101.054 E0.01376
G1 X93.736 Y99.393 E0.07444
G1 X93.604 Y99.799 E0.01354
G1 X95.347 Y101.542 E0.07805
G1 X95.296 Y102.029 E0.01553
G1 X93.472 Y100.206 E0.08167
G1 X93.358 Y100.557 E0.01168
G1 X93.351 Y100.624 E0.00214
G1 X95.248 Y102.521 E0.08497
G1 X95.312 Y103.123 E0.01917
G1 X93.300 Y101.111 E0.09010
G1 X93.249 Y101.599 E0.01552
G1 X95.375 Y103.725 E0.09523
G1 X95.405 Y104.008 E0.00903
G1 X95.542 Y104.430 E0.01406
G1 X93.197 Y102.086 E0.10501
G1 X93.154 Y102.500 E0.01319
G1 X93.163 Y102.591 E0.00289
G1 X96.133 Y105.560 E0.13301
G1 X96.405 Y106.371 F7200.000
G1 F1800
G1 X93.227 Y103.193 E0.14235
G1 X93.290 Y103.795 E0.01917
G1 X101.228 Y111.732 E0.35554
G1 X100.544 Y111.587 E0.02215
G1 X93.354 Y104.397 E0.32206
G1 X93.597 Y105.179 E0.02596
G1 X99.859 Y111.441 E0.28050
G1 X99.611 Y111.389 E0.00803
G1 X98.992 Y111.113 E0.02146
G1 X93.592 Y105.713 E0.24190
G1 X93.934 Y106.593 F7200.000
G1 F1800
G1 X98.356 Y111.016 E0.19808
G1 F5760
G1 X96.805 Y109.464 E-0.76000
G1 E-0.04000 F2100.00000
G1 Z0.800 F7200.000
G1 X97.018 Y110.216
G1 Z0.200
G1 E0.80000 F2100.00000
G1 F1800
G1 X94.670 Y107.868 E0.10519
G1 F5760
G1 X96.221 Y109.420 E-0.76000
G1 E-0.04000 F2100.00000
G1 Z0.800 F7200.000
G1 X98.665 Y108.631
G1 Z0.200
G1 E0.80000 F2100.00000
G1 F1800
G1 X101.829 Y111.795 E0.14173
G1 X102.368 Y111.795 E0.01706
G1 X99.741 Y109.168 E0.11765
G1 X100.259 Y109.399 E0.01794
G1 X100.578 Y109.467 E0.01035
G1 X102.906 Y111.795 E0.10429
G1 X103.445 Y111.795 E0.01706
G1 X101.262 Y109.612 E0.09778
G1 X101.742 Y109.714 E0.01553
G1 X101.903 Y109.714 E0.00510
G1 X103.895 Y111.706 E0.08923
G1 X104.339 Y111.612 E0.01439
G1 X102.442 Y109.714 E0.08500
G1 X102.980 Y109.714 E0.01706
G1 X104.784 Y111.517 E0.08077
G1 X105.228 Y111.423 E0.01439
G1 X103.473 Y109.668 E0.07859
G1 X103.917 Y109.574 E0.01439
G1 X105.626 Y111.283 E0.07655
G1 X105.999 Y111.117 E0.01292
G1 X104.362 Y109.479 E0.07334
G1 X104.796 Y109.375 E0.01414
G1 X106.372 Y110.951 E0.07060
G1 X106.745 Y110.785 E0.01292
G1 X105.168 Y109.209 E0.07060
G1 X105.541 Y109.043 E0.01292
G1 X107.117 Y110.619 E0.07060
G1 X107.173 Y110.594 E0.00193
G1 X107.438 Y110.401 E0.01039
G1 X105.914 Y108.877 E0.06828
G1 X106.127 Y108.782 E0.00738
G1 X106.261 Y108.685 E0.00524
G1 X107.750 Y110.175 E0.06673
G1 X108.062 Y109.948 E0.01221
G1 X106.573 Y108.458 E0.06673
G1 X106.885 Y108.232 E0.01222
G1 X108.374 Y109.721 E0.06673
G1 X108.686 Y109.495 E0.01221
G1 X107.197 Y108.005 E0.06672
G1 X107.354 Y107.891 E0.00616
G1 X107.481 Y107.750 E0.00599
G1 X108.954 Y109.223 E0.06599
G1 X109.209 Y108.940 E0.01208
G1 X107.736 Y107.467 E0.06600
G1 X107.991 Y107.183 E0.01208
G1 X109.464 Y108.656 E0.06600
G1 X109.720 Y108.373 E0.01208
G1 X108.246 Y106.900 E0.06600
G1 X108.368 Y106.764 E0.00579
G1 X108.471 Y106.586 E0.00650
G1 X109.975 Y108.090 E0.06736
G1 X110.061 Y107.994 E0.00409
G1 X110.192 Y107.768 E0.00826
G1 X108.668 Y106.244 E0.06824
G1 X108.865 Y105.903 E0.01249
G1 X110.389 Y107.426 E0.06823
G1 X110.586 Y107.085 E0.01249
G1 X109.063 Y105.561 E0.06823
G1 X109.127 Y105.450 E0.00406
G1 X109.216 Y105.176 E0.00914
G1 X110.783 Y106.743 E0.07020
G1 X110.980 Y106.402 E0.01249
G1 X109.348 Y104.769 E0.07312
G1 X109.480 Y104.363 E0.01354
G1 X111.132 Y106.014 E0.07397
G1 X111.264 Y105.608 E0.01354
G1 X109.602 Y103.946 E0.07443
G1 X109.653 Y103.458 E0.01552
G1 X111.396 Y105.201 E0.07806
G1 X111.528 Y104.794 E0.01354
G1 X109.704 Y102.971 E0.08168
G1 X109.752 Y102.480 E0.01563
G1 X111.649 Y104.377 E0.08498
G1 X111.700 Y103.889 E0.01552
G1 X109.688 Y101.878 E0.09011
G1 X109.625 Y101.276 E0.01917
G1 X111.751 Y103.402 E0.09524
G1 X111.803 Y102.914 E0.01552
G1 X109.458 Y100.570 E0.10501
G1 X109.199 Y99.772 E0.02657
G1 X112.008 Y102.581 E0.12583
G1 X111.964 Y101.999 F7200.000
G1 F1800
G1 X107.583 Y97.618 E0.19623
G1 X107.100 Y97.135 F7200.000
G1 F1800
G1 X103.174 Y93.208 E0.17589
G1 X103.494 Y93.209 E0.01015
G1 X103.772 Y93.268 E0.00900
G1 X111.710 Y101.206 E0.35557
G1 X111.647 Y100.604 E0.01917
G1 X104.456 Y93.413 E0.32210
G1 X105.140 Y93.558 E0.02215
G1 X111.403 Y99.821 E0.28053
G1 X111.144 Y99.023 E0.02657
G1 X106.007 Y93.887 E0.23009
G1 X106.978 Y94.319 E0.03367
G1 X111.066 Y98.407 E0.18309
G1 F5760
G1 X109.514 Y96.855 E-0.76000
G1 E-0.04000 F2100.00000
G1 Z0.800 F7200.000
G1 X110.330 Y97.132
G1 Z0.200
G1 E0.80000 F2100.00000
G1 F1800
G1 X107.981 Y94.783 E0.10522
M106 S252.45
;BEFORE_LAYER_CHANGE
;0.35


G1 F5760
G1 X109.532 Y96.334 E-0.76000
G1 E-0.04000 F2100.00000
G1 Z0.800 F7200.000
;AFTER_LAYER_CHANGE
;0.35
G1 X109.229 Y90.966
G1 Z0.350
G1 E0.80000 F2100.00000
G1 F3000
G1 X111.248 Y92.421 E0.06020
G1 X111.638 Y92.778 E0.01277
G1 X113.320 Y94.673 E0.06128
G1 X114.722 Y97.120 E0.06821
G1 X115.570 Y99.758 E0.06702
G1 X115.843 Y102.752 E0.07272
G1 X115.557 Y105.299 E0.06198
G1 X114.688 Y107.957 E0.06762
G1 X113.300 Y110.355 E0.06703
G1 X111.418 Y112.439 E0.06791
G1 X109.175 Y114.066 E0.06702
G1 X106.629 Y115.200 E0.06741
G1 X103.901 Y115.780 E0.06744
G1 X101.138 Y115.784 E0.06682
G1 X98.382 Y115.204 E0.06812
G1 X95.849 Y114.080 E0.06702
G1 X93.584 Y112.441 E0.06762
G1 X91.861 Y110.555 E0.06178
G1 X90.429 Y108.185 E0.06698
G1 X90.198 Y107.665 E0.01376
G1 X89.428 Y105.225 E0.06189
G1 X89.158 Y102.244 E0.07239
G1 X89.443 Y99.700 E0.06190
G1 X90.309 Y97.048 E0.06748
G1 X91.697 Y94.648 E0.06705
G1 X93.560 Y92.580 E0.06733
G1 X95.822 Y90.936 E0.06762
