; generated by Slic3r Prusa Edition 1.39.2+win64 on 2018-05-29 at 12:35:57

; 

; external perimeters extrusion width = 0.45mm
; perimeters extrusion width = 0.45mm
; infill extrusion width = 0.45mm
; solid infill extrusion width = 0.45mm
; top infill extrusion width = 0.45mm
; first layer extrusion width = 0.42mm

M107
M115 U3.1.0 ; tell printer latest fw version
M83  ; extruder relative mode
M104 S205 ; set extruder temp
M140 S55 ; set bed temp
M190 S55 ; wait for bed temp
M109 S205 ; wait for extruder temp
G28 W ; home all without mesh bed level
G80 ; mesh bed leveling
G1 Y-3.0 F1000.0 ; go outside print area
G92 E0.0
G1 X60.0 E9.0  F1000.0 ; intro line
G1 X100.0 E12.5  F1000.0 ; intro line
G92 E0.0
M900 K30; Filament gcode
G21 ; set units to millimeters
G90 ; use absolute coordinates
M83 ; use relative distances for extrusion
;BEFORE_LAYER_CHANGE
;0.2


G1 E-0.80000 F2100.00000
G1 Z0.600 F7200.000
;AFTER_LAYER_CHANGE
;0.2
G1 X44.139 Y79.284
G1 Z0.200
G1 E0.80000 F2100.00000
M204 S1000
G1 F1800
G1 X44.847 Y79.128 E0.02272
G1 X160.004 Y79.123 E3.61067
G1 X160.824 Y79.270 E0.02614
G1 X161.543 Y79.692 E0.02614
G1 X162.073 Y80.336 E0.02614
G1 X162.348 Y81.127 E0.02626
G1 X162.359 Y86.789 E0.17752
G1 X162.069 Y87.669 E0.02907
G1 X161.465 Y88.372 E0.02907
G1 X101.241 Y125.527 E2.21871
G1 X100.719 Y125.766 E0.01799
G1 X100.152 Y125.872 E0.01811
G1 X69.970 Y125.877 E0.94634
G1 X69.287 Y125.768 E0.02166
G1 X68.662 Y125.465 E0.02178
G1 X68.036 Y124.839 E0.02778
G1 X43.026 Y87.825 E1.40063
G1 X42.750 Y87.266 E0.01953
G1 X42.628 Y86.652 E0.01965
G1 X42.623 Y81.462 E0.16272
G1 X42.720 Y80.827 E0.02012
G1 X43.026 Y80.175 E0.02260
G1 X43.514 Y79.644 E0.02260
G1 X44.087 Y79.314 E0.02072
G1 F5760
G1 X44.847 Y79.128 E-0.27089
G1 X46.259 Y79.128 E-0.48911
G1 E-0.04000 F2100.00000
G1 Z0.800 F7200.000
G1 X73.779 Y116.034
G1 Z0.200
G1 E0.80000 F2100.00000
G1 F1800
G1 X74.340 Y115.626 E0.02174
G1 X74.974 Y115.343 E0.02178
G1 X75.653 Y115.199 E0.02174
G1 X76.347 Y115.199 E0.02178
G1 X76.500 Y115.231 E0.00489
G1 X76.653 Y115.199 E0.00489
G1 X77.347 Y115.199 E0.02178
G1 X77.500 Y115.231 E0.00489
G1 X77.653 Y115.199 E0.00489
G1 X78.347 Y115.199 E0.02178
G1 X78.500 Y115.231 E0.00489
G1 X78.653 Y115.199 E0.00489
G1 X79.347 Y115.199 E0.02178
G1 X79.500 Y115.231 E0.00489
G1 X79.653 Y115.199 E0.00489
G1 X80.347 Y115.199 E0.02178
G1 X80.500 Y115.231 E0.00489
G1 X80.653 Y115.199 E0.00489
G1 X81.347 Y115.199 E0.02178
G1 X81.500 Y115.231 E0.00489
G1 X81.653 Y115.199 E0.00489
G1 X82.347 Y115.199 E0.02178
G1 X82.500 Y115.231 E0.00489
G1 X82.653 Y115.199 E0.00489
G1 X83.347 Y115.199 E0.02178
G1 X83.500 Y115.231 E0.00489
G1 X83.653 Y115.199 E0.00489
G1 X84.347 Y115.199 E0.02178
G1 X84.500 Y115.231 E0.00489
G1 X84.653 Y115.199 E0.00489
G1 X85.347 Y115.199 E0.02178
G1 X85.500 Y115.231 E0.00489
G1 X85.653 Y115.199 E0.00489
G1 X86.347 Y115.199 E0.02178
G1 X86.500 Y115.231 E0.00489
G1 X86.653 Y115.199 E0.00489
G1 X87.347 Y115.199 E0.02178
G1 X87.500 Y115.231 E0.00489
G1 X87.653 Y115.199 E0.00489
G1 X88.347 Y115.199 E0.02178
G1 X88.500 Y115.231 E0.00489
G1 X88.653 Y115.199 E0.00489
G1 X89.347 Y115.199 E0.02178
G1 X89.500 Y115.231 E0.00489
G1 X89.653 Y115.199 E0.00489
G1 X90.347 Y115.199 E0.02178
G1 X90.500 Y115.231 E0.00489
G1 X90.653 Y115.199 E0.00489
G1 X91.347 Y115.199 E0.02178
G1 X91.500 Y115.231 E0.00489
G1 X91.653 Y115.199 E0.00489
G1 X92.347 Y115.199 E0.02178
G1 X92.500 Y115.231 E0.00489
G1 X92.653 Y115.199 E0.00489
G1 X93.347 Y115.199 E0.02178
G1 X94.026 Y115.343 E0.02174
G1 X94.660 Y115.626 E0.02178
G1 X95.221 Y116.034 E0.02174
G1 X95.685 Y116.549 E0.02173
G1 X96.032 Y117.149 E0.02175
G1 X96.247 Y117.810 E0.02178
G1 X96.319 Y118.500 E0.02177
G1 X96.247 Y119.190 E0.02177
G1 X96.032 Y119.851 E0.02178
G1 X95.685 Y120.451 E0.02175
G1 X95.221 Y120.966 E0.02173
G1 X94.660 Y121.374 E0.02174
G1 X94.026 Y121.657 E0.02178
G1 X93.347 Y121.801 E0.02174
G1 X92.653 Y121.801 E0.02178
G1 X92.500 Y121.769 E0.00489
G1 X92.347 Y121.801 E0.00489
G1 X91.653 Y121.801 E0.02178
G1 X91.500 Y121.769 E0.00489
G1 X91.347 Y121.801 E0.00489
G1 X90.653 Y121.801 E0.02178
G1 X90.500 Y121.769 E0.00489
G1 X90.347 Y121.801 E0.00489
G1 X89.653 Y121.801 E0.02178
G1 X89.500 Y121.769 E0.00489
G1 X89.347 Y121.801 E0.00489
G1 X88.653 Y121.801 E0.02178
G1 X88.500 Y121.769 E0.00489
G1 X88.347 Y121.801 E0.00489
G1 X87.653 Y121.801 E0.02178
G1 X87.500 Y121.769 E0.00489
G1 X87.347 Y121.801 E0.00489
G1 X86.653 Y121.801 E0.02178
G1 X86.500 Y121.769 E0.00489
G1 X86.347 Y121.801 E0.00489
G1 X85.653 Y121.801 E0.02178
G1 X85.500 Y121.769 E0.00489
G1 X85.347 Y121.801 E0.00489
G1 X84.653 Y121.801 E0.02178
G1 X84.500 Y121.769 E0.00489
G1 X84.347 Y121.801 E0.00489
G1 X83.653 Y121.801 E0.02178
G1 X83.500 Y121.769 E0.00489
G1 X83.347 Y121.801 E0.00489
G1 X82.653 Y121.801 E0.02178
G1 X82.500 Y121.769 E0.00489
G1 X82.347 Y121.801 E0.00489
G1 X81.653 Y121.801 E0.02178
G1 X81.500 Y121.769 E0.00489
G1 X81.347 Y121.801 E0.00489
G1 X80.653 Y121.801 E0.02178
G1 X80.500 Y121.769 E0.00489
G1 X80.347 Y121.801 E0.00489
G1 X79.653 Y121.801 E0.02178
G1 X79.500 Y121.769 E0.00489
G1 X79.347 Y121.801 E0.00489
G1 X78.653 Y121.801 E0.02178
G1 X78.500 Y121.769 E0.00489
G1 X78.347 Y121.801 E0.00489
G1 X77.653 Y121.801 E0.02178
G1 X77.500 Y121.769 E0.00489
G1 X77.347 Y121.801 E0.00489
G1 X76.653 Y121.801 E0.02178
G1 X76.500 Y121.769 E0.00489
G1 X76.347 Y121.801 E0.00489
G1 X75.653 Y121.801 E0.02178
G1 X74.974 Y121.657 E0.02174
G1 X74.340 Y121.374 E0.02178
G1 X73.779 Y120.966 E0.02174
G1 X73.315 Y120.451 E0.02173
G1 X72.968 Y119.851 E0.02175
G1 X72.753 Y119.190 E0.02178
G1 X72.681 Y118.500 E0.02177
G1 X72.753 Y117.810 E0.02177
G1 X72.968 Y117.149 E0.02178
G1 X73.315 Y116.549 E0.02175
G1 X73.739 Y116.078 E0.01985
G1 X74.019 Y116.331 F7200.000
G1 F1800
G1 X74.530 Y115.954 E0.01989
G1 X75.092 Y115.704 E0.01929
G1 X75.692 Y115.576 E0.01926
G1 X76.308 Y115.576 E0.01930
G1 X76.500 Y115.617 E0.00616
G1 X76.692 Y115.576 E0.00616
G1 X77.308 Y115.576 E0.01930
G1 X77.500 Y115.617 E0.00616
G1 X77.692 Y115.576 E0.00616
G1 X78.308 Y115.576 E0.01930
G1 X78.500 Y115.617 E0.00616
G1 X78.692 Y115.576 E0.00616
G1 X79.308 Y115.576 E0.01930
G1 X79.500 Y115.617 E0.00616
G1 X79.692 Y115.576 E0.00616
G1 X80.308 Y115.576 E0.01930
G1 X80.500 Y115.617 E0.00616
G1 X80.692 Y115.576 E0.00616
G1 X81.308 Y115.576 E0.01930
G1 X81.500 Y115.617 E0.00616
G1 X81.692 Y115.576 E0.00616
G1 X82.308 Y115.576 E0.01930
G1 X82.500 Y115.617 E0.00616
G1 X82.692 Y115.576 E0.00616
G1 X83.308 Y115.576 E0.01930
G1 X83.500 Y115.617 E0.00616
G1 X83.692 Y115.576 E0.00616
G1 X84.308 Y115.576 E0.01930
G1 X84.500 Y115.617 E0.00616
G1 X84.692 Y115.576 E0.00616
G1 X85.308 Y115.576 E0.01930
G1 X85.500 Y115.617 E0.00616
G1 X85.692 Y115.576 E0.00616
G1 X86.308 Y115.576 E0.01930
G1 X86.500 Y115.617 E0.00616
G1 X86.692 Y115.576 E0.00616
G1 X87.308 Y115.576 E0.01930
G1 X87.500 Y115.617 E0.00616
G1 X87.692 Y115.576 E0.00616
G1 X88.308 Y115.576 E0.01930
G1 X88.500 Y115.617 E0.00616
G1 X88.692 Y115.576 E0.00616
G1 X89.308 Y115.576 E0.01930
G1 X89.500 Y115.617 E0.00616
G1 X89.692 Y115.576 E0.00616
G1 X90.308 Y115.576 E0.01930
G1 X90.500 Y115.617 E0.00616
G1 X90.692 Y115.576 E0.00616
G1 X91.308 Y115.576 E0.01930
G1 X91.500 Y115.617 E0.00616
G1 X91.692 Y115.576 E0.00616
G1 X92.308 Y115.576 E0.01930
G1 X92.500 Y115.617 E0.00616
G1 X92.692 Y115.576 E0.00616
G1 X93.308 Y115.576 E0.01930
G1 X93.908 Y115.704 E0.01926
G1 X94.470 Y115.954 E0.01929
G1 X94.967 Y116.315 E0.01926
G1 X95.378 Y116.772 E0.01926
G1 X95.686 Y117.303 E0.01927
G1 X95.876 Y117.888 E0.01929
G1 X95.940 Y118.500 E0.01928
G1 X95.876 Y119.112 E0.01928
G1 X95.686 Y119.697 E0.01929
G1 X95.378 Y120.228 E0.01927
G1 X94.967 Y120.685 E0.01926
G1 X94.470 Y121.046 E0.01926
G1 X93.908 Y121.296 E0.01929
G1 X93.308 Y121.424 E0.01926
G1 X92.692 Y121.424 E0.01930
G1 X92.500 Y121.383 E0.00616
G1 X92.308 Y121.424 E0.00616
G1 X91.692 Y121.424 E0.01930
G1 X91.500 Y121.383 E0.00616
G1 X91.308 Y121.424 E0.00616
G1 X90.692 Y121.424 E0.01930
G1 X90.500 Y121.383 E0.00616
G1 X90.308 Y121.424 E0.00616
G1 X89.692 Y121.424 E0.01930
G1 X89.500 Y121.383 E0.00616
G1 X89.308 Y121.424 E0.00616
G1 X88.692 Y121.424 E0.01930
G1 X88.500 Y121.383 E0.00616
G1 X88.308 Y121.424 E0.00616
G1 X87.692 Y121.424 E0.01930
G1 X87.500 Y121.383 E0.00616
G1 X87.308 Y121.424 E0.00616
G1 X86.692 Y121.424 E0.01930
G1 X86.500 Y121.383 E0.00616
G1 X86.308 Y121.424 E0.00616
G1 X85.692 Y121.424 E0.01930
G1 X85.500 Y121.383 E0.00616
G1 X85.308 Y121.424 E0.00616
G1 X84.692 Y121.424 E0.01930
G1 X84.500 Y121.383 E0.00616
G1 X84.308 Y121.424 E0.00616
G1 X83.692 Y121.424 E0.01930
G1 X83.500 Y121.383 E0.00616
G1 X83.308 Y121.424 E0.00616
G1 X82.692 Y121.424 E0.01930
G1 X82.500 Y121.383 E0.00616
G1 X82.308 Y121.424 E0.00616
G1 X81.692 Y121.424 E0.01930
G1 X81.500 Y121.383 E0.00616
G1 X81.308 Y121.424 E0.00616
G1 X80.692 Y121.424 E0.01930
G1 X80.500 Y121.383 E0.00616
G1 X80.308 Y121.424 E0.00616
G1 X79.692 Y121.424 E0.01930
G1 X79.500 Y121.383 E0.00616
G1 X79.308 Y121.424 E0.00616
G1 X78.692 Y121.424 E0.01930
G1 X78.500 Y121.383 E0.00616
G1 X78.308 Y121.424 E0.00616
G1 X77.692 Y121.424 E0.01930
G1 X77.500 Y121.383 E0.00616
G1 X77.308 Y121.424 E0.00616
G1 X76.692 Y121.424 E0.01930
G1 X76.500 Y121.383 E0.00616
G1 X76.308 Y121.424 E0.00616
G1 X75.692 Y121.424 E0.01930
G1 X75.092 Y121.296 E0.01926
G1 X74.530 Y121.046 E0.01929
G1 X74.033 Y120.685 E0.01926
G1 X73.622 Y120.228 E0.01926
G1 X73.314 Y119.697 E0.01927
G1 X73.124 Y119.112 E0.01929
G1 X73.060 Y118.500 E0.01928
G1 X73.124 Y117.888 E0.01928
G1 X73.314 Y117.303 E0.01929
G1 X73.622 Y116.772 E0.01927
G1 X73.979 Y116.375 E0.01673
G1 F5760
G1 X74.530 Y115.954 E-0.24015
G1 X75.092 Y115.704 E-0.21309
G1 X75.692 Y115.576 E-0.21272
G1 X75.964 Y115.576 E-0.09404
G1 E-0.04000 F2100.00000
G1 Z0.800 F7200.000
G1 X76.500 Y116.002
G1 Z0.200
G1 E0.80000 F2100.00000
G1 F1800
G1 X76.732 Y115.953 E0.00743
G1 X77.268 Y115.953 E0.01681
G1 X77.500 Y116.002 E0.00743
G1 X77.732 Y115.953 E0.00743
G1 X78.268 Y115.953 E0.01681
G1 X78.500 Y116.002 E0.00743
G1 X78.732 Y115.953 E0.00743
G1 X79.268 Y115.953 E0.01681
G1 X79.500 Y116.002 E0.00743
G1 X79.732 Y115.953 E0.00743
G1 X80.268 Y115.953 E0.01681
G1 X80.500 Y116.002 E0.00743
G1 X80.732 Y115.953 E0.00743
G1 X81.268 Y115.953 E0.01681
G1 X81.500 Y116.002 E0.00743
G1 X81.732 Y115.953 E0.00743
G1 X82.268 Y115.953 E0.01681
G1 X82.500 Y116.002 E0.00743
G1 X82.732 Y115.953 E0.00743
G1 X83.268 Y115.953 E0.01681
G1 X83.500 Y116.002 E0.00743
G1 X83.732 Y115.953 E0.00743
G1 X84.268 Y115.953 E0.01681
G1 X84.500 Y116.002 E0.00743
G1 X84.732 Y115.953 E0.00743
G1 X85.268 Y115.953 E0.01681
G1 X85.500 Y116.002 E0.00743
G1 X85.732 Y115.953 E0.00743
G1 X86.268 Y115.953 E0.01681
G1 X86.500 Y116.002 E0.00743
G1 X86.732 Y115.953 E0.00743
G1 X87.268 Y115.953 E0.01681
G1 X87.500 Y116.002 E0.00743
G1 X87.732 Y115.953 E0.00743
G1 X88.268 Y115.953 E0.01681
G1 X88.500 Y116.002 E0.00743
G1 X88.732 Y115.953 E0.00743
G1 X89.268 Y115.953 E0.01681
G1 X89.500 Y116.002 E0.00743
G1 X89.732 Y115.953 E0.00743
G1 X90.268 Y115.953 E0.01681
G1 X90.500 Y116.002 E0.00743
G1 X90.732 Y115.953 E0.00743
G1 X91.268 Y115.953 E0.01681
G1 X91.500 Y116.002 E0.00743
G1 X91.732 Y115.953 E0.00743
G1 X92.268 Y115.953 E0.01681
G1 X92.500 Y116.002 E0.00743
G1 X92.732 Y115.953 E0.00743
G1 X93.268 Y115.953 E0.01681
G1 X93.791 Y116.064 E0.01677
G1 X94.281 Y116.282 E0.01680
G1 X94.713 Y116.597 E0.01678
G1 X95.072 Y116.995 E0.01678
G1 X95.340 Y117.458 E0.01678
G1 X95.506 Y117.967 E0.01679
G1 X95.561 Y118.500 E0.01680
G1 X95.506 Y119.033 E0.01680
G1 X95.340 Y119.542 E0.01679
G1 X95.072 Y120.005 E0.01678
G1 X94.713 Y120.403 E0.01678
G1 X94.281 Y120.718 E0.01678
G1 X93.791 Y120.936 E0.01680
G1 X93.268 Y121.047 E0.01677
G1 X92.732 Y121.047 E0.01681
G1 X92.500 Y120.998 E0.00743
G1 X92.268 Y121.047 E0.00743
G1 X91.732 Y121.047 E0.01681
G1 X91.500 Y120.998 E0.00743
G1 X91.268 Y121.047 E0.00743
G1 X90.732 Y121.047 E0.01681
G1 X90.500 Y120.998 E0.00743
G1 X90.268 Y121.047 E0.00743
G1 X89.732 Y121.047 E0.01681
G1 X89.500 Y120.998 E0.00743
G1 X89.268 Y121.047 E0.00743
G1 X88.732 Y121.047 E0.01681
G1 X88.500 Y120.998 E0.00743
G1 X88.268 Y121.047 E0.00743
G1 X87.732 Y121.047 E0.01681
G1 X87.500 Y120.998 E0.00743
G1 X87.268 Y121.047 E0.00743
G1 X86.732 Y121.047 E0.01681
G1 X86.500 Y120.998 E0.00743
G1 X86.268 Y121.047 E0.00743
G1 X85.732 Y121.047 E0.01681
G1 X85.500 Y120.998 E0.00743
G1 X85.268 Y121.047 E0.00743
G1 X84.732 Y121.047 E0.01681
G1 X84.500 Y120.998 E0.00743
G1 X84.268 Y121.047 E0.00743
G1 X83.732 Y121.047 E0.01681
G1 X83.500 Y120.998 E0.00743
G1 X83.268 Y121.047 E0.00743
G1 X82.732 Y121.047 E0.01681
G1 X82.500 Y120.998 E0.00743
G1 X82.268 Y121.047 E0.00743
G1 X81.732 Y121.047 E0.01681
G1 X81.500 Y120.998 E0.00743
G1 X81.268 Y121.047 E0.00743
G1 X80.732 Y121.047 E0.01681
G1 X80.500 Y120.998 E0.00743
G1 X80.268 Y121.047 E0.00743
G1 X79.732 Y121.047 E0.01681
G1 X79.500 Y120.998 E0.00743
G1 X79.268 Y121.047 E0.00743
G1 X78.732 Y121.047 E0.01681
G1 X78.500 Y120.998 E0.00743
G1 X78.268 Y121.047 E0.00743
G1 X77.732 Y121.047 E0.01681
G1 X77.500 Y120.998 E0.00743
G1 X77.268 Y121.047 E0.00743
G1 X76.732 Y121.047 E0.01681
G1 X76.500 Y120.998 E0.00743
G1 X76.268 Y121.047 E0.00743
G1 X75.732 Y121.047 E0.01681
G1 X75.209 Y120.936 E0.01677
G1 X74.719 Y120.718 E0.01680
G1 X74.287 Y120.403 E0.01678
G1 X73.928 Y120.005 E0.01678
G1 X73.660 Y119.542 E0.01678
G1 X73.494 Y119.033 E0.01679
G1 X73.439 Y118.500 E0.01680
G1 X73.494 Y117.967 E0.01680
G1 X73.660 Y117.458 E0.01679
G1 X73.928 Y116.995 E0.01678
G1 X74.287 Y116.597 E0.01678
G1 X74.719 Y116.282 E0.01678
G1 X75.209 Y116.064 E0.01680
G1 X75.732 Y115.953 E0.01677
G1 X76.268 Y115.953 E0.01681
G1 X76.441 Y115.990 E0.00555
G1 X76.593 Y115.784 F7200.000
G1 F5760
G1 X76.732 Y115.953 E-0.10146
G1 X77.268 Y115.953 E-0.18570
G1 X77.500 Y116.002 E-0.08212
G1 X77.732 Y115.953 E-0.08212
G1 X78.268 Y115.953 E-0.18570
G1 X78.500 Y116.002 E-0.08212
G1 X78.615 Y115.978 E-0.04077
G1 E-0.04000 F2100.00000
G1 Z0.800 F7200.000
G1 X99.036 Y85.536
G1 Z0.200
G1 E0.80000 F2100.00000
G1 F1800
G1 X99.036 Y122.536 E1.16011
G1 X70.964 Y122.536 E0.88017
G1 X70.964 Y85.536 E1.16011
G1 X45.964 Y85.536 E0.78386
G1 X45.964 Y82.464 E0.09631
G1 X159.036 Y82.464 E3.54528
G1 X159.036 Y85.536 E0.09631
G1 X99.096 Y85.536 E1.87938
G1 X99.413 Y85.913 F7200.000
G1 F1800
G1 X99.413 Y122.913 E1.16011
G1 X70.587 Y122.913 E0.90381
G1 X70.587 Y85.913 E1.16011
G1 X45.587 Y85.913 E0.78386
G1 X45.587 Y82.087 E0.11996
G1 X159.413 Y82.087 E3.56893
G1 X159.413 Y85.913 E0.11996
G1 X99.473 Y85.913 E1.87938
G1 X99.790 Y86.290 F7200.000
G1 F1800
G1 X99.790 Y123.290 E1.16011
G1 X70.210 Y123.290 E0.92746
G1 X70.210 Y86.290 E1.16011
G1 X45.210 Y86.290 E0.78386
G1 X45.210 Y81.710 E0.14360
G1 X159.790 Y81.710 E3.59258
G1 X159.790 Y86.290 E0.14360
G1 X99.850 Y86.290 E1.87938
G1 X99.390 Y86.300 F7200.000
G1 F5760
G1 X99.846 Y88.484 E-0.76000
G1 E-0.04000 F2100.00000
G1 Z0.800 F7200.000
G1 X98.923 Y113.687
G1 Z0.200
G1 E0.80000 F2100.00000
G1 F1800
G1 X71.247 Y86.011 E1.23022
G1 X71.247 Y86.545 E0.01680
G1 X98.753 Y114.052 E1.22268
G1 X98.753 Y114.586 E0.01680
G1 X71.247 Y87.080 E1.22268
G1 X71.247 Y87.615 E0.01680
G1 X98.753 Y115.121 E1.22268
G1 X98.753 Y115.655 E0.01680
G1 X71.247 Y88.149 E1.22268
G1 X71.247 Y88.684 E0.01680
G1 X98.753 Y116.190 E1.22268
G1 X98.753 Y116.725 E0.01680
G1 X71.247 Y89.218 E1.22268
G1 X71.247 Y89.753 E0.01680
G1 X98.753 Y117.259 E1.22268
G1 X98.753 Y117.794 E0.01680
G1 X71.247 Y90.288 E1.22268
G1 X71.247 Y90.822 E0.01680
G1 X98.753 Y118.328 E1.22268
G1 X98.753 Y118.863 E0.01680
G1 X71.247 Y91.357 E1.22268
G1 X71.247 Y91.891 E0.01680
G1 X98.753 Y119.397 E1.22268
G1 X98.753 Y119.932 E0.01680
G1 X96.503 Y117.682 E0.10000
G1 X96.526 Y117.750 E0.00225
G1 X96.582 Y118.296 E0.01724
G1 X98.753 Y120.467 E0.09649
G1 X98.753 Y121.001 E0.01680
G1 X96.570 Y118.819 E0.09702
G1 X96.511 Y119.294 E0.01505
G1 X98.753 Y121.536 E0.09966
G1 X98.753 Y122.070 E0.01680
G1 X96.380 Y119.697 E0.10549
G1 X96.292 Y119.967 E0.00892
G1 X96.227 Y120.079 E0.00407
G1 X98.401 Y122.253 E0.09664
