; generated by Slic3r Prusa Edition 1.39.2+win64 on 2018-05-29 at 11:23:22

; 

; external perimeters extrusion width = 0.45mm
; perimeters extrusion width = 0.45mm
; infill extrusion width = 0.45mm
; solid infill extrusion width = 0.45mm
; top infill extrusion width = 0.45mm
; first layer extrusion width = 0.42mm

M107
M115 U3.1.0 ; tell printer latest fw version
M83  ; extruder relative mode
M104 S205 ; set extruder temp
M140 S55 ; set bed temp
M190 S55 ; wait for bed temp
M109 S205 ; wait for extruder temp
G28 W ; home all without mesh bed level
G80 ; mesh bed leveling
G1 Y-3.0 F1000.0 ; go outside print area
G92 E0.0
G1 X60.0 E9.0  F1000.0 ; intro line
G1 X100.0 E12.5  F1000.0 ; intro line
G92 E0.0
M900 K30; Filament gcode
G21 ; set units to millimeters
G90 ; use absolute coordinates
M83 ; use relative distances for extrusion
;BEFORE_LAYER_CHANGE
;0.2


G1 E-0.80000 F2100.00000
G1 Z0.600 F7200.000
;AFTER_LAYER_CHANGE
;0.2
G1 X135.336 Y94.560
G1 Z0.200
G1 E0.80000 F2100.00000
M204 S1000
G1 F1800
G1 X135.377 Y145.011 E1.58186
G1 X135.305 Y145.581 E0.01799
G1 X135.099 Y146.116 E0.01799
G1 X134.732 Y146.629 E0.01977
G1 X134.239 Y147.028 E0.01989
G1 X133.663 Y147.283 E0.01977
G1 X133.035 Y147.377 E0.01989
G1 X71.989 Y147.377 E1.91408
G1 X71.419 Y147.305 E0.01799
G1 X70.884 Y147.099 E0.01799
G1 X70.371 Y146.732 E0.01977
G1 X69.972 Y146.239 E0.01989
G1 X69.717 Y145.663 E0.01977
G1 X69.623 Y145.035 E0.01989
G1 X69.623 Y84.989 E1.88272
G1 X69.695 Y84.419 E0.01799
G1 X69.901 Y83.884 E0.01799
G1 X70.202 Y83.445 E0.01668
G1 X70.596 Y83.082 E0.01680
G1 X105.369 Y57.909 E1.34599
G1 X105.892 Y57.702 E0.01763
G1 X106.449 Y57.623 E0.01763
G1 X118.504 Y57.623 E0.37796
G1 X119.173 Y57.720 E0.02119
G1 X119.787 Y58.001 E0.02119
G1 X120.297 Y58.444 E0.02119
G1 X120.662 Y59.013 E0.02119
G1 X135.313 Y94.505 E1.20391
G1 F5760
G1 X135.316 Y96.699 E-0.76000
G1 E-0.04000 F2100.00000
G1 Z0.800 F7200.000
G1 X84.113 Y88.163
G1 Z0.200
G1 E0.80000 F2100.00000
G1 F1800
G1 X88.387 Y88.163 E0.13401
G1 X88.387 Y111.337 E0.72661
G1 X84.113 Y111.337 E0.13401
G1 X84.113 Y88.223 E0.72473
G1 X84.490 Y88.540 F7200.000
G1 F1800
G1 X88.010 Y88.540 E0.11037
G1 X88.010 Y110.960 E0.70296
G1 X84.490 Y110.960 E0.11037
G1 X84.490 Y88.600 E0.70108
G1 X84.469 Y88.141 F7200.000
G1 F5760
G1 X86.684 Y88.563 E-0.76000
G1 E-0.04000 F2100.00000
G1 Z0.800 F7200.000
G1 X101.236 Y138.651
G1 Z0.200
G1 E0.80000 F2100.00000
G1 F1800
G1 X101.742 Y138.544 E0.01622
G1 X102.258 Y138.544 E0.01618
G1 X102.764 Y138.651 E0.01622
G1 X103.235 Y138.862 E0.01617
G1 X103.652 Y139.164 E0.01615
G1 X103.999 Y139.549 E0.01626
G1 X104.256 Y139.997 E0.01618
G1 X104.415 Y140.486 E0.01613
G1 X104.470 Y141.000 E0.01621
G1 X104.415 Y141.514 E0.01621
G1 X104.256 Y142.003 E0.01613
G1 X103.999 Y142.451 E0.01619
G1 X103.652 Y142.836 E0.01625
G1 X103.235 Y143.138 E0.01615
G1 X102.764 Y143.349 E0.01617
G1 X102.258 Y143.456 E0.01622
G1 X101.742 Y143.456 E0.01618
G1 X101.236 Y143.349 E0.01622
G1 X100.765 Y143.138 E0.01617
G1 X100.348 Y142.836 E0.01615
G1 X100.001 Y142.451 E0.01626
G1 X99.744 Y142.003 E0.01619
G1 X99.585 Y141.514 E0.01613
G1 X99.530 Y141.000 E0.01621
G1 X99.585 Y140.486 E0.01621
G1 X99.744 Y139.997 E0.01613
G1 X100.001 Y139.549 E0.01619
G1 X100.348 Y139.164 E0.01625
G1 X100.765 Y138.862 E0.01615
G1 X101.181 Y138.676 E0.01429
G1 X101.335 Y139.020 F7200.000
G1 F1800
G1 X101.782 Y138.921 E0.01434
G1 X102.218 Y138.921 E0.01370
G1 X102.647 Y139.012 E0.01373
G1 X103.045 Y139.190 E0.01369
G1 X103.399 Y139.446 E0.01368
G1 X103.692 Y139.772 E0.01374
G1 X103.909 Y140.151 E0.01370
G1 X104.044 Y140.565 E0.01366
G1 X104.090 Y141.000 E0.01372
G1 X104.044 Y141.435 E0.01372
G1 X103.909 Y141.849 E0.01366
G1 X103.692 Y142.228 E0.01370
G1 X103.399 Y142.554 E0.01374
G1 X103.045 Y142.810 E0.01368
G1 X102.647 Y142.988 E0.01369
G1 X102.218 Y143.079 E0.01373
G1 X101.782 Y143.079 E0.01370
G1 X101.353 Y142.988 E0.01373
G1 X100.955 Y142.810 E0.01369
G1 X100.601 Y142.554 E0.01368
G1 X100.308 Y142.228 E0.01374
G1 X100.091 Y141.849 E0.01370
G1 X99.956 Y141.435 E0.01366
G1 X99.910 Y141.000 E0.01372
G1 X99.956 Y140.565 E0.01372
G1 X100.091 Y140.151 E0.01366
G1 X100.308 Y139.772 E0.01370
G1 X100.601 Y139.446 E0.01374
G1 X100.955 Y139.190 E0.01368
G1 X101.280 Y139.044 E0.01118
G1 X101.471 Y139.372 F7200.000
G1 F1800
G1 X101.821 Y139.298 E0.01123
G1 X102.179 Y139.298 E0.01122
G1 X102.529 Y139.372 E0.01123
G1 X102.856 Y139.518 E0.01121
G1 X103.145 Y139.728 E0.01121
G1 X103.385 Y139.994 E0.01123
G1 X103.563 Y140.304 E0.01121
G1 X103.674 Y140.644 E0.01120
G1 X103.711 Y141.000 E0.01122
G1 X103.674 Y141.356 E0.01123
G1 X103.563 Y141.696 E0.01120
G1 X103.385 Y142.006 E0.01122
G1 X103.145 Y142.272 E0.01123
G1 X102.856 Y142.482 E0.01121
G1 X102.529 Y142.628 E0.01121
G1 X102.179 Y142.702 E0.01123
G1 X101.821 Y142.702 E0.01122
G1 X101.471 Y142.628 E0.01123
G1 X101.144 Y142.482 E0.01121
G1 X100.855 Y142.272 E0.01121
G1 X100.615 Y142.006 E0.01123
G1 X100.437 Y141.696 E0.01122
G1 X100.326 Y141.356 E0.01120
G1 X100.289 Y141.000 E0.01123
G1 X100.326 Y140.644 E0.01122
G1 X100.437 Y140.304 E0.01120
G1 X100.615 Y139.994 E0.01122
G1 X100.855 Y139.728 E0.01123
G1 X101.144 Y139.518 E0.01121
G1 X101.416 Y139.397 E0.00932
G1 X101.545 Y139.022 F7200.000
G1 F5760
G1 X101.821 Y139.298 E-0.14443
G1 X102.179 Y139.298 E-0.12399
G1 X102.529 Y139.372 E-0.12405
G1 X102.856 Y139.518 E-0.12380
G1 X103.145 Y139.728 E-0.12383
G1 X103.377 Y139.985 E-0.11991
G1 E-0.04000 F2100.00000
G1 Z0.800 F7200.000
G1 X79.415 Y135.514
G1 Z0.200
G1 E0.80000 F2100.00000
G1 F1800
G1 X79.256 Y136.003 E0.01613
G1 X78.999 Y136.451 E0.01619
G1 X78.652 Y136.836 E0.01625
G1 X78.235 Y137.138 E0.01615
G1 X77.764 Y137.349 E0.01617
G1 X77.258 Y137.456 E0.01622
G1 X76.742 Y137.456 E0.01618
G1 X76.236 Y137.349 E0.01622
G1 X75.765 Y137.138 E0.01617
G1 X75.348 Y136.836 E0.01615
G1 X75.001 Y136.451 E0.01625
G1 X74.744 Y136.003 E0.01619
G1 X74.585 Y135.514 E0.01613
G1 X74.530 Y135.000 E0.01621
G1 X74.585 Y134.486 E0.01621
G1 X74.744 Y133.997 E0.01613
G1 X75.001 Y133.549 E0.01619
G1 X75.348 Y133.164 E0.01625
G1 X75.765 Y132.862 E0.01615
G1 X76.236 Y132.651 E0.01617
G1 X76.742 Y132.544 E0.01622
G1 X77.258 Y132.544 E0.01618
G1 X77.764 Y132.651 E0.01622
G1 X78.235 Y132.862 E0.01617
G1 X78.652 Y133.164 E0.01615
G1 X78.999 Y133.549 E0.01626
G1 X79.256 Y133.997 E0.01618
G1 X79.415 Y134.486 E0.01613
G1 X79.470 Y135.000 E0.01621
G1 X79.421 Y135.454 E0.01433
G1 X79.046 Y135.415 F7200.000
G1 F1800
G1 X78.909 Y135.849 E0.01429
G1 X78.692 Y136.228 E0.01370
G1 X78.399 Y136.554 E0.01374
G1 X78.045 Y136.810 E0.01368
G1 X77.647 Y136.988 E0.01369
G1 X77.218 Y137.079 E0.01373
G1 X76.782 Y137.079 E0.01370
G1 X76.353 Y136.988 E0.01373
G1 X75.955 Y136.810 E0.01369
G1 X75.601 Y136.554 E0.01368
G1 X75.308 Y136.228 E0.01374
G1 X75.091 Y135.849 E0.01370
G1 X74.956 Y135.435 E0.01366
G1 X74.910 Y135.000 E0.01372
G1 X74.956 Y134.565 E0.01372
G1 X75.091 Y134.151 E0.01366
G1 X75.308 Y133.772 E0.01370
G1 X75.601 Y133.446 E0.01374
G1 X75.955 Y133.190 E0.01368
G1 X76.353 Y133.012 E0.01369
G1 X76.782 Y132.921 E0.01373
G1 X77.218 Y132.921 E0.01370
G1 X77.647 Y133.012 E0.01373
G1 X78.045 Y133.190 E0.01369
G1 X78.399 Y133.446 E0.01368
G1 X78.692 Y133.772 E0.01375
G1 X78.909 Y134.151 E0.01370
G1 X79.044 Y134.565 E0.01366
G1 X79.090 Y135.000 E0.01372
G1 X79.053 Y135.355 E0.01120
G1 X78.674 Y135.356 F7200.000
G1 F1800
G1 X78.563 Y135.696 E0.01120
G1 X78.385 Y136.006 E0.01122
G1 X78.145 Y136.272 E0.01123
G1 X77.856 Y136.482 E0.01121
G1 X77.529 Y136.628 E0.01121
G1 X77.179 Y136.702 E0.01123
G1 X76.821 Y136.702 E0.01122
G1 X76.471 Y136.628 E0.01123
G1 X76.144 Y136.482 E0.01121
G1 X75.855 Y136.272 E0.01121
G1 X75.615 Y136.006 E0.01123
G1 X75.437 Y135.696 E0.01122
G1 X75.326 Y135.356 E0.01120
G1 X75.289 Y135.000 E0.01123
G1 X75.326 Y134.644 E0.01122
G1 X75.437 Y134.304 E0.01120
G1 X75.615 Y133.994 E0.01122
G1 X75.855 Y133.728 E0.01123
G1 X76.144 Y133.518 E0.01121
G1 X76.471 Y133.372 E0.01121
G1 X76.821 Y133.298 E0.01123
G1 X77.179 Y133.298 E0.01122
G1 X77.529 Y133.372 E0.01123
G1 X77.856 Y133.518 E0.01121
G1 X78.145 Y133.728 E0.01121
G1 X78.385 Y133.994 E0.01123
G1 X78.563 Y134.304 E0.01122
G1 X78.674 Y134.644 E0.01120
G1 X78.711 Y135.000 E0.01122
G1 X78.680 Y135.296 E0.00934
G1 X78.939 Y135.595 F7200.000
G1 F5760
G1 X78.563 Y135.696 E-0.14409
G1 X78.385 Y136.006 E-0.12390
G1 X78.145 Y136.272 E-0.12408
G1 X77.856 Y136.482 E-0.12384
G1 X77.529 Y136.628 E-0.12378
G1 X77.190 Y136.700 E-0.12031
G1 E-0.04000 F2100.00000
G1 Z0.800 F7200.000
G1 X84.136 Y129.464
G1 Z0.200
G1 E0.80000 F2100.00000
G1 F1800
G1 X84.136 Y120.536 E0.27994
G1 X92.136 Y120.536 E0.25083
G1 X92.136 Y113.636 E0.21634
G1 X111.964 Y113.636 E0.62170
G1 X111.964 Y120.536 E0.21634
G1 X120.064 Y120.536 E0.25397
G1 X120.064 Y129.464 E0.27994
G1 X111.964 Y129.464 E0.25397
G1 X111.964 Y135.064 E0.17558
G1 X92.136 Y135.064 E0.62170
G1 X92.136 Y129.464 E0.17558
G1 X84.196 Y129.464 E0.24895
G1 X84.513 Y129.087 F7200.000
G1 F1800
G1 X84.513 Y120.913 E0.25629
G1 X92.513 Y120.913 E0.25083
G1 X92.513 Y114.013 E0.21634
G1 X111.587 Y114.013 E0.59806
G1 X111.587 Y120.913 E0.21634
G1 X119.687 Y120.913 E0.25397
G1 X119.687 Y129.087 E0.25629
G1 X111.587 Y129.087 E0.25397
G1 X111.587 Y134.687 E0.17558
G1 X92.513 Y134.687 E0.59806
G1 X92.513 Y129.087 E0.17558
G1 X84.573 Y129.087 E0.24895
G1 X84.890 Y128.710 F7200.000
G1 F1800
G1 X84.890 Y121.290 E0.23265
G1 X92.890 Y121.290 E0.25083
G1 X92.890 Y114.390 E0.21634
G1 X111.210 Y114.390 E0.57441
G1 X111.210 Y121.290 E0.21634
G1 X119.310 Y121.290 E0.25397
G1 X119.310 Y128.710 E0.23265
G1 X111.210 Y128.710 E0.25397
G1 X111.210 Y134.310 E0.17558
G1 X92.890 Y134.310 E0.57441
G1 X92.890 Y128.710 E0.17558
G1 X84.950 Y128.710 E0.24895
G1 X84.498 Y128.629 F7200.000
G1 F5760
G1 X84.932 Y126.516 E-0.76000
G1 E-0.04000 F2100.00000
G1 Z0.800 F7200.000
G1 X77.764 Y107.349
G1 Z0.200
G1 E0.80000 F2100.00000
G1 F1800
G1 X77.258 Y107.456 E0.01621
G1 X76.742 Y107.456 E0.01620
G1 X76.236 Y107.349 E0.01621
G1 X75.765 Y107.138 E0.01617
G1 X75.348 Y106.836 E0.01618
G1 X75.001 Y106.451 E0.01623
G1 X74.744 Y106.004 E0.01618
G1 X74.585 Y105.514 E0.01614
G1 X74.530 Y105.000 E0.01620
G1 X74.585 Y104.486 E0.01620
G1 X74.744 Y103.996 E0.01614
G1 X75.001 Y103.549 E0.01618
G1 X75.348 Y103.165 E0.01623
G1 X75.765 Y102.862 E0.01618
G1 X76.236 Y102.651 E0.01617
G1 X76.742 Y102.544 E0.01621
G1 X77.258 Y102.544 E0.01619
G1 X77.764 Y102.651 E0.01621
G1 X78.235 Y102.862 E0.01617
G1 X78.652 Y103.164 E0.01618
G1 X78.999 Y103.549 E0.01623
G1 X79.256 Y103.996 E0.01618
G1 X79.415 Y104.486 E0.01614
G1 X79.470 Y105.000 E0.01620
G1 X79.415 Y105.514 E0.01620
G1 X79.256 Y106.004 E0.01614
G1 X78.999 Y106.451 E0.01618
G1 X78.652 Y106.836 E0.01623
G1 X78.235 Y107.138 E0.01618
G1 X77.819 Y107.324 E0.01429
G1 X77.665 Y106.980 F7200.000
G1 F1800
G1 X77.219 Y107.079 E0.01434
G1 X76.781 Y107.079 E0.01371
G1 X76.353 Y106.988 E0.01372
G1 X75.955 Y106.810 E0.01368
G1 X75.601 Y106.554 E0.01370
G1 X75.308 Y106.228 E0.01373
G1 X75.091 Y105.850 E0.01369
G1 X74.956 Y105.435 E0.01367
G1 X74.910 Y105.000 E0.01371
G1 X74.956 Y104.565 E0.01371
G1 X75.091 Y104.150 E0.01367
G1 X75.308 Y103.772 E0.01369
G1 X75.601 Y103.446 E0.01373
G1 X75.955 Y103.190 E0.01370
G1 X76.353 Y103.012 E0.01369
G1 X76.781 Y102.921 E0.01372
G1 X77.219 Y102.921 E0.01371
G1 X77.647 Y103.012 E0.01372
G1 X78.045 Y103.190 E0.01368
G1 X78.399 Y103.446 E0.01370
G1 X78.692 Y103.772 E0.01373
G1 X78.909 Y104.150 E0.01369
G1 X79.044 Y104.565 E0.01367
G1 X79.090 Y105.000 E0.01371
G1 X79.044 Y105.435 E0.01371
G1 X78.909 Y105.850 E0.01367
G1 X78.692 Y106.228 E0.01369
G1 X78.399 Y106.554 E0.01373
G1 X78.045 Y106.810 E0.01370
G1 X77.720 Y106.955 E0.01117
G1 X77.529 Y106.627 F7200.000
G1 F1800
G1 X77.179 Y106.702 E0.01123
G1 X76.821 Y106.702 E0.01123
G1 X76.471 Y106.627 E0.01123
G1 X76.144 Y106.482 E0.01120
G1 X75.855 Y106.272 E0.01122
G1 X75.615 Y106.006 E0.01123
G1 X75.437 Y105.696 E0.01121
G1 X75.326 Y105.356 E0.01121
G1 X75.289 Y105.000 E0.01122
G1 X75.326 Y104.644 E0.01122
G1 X75.437 Y104.304 E0.01121
G1 X75.615 Y103.994 E0.01121
G1 X75.855 Y103.728 E0.01123
G1 X76.144 Y103.518 E0.01122
G1 X76.471 Y103.373 E0.01120
G1 X76.821 Y103.298 E0.01123
G1 X77.179 Y103.298 E0.01123
G1 X77.529 Y103.373 E0.01123
G1 X77.856 Y103.518 E0.01120
G1 X78.145 Y103.728 E0.01122
G1 X78.385 Y103.994 E0.01123
G1 X78.563 Y104.304 E0.01121
G1 X78.674 Y104.644 E0.01121
G1 X78.711 Y105.000 E0.01122
G1 X78.674 Y105.356 E0.01122
G1 X78.563 Y105.696 E0.01121
G1 X78.385 Y106.006 E0.01121
G1 X78.145 Y106.272 E0.01123
G1 X77.856 Y106.482 E0.01122
G1 X77.584 Y106.603 E0.00932
G1 X77.455 Y106.978 F7200.000
G1 F5760
G1 X77.179 Y106.702 E-0.14441
G1 X76.821 Y106.702 E-0.12403
G1 X76.471 Y106.627 E-0.12401
G1 X76.144 Y106.482 E-0.12375
G1 X75.855 Y106.272 E-0.12394
G1 X75.623 Y106.015 E-0.11986
G1 E-0.04000 F2100.00000
G1 Z0.800 F7200.000
G1 X115.536 Y88.036
G1 Z0.200
G1 E0.80000 F2100.00000
G1 F1800
G1 X120.564 Y88.036 E0.15766
G1 X120.564 Y111.964 E0.75026
G1 X115.536 Y111.964 E0.15766
G1 X115.536 Y88.096 E0.74837
G1 X115.913 Y88.413 F7200.000
G1 F1800
G1 X120.187 Y88.413 E0.13401
G1 X120.187 Y111.587 E0.72661
G1 X115.913 Y111.587 E0.13401
G1 X115.913 Y88.473 E0.72473
G1 X116.290 Y88.790 F7200.000
G1 F1800
G1 X119.810 Y88.790 E0.11037
G1 X119.810 Y111.210 E0.70296
G1 X116.290 Y111.210 E0.11037
G1 X116.290 Y88.850 E0.70108
G1 X116.269 Y88.391 F7200.000
G1 F5760
G1 X118.484 Y88.813 E-0.76000
G1 E-0.04000 F2100.00000
G1 Z0.800 F7200.000
G1 X126.348 Y103.165
G1 Z0.200
G1 E0.80000 F2100.00000
G1 F1800
G1 X126.765 Y102.862 E0.01618
G1 X127.236 Y102.651 E0.01617
G1 X127.742 Y102.544 E0.01621
G1 X128.258 Y102.544 E0.01620
G1 X128.764 Y102.651 E0.01621
G1 X129.235 Y102.862 E0.01617
G1 X129.652 Y103.164 E0.01618
G1 X129.999 Y103.549 E0.01623
G1 X130.256 Y103.996 E0.01618
G1 X130.415 Y104.486 E0.01614
G1 X130.470 Y105.000 E0.01620
G1 X130.415 Y105.514 E0.01620
G1 X130.256 Y106.004 E0.01614
G1 X129.999 Y106.451 E0.01618
G1 X129.652 Y106.836 E0.01623
G1 X129.235 Y107.138 E0.01618
G1 X128.764 Y107.349 E0.01617
G1 X128.258 Y107.456 E0.01621
G1 X127.742 Y107.456 E0.01620
G1 X127.236 Y107.349 E0.01621
G1 X126.765 Y107.138 E0.01617
G1 X126.348 Y106.836 E0.01618
G1 X126.001 Y106.451 E0.01623
G1 X125.744 Y106.004 E0.01618
G1 X125.585 Y105.514 E0.01614
G1 X125.530 Y105.000 E0.01620
G1 X125.585 Y104.486 E0.01620
G1 X125.744 Y103.996 E0.01614
G1 X126.001 Y103.549 E0.01618
G1 X126.308 Y103.209 E0.01435
G1 X126.588 Y103.462 F7200.000
G1 F1800
G1 X126.955 Y103.190 E0.01432
G1 X127.353 Y103.012 E0.01369
G1 X127.781 Y102.921 E0.01372
G1 X128.219 Y102.921 E0.01371
G1 X128.647 Y103.012 E0.01372
G1 X129.045 Y103.190 E0.01368
G1 X129.399 Y103.446 E0.01370
G1 X129.692 Y103.772 E0.01373
G1 X129.909 Y104.150 E0.01369
G1 X130.044 Y104.565 E0.01368
G1 X130.090 Y105.000 E0.01371
G1 X130.044 Y105.435 E0.01371
G1 X129.909 Y105.850 E0.01367
G1 X129.692 Y106.228 E0.01369
G1 X129.399 Y106.554 E0.01373
G1 X129.045 Y106.810 E0.01370
G1 X128.647 Y106.988 E0.01368
G1 X128.219 Y107.079 E0.01372
G1 X127.781 Y107.079 E0.01371
G1 X127.353 Y106.988 E0.01372
G1 X126.955 Y106.810 E0.01368
G1 X126.601 Y106.554 E0.01370
G1 X126.308 Y106.228 E0.01373
G1 X126.091 Y105.850 E0.01369
G1 X125.956 Y105.435 E0.01367
G1 X125.910 Y105.000 E0.01371
G1 X125.956 Y104.565 E0.01371
G1 X126.091 Y104.150 E0.01367
G1 X126.308 Y103.772 E0.01369
G1 X126.547 Y103.506 E0.01121
G1 X126.855 Y103.728 F7200.000
G1 F1800
G1 X127.144 Y103.518 E0.01122
G1 X127.471 Y103.373 E0.01120
G1 X127.821 Y103.298 E0.01123
G1 X128.179 Y103.298 E0.01123
G1 X128.529 Y103.373 E0.01123
G1 X128.856 Y103.518 E0.01120
G1 X129.145 Y103.728 E0.01122
G1 X129.385 Y103.994 E0.01123
G1 X129.563 Y104.304 E0.01121
G1 X129.674 Y104.644 E0.01121
G1 X129.711 Y105.000 E0.01122
G1 X129.674 Y105.356 E0.01122
G1 X129.563 Y105.696 E0.01121
G1 X129.385 Y106.006 E0.01121
G1 X129.145 Y106.272 E0.01123
G1 X128.856 Y106.482 E0.01122
G1 X128.529 Y106.627 E0.01120
G1 X128.179 Y106.702 E0.01123
G1 X127.821 Y106.702 E0.01123
G1 X127.471 Y106.627 E0.01123
G1 X127.144 Y106.482 E0.01120
