; generated by Slic3r Prusa Edition 1.39.2+win64 on 2018-05-29 at 11:24:55

; 

; external perimeters extrusion width = 0.45mm
; perimeters extrusion width = 0.45mm
; infill extrusion width = 0.45mm
; solid infill extrusion width = 0.45mm
; top infill extrusion width = 0.45mm
; first layer extrusion width = 0.42mm

M107
M115 U3.1.0 ; tell printer latest fw version
M83  ; extruder relative mode
M104 S205 ; set extruder temp
M140 S55 ; set bed temp
M190 S55 ; wait for bed temp
M109 S205 ; wait for extruder temp
G28 W ; home all without mesh bed level
G80 ; mesh bed leveling
G1 Y-3.0 F1000.0 ; go outside print area
G92 E0.0
G1 X60.0 E9.0  F1000.0 ; intro line
G1 X100.0 E12.5  F1000.0 ; intro line
G92 E0.0
M900 K30; Filament gcode
G21 ; set units to millimeters
G90 ; use absolute coordinates
M83 ; use relative distances for extrusion
;BEFORE_LAYER_CHANGE
;0.2


G1 E-0.80000 F2100.00000
G1 Z0.600 F7200.000
;AFTER_LAYER_CHANGE
;0.2
G1 X77.145 Y80.277
G1 Z0.200
G1 E0.80000 F2100.00000
M204 S1000
G1 F1800
G1 X77.961 Y80.123 E0.02602
G1 X126.992 Y80.123 E1.53735
G1 X127.880 Y80.297 E0.02837
G1 X128.639 Y80.789 E0.02837
G1 X129.159 Y81.530 E0.02837
G1 X129.364 Y82.415 E0.02849
G1 X129.365 Y122.546 E1.25827
G1 X129.303 Y123.040 E0.01562
G1 X129.142 Y123.507 E0.01550
G1 X128.885 Y123.934 E0.01562
G1 X128.544 Y124.297 E0.01562
G1 X127.832 Y124.723 E0.02602
G1 X127.016 Y124.877 E0.02602
G1 X77.977 Y124.877 E1.53759
G1 X77.475 Y124.821 E0.01585
G1 X76.995 Y124.660 E0.01585
G1 X76.561 Y124.401 E0.01585
G1 X76.191 Y124.056 E0.01585
G1 X75.767 Y123.347 E0.02590
G1 X75.612 Y122.535 E0.02590
G1 X75.611 Y82.489 E1.25564
G1 X75.668 Y81.986 E0.01585
G1 X75.829 Y81.507 E0.01585
G1 X76.088 Y81.072 E0.01585
G1 X76.433 Y80.703 E0.01585
G1 X77.094 Y80.308 E0.02414
G1 F5760
G1 X77.961 Y80.123 E-0.30704
G1 X79.269 Y80.123 E-0.45296
G1 E-0.04000 F2100.00000
G1 Z0.800 F7200.000
G1 X102.951 Y116.643
G1 Z0.200
G1 E0.80000 F2100.00000
G1 F1800
G1 X125.776 Y116.643 E0.71564
G1 X125.776 Y120.557 E0.12273
G1 X102.951 Y120.557 E0.71564
G1 X102.951 Y116.703 E0.12084
G1 X103.329 Y117.020 F7200.000
G1 F1800
G1 X125.398 Y117.020 E0.69199
G1 X125.398 Y120.180 E0.09908
G1 X103.329 Y120.180 E0.69199
G1 X103.329 Y117.080 E0.09720
G1 X103.145 Y116.665 F7200.000
G1 F5760
G1 X105.523 Y117.074 E-0.76000
G1 E-0.04000 F2100.00000
G1 Z0.800 F7200.000
G1 X86.804 Y116.660
G1 Z0.200
G1 E0.80000 F2100.00000
G1 F1800
G1 X86.774 Y117.255 E0.01867
G1 X86.619 Y117.867 E0.01978
G1 X86.345 Y118.435 E0.01978
G1 X85.985 Y118.909 E0.01868
G1 X85.515 Y119.329 E0.01976
G1 X84.965 Y119.646 E0.01989
G1 X84.367 Y119.844 E0.01975
G1 X83.776 Y119.917 E0.01867
G1 X83.147 Y119.872 E0.01979
G1 X82.540 Y119.699 E0.01977
G1 X82.010 Y119.428 E0.01866
G1 X81.516 Y119.038 E0.01976
G1 X81.107 Y118.551 E0.01991
G1 X80.809 Y117.996 E0.01976
G1 X80.634 Y117.428 E0.01863
G1 X80.569 Y116.800 E0.01980
G1 X80.634 Y116.172 E0.01980
G1 X80.809 Y115.604 E0.01863
G1 X81.107 Y115.049 E0.01976
G1 X81.516 Y114.562 E0.01991
G1 X82.010 Y114.172 E0.01976
G1 X82.540 Y113.901 E0.01866
G1 X83.144 Y113.729 E0.01969
G1 X83.737 Y113.683 E0.01865
G1 X84.343 Y113.752 E0.01912
G1 X84.729 Y113.863 E0.01260
G1 X85.250 Y114.100 E0.01796
G1 X85.759 Y114.468 E0.01969
G1 X86.165 Y114.904 E0.01867
G1 X86.496 Y115.441 E0.01977
G1 X86.713 Y116.037 E0.01988
G1 X86.795 Y116.601 E0.01787
G1 X86.422 Y116.656 F7200.000
G1 F1800
G1 X86.399 Y117.199 E0.01705
G1 X86.263 Y117.737 E0.01741
G1 X86.022 Y118.237 E0.01740
G1 X85.707 Y118.652 E0.01635
G1 X85.292 Y119.021 E0.01739
G1 X84.810 Y119.300 E0.01747
G1 X84.284 Y119.474 E0.01738
G1 X83.766 Y119.539 E0.01634
G1 X83.212 Y119.499 E0.01742
G1 X82.679 Y119.347 E0.01740
G1 X82.215 Y119.110 E0.01633
G1 X81.780 Y118.766 E0.01739
G1 X81.421 Y118.339 E0.01749
G1 X81.158 Y117.850 E0.01739
G1 X81.005 Y117.353 E0.01632
G1 X80.948 Y116.800 E0.01742
G1 X81.005 Y116.247 E0.01742
G1 X81.158 Y115.750 E0.01632
G1 X81.421 Y115.261 E0.01739
G1 X81.780 Y114.834 E0.01749
G1 X82.215 Y114.490 E0.01739
G1 X82.679 Y114.253 E0.01633
G1 X83.211 Y114.102 E0.01735
G1 X83.730 Y114.061 E0.01633
G1 X84.269 Y114.123 E0.01701
G1 X84.599 Y114.218 E0.01075
G1 X85.060 Y114.428 E0.01590
G1 X85.509 Y114.752 E0.01735
G1 X85.864 Y115.134 E0.01634
G1 X86.155 Y115.606 E0.01740
G1 X86.345 Y116.130 E0.01747
G1 X86.413 Y116.596 E0.01478
G1 X86.040 Y116.651 F7200.000
G1 F1800
G1 X86.025 Y117.143 E0.01544
G1 X85.907 Y117.608 E0.01503
G1 X85.698 Y118.039 E0.01503
G1 X85.428 Y118.395 E0.01402
G1 X85.070 Y118.714 E0.01503
G1 X84.655 Y118.954 E0.01505
G1 X84.200 Y119.105 E0.01501
G1 X83.757 Y119.160 E0.01402
G1 X83.278 Y119.125 E0.01504
G1 X82.817 Y118.994 E0.01502
G1 X82.419 Y118.791 E0.01401
G1 X82.044 Y118.494 E0.01502
G1 X81.735 Y118.126 E0.01506
G1 X81.508 Y117.704 E0.01502
G1 X81.377 Y117.277 E0.01400
G1 X81.327 Y116.800 E0.01503
G1 X81.377 Y116.323 E0.01503
G1 X81.508 Y115.896 E0.01400
G1 X81.735 Y115.474 E0.01502
G1 X82.044 Y115.106 E0.01506
G1 X82.419 Y114.809 E0.01502
G1 X82.817 Y114.606 E0.01401
G1 X83.278 Y114.475 E0.01500
G1 X83.723 Y114.440 E0.01401
G1 X84.195 Y114.495 E0.01490
G1 X84.468 Y114.573 E0.00890
G1 X84.870 Y114.756 E0.01384
G1 X85.258 Y115.036 E0.01501
G1 X85.562 Y115.363 E0.01401
G1 X85.813 Y115.771 E0.01502
G1 X85.978 Y116.222 E0.01505
G1 X86.031 Y116.591 E0.01169
G1 X86.398 Y116.828 F7200.000
G1 F5760
G1 X86.025 Y117.143 E-0.19103
G1 X85.907 Y117.608 E-0.16605
G1 X85.698 Y118.039 E-0.16598
G1 X85.428 Y118.395 E-0.15483
G1 X85.251 Y118.553 E-0.08211
G1 E-0.04000 F2100.00000
G1 Z0.800 F7200.000
G1 X83.688 Y91.319
G1 Z0.200
G1 E0.80000 F2100.00000
G1 F1800
G1 X83.060 Y91.255 E0.01980
G1 X82.492 Y91.080 E0.01865
G1 X81.938 Y90.781 E0.01974
G1 X81.451 Y90.373 E0.01992
G1 X81.060 Y89.878 E0.01979
G1 X80.790 Y89.349 E0.01862
G1 X80.617 Y88.744 E0.01971
G1 X80.573 Y88.174 E0.01795
G1 X80.600 Y87.773 E0.01258
G1 X80.742 Y87.179 E0.01914
G1 X80.988 Y86.638 E0.01865
G1 X81.357 Y86.129 E0.01970
G1 X81.792 Y85.724 E0.01864
G1 X82.329 Y85.393 E0.01980
G1 X82.926 Y85.176 E0.01989
G1 X83.550 Y85.085 E0.01977
G1 X84.143 Y85.115 E0.01863
G1 X84.756 Y85.269 E0.01981
G1 X85.323 Y85.544 E0.01978
G1 X85.797 Y85.903 E0.01863
G1 X86.217 Y86.373 E0.01978
G1 X86.534 Y86.923 E0.01991
G1 X86.733 Y87.522 E0.01979
G1 X86.806 Y88.113 E0.01864
G1 X86.761 Y88.742 E0.01978
G1 X86.587 Y89.349 E0.01979
G1 X86.317 Y89.878 E0.01862
G1 X85.926 Y90.373 E0.01979
G1 X85.439 Y90.781 E0.01992
G1 X84.885 Y91.080 E0.01974
G1 X84.317 Y91.255 E0.01865
G1 X83.748 Y91.313 E0.01791
G1 X83.710 Y90.938 F7200.000
G1 F1800
G1 X83.136 Y90.884 E0.01807
G1 X82.638 Y90.730 E0.01632
G1 X82.150 Y90.467 E0.01738
G1 X81.723 Y90.109 E0.01750
G1 X81.379 Y89.673 E0.01741
G1 X81.142 Y89.210 E0.01630
G1 X80.990 Y88.677 E0.01736
G1 X80.951 Y88.172 E0.01590
G1 X80.974 Y87.830 E0.01074
G1 X81.101 Y87.302 E0.01702
G1 X81.316 Y86.828 E0.01632
G1 X81.641 Y86.380 E0.01736
G1 X82.022 Y86.025 E0.01632
G1 X82.495 Y85.734 E0.01742
G1 X83.018 Y85.543 E0.01748
G1 X83.567 Y85.463 E0.01740
G1 X84.087 Y85.489 E0.01631
G1 X84.626 Y85.625 E0.01743
G1 X85.125 Y85.867 E0.01740
G1 X85.540 Y86.181 E0.01631
G1 X85.910 Y86.595 E0.01741
G1 X86.189 Y87.078 E0.01748
G1 X86.363 Y87.606 E0.01741
G1 X86.427 Y88.122 E0.01632
G1 X86.387 Y88.676 E0.01740
G1 X86.235 Y89.210 E0.01742
G1 X85.998 Y89.673 E0.01630
G1 X85.654 Y90.109 E0.01741
G1 X85.227 Y90.467 E0.01750
G1 X84.739 Y90.730 E0.01738
G1 X84.241 Y90.884 E0.01632
G1 X83.769 Y90.932 E0.01487
G1 X83.731 Y90.557 F7200.000
G1 F1800
G1 X83.211 Y90.512 E0.01635
G1 X82.785 Y90.381 E0.01400
G1 X82.363 Y90.154 E0.01502
G1 X81.995 Y89.845 E0.01507
G1 X81.698 Y89.469 E0.01503
G1 X81.495 Y89.071 E0.01399
G1 X81.363 Y88.611 E0.01502
G1 X81.329 Y88.170 E0.01385
G1 X81.349 Y87.887 E0.00889
G1 X81.459 Y87.425 E0.01489
G1 X81.644 Y87.019 E0.01400
G1 X81.925 Y86.631 E0.01502
G1 X82.251 Y86.327 E0.01399
G1 X82.660 Y86.075 E0.01505
G1 X83.111 Y85.911 E0.01506
G1 X83.585 Y85.842 E0.01503
G1 X84.031 Y85.864 E0.01399
G1 X84.496 Y85.981 E0.01505
G1 X84.927 Y86.190 E0.01502
G1 X85.283 Y86.460 E0.01400
G1 X85.603 Y86.818 E0.01504
G1 X85.843 Y87.234 E0.01506
G1 X85.994 Y87.689 E0.01503
G1 X86.048 Y88.132 E0.01400
G1 X86.014 Y88.610 E0.01503
G1 X85.882 Y89.071 E0.01504
G1 X85.679 Y89.469 E0.01399
G1 X85.382 Y89.845 E0.01503
G1 X85.014 Y90.154 E0.01507
G1 X84.592 Y90.381 E0.01502
G1 X84.166 Y90.512 E0.01400
G1 X83.791 Y90.551 E0.01182
G1 X83.535 Y90.905 F7200.000
G1 F5760
G1 X83.211 Y90.512 E-0.20111
G1 X82.785 Y90.381 E-0.15462
G1 X82.363 Y90.154 E-0.16588
G1 X81.995 Y89.845 E-0.16650
G1 X81.866 Y89.682 E-0.07189
G1 E-0.04000 F2100.00000
G1 Z0.800 F7200.000
G1 X102.574 Y88.734
G1 Z0.200
G1 E0.80000 F2100.00000
G1 F1800
G1 X102.574 Y84.066 E0.14637
G1 X125.834 Y84.066 E0.72928
G1 X125.858 Y88.734 E0.14637
G1 X102.634 Y88.734 E0.72815
G1 X102.951 Y88.357 F7200.000
G1 F1800
G1 X102.951 Y84.443 E0.12273
G1 X125.459 Y84.443 E0.70570
G1 X125.479 Y88.357 E0.12273
G1 X103.011 Y88.357 E0.70444
G1 X103.329 Y87.980 F7200.000
G1 F1800
G1 X103.329 Y84.820 E0.09908
G1 X125.083 Y84.820 E0.68211
G1 X125.100 Y87.980 E0.09908
G1 X103.389 Y87.980 E0.68074
G1 X102.929 Y87.999 F7200.000
G1 F5760
G1 X103.347 Y85.786 E-0.76000
G1 E-0.04000 F2100.00000
G1 Z0.800 F7200.000
G1 X102.574 Y116.266
G1 Z0.200
G1 E0.80000 F2100.00000
G1 F1800
G1 X102.574 Y120.934 E0.14637
G1 X126.024 Y120.934 E0.73526
G1 X126.024 Y121.536 E0.01887
G1 X78.953 Y121.536 E1.47590
G1 X78.953 Y83.464 E1.19371
G1 X126.024 Y83.464 E1.47590
G1 X126.024 Y116.266 E1.02847
G1 X102.634 Y116.266 E0.73338
G1 F5760
G1 X102.606 Y118.460 E-0.76000
G1 E-0.04000 F2100.00000
G1 Z0.800 F7200.000
G1 X126.401 Y121.913
G1 Z0.200
G1 E0.80000 F2100.00000
G1 F1800
G1 X78.576 Y121.913 E1.49955
G1 X78.576 Y83.087 E1.21736
G1 X126.401 Y83.087 E1.49955
G1 X126.401 Y121.853 E1.21548
G1 X126.779 Y122.290 F7200.000
G1 F1800
G1 X78.199 Y122.290 E1.52319
G1 X78.199 Y82.710 E1.24100
G1 X126.779 Y82.710 E1.52319
G1 X126.779 Y122.230 E1.23912
G1 X126.389 Y122.200 F7200.000
G1 F5760
G1 X124.584 Y122.233 E-0.76000
G1 E-0.04000 F2100.00000
G1 Z0.800 F7200.000
G1 X125.836 Y121.235
G1 Z0.200
G1 E0.80000 F2100.00000
G1 F1800
G1 X102.386 Y121.235 E0.43796
G1 F5760
G1 X104.580 Y121.235 E-0.76000
G1 E-0.04000 F2100.00000
G1 Z0.800 F7200.000
G1 X106.037 Y116.153
G1 Z0.200
G1 E0.80000 F2100.00000
G1 F1800
G1 X79.235 Y89.351 E1.18900
G1 X79.235 Y89.885 E0.01674
G1 X105.334 Y115.983 E1.15780
G1 X104.800 Y115.983 E0.01674
G1 X79.235 Y90.418 E1.13413
G1 X79.235 Y90.952 E0.01674
G1 X104.267 Y115.983 E1.11046
G1 X103.733 Y115.983 E0.01674
G1 X79.235 Y91.486 E1.08679
G1 X79.235 Y92.019 E0.01674
G1 X103.199 Y115.983 E1.06312
G1 X102.666 Y115.983 E0.01674
G1 X79.235 Y92.553 E1.03945
G1 X79.235 Y93.086 E0.01674
G1 X102.292 Y116.142 E1.02285
G1 X102.292 Y116.676 E0.01674
G1 X79.235 Y93.620 E1.02285
G1 X79.235 Y94.153 E0.01674
G1 X102.292 Y117.209 E1.02285
G1 X102.292 Y117.743 E0.01674
G1 X79.235 Y94.687 E1.02285
G1 X79.235 Y95.220 E0.01674
G1 X102.292 Y118.276 E1.02285
G1 X102.292 Y118.810 E0.01674
G1 X79.235 Y95.754 E1.02285
G1 X79.235 Y96.287 E0.01674
G1 X102.292 Y119.343 E1.02285
G1 X102.292 Y119.877 E0.01674
G1 X79.235 Y96.821 E1.02285
G1 X79.235 Y97.354 E0.01674
G1 X102.292 Y120.410 E1.02285
G1 X102.292 Y120.818 E0.01280
G1 X102.166 Y120.818 E0.00394
G1 X79.235 Y97.888 E1.01728
G1 X79.235 Y98.421 E0.01674
G1 X102.067 Y121.253 E1.01289
G1 X101.534 Y121.253 E0.01674
G1 X79.235 Y98.955 E0.98922
G1 X79.235 Y99.489 E0.01674
G1 X101.000 Y121.253 E0.96555
G1 X100.466 Y121.253 E0.01674
G1 X79.235 Y100.022 E0.94188
G1 X79.235 Y100.556 E0.01674
G1 X99.933 Y121.253 E0.91821
G1 X99.399 Y121.253 E0.01674
G1 X79.235 Y101.089 E0.89454
G1 X79.235 Y101.623 E0.01674
G1 X98.866 Y121.253 E0.87087
G1 X98.332 Y121.253 E0.01674
G1 X79.235 Y102.156 E0.84720
G1 X79.235 Y102.690 E0.01674
G1 X97.799 Y121.253 E0.82353
G1 X97.265 Y121.253 E0.01674
G1 X79.235 Y103.223 E0.79986
G1 X79.235 Y103.757 E0.01674
G1 X96.732 Y121.253 E0.77619
G1 X96.198 Y121.253 E0.01674
G1 X79.235 Y104.290 E0.75253
G1 X79.235 Y104.824 E0.01674
G1 X95.665 Y121.253 E0.72886
G1 X95.131 Y121.253 E0.01674
G1 X79.235 Y105.357 E0.70519
G1 X79.235 Y105.891 E0.01674
G1 X94.598 Y121.253 E0.68152
G1 X94.064 Y121.253 E0.01674
G1 X79.235 Y106.424 E0.65785
G1 X79.235 Y106.958 E0.01674
G1 X93.531 Y121.253 E0.63418
G1 X92.997 Y121.253 E0.01674
G1 X79.235 Y107.491 E0.61051
G1 X79.235 Y108.025 E0.01674
G1 X84.799 Y113.589 E0.24683
G1 X84.398 Y113.474 E0.01308
G1 X84.119 Y113.442 E0.00883
G1 X79.235 Y108.559 E0.21664
G1 X79.235 Y109.092 E0.01674
G1 X83.556 Y113.413 E0.19169
G1 X83.067 Y113.457 E0.01542
G1 X79.235 Y109.626 E0.16997
G1 X79.235 Y110.159 E0.01674
G1 X82.651 Y113.575 E0.15153
G1 X82.436 Y113.636 E0.00703
G1 X82.266 Y113.723 E0.00599
G1 X79.235 Y110.693 E0.13444
G1 X79.235 Y111.226 E0.01674
G1 X81.913 Y113.904 E0.11878
G1 X81.606 Y114.130 E0.01197
G1 X79.235 Y111.760 E0.10517
G1 X79.235 Y112.293 E0.01674
G1 X81.310 Y114.368 E0.09203
G1 X81.066 Y114.658 E0.01188
G1 X79.235 Y112.827 E0.08122
G1 X79.235 Y113.360 E0.01674
G1 X80.834 Y114.959 E0.07093
G1 X80.648 Y115.306 E0.01236
G1 X79.235 Y113.894 E0.06266
G1 X79.235 Y114.427 E0.01674
G1 X80.489 Y115.681 E0.05562
G1 X80.364 Y116.089 E0.01339
G1 X79.235 Y114.961 E0.05005
G1 X79.235 Y115.494 E0.01674
G1 X80.309 Y116.568 E0.04762
G1 X80.285 Y116.800 E0.00732
G1 X80.317 Y117.109 E0.00976
G1 X79.235 Y116.028 E0.04797
G1 X79.235 Y116.562 E0.01674
G1 X80.700 Y118.026 E0.06496
G1 F5760
G1 X79.235 Y116.562 E-0.71723
G1 X79.235 Y116.438 E-0.04277
G1 E-0.04000 F2100.00000
G1 Z0.800 F7200.000
G1 X82.459 Y119.785
G1 Z0.200
G1 E0.80000 F2100.00000
G1 F1800
G1 X83.927 Y121.253 E0.06512
G1 X84.461 Y121.253 E0.01674
G1 X83.380 Y120.172 E0.04795
G1 X83.783 Y120.202 E0.01270
G1 X83.925 Y120.184 E0.00447
G1 X84.994 Y121.253 E0.04743
G1 X85.528 Y121.253 E0.01674
G1 X84.399 Y120.125 E0.05005
G1 X84.805 Y119.997 E0.01334
G1 X86.061 Y121.253 E0.05573
G1 X86.595 Y121.253 E0.01674
G1 X85.186 Y119.845 E0.06248
G1 X85.524 Y119.649 E0.01225
G1 X87.128 Y121.253 E0.07115
G1 X87.662 Y121.253 E0.01674
G1 X85.833 Y119.424 E0.08115
G1 X86.115 Y119.173 E0.01185
G1 X88.195 Y121.253 E0.09230
G1 X88.729 Y121.253 E0.01674
G1 X86.359 Y118.884 E0.10512
G1 X86.589 Y118.580 E0.01195
G1 X89.262 Y121.253 E0.11861
G1 X89.796 Y121.253 E0.01674
G1 X86.763 Y118.220 E0.13456
G1 X86.886 Y117.964 E0.00891
G1 X86.917 Y117.841 E0.00398
G1 X90.329 Y121.253 E0.15137
G1 X90.863 Y121.253 E0.01674
G1 X87.025 Y117.415 E0.17025
G1 X87.055 Y117.297 E0.00382
G1 X87.073 Y116.930 E0.01154
G1 X91.396 Y121.253 E0.19179
G1 X91.930 Y121.253 E0.01674
G1 X87.047 Y116.370 E0.21662
G1 X86.988 Y115.967 E0.01277
G1 X86.880 Y115.669 E0.00995
G1 X92.633 Y121.423 E0.25524
G1 F5760
G1 X91.082 Y119.871 E-0.76000
G1 E-0.04000 F2100.00000
G1 Z0.800 F7200.000
G1 X83.563 Y121.423
G1 Z0.200
G1 E0.80000 F2100.00000
G1 F1800
G1 X79.235 Y117.095 E0.19199
G1 X79.235 Y117.629 E0.01674
G1 X82.860 Y121.253 E0.16079
G1 X82.326 Y121.253 E0.01674
G1 X79.235 Y118.162 E0.13712
G1 X79.235 Y118.696 E0.01674
G1 X81.793 Y121.253 E0.11346
G1 X81.259 Y121.253 E0.01674
G1 X79.235 Y119.229 E0.08979
G1 X79.235 Y119.763 E0.01674
G1 X80.726 Y121.253 E0.06612
G1 X80.192 Y121.253 E0.01674
G1 X79.235 Y120.296 E0.04245
G1 X79.235 Y120.830 E0.01674
G1 X79.828 Y121.423 E0.02631
G1 F5760
G1 X79.235 Y120.830 E-0.29045
G1 X79.235 Y120.296 E-0.18479
G1 X79.817 Y120.878 E-0.28476
G1 E-0.04000 F2100.00000
G1 Z0.800 F7200.000
G1 X83.598 Y83.577
G1 Z0.200
G1 E0.80000 F2100.00000
G1 F1800
G1 X85.183 Y85.162 E0.07030
G1 X84.853 Y85.002 E0.01151
G1 X84.367 Y84.879 E0.01572
G1 X83.235 Y83.747 E0.05024
G1 X82.701 Y83.747 E0.01674
G1 X83.767 Y84.812 E0.04727
G1 X83.536 Y84.801 E0.00724
G1 X83.261 Y84.841 E0.00871
G1 X82.168 Y83.747 E0.04853
G1 X81.634 Y83.747 E0.01674
G1 X82.805 Y84.918 E0.05197
G1 X82.414 Y85.061 E0.01306
G1 X81.100 Y83.747 E0.05829
G1 X80.567 Y83.747 E0.01674
G1 X82.052 Y85.232 E0.06587
G1 X81.722 Y85.435 E0.01216
G1 X80.033 Y83.747 E0.07490
G1 X79.500 Y83.747 E0.01674
G1 X81.429 Y85.676 E0.08557
G1 X81.152 Y85.933 E0.01184
G1 X79.235 Y84.016 E0.08504
G1 X79.235 Y84.550 E0.01674
