; generated by Slic3r Prusa Edition 1.39.2+win64 on 2018-05-29 at 11:16:39

; 

; external perimeters extrusion width = 0.45mm
; perimeters extrusion width = 0.45mm
; infill extrusion width = 0.45mm
; solid infill extrusion width = 0.45mm
; top infill extrusion width = 0.45mm
; first layer extrusion width = 0.42mm

M107
M115 U3.1.0 ; tell printer latest fw version
M83  ; extruder relative mode
M104 S205 ; set extruder temp
M140 S55 ; set bed temp
M190 S55 ; wait for bed temp
M109 S205 ; wait for extruder temp
G28 W ; home all without mesh bed level
G80 ; mesh bed leveling
G1 Y-3.0 F1000.0 ; go outside print area
G92 E0.0
G1 X60.0 E9.0  F1000.0 ; intro line
G1 X100.0 E12.5  F1000.0 ; intro line
G92 E0.0
M900 K30; Filament gcode
G21 ; set units to millimeters
G90 ; use absolute coordinates
M83 ; use relative distances for extrusion
;BEFORE_LAYER_CHANGE
;0.2


G1 E-0.80000 F2100.00000
G1 Z0.600 F7200.000
;AFTER_LAYER_CHANGE
;0.2
G1 X88.362 Y89.208
G1 Z0.200
G1 E0.80000 F2100.00000
M204 S1000
G1 F1800
G1 X88.660 Y88.548 E0.02269
G1 X89.074 Y88.031 E0.02078
G1 X89.600 Y87.628 E0.02078
G1 X90.207 Y87.362 E0.02078
G1 X90.860 Y87.249 E0.02078
G1 X114.004 Y87.246 E0.72567
G1 X114.925 Y87.406 E0.02930
G1 X115.739 Y87.864 E0.02930
G1 X116.351 Y88.565 E0.02917
G1 X116.695 Y89.433 E0.02930
G1 X116.754 Y89.987 E0.01745
G1 X116.741 Y100.270 E0.32242
G1 X116.618 Y100.855 E0.01873
G1 X114.902 Y105.902 E0.16715
G1 X111.394 Y115.925 E0.33296
G1 X111.140 Y116.452 E0.01835
G1 X110.728 Y116.966 E0.02065
G1 X110.206 Y117.368 E0.02065
G1 X109.604 Y117.634 E0.02065
G1 X108.956 Y117.750 E0.02065
G1 X96.718 Y117.753 E0.38371
G1 X96.004 Y117.637 E0.02269
G1 X95.348 Y117.340 E0.02256
G1 X94.764 Y116.854 E0.02383
G1 X94.332 Y116.223 E0.02396
G1 X89.762 Y106.070 E0.34911
G1 X88.318 Y100.625 E0.17662
G1 X88.246 Y100.020 E0.01912
G1 X88.247 Y89.922 E0.31661
G1 X88.353 Y89.267 E0.02081
G1 X88.722 Y89.326 F7200.000
G1 F1800
G1 X88.987 Y88.736 E0.02030
G1 X89.346 Y88.293 E0.01787
G1 X89.803 Y87.946 E0.01799
G1 X90.330 Y87.719 E0.01799
G1 X90.896 Y87.625 E0.01799
G1 X114.004 Y87.623 E0.72453
G1 X114.810 Y87.765 E0.02567
G1 X115.520 Y88.173 E0.02567
G1 X116.050 Y88.797 E0.02567
G1 X116.337 Y89.563 E0.02567
G1 X116.363 Y100.262 E0.33546
G1 X116.257 Y100.745 E0.01550
G1 X114.546 Y105.780 E0.16672
G1 X111.040 Y115.796 E0.33274
G1 X110.813 Y116.265 E0.01633
G1 X110.454 Y116.707 E0.01787
G1 X110.000 Y117.052 E0.01787
G1 X109.477 Y117.279 E0.01787
G1 X108.915 Y117.374 E0.01787
G1 X96.735 Y117.376 E0.38188
G1 X96.113 Y117.276 E0.01977
G1 X95.536 Y117.013 E0.01989
G1 X95.033 Y116.590 E0.02060
G1 X94.665 Y116.046 E0.02060
G1 X90.105 Y105.913 E0.34841
G1 X88.684 Y100.535 E0.17439
G1 X88.623 Y100.014 E0.01645
G1 X88.624 Y89.939 E0.31590
G1 X88.713 Y89.386 E0.01757
G1 F5760
G1 X88.987 Y88.736 E-0.24437
G1 X89.346 Y88.293 E-0.19741
G1 X89.803 Y87.946 E-0.19872
G1 X90.120 Y87.810 E-0.11950
G1 E-0.04000 F2100.00000
G1 Z0.800 F7200.000
G1 X91.964 Y90.964
G1 Z0.200
G1 E0.80000 F2100.00000
G1 F1800
G1 X113.036 Y90.964 E0.66069
G1 X113.036 Y99.036 E0.25308
G1 X111.336 Y99.036 E0.05330
G1 X111.336 Y104.036 E0.15677
G1 X107.836 Y104.036 E0.10974
G1 X107.836 Y114.036 E0.31354
G1 X107.764 Y114.036 E0.00225
G1 X107.764 Y104.036 E0.31354
G1 X102.836 Y104.036 E0.15452
G1 X102.836 Y114.036 E0.31354
G1 X102.764 Y114.036 E0.00225
G1 X102.764 Y104.036 E0.31354
G1 X97.836 Y104.036 E0.15452
G1 X97.836 Y114.036 E0.31354
G1 X97.764 Y114.036 E0.00225
G1 X97.764 Y104.036 E0.31354
G1 X93.264 Y104.036 E0.14109
G1 X93.264 Y99.036 E0.15677
G1 X91.964 Y99.036 E0.04076
G1 X91.964 Y91.024 E0.25120
G1 F5760
G1 X94.158 Y91.018 E-0.76000
G1 E-0.04000 F2100.00000
G1 Z0.800 F7200.000
G1 X111.713 Y99.413
G1 Z0.200
G1 E0.80000 F2100.00000
G1 F1800
G1 X111.713 Y104.413 E0.15677
G1 X108.213 Y104.413 E0.10974
G1 X108.213 Y114.413 E0.31354
G1 X107.387 Y114.413 E0.02589
G1 X107.387 Y104.413 E0.31354
G1 X103.213 Y104.413 E0.13088
G1 X103.213 Y114.413 E0.31354
G1 X102.387 Y114.413 E0.02589
G1 X102.387 Y104.413 E0.31354
G1 X98.213 Y104.413 E0.13088
G1 X98.213 Y114.413 E0.31354
G1 X97.387 Y114.413 E0.02589
G1 X97.387 Y104.413 E0.31354
G1 X92.887 Y104.413 E0.14109
G1 X92.887 Y99.413 E0.15677
G1 X91.587 Y99.413 E0.04076
G1 X91.587 Y90.587 E0.27673
G1 X113.413 Y90.587 E0.68433
G1 X113.413 Y99.413 E0.27673
G1 X111.773 Y99.413 E0.05142
G1 X112.090 Y99.790 F7200.000
G1 F1800
G1 X112.090 Y104.790 E0.15677
G1 X108.590 Y104.790 E0.10974
G1 X108.590 Y114.790 E0.31354
G1 X107.010 Y114.790 E0.04954
G1 X107.010 Y104.790 E0.31354
G1 X103.590 Y104.790 E0.10723
G1 X103.590 Y114.790 E0.31354
G1 X102.010 Y114.790 E0.04954
G1 X102.010 Y104.790 E0.31354
G1 X98.590 Y104.790 E0.10723
G1 X98.590 Y114.790 E0.31354
G1 X97.010 Y114.790 E0.04954
G1 X97.010 Y104.790 E0.31354
G1 X92.510 Y104.790 E0.14109
G1 X92.510 Y99.790 E0.15677
G1 X91.210 Y99.790 E0.04076
G1 X91.210 Y90.210 E0.30037
G1 X113.790 Y90.210 E0.70798
G1 X113.790 Y99.790 E0.30037
G1 X112.150 Y99.790 E0.05142
G1 X111.732 Y99.969 F7200.000
G1 F5760
G1 X112.124 Y101.984 E-0.76000
G1 E-0.04000 F2100.00000
G1 Z0.800 F7200.000
G1 X112.923 Y91.851
G1 Z0.200
G1 E0.80000 F2100.00000
G1 F1800
G1 X112.318 Y91.247 E0.02719
G1 X111.777 Y91.247 E0.01722
G1 X112.753 Y92.223 E0.04390
G1 X112.753 Y92.764 E0.01722
G1 X111.236 Y91.247 E0.06825
G1 X110.695 Y91.247 E0.01722
G1 X112.753 Y93.305 E0.09259
G1 X112.753 Y93.846 E0.01722
G1 X110.154 Y91.247 E0.11694
G1 X109.613 Y91.247 E0.01722
G1 X112.753 Y94.387 E0.14129
G1 X112.753 Y94.928 E0.01722
G1 X109.072 Y91.247 E0.16563
G1 X108.531 Y91.247 E0.01722
G1 X112.753 Y95.469 E0.18998
G1 X112.753 Y96.010 E0.01722
G1 X107.990 Y91.247 E0.21432
G1 X107.448 Y91.247 E0.01722
G1 X112.753 Y96.552 E0.23867
G1 X112.753 Y97.093 E0.01722
G1 X106.907 Y91.247 E0.26302
G1 X106.366 Y91.247 E0.01722
G1 X112.753 Y97.634 E0.28736
G1 X112.753 Y98.175 E0.01722
G1 X105.825 Y91.247 E0.31171
G1 X105.284 Y91.247 E0.01722
G1 X112.753 Y98.716 E0.33605
G1 X112.753 Y98.753 E0.00118
G1 X112.249 Y98.753 E0.01604
G1 X104.743 Y91.247 E0.33772
G1 X104.202 Y91.247 E0.01722
G1 X111.708 Y98.753 E0.33772
G1 X111.167 Y98.753 E0.01722
G1 X103.661 Y91.247 E0.33772
G1 X103.120 Y91.247 E0.01722
G1 X111.053 Y99.180 E0.35695
G1 X111.053 Y99.721 E0.01722
G1 X102.579 Y91.247 E0.38130
G1 X102.037 Y91.247 E0.01722
G1 X111.053 Y100.263 E0.40564
G1 X111.053 Y100.804 E0.01722
G1 X101.496 Y91.247 E0.42999
G1 X100.955 Y91.247 E0.01722
G1 X111.053 Y101.345 E0.45433
G1 X111.053 Y101.886 E0.01722
G1 X100.414 Y91.247 E0.47868
G1 X99.873 Y91.247 E0.01722
G1 X111.053 Y102.427 E0.50303
G1 X111.053 Y102.968 E0.01722
G1 X99.332 Y91.247 E0.52737
G1 X98.791 Y91.247 E0.01722
G1 X111.053 Y103.509 E0.55172
G1 X111.053 Y103.753 E0.00776
G1 X110.756 Y103.753 E0.00946
G1 X98.250 Y91.247 E0.56269
G1 X97.709 Y91.247 E0.01722
G1 X110.215 Y103.753 E0.56269
G1 X109.674 Y103.753 E0.01722
G1 X97.167 Y91.247 E0.56269
G1 X96.626 Y91.247 E0.01722
G1 X109.132 Y103.753 E0.56269
G1 X108.591 Y103.753 E0.01722
G1 X96.085 Y91.247 E0.56269
G1 X95.544 Y91.247 E0.01722
G1 X108.050 Y103.753 E0.56269
G1 X107.509 Y103.753 E0.01722
G1 X95.003 Y91.247 E0.56269
G1 X94.462 Y91.247 E0.01722
G1 X106.968 Y103.753 E0.56269
G1 X106.427 Y103.753 E0.01722
G1 X93.921 Y91.247 E0.56269
G1 X93.380 Y91.247 E0.01722
G1 X105.886 Y103.753 E0.56269
G1 X105.345 Y103.753 E0.01722
G1 X92.839 Y91.247 E0.56269
G1 X92.298 Y91.247 E0.01722
G1 X104.804 Y103.753 E0.56269
G1 X104.263 Y103.753 E0.01722
G1 X92.247 Y91.737 E0.54062
G1 X92.247 Y92.279 E0.01722
G1 X103.721 Y103.753 E0.51627
G1 X103.180 Y103.753 E0.01722
G1 X92.247 Y92.820 E0.49193
G1 X92.247 Y93.361 E0.01722
G1 X102.639 Y103.753 E0.46758
G1 X102.098 Y103.753 E0.01722
G1 X92.247 Y93.902 E0.44323
G1 X92.247 Y94.443 E0.01722
G1 X101.557 Y103.753 E0.41889
G1 X101.016 Y103.753 E0.01722
G1 X92.247 Y94.984 E0.39454
G1 X92.247 Y95.525 E0.01722
G1 X100.475 Y103.753 E0.37020
G1 X99.934 Y103.753 E0.01722
G1 X92.247 Y96.066 E0.34585
G1 X92.247 Y96.607 E0.01722
G1 X99.393 Y103.753 E0.32150
G1 X98.851 Y103.753 E0.01722
G1 X92.247 Y97.149 E0.29716
G1 X92.247 Y97.690 E0.01722
G1 X98.310 Y103.753 E0.27281
G1 X97.769 Y103.753 E0.01722
G1 X93.547 Y99.531 E0.18998
G1 X93.547 Y100.072 E0.01722
G1 X97.228 Y103.753 E0.16563
G1 X96.687 Y103.753 E0.01722
G1 X93.547 Y100.613 E0.14128
G1 X93.547 Y101.154 E0.01722
G1 X96.146 Y103.753 E0.11694
G1 X95.605 Y103.753 E0.01722
G1 X93.547 Y101.695 E0.09259
G1 X93.547 Y102.236 E0.01722
G1 X95.064 Y103.753 E0.06825
G1 X94.523 Y103.753 E0.01722
G1 X93.547 Y102.777 E0.04390
G1 X93.547 Y103.318 E0.01722
G1 X94.151 Y103.923 E0.02719
G1 F5760
G1 X93.547 Y103.318 E-0.29598
G1 X93.547 Y102.777 E-0.18741
G1 X94.112 Y103.342 E-0.27660
G1 E-0.04000 F2100.00000
G1 Z0.800 F7200.000
G1 X92.939 Y98.923
G1 Z0.200
G1 E0.80000 F2100.00000
G1 F1800
G1 X92.077 Y98.061 E0.03877
M106 S247.35
;BEFORE_LAYER_CHANGE
;0.35


G1 F5760
G1 X92.939 Y98.923 E-0.42207
G1 E-0.37793 F2100.00000
G1 Z0.800 F7200.000
;AFTER_LAYER_CHANGE
;0.35
G1 X114.925 Y87.406
G1 Z0.350
G1 E0.80000 F2100.00000
G1 F3000
G1 X115.739 Y87.864 E0.02260
G1 X116.351 Y88.565 E0.02250
G1 X116.695 Y89.433 E0.02260
G1 X116.754 Y89.987 E0.01346
G1 X116.741 Y100.270 E0.24870
G1 X116.618 Y100.855 E0.01445
G1 X114.902 Y105.902 E0.12893
G1 X111.394 Y115.925 E0.25683
G1 X111.140 Y116.452 E0.01415
G1 X110.728 Y116.966 E0.01593
G1 X110.206 Y117.368 E0.01593
G1 X109.604 Y117.634 E0.01593
G1 X108.956 Y117.750 E0.01593
G1 X96.718 Y117.753 E0.29597
G1 X96.004 Y117.637 E0.01750
G1 X95.348 Y117.340 E0.01740
G1 X94.764 Y116.854 E0.01838
G1 X94.332 Y116.223 E0.01848
G1 X89.762 Y106.070 E0.26929
G1 X88.318 Y100.625 E0.13623
G1 X88.246 Y100.020 E0.01474
G1 X88.247 Y89.922 E0.24422
G1 X88.362 Y89.208 E0.01750
G1 X88.660 Y88.548 E0.01750
G1 X89.074 Y88.031 E0.01602
G1 X89.600 Y87.628 E0.01602
G1 X90.207 Y87.362 E0.01602
G1 X90.860 Y87.249 E0.01602
G1 X114.004 Y87.246 E0.55974
G1 X114.866 Y87.395 E0.02115
G1 F5760
G1 X115.739 Y87.864 E-0.34328
G1 X116.351 Y88.565 E-0.32222
G1 X116.451 Y88.819 E-0.09450
G1 E-0.04000 F2100.00000
G1 Z0.950 F7200.000
G1 X112.939 Y91.061
G1 Z0.350
G1 E0.80000 F2100.00000
M204 S800
G1 F3000
G1 X112.939 Y98.939 E0.20529
G1 X111.239 Y98.939 E0.04429
G1 X111.239 Y103.939 E0.13028
G1 X93.361 Y103.939 E0.46584
G1 X93.361 Y98.939 E0.13028
G1 X92.061 Y98.939 E0.03387
G1 X92.061 Y91.061 E0.20529
G1 X112.879 Y91.061 E0.54245
M204 S1000
G1 F5760
G1 X112.896 Y93.255 E-0.76000
G1 E-0.04000 F2100.00000
G1 Z0.950 F7200.000
G1 X111.657 Y99.357
G1 Z0.350
G1 E0.80000 F2100.00000
M204 S800
G1 F3000
G1 X111.657 Y104.357 E0.13028
G1 X108.157 Y104.357 E0.09120
G1 X108.157 Y114.357 E0.26056
G1 X107.443 Y114.357 E0.01861
G1 X107.443 Y104.357 E0.26056
G1 X103.157 Y104.357 E0.11167
G1 X103.157 Y114.357 E0.26056
G1 X102.443 Y114.357 E0.01861
G1 X102.443 Y104.357 E0.26056
G1 X98.157 Y104.357 E0.11167
G1 X98.157 Y114.357 E0.26056
G1 X97.443 Y114.357 E0.01861
G1 X97.443 Y104.357 E0.26056
G1 X92.943 Y104.357 E0.11725
G1 X92.943 Y99.357 E0.13028
G1 X91.643 Y99.357 E0.03387
G1 X91.643 Y90.643 E0.22706
G1 X113.357 Y90.643 E0.56578
G1 X113.357 Y99.357 E0.22706
G1 X111.717 Y99.357 E0.04273
M204 S1000
G1 X112.075 Y99.775 F7200.000
M204 S800
G1 F2400
G1 X112.075 Y104.775 E0.13028
G1 X108.575 Y104.775 E0.09120
G1 X108.575 Y114.775 E0.26056
G1 X107.025 Y114.775 E0.04039
G1 X107.025 Y104.775 E0.26056
G1 X103.575 Y104.775 E0.08989
G1 X103.575 Y114.775 E0.26056
G1 X102.025 Y114.775 E0.04039
G1 X102.025 Y104.775 E0.26056
G1 X98.575 Y104.775 E0.08989
G1 X98.575 Y114.775 E0.26056
G1 X97.025 Y114.775 E0.04039
G1 X97.025 Y104.775 E0.26056
G1 X92.525 Y104.775 E0.11725
G1 X92.525 Y99.775 E0.13028
G1 X91.225 Y99.775 E0.03387
G1 X91.225 Y90.225 E0.24883
G1 X113.775 Y90.225 E0.58756
G1 X113.775 Y99.775 E0.24883
G1 X112.135 Y99.775 E0.04273
M204 S1000
G1 X111.717 Y99.954 F7200.000
G1 X112.275 Y98.814
M204 S2000
G1 F3000
G1 X112.626 Y98.463 E0.01305
G1 X112.626 Y97.866 E0.01572
G1 X111.678 Y98.814 E0.03528
M204 S1000
G1 X111.114 Y99.378 F7200.000
M204 S2000
G1 F3000
G1 X106.866 Y103.626 E0.15813
G1 X107.463 Y103.626 E0.01572
G1 X110.926 Y100.163 E0.12891
G1 X110.926 Y100.760 E0.01572
G1 X108.060 Y103.626 E0.10668
G1 X108.657 Y103.626 E0.01572
G1 X110.926 Y101.357 E0.08446
G1 X110.926 Y101.954 E0.01572
G1 X109.254 Y103.626 E0.06224
G1 X109.851 Y103.626 E0.01572
G1 X110.926 Y102.551 E0.04001
G1 X110.926 Y103.148 E0.01572
G1 X110.260 Y103.814 E0.02478
M204 S1000
G1 F5760
G1 X110.926 Y103.148 E-0.32609
G1 X110.926 Y102.551 E-0.20677
G1 X110.462 Y103.015 E-0.22714
G1 E-0.04000 F2100.00000
G1 Z0.950 F7200.000
G1 X107.800 Y104.148
G1 Z0.350
G1 E0.80000 F2100.00000
G1 F2400
G1 X107.800 Y114.148 E0.18495
G1 F5760
G1 X107.800 Y111.954 E-0.76000
G1 E-0.04000 F2100.00000
G1 Z0.950 F7200.000
G1 X102.800 Y114.148
G1 Z0.350
G1 E0.80000 F2100.00000
G1 F2400
G1 X102.800 Y104.148 E0.18495
G1 F5760
G1 X102.800 Y106.343 E-0.76000
G1 E-0.04000 F2100.00000
G1 Z0.950 F7200.000
G1 X106.081 Y103.814
G1 Z0.350
G1 E0.80000 F2100.00000
M204 S2000
G1 F3000
G1 X112.626 Y97.269 E0.24365
G1 X112.626 Y96.673 E0.01572
G1 X105.673 Y103.626 E0.25887
G1 X105.076 Y103.626 E0.01572
G1 X112.626 Y96.076 E0.28110
G1 X112.626 Y95.479 E0.01572
G1 X104.479 Y103.626 E0.30332
G1 X103.882 Y103.626 E0.01572
G1 X112.626 Y94.882 E0.32555
G1 X112.626 Y94.285 E0.01572
G1 X103.285 Y103.626 E0.34777
G1 X102.688 Y103.626 E0.01572
G1 X112.626 Y93.688 E0.37000
G1 X112.626 Y93.091 E0.01572
G1 X102.091 Y103.626 E0.39222
G1 X101.494 Y103.626 E0.01572
G1 X112.626 Y92.494 E0.41445
G1 X112.626 Y91.897 E0.01572
G1 X100.897 Y103.626 E0.43667
G1 X100.300 Y103.626 E0.01572
G1 X112.552 Y91.374 E0.45613
G1 X111.955 Y91.374 E0.01572
G1 X99.703 Y103.626 E0.45613
G1 X99.106 Y103.626 E0.01572
G1 X111.358 Y91.374 E0.45613
G1 X110.761 Y91.374 E0.01572
G1 X98.509 Y103.626 E0.45613
G1 X97.912 Y103.626 E0.01572
G1 X110.164 Y91.374 E0.45613
G1 X109.567 Y91.374 E0.01572
G1 X97.315 Y103.626 E0.45613
G1 X96.718 Y103.626 E0.01572
G1 X108.970 Y91.374 E0.45613
G1 X108.373 Y91.374 E0.01572
G1 X96.121 Y103.626 E0.45613
G1 X95.524 Y103.626 E0.01572
G1 X107.776 Y91.374 E0.45613
G1 X107.179 Y91.374 E0.01572
G1 X94.927 Y103.626 E0.45613
G1 X94.330 Y103.626 E0.01572
G1 X106.582 Y91.374 E0.45613
G1 X105.985 Y91.374 E0.01572
G1 X93.733 Y103.626 E0.45613
G1 X93.674 Y103.626 E0.00155
G1 X93.674 Y103.088 E0.01416
G1 X105.388 Y91.374 E0.43611
G1 X104.791 Y91.374 E0.01572
G1 X93.674 Y102.491 E0.41388
G1 X93.674 Y101.894 E0.01572
G1 X104.194 Y91.374 E0.39166
G1 X103.597 Y91.374 E0.01572
G1 X93.674 Y101.297 E0.36943
G1 X93.674 Y100.700 E0.01572
G1 X103.000 Y91.374 E0.34721
G1 X102.403 Y91.374 E0.01572
G1 X93.674 Y100.103 E0.32498
G1 X93.674 Y99.506 E0.01572
G1 X101.806 Y91.374 E0.30276
G1 X101.209 Y91.374 E0.01572
G1 X93.674 Y98.909 E0.28053
G1 X93.674 Y98.626 E0.00746
G1 X93.360 Y98.626 E0.00826
G1 X100.612 Y91.374 E0.26999
G1 X100.015 Y91.374 E0.01572
G1 X92.763 Y98.626 E0.26999
G1 X92.374 Y98.626 E0.01025
G1 X92.374 Y98.418 E0.00547
G1 X99.418 Y91.374 E0.26225
G1 X98.821 Y91.374 E0.01572
G1 X92.374 Y97.821 E0.24003
G1 X92.374 Y97.224 E0.01572
G1 X98.224 Y91.374 E0.21780
G1 X97.627 Y91.374 E0.01572
G1 X92.374 Y96.627 E0.19558
G1 X92.374 Y96.030 E0.01572
G1 X97.030 Y91.374 E0.17336
G1 X96.433 Y91.374 E0.01572
G1 X92.374 Y95.433 E0.15113
G1 X92.374 Y94.836 E0.01572
G1 X95.836 Y91.374 E0.12891
G1 X95.239 Y91.374 E0.01572
G1 X92.374 Y94.239 E0.10668
G1 X92.374 Y93.642 E0.01572
G1 X94.643 Y91.374 E0.08446
G1 X94.046 Y91.374 E0.01572
G1 X92.374 Y93.046 E0.06223
G1 X92.374 Y92.449 E0.01572
G1 X93.449 Y91.374 E0.04001
G1 X92.852 Y91.374 E0.01572
G1 X92.186 Y92.040 E0.02478
M204 S1000
G1 F5760
G1 X92.852 Y91.374 E-0.32603
G1 X93.449 Y91.374 E-0.20677
G1 X92.985 Y91.838 E-0.22720
G1 E-0.04000 F2100.00000
G1 Z0.950 F7200.000
G1 X97.800 Y104.148
G1 Z0.350
G1 E0.80000 F2100.00000
G1 F2400
G1 X97.800 Y114.148 E0.18495
;BEFORE_LAYER_CHANGE
;0.5


G1 F5760
G1 X97.800 Y111.954 E-0.76000
G1 E-0.04000 F2100.00000
G1 Z0.950 F7200.000
;AFTER_LAYER_CHANGE
;0.5
G1 X94.764 Y116.854
G1 Z0.500
G1 E0.80000 F2100.00000
G1 F3000
G1 X94.332 Y116.223 E0.01848
G1 X89.762 Y106.070 E0.26929
