; generated by Slic3r Prusa Edition 1.39.2+win64 on 2018-08-06 at 09:42:28

; 

; external perimeters extrusion width = 0.45mm
; perimeters extrusion width = 0.45mm
; infill extrusion width = 0.45mm
; solid infill extrusion width = 0.45mm
; top infill extrusion width = 0.45mm
; first layer extrusion width = 0.42mm

M107
M115 U3.1.0 ; tell printer latest fw version
M83  ; extruder relative mode
M104 S205 ; set extruder temp
M140 S55 ; set bed temp
M190 S55 ; wait for bed temp
M109 S205 ; wait for extruder temp
G28 W ; home all without mesh bed level
G80 ; mesh bed leveling
G1 Y-3.0 F1000.0 ; go outside print area
G92 E0.0
G1 X60.0 E9.0  F1000.0 ; intro line
G1 X100.0 E12.5  F1000.0 ; intro line
G92 E0.0
M900 K30; Filament gcode
G21 ; set units to millimeters
G90 ; use absolute coordinates
M83 ; use relative distances for extrusion
;BEFORE_LAYER_CHANGE
;0.2


G1 E-0.80000 F2100.00000
G1 Z0.600 F7200.000
;AFTER_LAYER_CHANGE
;0.2
G1 X89.418 Y86.228
G1 Z0.200
G1 E0.80000 F2100.00000
M204 S1000
G1 F1800
G1 X92.444 Y84.028 E0.11730
G1 X95.844 Y82.513 E0.11671
G1 X99.503 Y81.732 E0.11730
G1 X103.008 Y81.717 E0.10991
G1 X103.496 Y81.769 E0.01538
G1 X107.121 Y82.588 E0.11652
G1 X110.331 Y84.033 E0.11039
G1 X113.328 Y86.208 E0.11611
G1 X115.977 Y89.201 E0.12533
G1 X117.716 Y92.241 E0.10979
G1 X118.838 Y95.658 E0.11278
G1 X119.259 Y99.596 E0.12417
G1 X117.431 Y134.483 E1.09538
G1 X117.045 Y138.033 E0.11194
G1 X115.888 Y141.586 E0.11718
G1 X114.022 Y144.816 E0.11694
G1 X111.518 Y147.595 E0.11730
G1 X108.500 Y149.787 E0.11694
G1 X105.090 Y151.306 E0.11706
G1 X101.434 Y152.084 E0.11718
G1 X97.761 Y152.091 E0.11516
G1 X93.810 Y151.221 E0.12687
G1 X90.613 Y149.783 E0.10991
G1 X87.608 Y147.600 E0.11647
G1 X84.967 Y144.614 E0.12497
G1 X83.226 Y141.571 E0.10991
G1 X82.105 Y138.150 E0.11290
G1 X81.685 Y134.220 E0.12393
G1 X83.513 Y99.332 E1.09538
G1 X83.900 Y95.783 E0.11194
G1 X85.056 Y92.229 E0.11718
G1 X86.920 Y89.003 E0.11683
G1 X89.378 Y86.272 E0.11518
G1 F5760
G1 X91.149 Y84.976 E-0.76000
G1 E-0.04000 F2100.00000
G1 Z0.800 F7200.000
G1 X97.088 Y94.739
G1 Z0.200
G1 E0.80000 F2100.00000
G1 F1800
G1 X98.174 Y93.950 E0.04208
G1 X99.400 Y93.404 E0.04208
G1 X100.713 Y93.125 E0.04208
G1 X102.055 Y93.125 E0.04208
G1 X103.368 Y93.404 E0.04208
G1 X104.594 Y93.950 E0.04208
G1 X105.679 Y94.739 E0.04208
G1 X106.577 Y95.736 E0.04208
G1 X107.248 Y96.898 E0.04208
G1 X107.663 Y98.175 E0.04208
G1 X107.803 Y99.510 E0.04208
G1 X107.663 Y100.844 E0.04208
G1 X107.248 Y102.121 E0.04208
G1 X106.577 Y103.283 E0.04208
G1 X105.679 Y104.280 E0.04208
G1 X104.594 Y105.069 E0.04208
G1 X103.390 Y105.605 E0.04130
G1 X102.057 Y105.894 E0.04278
G1 X100.713 Y105.894 E0.04214
G1 X99.400 Y105.615 E0.04208
G1 X98.174 Y105.069 E0.04208
G1 X97.088 Y104.280 E0.04208
G1 X96.190 Y103.283 E0.04208
G1 X95.519 Y102.121 E0.04208
G1 X95.105 Y100.844 E0.04208
G1 X94.964 Y99.510 E0.04208
G1 X95.105 Y98.175 E0.04208
G1 X95.519 Y96.898 E0.04208
G1 X96.190 Y95.736 E0.04208
G1 X97.048 Y94.784 E0.04020
G1 X97.328 Y95.036 F7200.000
G1 F1800
G1 X98.364 Y94.278 E0.04022
G1 X99.517 Y93.765 E0.03959
G1 X100.752 Y93.502 E0.03959
G1 X102.015 Y93.502 E0.03959
G1 X103.250 Y93.765 E0.03959
G1 X104.404 Y94.278 E0.03959
G1 X105.426 Y95.021 E0.03959
G1 X106.271 Y95.959 E0.03959
G1 X106.902 Y97.053 E0.03959
G1 X107.292 Y98.254 E0.03959
G1 X107.424 Y99.510 E0.03959
G1 X107.292 Y100.765 E0.03959
G1 X106.902 Y101.966 E0.03959
G1 X106.271 Y103.060 E0.03959
G1 X105.426 Y103.998 E0.03959
G1 X104.404 Y104.741 E0.03959
G1 X103.272 Y105.244 E0.03884
G1 X102.016 Y105.517 E0.04029
G1 X100.752 Y105.517 E0.03963
G1 X99.517 Y105.254 E0.03959
G1 X98.364 Y104.741 E0.03959
G1 X97.342 Y103.998 E0.03959
G1 X96.497 Y103.060 E0.03959
G1 X95.866 Y101.966 E0.03959
G1 X95.476 Y100.765 E0.03959
G1 X95.344 Y99.510 E0.03959
G1 X95.476 Y98.254 E0.03959
G1 X95.866 Y97.053 E0.03959
G1 X96.497 Y95.959 E0.03959
G1 X97.288 Y95.080 E0.03707
G1 X97.569 Y95.333 F7200.000
G1 F1800
G1 X98.553 Y94.607 E0.03836
G1 X99.634 Y94.125 E0.03711
G1 X100.792 Y93.879 E0.03711
G1 X101.976 Y93.879 E0.03711
G1 X103.133 Y94.125 E0.03711
G1 X104.214 Y94.607 E0.03711
G1 X105.172 Y95.302 E0.03711
G1 X105.964 Y96.182 E0.03711
G1 X106.556 Y97.207 E0.03711
G1 X106.921 Y98.333 E0.03711
G1 X107.045 Y99.510 E0.03711
G1 X106.921 Y100.687 E0.03711
G1 X106.556 Y101.812 E0.03711
G1 X105.964 Y102.837 E0.03711
G1 X105.172 Y103.717 E0.03711
G1 X104.214 Y104.412 E0.03711
G1 X103.154 Y104.884 E0.03638
G1 X101.976 Y105.140 E0.03781
G1 X100.792 Y105.140 E0.03712
G1 X99.634 Y104.894 E0.03711
G1 X98.553 Y104.412 E0.03711
G1 X97.596 Y103.717 E0.03711
G1 X96.804 Y102.837 E0.03711
G1 X96.212 Y101.812 E0.03711
G1 X95.846 Y100.687 E0.03711
G1 X95.723 Y99.510 E0.03711
G1 X95.846 Y98.333 E0.03711
G1 X96.212 Y97.207 E0.03711
G1 X96.804 Y96.182 E0.03711
G1 X97.528 Y95.377 E0.03395
G1 X97.483 Y94.942 F7200.000
G1 F5760
G1 X98.553 Y94.607 E-0.44410
G1 X99.387 Y94.236 E-0.31590
G1 E-0.04000 F2100.00000
G1 Z0.800 F7200.000
G1 X91.661 Y88.711
G1 Z0.200
G1 E0.80000 F2100.00000
G1 F1800
G1 X94.119 Y86.926 E0.09525
G1 X96.894 Y85.690 E0.09525
G1 X99.865 Y85.059 E0.09525
G1 X102.903 Y85.059 E0.09525
G1 X105.874 Y85.690 E0.09524
G1 X108.649 Y86.926 E0.09525
G1 X111.107 Y88.711 E0.09525
G1 X113.139 Y90.969 E0.09525
G1 X114.658 Y93.599 E0.09524
G1 X115.597 Y96.488 E0.09524
G1 X115.914 Y99.510 E0.09525
G1 X115.597 Y102.531 E0.09525
G1 X114.658 Y105.420 E0.09524
G1 X113.139 Y108.050 E0.09524
G1 X111.107 Y110.308 E0.09525
G1 X108.649 Y112.093 E0.09525
G1 X105.874 Y113.329 E0.09525
G1 X102.903 Y113.960 E0.09524
G1 X99.865 Y113.960 E0.09525
G1 X96.894 Y113.329 E0.09525
G1 X94.119 Y112.093 E0.09525
G1 X91.661 Y110.308 E0.09525
G1 X89.628 Y108.050 E0.09525
G1 X88.110 Y105.420 E0.09524
G1 X87.171 Y102.531 E0.09524
G1 X86.853 Y99.510 E0.09525
G1 X87.171 Y96.488 E0.09525
G1 X88.110 Y93.599 E0.09524
G1 X89.628 Y90.969 E0.09524
G1 X91.621 Y88.756 E0.09336
G1 X91.341 Y88.504 F7200.000
G1 F1800
G1 X91.407 Y88.430 E0.00312
G1 X93.929 Y86.597 E0.09773
G1 X96.777 Y85.330 E0.09773
G1 X99.825 Y84.682 E0.09773
G1 X102.942 Y84.682 E0.09773
G1 X105.991 Y85.330 E0.09773
G1 X108.839 Y86.597 E0.09773
G1 X111.360 Y88.430 E0.09773
G1 X113.446 Y90.746 E0.09773
G1 X115.005 Y93.445 E0.09773
G1 X115.968 Y96.410 E0.09773
G1 X116.294 Y99.510 E0.09773
G1 X115.968 Y102.609 E0.09773
G1 X115.005 Y105.574 E0.09773
G1 X113.446 Y108.273 E0.09773
G1 X111.360 Y110.590 E0.09773
G1 X108.839 Y112.422 E0.09773
G1 X105.991 Y113.690 E0.09773
G1 X102.942 Y114.338 E0.09773
G1 X99.825 Y114.338 E0.09773
G1 X96.777 Y113.690 E0.09773
G1 X93.929 Y112.422 E0.09773
G1 X91.407 Y110.590 E0.09773
G1 X89.322 Y108.273 E0.09773
G1 X87.763 Y105.574 E0.09773
G1 X86.800 Y102.609 E0.09773
G1 X86.474 Y99.510 E0.09773
G1 X86.800 Y96.410 E0.09773
G1 X87.763 Y93.445 E0.09773
G1 X89.322 Y90.746 E0.09773
G1 X91.301 Y88.548 E0.09273
G1 X91.020 Y88.296 F7200.000
G1 F1800
G1 X91.154 Y88.148 E0.00625
G1 X93.739 Y86.269 E0.10022
G1 X96.659 Y84.969 E0.10022
G1 X99.786 Y84.304 E0.10022
G1 X102.982 Y84.304 E0.10022
G1 X106.108 Y84.969 E0.10022
G1 X109.028 Y86.269 E0.10022
G1 X111.614 Y88.148 E0.10022
G1 X113.753 Y90.523 E0.10022
G1 X115.351 Y93.291 E0.10022
G1 X116.339 Y96.331 E0.10022
G1 X116.673 Y99.510 E0.10022
G1 X116.339 Y102.688 E0.10022
G1 X115.351 Y105.728 E0.10022
G1 X113.753 Y108.496 E0.10022
G1 X111.614 Y110.871 E0.10022
G1 X109.028 Y112.750 E0.10022
G1 X106.108 Y114.050 E0.10022
G1 X102.982 Y114.715 E0.10022
G1 X99.786 Y114.715 E0.10022
G1 X96.659 Y114.050 E0.10022
G1 X93.739 Y112.750 E0.10022
G1 X91.154 Y110.871 E0.10022
G1 X89.015 Y108.496 E0.10022
G1 X87.417 Y105.728 E0.10022
G1 X86.429 Y102.688 E0.10022
G1 X86.095 Y99.510 E0.10022
G1 X86.429 Y96.331 E0.10022
G1 X87.417 Y93.291 E0.10022
G1 X89.015 Y90.523 E0.10022
G1 X90.980 Y88.340 E0.09209
G1 X91.217 Y88.330 F7200.000
G1 F5760
G1 X91.154 Y88.148 E-0.08979
G1 X92.719 Y87.010 E-0.67021
G1 E-0.04000 F2100.00000
G1 Z0.800 F7200.000
G1 X108.392 Y86.935
G1 Z0.200
G1 E0.80000 F2100.00000
G1 F1800
G1 X113.806 Y92.349 E0.24152
G1 F5760
G1 X112.254 Y90.797 E-0.76000
G1 E-0.04000 F2100.00000
G1 Z0.800 F7200.000
G1 X114.539 Y93.618
G1 Z0.200
G1 E0.80000 F2100.00000
G1 F1800
G1 X107.759 Y86.839 E0.30242
G1 X106.792 Y86.408 E0.03339
G1 X114.543 Y94.159 E0.34575
G1 X114.801 Y94.954 E0.02636
G1 X105.825 Y85.978 E0.40041
G1 X105.132 Y85.822 E0.02240
G1 X115.059 Y95.748 E0.44284
G1 X115.317 Y96.543 E0.02636
G1 X104.451 Y85.677 E0.48475
G1 X103.770 Y85.532 E0.02197
G1 X115.381 Y97.144 E0.51801
G1 X115.444 Y97.743 E0.01902
G1 X103.088 Y85.387 E0.55121
G1 X102.879 Y85.343 E0.00674
G1 X102.507 Y85.343 E0.01174
G1 X115.507 Y98.343 E0.57994
G1 X115.570 Y98.942 E0.01902
G1 X101.971 Y85.342 E0.60670
G1 X101.434 Y85.342 E0.01693
G1 X115.627 Y99.536 E0.63318
G1 X115.576 Y100.021 E0.01540
G1 X100.897 Y85.342 E0.65485
G1 X100.360 Y85.342 E0.01693
G1 X115.525 Y100.507 E0.67652
G1 X115.474 Y100.992 E0.01540
G1 X99.836 Y85.354 E0.69763
G1 X99.394 Y85.448 E0.01427
G1 X115.423 Y101.478 E0.71509
G1 X115.372 Y101.963 E0.01540
G1 X98.951 Y85.542 E0.73255
G1 X98.509 Y85.636 E0.01427
G1 X115.321 Y102.449 E0.75002
G1 X115.193 Y102.857 E0.01351
G1 X98.066 Y85.730 E0.76405
G1 X97.624 Y85.824 E0.01427
G1 X115.062 Y103.262 E0.77792
G1 X114.930 Y103.667 E0.01343
G1 X97.181 Y85.918 E0.79179
G1 X96.982 Y85.961 E0.00644
G1 X96.778 Y86.051 E0.00703
G1 X104.185 Y93.459 E0.33046
G1 X103.455 Y93.134 E0.02521
G1 X103.288 Y93.098 E0.00539
G1 X96.407 Y86.217 E0.30700
G1 X96.035 Y86.382 E0.01282
G1 X102.607 Y92.954 E0.29317
G1 X102.085 Y92.842 E0.01685
G1 X101.960 Y92.842 E0.00394
G1 X95.664 Y86.547 E0.28084
G1 X95.293 Y86.712 E0.01282
G1 X101.423 Y92.842 E0.27347
G1 X100.887 Y92.842 E0.01692
G1 X94.922 Y86.878 E0.26609
G1 X94.551 Y87.043 E0.01282
G1 X100.408 Y92.901 E0.26132
G1 X99.966 Y92.995 E0.01427
G1 X94.193 Y87.221 E0.25755
G1 X93.882 Y87.447 E0.01212
G1 X99.524 Y93.089 E0.25168
G1 X99.312 Y93.134 E0.00681
G1 X99.118 Y93.220 E0.00670
G1 X93.571 Y87.673 E0.24746
G1 X93.260 Y87.899 E0.01212
G1 X98.747 Y93.385 E0.24476
G1 X98.376 Y93.551 E0.01282
G1 X92.950 Y88.125 E0.24206
G1 X92.639 Y88.350 E0.01212
G1 X98.009 Y93.720 E0.23956
G1 X97.698 Y93.946 E0.01212
G1 X92.328 Y88.576 E0.23956
G1 X92.017 Y88.802 E0.01212
G1 X97.388 Y94.172 E0.23956
G1 X97.077 Y94.398 E0.01212
G1 X91.733 Y89.054 E0.23839
G1 X91.479 Y89.336 E0.01198
G1 X96.790 Y94.648 E0.23694
G1 X96.536 Y94.930 E0.01198
G1 X91.225 Y89.619 E0.23694
G1 X90.970 Y89.901 E0.01198
G1 X96.282 Y95.212 E0.23694
G1 X96.028 Y95.495 E0.01198
G1 X90.716 Y90.183 E0.23694
G1 X90.462 Y90.465 E0.01198
G1 X95.816 Y95.819 E0.23884
G1 X95.620 Y96.159 E0.01239
G1 X90.208 Y90.748 E0.24142
G1 X89.954 Y91.030 E0.01198
G1 X95.423 Y96.500 E0.24400
G1 X95.238 Y96.851 E0.01252
G1 X89.736 Y91.349 E0.24545
G1 X89.539 Y91.689 E0.01239
G1 X95.106 Y97.256 E0.24834
G1 X94.974 Y97.660 E0.01343
G1 X89.343 Y92.029 E0.25123
G1 X89.146 Y92.369 E0.01239
G1 X94.843 Y98.065 E0.25412
G1 X94.782 Y98.541 E0.01512
G1 X88.950 Y92.709 E0.26016
G1 X88.754 Y93.049 E0.01239
G1 X94.731 Y99.026 E0.26664
G1 X94.680 Y99.512 E0.01541
G1 X88.557 Y93.389 E0.27315
G1 X88.364 Y93.732 E0.01242
G1 X94.743 Y100.112 E0.28460
G1 X94.806 Y100.711 E0.01902
G1 X88.232 Y94.137 E0.29328
G1 X88.101 Y94.542 E0.01343
G1 X95.002 Y101.444 E0.30788
G1 X95.262 Y102.240 E0.02641
G1 X87.969 Y94.947 E0.32533
G1 X87.837 Y95.352 E0.01343
G1 X105.586 Y113.101 E0.79179
G1 X105.786 Y113.058 E0.00644
G1 X105.990 Y112.968 E0.00703
G1 X98.582 Y105.560 E0.33046
G1 X99.312 Y105.885 E0.02521
G1 X99.479 Y105.921 E0.00538
G1 X106.361 Y112.803 E0.30700
G1 X106.732 Y112.637 E0.01282
G1 X100.161 Y106.066 E0.29317
G1 X100.683 Y106.177 E0.01685
G1 X100.808 Y106.177 E0.00394
G1 X107.103 Y112.472 E0.28084
G1 X107.475 Y112.307 E0.01282
G1 X101.345 Y106.177 E0.27347
G1 X101.881 Y106.177 E0.01692
G1 X107.846 Y112.141 E0.26609
G1 X108.217 Y111.976 E0.01282
G1 X102.359 Y106.118 E0.26135
G1 X102.800 Y106.022 E0.01423
G1 X108.575 Y111.798 E0.25765
G1 X108.886 Y111.572 E0.01212
G1 X103.241 Y105.927 E0.25184
G1 X103.479 Y105.875 E0.00768
G1 X103.649 Y105.799 E0.00590
G1 X109.197 Y111.346 E0.24746
G1 X109.507 Y111.120 E0.01212
G1 X104.021 Y105.634 E0.24476
G1 X104.392 Y105.468 E0.01282
G1 X109.818 Y110.894 E0.24206
G1 X110.129 Y110.669 E0.01212
G1 X104.759 Y105.299 E0.23956
G1 X105.069 Y105.073 E0.01212
G1 X110.440 Y110.443 E0.23956
G1 X110.750 Y110.217 E0.01212
G1 X105.380 Y104.847 E0.23956
G1 X105.691 Y104.621 E0.01212
G1 X111.035 Y109.965 E0.23839
G1 X111.289 Y109.683 E0.01198
G1 X105.978 Y104.372 E0.23694
G1 X106.232 Y104.089 E0.01198
G1 X111.543 Y109.401 E0.23694
G1 X111.797 Y109.118 E0.01198
G1 X106.486 Y103.807 E0.23694
G1 X106.740 Y103.525 E0.01198
G1 X112.051 Y108.836 E0.23694
G1 X112.306 Y108.554 E0.01198
G1 X106.952 Y103.200 E0.23884
G1 X107.148 Y102.860 E0.01239
G1 X112.560 Y108.271 E0.24142
G1 X112.814 Y107.989 E0.01198
G1 X107.345 Y102.519 E0.24400
G1 X107.530 Y102.169 E0.01252
G1 X113.032 Y107.671 E0.24545
G1 X113.228 Y107.330 E0.01239
G1 X107.662 Y101.764 E0.24834
G1 X107.793 Y101.359 E0.01343
G1 X113.425 Y106.990 E0.25123
G1 X113.621 Y106.650 E0.01239
G1 X107.925 Y100.954 E0.25412
G1 X107.986 Y100.478 E0.01512
G1 X113.818 Y106.310 E0.26016
G1 X114.014 Y105.970 E0.01239
G1 X108.037 Y99.993 E0.26664
G1 X108.087 Y99.507 E0.01541
G1 X114.210 Y105.630 E0.27315
G1 X114.404 Y105.287 E0.01242
G1 X108.024 Y98.907 E0.28460
G1 X107.961 Y98.308 E0.01902
G1 X114.536 Y104.882 E0.29328
G1 X114.667 Y104.477 E0.01343
G1 X107.766 Y97.576 E0.30788
G1 X107.506 Y96.780 E0.02641
G1 X114.933 Y104.207 E0.33133
G1 F5760
G1 X113.382 Y102.655 E-0.76000
G1 E-0.04000 F2100.00000
G1 Z0.800 F7200.000
G1 X113.073 Y91.079
G1 Z0.200
G1 E0.80000 F2100.00000
G1 F1800
G1 X110.147 Y88.154 E0.13051
G1 F5760
G1 X111.699 Y89.706 E-0.76000
G1 E-0.04000 F2100.00000
G1 Z0.800 F7200.000
G1 X105.287 Y113.338
G1 Z0.200
G1 E0.80000 F2100.00000
G1 F1800
G1 X87.706 Y95.757 E0.78430
G1 X87.574 Y96.162 E0.01343
G1 X104.702 Y113.289 E0.76405
G1 X104.259 Y113.383 E0.01427
G1 X87.447 Y96.571 E0.75001
G1 X87.396 Y97.056 E0.01540
G1 X103.817 Y113.477 E0.73255
G1 X103.374 Y113.571 E0.01427
G1 X87.345 Y97.542 E0.71509
G1 X87.293 Y98.027 E0.01540
G1 X102.932 Y113.665 E0.69763
G1 X102.408 Y113.678 E0.01654
G1 X87.242 Y98.513 E0.67653
G1 X87.191 Y98.998 E0.01540
G1 X101.871 Y113.678 E0.65487
G1 X101.335 Y113.678 E0.01692
G1 X87.140 Y99.483 E0.63321
G1 X87.197 Y100.077 E0.01880
G1 X100.798 Y113.678 E0.60674
G1 X100.262 Y113.678 E0.01692
G1 X87.260 Y100.676 E0.57999
G1 X87.323 Y101.276 E0.01902
G1 X99.679 Y113.632 E0.55121
G1 X98.998 Y113.487 E0.02197
G1 X87.386 Y101.875 E0.51800
G1 X87.450 Y102.476 E0.01905
G1 X98.317 Y113.342 E0.48475
G1 X97.635 Y113.197 E0.02197
G1 X87.709 Y103.271 E0.44283
G1 X87.967 Y104.065 E0.02636
G1 X96.942 Y113.041 E0.40041
G1 X95.975 Y112.611 E0.03339
G1 X88.225 Y104.860 E0.34575
G1 X88.369 Y105.304 E0.01472
G1 X88.693 Y105.865 E0.02042
G1 X95.343 Y112.515 E0.29667
G1 F5760
G1 X93.792 Y110.963 E-0.76000
G1 E-0.04000 F2100.00000
G1 Z0.800 F7200.000
G1 X94.376 Y112.084
G1 Z0.200
G1 E0.80000 F2100.00000
G1 F1800
G1 X88.962 Y106.670 E0.24151
G1 F5760
G1 X90.514 Y108.222 E-0.76000
G1 E-0.04000 F2100.00000
G1 Z0.800 F7200.000
G1 X89.695 Y107.940
G1 Z0.200
G1 E0.80000 F2100.00000
G1 F1800
G1 X92.620 Y110.865 E0.13050
G1 F5760
G1 X91.069 Y109.313 E-0.76000
G1 E-0.04000 F2100.00000
G1 Z0.800 F7200.000
G1 X97.577 Y128.201
G1 Z0.200
G1 E0.80000 F2100.00000
G1 F1800
G1 X98.889 Y127.922 E0.04208
G1 X100.231 Y127.922 E0.04208
G1 X101.544 Y128.201 E0.04208
G1 X102.770 Y128.746 E0.04208
G1 X103.856 Y129.535 E0.04208
G1 X104.754 Y130.533 E0.04208
G1 X105.425 Y131.695 E0.04208
G1 X105.840 Y132.971 E0.04208
G1 X105.980 Y134.306 E0.04208
G1 X105.840 Y135.641 E0.04208
G1 X105.425 Y136.917 E0.04208
G1 X104.754 Y138.079 E0.04208
G1 X103.856 Y139.076 E0.04208
G1 X102.770 Y139.865 E0.04208
G1 X101.567 Y140.401 E0.04130
G1 X100.233 Y140.690 E0.04278
G1 X98.889 Y140.690 E0.04214
G1 X97.577 Y140.411 E0.04208
G1 X96.351 Y139.865 E0.04208
G1 X95.265 Y139.076 E0.04208
G1 X94.367 Y138.079 E0.04208
G1 X93.696 Y136.917 E0.04208
