; generated by Slic3r Prusa Edition 1.39.2+win64 on 2018-05-24 at 12:11:52

; 

; external perimeters extrusion width = 0.45mm
; perimeters extrusion width = 0.45mm
; infill extrusion width = 0.45mm
; solid infill extrusion width = 0.45mm
; top infill extrusion width = 0.45mm
; first layer extrusion width = 0.42mm

M107
M115 U3.1.0 ; tell printer latest fw version
M83  ; extruder relative mode
M104 S205 ; set extruder temp
M140 S55 ; set bed temp
M190 S55 ; wait for bed temp
M109 S205 ; wait for extruder temp
G28 W ; home all without mesh bed level
G80 ; mesh bed leveling
G1 Y-3.0 F1000.0 ; go outside print area
G92 E0.0
G1 X60.0 E9.0  F1000.0 ; intro line
G1 X100.0 E12.5  F1000.0 ; intro line
G92 E0.0
M900 K30; Filament gcode
G21 ; set units to millimeters
G90 ; use absolute coordinates
M83 ; use relative distances for extrusion
;BEFORE_LAYER_CHANGE
;0.2


G1 E-0.80000 F2100.00000
G1 Z0.600 F7200.000
;AFTER_LAYER_CHANGE
;0.2
G1 X64.066 Y76.990
G1 Z0.200
G1 E0.80000 F2100.00000
M204 S1000
G1 F1800
G1 X64.924 Y76.727 E0.02813
G1 X99.635 Y73.630 E1.09267
G1 X113.824 Y73.623 E0.44487
G1 X114.390 Y73.692 E0.01787
G1 X114.926 Y73.896 E0.01799
G1 X140.957 Y87.912 E0.92699
G1 X141.536 Y88.355 E0.02284
G1 X141.955 Y88.955 E0.02296
G1 X142.134 Y89.456 E0.01668
G1 X142.197 Y89.985 E0.01668
G1 X142.197 Y129.019 E1.22390
G1 X142.048 Y129.828 E0.02579
G1 X141.633 Y130.538 E0.02579
G1 X141.264 Y130.889 E0.01597
G1 X140.825 Y131.154 E0.01609
G1 X140.339 Y131.320 E0.01609
G1 X139.829 Y131.377 E0.01609
G1 X66.801 Y131.377 E2.28973
G1 X65.992 Y131.228 E0.02579
G1 X65.282 Y130.813 E0.02579
G1 X64.695 Y130.066 E0.02978
G1 X64.448 Y129.150 E0.02977
G1 X62.805 Y90.977 E1.19798
G1 X62.805 Y78.991 E0.37581
G1 X62.965 Y78.227 E0.02449
G1 X63.367 Y77.552 E0.02461
G1 X64.020 Y77.028 E0.02625
G1 F5760
G1 X64.924 Y76.727 E-0.33018
G1 X66.160 Y76.616 E-0.42982
G1 E-0.04000 F2100.00000
G1 Z0.800 F7200.000
G1 X67.925 Y81.392
G1 Z0.200
G1 E0.80000 F2100.00000
G1 F1800
G1 X72.069 Y81.392 E0.12992
G1 X74.158 Y85.010 E0.13100
G1 X72.075 Y88.618 E0.13063
G1 X67.931 Y88.618 E0.12992
G1 X66.537 Y86.203 E0.08743
G1 X66.497 Y86.214 E0.00129
G1 X65.802 Y85.010 E0.04359
G1 X66.507 Y83.789 E0.04421
G1 X66.537 Y83.797 E0.00096
G1 X67.895 Y81.444 E0.08519
G1 X68.143 Y81.769 F7200.000
G1 F1800
G1 X71.851 Y81.769 E0.11627
G1 X73.722 Y85.010 E0.11734
G1 X71.857 Y88.241 E0.11698
G1 X68.149 Y88.241 E0.11627
G1 X66.719 Y85.764 E0.08968
G1 X66.679 Y85.775 E0.00129
G1 X66.238 Y85.010 E0.02769
G1 X66.689 Y84.228 E0.02832
G1 X66.719 Y84.236 E0.00096
G1 X68.113 Y81.821 E0.08743
G1 X68.214 Y81.375 F7200.000
G1 F5760
G1 X70.307 Y81.790 E-0.76000
G1 E-0.04000 F2100.00000
G1 Z0.800 F7200.000
G1 X130.630 Y120.905
G1 Z0.200
G1 E0.80000 F2100.00000
G1 F1800
G1 X131.164 Y120.312 E0.02504
G1 X131.810 Y119.842 E0.02504
G1 X132.540 Y119.517 E0.02503
G1 X133.321 Y119.351 E0.02504
G1 X134.119 Y119.351 E0.02504
G1 X134.900 Y119.517 E0.02504
G1 X135.630 Y119.842 E0.02503
G1 X136.276 Y120.312 E0.02504
G1 X136.810 Y120.905 E0.02504
G1 X137.209 Y121.596 E0.02504
G1 X137.456 Y122.356 E0.02503
G1 X137.539 Y123.150 E0.02504
G1 X137.456 Y123.944 E0.02503
G1 X137.209 Y124.703 E0.02504
G1 X136.810 Y125.395 E0.02504
G1 X136.276 Y125.988 E0.02504
G1 X135.630 Y126.458 E0.02504
G1 X134.900 Y126.783 E0.02504
G1 X134.119 Y126.949 E0.02504
G1 X133.321 Y126.949 E0.02504
G1 X132.540 Y126.783 E0.02504
G1 X131.810 Y126.458 E0.02504
G1 X131.164 Y125.988 E0.02504
G1 X130.630 Y125.395 E0.02504
G1 X130.231 Y124.704 E0.02504
G1 X129.984 Y123.944 E0.02504
G1 X129.901 Y123.150 E0.02503
G1 X129.984 Y122.356 E0.02504
G1 X130.231 Y121.596 E0.02503
G1 X130.600 Y120.957 E0.02316
G1 X130.927 Y121.145 F7200.000
G1 F1800
G1 X131.418 Y120.593 E0.02318
G1 X132.000 Y120.171 E0.02255
G1 X132.657 Y119.878 E0.02255
G1 X133.360 Y119.729 E0.02255
G1 X134.080 Y119.729 E0.02255
G1 X134.783 Y119.878 E0.02255
G1 X135.440 Y120.171 E0.02255
G1 X136.022 Y120.593 E0.02255
G1 X136.503 Y121.128 E0.02255
G1 X136.863 Y121.751 E0.02255
G1 X137.085 Y122.435 E0.02255
G1 X137.160 Y123.150 E0.02255
G1 X137.085 Y123.865 E0.02255
G1 X136.863 Y124.549 E0.02255
G1 X136.503 Y125.172 E0.02255
G1 X136.022 Y125.707 E0.02255
G1 X135.440 Y126.129 E0.02255
G1 X134.783 Y126.422 E0.02255
G1 X134.080 Y126.571 E0.02255
G1 X133.360 Y126.571 E0.02255
G1 X132.657 Y126.422 E0.02255
G1 X132.000 Y126.129 E0.02255
G1 X131.418 Y125.707 E0.02255
G1 X130.937 Y125.172 E0.02255
G1 X130.577 Y124.549 E0.02255
G1 X130.355 Y123.865 E0.02255
G1 X130.280 Y123.150 E0.02255
G1 X130.355 Y122.435 E0.02255
G1 X130.577 Y121.751 E0.02255
G1 X130.897 Y121.197 E0.02003
G1 X131.223 Y121.386 F7200.000
G1 F1800
G1 X131.672 Y120.875 E0.02132
G1 X132.189 Y120.499 E0.02006
G1 X132.774 Y120.239 E0.02006
G1 X133.400 Y120.106 E0.02007
G1 X134.040 Y120.106 E0.02006
G1 X134.666 Y120.239 E0.02007
G1 X135.251 Y120.499 E0.02006
G1 X135.768 Y120.875 E0.02006
G1 X136.197 Y121.351 E0.02007
G1 X136.517 Y121.905 E0.02007
G1 X136.714 Y122.513 E0.02006
G1 X136.781 Y123.150 E0.02007
G1 X136.714 Y123.786 E0.02006
G1 X136.517 Y124.395 E0.02007
G1 X136.197 Y124.949 E0.02007
G1 X135.768 Y125.425 E0.02007
G1 X135.251 Y125.801 E0.02006
G1 X134.666 Y126.061 E0.02006
G1 X134.040 Y126.194 E0.02007
G1 X133.400 Y126.194 E0.02006
G1 X132.774 Y126.061 E0.02007
G1 X132.189 Y125.801 E0.02006
G1 X131.672 Y125.425 E0.02006
G1 X131.243 Y124.949 E0.02007
G1 X130.923 Y124.395 E0.02007
G1 X130.726 Y123.786 E0.02007
G1 X130.659 Y123.150 E0.02006
G1 X130.726 Y122.513 E0.02007
G1 X130.923 Y121.905 E0.02006
G1 X131.193 Y121.438 E0.01691
G1 X131.057 Y121.022 F7200.000
G1 F5760
G1 X131.672 Y120.875 E-0.25590
G1 X132.189 Y120.499 E-0.22164
G1 X132.774 Y120.239 E-0.22164
G1 X132.946 Y120.202 E-0.06082
G1 E-0.04000 F2100.00000
G1 Z0.800 F7200.000
G1 X114.737 Y109.393
G1 Z0.200
G1 E0.80000 F2100.00000
G1 F1800
G1 X114.406 Y109.761 E0.01553
G1 X114.005 Y110.052 E0.01553
G1 X113.552 Y110.254 E0.01553
G1 X113.068 Y110.356 E0.01553
G1 X112.572 Y110.356 E0.01552
G1 X112.088 Y110.254 E0.01553
G1 X111.635 Y110.052 E0.01553
G1 X111.234 Y109.761 E0.01553
G1 X110.903 Y109.393 E0.01553
G1 X110.655 Y108.964 E0.01553
G1 X110.502 Y108.493 E0.01553
G1 X110.451 Y108.000 E0.01553
G1 X110.502 Y107.507 E0.01553
G1 X110.655 Y107.036 E0.01553
G1 X110.903 Y106.607 E0.01553
G1 X111.234 Y106.239 E0.01553
G1 X111.635 Y105.948 E0.01553
G1 X112.088 Y105.746 E0.01553
G1 X112.572 Y105.644 E0.01553
G1 X113.068 Y105.644 E0.01552
G1 X113.552 Y105.746 E0.01553
G1 X114.005 Y105.948 E0.01553
G1 X114.405 Y106.239 E0.01553
G1 X114.737 Y106.607 E0.01553
G1 X114.985 Y107.036 E0.01553
G1 X115.138 Y107.507 E0.01553
G1 X115.189 Y108.000 E0.01553
G1 X115.138 Y108.493 E0.01553
G1 X114.985 Y108.964 E0.01553
G1 X114.767 Y109.341 E0.01365
G1 X114.440 Y109.152 F7200.000
G1 F1800
G1 X114.152 Y109.479 E0.01367
G1 X113.815 Y109.724 E0.01305
G1 X113.435 Y109.893 E0.01305
G1 X113.028 Y109.979 E0.01305
G1 X112.612 Y109.979 E0.01304
G1 X112.205 Y109.893 E0.01305
G1 X111.825 Y109.724 E0.01305
G1 X111.488 Y109.479 E0.01305
G1 X111.210 Y109.170 E0.01305
G1 X111.002 Y108.809 E0.01305
G1 X110.873 Y108.414 E0.01304
G1 X110.830 Y108.000 E0.01305
G1 X110.873 Y107.586 E0.01305
G1 X111.002 Y107.191 E0.01304
G1 X111.210 Y106.830 E0.01305
G1 X111.488 Y106.521 E0.01305
G1 X111.825 Y106.276 E0.01305
G1 X112.205 Y106.107 E0.01305
G1 X112.612 Y106.021 E0.01305
G1 X113.028 Y106.021 E0.01304
G1 X113.435 Y106.107 E0.01305
G1 X113.815 Y106.276 E0.01305
G1 X114.152 Y106.521 E0.01305
G1 X114.430 Y106.830 E0.01305
G1 X114.638 Y107.190 E0.01305
G1 X114.767 Y107.586 E0.01304
G1 X114.810 Y108.000 E0.01305
G1 X114.767 Y108.414 E0.01305
G1 X114.638 Y108.810 E0.01305
G1 X114.470 Y109.100 E0.01053
G1 X114.123 Y108.947 F7200.000
G1 F1800
G1 X113.898 Y109.197 E0.01056
G1 X113.626 Y109.395 E0.01056
G1 X113.318 Y109.532 E0.01056
G1 X112.988 Y109.602 E0.01056
G1 X112.652 Y109.602 E0.01056
G1 X112.322 Y109.532 E0.01056
G1 X112.014 Y109.395 E0.01056
G1 X111.742 Y109.197 E0.01056
G1 X111.517 Y108.947 E0.01056
G1 X111.348 Y108.655 E0.01056
G1 X111.244 Y108.335 E0.01056
G1 X111.209 Y108.000 E0.01056
G1 X111.244 Y107.665 E0.01056
G1 X111.348 Y107.345 E0.01056
G1 X111.517 Y107.053 E0.01056
G1 X111.742 Y106.803 E0.01056
G1 X112.014 Y106.605 E0.01056
G1 X112.322 Y106.468 E0.01056
G1 X112.652 Y106.398 E0.01056
G1 X112.988 Y106.398 E0.01056
G1 X113.318 Y106.468 E0.01056
G1 X113.626 Y106.605 E0.01056
G1 X113.898 Y106.803 E0.01056
G1 X114.123 Y107.053 E0.01056
G1 X114.292 Y107.345 E0.01056
G1 X114.396 Y107.665 E0.01056
G1 X114.431 Y108.000 E0.01056
G1 X114.396 Y108.335 E0.01056
G1 X114.292 Y108.655 E0.01056
G1 X114.153 Y108.895 E0.00868
G1 X114.260 Y109.255 F7200.000
G1 F5760
G1 X113.898 Y109.197 E-0.13705
G1 X113.626 Y109.395 E-0.11666
G1 X113.318 Y109.532 E-0.11668
G1 X112.988 Y109.602 E-0.11667
G1 X112.652 Y109.602 E-0.11662
G1 X112.322 Y109.532 E-0.11667
G1 X112.218 Y109.486 E-0.03967
G1 E-0.04000 F2100.00000
G1 Z0.800 F7200.000
G1 X101.189 Y108.000
G1 Z0.200
G1 E0.80000 F2100.00000
G1 F1800
G1 X101.138 Y108.493 E0.01553
G1 X100.985 Y108.964 E0.01553
G1 X100.737 Y109.393 E0.01553
G1 X100.405 Y109.761 E0.01553
G1 X100.005 Y110.052 E0.01553
G1 X99.552 Y110.254 E0.01553
G1 X99.068 Y110.356 E0.01553
G1 X98.572 Y110.356 E0.01553
G1 X98.088 Y110.254 E0.01553
G1 X97.635 Y110.052 E0.01553
G1 X97.235 Y109.761 E0.01553
G1 X96.903 Y109.393 E0.01553
G1 X96.655 Y108.964 E0.01553
G1 X96.502 Y108.493 E0.01553
G1 X96.451 Y108.000 E0.01553
G1 X96.502 Y107.507 E0.01553
G1 X96.655 Y107.036 E0.01553
G1 X96.903 Y106.607 E0.01553
G1 X97.235 Y106.239 E0.01553
G1 X97.635 Y105.948 E0.01553
G1 X98.088 Y105.746 E0.01553
G1 X98.572 Y105.644 E0.01553
G1 X99.068 Y105.644 E0.01553
G1 X99.552 Y105.746 E0.01553
G1 X100.005 Y105.948 E0.01553
G1 X100.405 Y106.239 E0.01553
G1 X100.737 Y106.607 E0.01553
G1 X100.985 Y107.036 E0.01553
G1 X101.138 Y107.507 E0.01553
G1 X101.183 Y107.940 E0.01365
G1 X100.808 Y107.980 F7200.000
G1 F1800
G1 X100.767 Y108.414 E0.01367
G1 X100.638 Y108.809 E0.01304
G1 X100.430 Y109.170 E0.01305
G1 X100.152 Y109.479 E0.01305
G1 X99.815 Y109.724 E0.01304
G1 X99.435 Y109.893 E0.01305
G1 X99.028 Y109.979 E0.01305
G1 X98.612 Y109.979 E0.01304
G1 X98.205 Y109.893 E0.01305
G1 X97.825 Y109.724 E0.01305
G1 X97.488 Y109.479 E0.01304
G1 X97.210 Y109.170 E0.01305
G1 X97.002 Y108.810 E0.01305
G1 X96.873 Y108.414 E0.01304
G1 X96.830 Y108.000 E0.01305
G1 X96.873 Y107.586 E0.01305
G1 X97.002 Y107.190 E0.01304
G1 X97.210 Y106.830 E0.01305
G1 X97.488 Y106.521 E0.01305
G1 X97.825 Y106.276 E0.01304
G1 X98.205 Y106.107 E0.01305
G1 X98.612 Y106.021 E0.01305
G1 X99.028 Y106.021 E0.01304
G1 X99.435 Y106.107 E0.01305
G1 X99.815 Y106.276 E0.01305
G1 X100.152 Y106.521 E0.01304
G1 X100.430 Y106.830 E0.01305
G1 X100.638 Y107.190 E0.01305
G1 X100.767 Y107.586 E0.01304
G1 X100.802 Y107.920 E0.01053
G1 X100.431 Y108.000 F7200.000
G1 F1800
G1 X100.396 Y108.335 E0.01056
G1 X100.292 Y108.655 E0.01056
G1 X100.123 Y108.947 E0.01056
G1 X99.898 Y109.197 E0.01056
G1 X99.626 Y109.395 E0.01056
G1 X99.318 Y109.532 E0.01056
G1 X98.988 Y109.602 E0.01056
G1 X98.652 Y109.602 E0.01056
G1 X98.322 Y109.532 E0.01056
G1 X98.014 Y109.395 E0.01056
G1 X97.742 Y109.197 E0.01056
G1 X97.517 Y108.947 E0.01056
G1 X97.348 Y108.655 E0.01056
G1 X97.244 Y108.335 E0.01056
G1 X97.209 Y108.000 E0.01056
G1 X97.244 Y107.665 E0.01056
G1 X97.348 Y107.345 E0.01056
G1 X97.517 Y107.053 E0.01056
G1 X97.742 Y106.803 E0.01056
G1 X98.014 Y106.605 E0.01056
G1 X98.322 Y106.468 E0.01056
G1 X98.652 Y106.398 E0.01056
G1 X98.988 Y106.398 E0.01056
G1 X99.318 Y106.468 E0.01056
G1 X99.626 Y106.605 E0.01056
G1 X99.898 Y106.803 E0.01056
G1 X100.123 Y107.053 E0.01056
G1 X100.292 Y107.345 E0.01056
G1 X100.396 Y107.665 E0.01056
G1 X100.425 Y107.940 E0.00868
G1 X100.723 Y108.168 F7200.000
G1 F5760
G1 X100.396 Y108.335 E-0.13706
G1 X100.292 Y108.655 E-0.11664
G1 X100.123 Y108.947 E-0.11667
G1 X99.898 Y109.197 E-0.11667
G1 X99.626 Y109.395 E-0.11664
G1 X99.318 Y109.532 E-0.11667
G1 X99.206 Y109.556 E-0.03965
G1 E-0.04000 F2100.00000
G1 Z0.800 F7200.000
G1 X105.088 Y119.746
G1 Z0.200
G1 E0.80000 F2100.00000
G1 F1800
G1 X105.572 Y119.644 E0.01553
G1 X106.068 Y119.644 E0.01552
G1 X106.552 Y119.746 E0.01553
G1 X107.005 Y119.948 E0.01553
G1 X107.405 Y120.239 E0.01553
G1 X107.737 Y120.607 E0.01553
G1 X107.985 Y121.036 E0.01553
G1 X108.138 Y121.507 E0.01553
G1 X108.189 Y122.000 E0.01553
G1 X108.138 Y122.493 E0.01553
G1 X107.985 Y122.964 E0.01553
G1 X107.737 Y123.393 E0.01553
G1 X107.406 Y123.761 E0.01553
G1 X107.005 Y124.052 E0.01553
G1 X106.552 Y124.254 E0.01553
G1 X106.068 Y124.356 E0.01553
G1 X105.572 Y124.356 E0.01552
G1 X105.088 Y124.254 E0.01553
G1 X104.635 Y124.052 E0.01553
G1 X104.235 Y123.761 E0.01553
G1 X103.903 Y123.393 E0.01553
G1 X103.655 Y122.964 E0.01553
G1 X103.502 Y122.493 E0.01553
G1 X103.451 Y122.000 E0.01553
G1 X103.502 Y121.507 E0.01553
G1 X103.655 Y121.036 E0.01553
G1 X103.903 Y120.607 E0.01553
G1 X104.235 Y120.239 E0.01553
G1 X104.635 Y119.948 E0.01553
G1 X105.033 Y119.771 E0.01365
G1 X105.186 Y120.115 F7200.000
G1 F1800
G1 X105.612 Y120.021 E0.01367
G1 X106.028 Y120.021 E0.01304
G1 X106.435 Y120.107 E0.01305
G1 X106.815 Y120.276 E0.01305
G1 X107.152 Y120.521 E0.01305
G1 X107.430 Y120.830 E0.01305
G1 X107.638 Y121.190 E0.01305
G1 X107.767 Y121.586 E0.01304
G1 X107.810 Y122.000 E0.01305
G1 X107.767 Y122.414 E0.01305
G1 X107.638 Y122.810 E0.01305
G1 X107.430 Y123.170 E0.01305
G1 X107.152 Y123.479 E0.01305
G1 X106.815 Y123.724 E0.01305
G1 X106.435 Y123.893 E0.01305
G1 X106.028 Y123.979 E0.01305
G1 X105.612 Y123.979 E0.01304
G1 X105.205 Y123.893 E0.01305
G1 X104.825 Y123.724 E0.01305
G1 X104.488 Y123.479 E0.01304
G1 X104.210 Y123.170 E0.01305
G1 X104.002 Y122.810 E0.01305
G1 X103.873 Y122.414 E0.01304
G1 X103.830 Y122.000 E0.01305
G1 X103.873 Y121.586 E0.01305
G1 X104.002 Y121.191 E0.01304
G1 X104.210 Y120.830 E0.01305
G1 X104.488 Y120.521 E0.01305
G1 X104.825 Y120.276 E0.01304
G1 X105.132 Y120.140 E0.01053
G1 X105.322 Y120.468 F7200.000
G1 F1800
G1 X105.652 Y120.398 E0.01056
G1 X105.988 Y120.398 E0.01056
G1 X106.318 Y120.468 E0.01056
G1 X106.626 Y120.605 E0.01056
G1 X106.898 Y120.803 E0.01056
G1 X107.123 Y121.053 E0.01056
G1 X107.292 Y121.345 E0.01056
G1 X107.396 Y121.665 E0.01056
G1 X107.431 Y122.000 E0.01056
G1 X107.396 Y122.335 E0.01056
G1 X107.292 Y122.655 E0.01056
G1 X107.123 Y122.947 E0.01056
G1 X106.898 Y123.197 E0.01056
G1 X106.626 Y123.395 E0.01056
G1 X106.318 Y123.532 E0.01056
G1 X105.988 Y123.602 E0.01056
G1 X105.652 Y123.602 E0.01056
G1 X105.322 Y123.532 E0.01056
G1 X105.014 Y123.395 E0.01056
G1 X104.742 Y123.197 E0.01056
G1 X104.517 Y122.947 E0.01056
G1 X104.348 Y122.655 E0.01056
G1 X104.244 Y122.335 E0.01056
G1 X104.209 Y122.000 E0.01056
G1 X104.244 Y121.665 E0.01056
G1 X104.348 Y121.345 E0.01056
G1 X104.517 Y121.053 E0.01056
G1 X104.742 Y120.803 E0.01056
G1 X105.014 Y120.605 E0.01056
G1 X105.267 Y120.492 E0.00868
G1 X105.392 Y120.138 F7200.000
G1 F5760
G1 X105.652 Y120.398 E-0.13706
G1 X105.988 Y120.398 E-0.11662
G1 X106.318 Y120.468 E-0.11666
G1 X106.626 Y120.605 E-0.11668
G1 X106.898 Y120.803 E-0.11666
G1 X107.123 Y121.053 E-0.11665
G1 X107.181 Y121.152 E-0.03967
G1 E-0.04000 F2100.00000
G1 Z0.800 F7200.000
G1 X85.456 Y122.356
G1 Z0.200
G1 E0.80000 F2100.00000
G1 F1800
G1 X85.539 Y123.150 E0.02504
G1 X85.456 Y123.944 E0.02503
G1 X85.209 Y124.703 E0.02504
G1 X84.810 Y125.395 E0.02504
G1 X84.276 Y125.988 E0.02504
G1 X83.630 Y126.458 E0.02504
G1 X82.900 Y126.783 E0.02504
G1 X82.119 Y126.949 E0.02504
G1 X81.321 Y126.949 E0.02504
G1 X80.540 Y126.783 E0.02504
G1 X79.810 Y126.458 E0.02504
G1 X79.164 Y125.988 E0.02504
G1 X78.630 Y125.395 E0.02504
G1 X78.231 Y124.703 E0.02504
G1 X77.984 Y123.944 E0.02504
G1 X77.901 Y123.150 E0.02503
G1 X77.984 Y122.356 E0.02504
G1 X78.231 Y121.596 E0.02503
G1 X78.630 Y120.905 E0.02504
G1 X79.164 Y120.312 E0.02504
G1 X79.810 Y119.842 E0.02504
G1 X80.540 Y119.517 E0.02503
G1 X81.321 Y119.351 E0.02504
G1 X82.119 Y119.351 E0.02504
G1 X82.900 Y119.517 E0.02504
G1 X83.630 Y119.842 E0.02504
G1 X84.276 Y120.312 E0.02504
G1 X84.810 Y120.905 E0.02504
