; generated by Slic3r Prusa Edition 1.39.2+win64 on 2018-05-24 at 12:38:44

; 

; external perimeters extrusion width = 0.45mm
; perimeters extrusion width = 0.45mm
; infill extrusion width = 0.45mm
; solid infill extrusion width = 0.45mm
; top infill extrusion width = 0.45mm
; first layer extrusion width = 0.42mm

M107
M115 U3.1.0 ; tell printer latest fw version
M83  ; extruder relative mode
M104 S205 ; set extruder temp
M140 S55 ; set bed temp
M190 S55 ; wait for bed temp
M109 S205 ; wait for extruder temp
G28 W ; home all without mesh bed level
G80 ; mesh bed leveling
G1 Y-3.0 F1000.0 ; go outside print area
G92 E0.0
G1 X60.0 E9.0  F1000.0 ; intro line
G1 X100.0 E12.5  F1000.0 ; intro line
G92 E0.0
M900 K30; Filament gcode
G21 ; set units to millimeters
G90 ; use absolute coordinates
M83 ; use relative distances for extrusion
;BEFORE_LAYER_CHANGE
;0.2


G1 E-0.80000 F2100.00000
G1 Z0.600 F7200.000
;AFTER_LAYER_CHANGE
;0.2
G1 X64.450 Y67.698
G1 Z0.200
G1 E0.80000 F2100.00000
M204 S1000
G1 F1800
G1 X65.272 Y67.237 E0.02954
G1 X89.549 Y60.166 E0.79283
G1 X107.004 Y60.123 E0.54728
G1 X107.941 Y60.317 E0.03001
G1 X139.967 Y74.328 E1.09604
G1 X140.570 Y74.716 E0.02249
G1 X141.033 Y75.268 E0.02260
G1 X141.288 Y75.857 E0.02012
G1 X141.377 Y76.493 E0.02012
G1 X141.377 Y115.515 E1.22352
G1 X141.312 Y116.051 E0.01692
G1 X141.128 Y116.558 E0.01692
G1 X120.896 Y143.933 E1.06729
G1 X120.417 Y144.409 E0.02119
G1 X119.822 Y144.730 E0.02119
G1 X119.005 Y144.877 E0.02602
G1 X65.996 Y144.877 E1.66207
G1 X65.456 Y144.814 E0.01704
G1 X64.942 Y144.628 E0.01716
G1 X64.405 Y144.263 E0.02036
G1 X63.990 Y143.768 E0.02024
G1 X63.721 Y143.177 E0.02036
G1 X63.623 Y142.535 E0.02036
G1 X63.623 Y69.492 E2.29021
G1 X63.687 Y68.953 E0.01704
G1 X63.872 Y68.442 E0.01704
G1 X64.413 Y67.745 E0.02766
G1 F5760
G1 X65.272 Y67.237 E-0.34557
G1 X66.421 Y66.903 E-0.41443
G1 E-0.04000 F2100.00000
G1 Z0.800 F7200.000
G1 X78.001 Y131.051
G1 Z0.200
G1 E0.80000 F2100.00000
G1 F1800
G1 X78.799 Y131.051 E0.02504
G1 X79.580 Y131.217 E0.02504
G1 X80.310 Y131.542 E0.02504
G1 X80.956 Y132.012 E0.02504
G1 X81.490 Y132.605 E0.02504
G1 X81.889 Y133.297 E0.02504
G1 X82.136 Y134.056 E0.02504
G1 X82.219 Y134.850 E0.02503
G1 X82.136 Y135.644 E0.02503
G1 X81.889 Y136.403 E0.02504
G1 X81.490 Y137.095 E0.02504
G1 X80.956 Y137.688 E0.02504
G1 X80.310 Y138.158 E0.02504
G1 X79.580 Y138.483 E0.02504
G1 X78.799 Y138.649 E0.02504
G1 X78.001 Y138.649 E0.02504
G1 X77.220 Y138.483 E0.02504
G1 X76.490 Y138.158 E0.02504
G1 X75.844 Y137.688 E0.02504
G1 X75.310 Y137.095 E0.02504
G1 X74.911 Y136.403 E0.02504
G1 X74.664 Y135.644 E0.02504
G1 X74.581 Y134.850 E0.02503
G1 X74.664 Y134.056 E0.02503
G1 X74.911 Y133.297 E0.02504
G1 X75.310 Y132.605 E0.02504
G1 X75.844 Y132.012 E0.02504
G1 X76.490 Y131.542 E0.02504
G1 X77.220 Y131.217 E0.02503
G1 X77.942 Y131.064 E0.02315
G1 X78.020 Y131.433 F7200.000
G1 F1800
G1 X78.760 Y131.429 E0.02318
G1 X79.463 Y131.578 E0.02255
G1 X80.120 Y131.871 E0.02255
G1 X80.702 Y132.293 E0.02255
G1 X81.183 Y132.828 E0.02255
G1 X81.543 Y133.451 E0.02255
G1 X81.765 Y134.135 E0.02255
G1 X81.840 Y134.850 E0.02255
G1 X81.765 Y135.565 E0.02255
G1 X81.543 Y136.249 E0.02255
G1 X81.183 Y136.872 E0.02255
G1 X80.702 Y137.407 E0.02255
G1 X80.120 Y137.829 E0.02255
G1 X79.463 Y138.122 E0.02255
G1 X78.760 Y138.271 E0.02255
G1 X78.040 Y138.271 E0.02255
G1 X77.337 Y138.122 E0.02255
G1 X76.680 Y137.829 E0.02255
G1 X76.098 Y137.407 E0.02255
G1 X75.617 Y136.872 E0.02255
G1 X75.257 Y136.249 E0.02255
G1 X75.035 Y135.565 E0.02255
G1 X74.960 Y134.850 E0.02255
G1 X75.035 Y134.135 E0.02255
G1 X75.257 Y133.451 E0.02255
G1 X75.617 Y132.828 E0.02255
G1 X76.098 Y132.293 E0.02255
G1 X76.680 Y131.871 E0.02255
G1 X77.337 Y131.578 E0.02255
G1 X77.962 Y131.445 E0.02003
G1 X78.040 Y131.814 F7200.000
G1 F1800
G1 X78.720 Y131.806 E0.02132
G1 X79.346 Y131.939 E0.02007
G1 X79.931 Y132.199 E0.02007
G1 X80.448 Y132.575 E0.02006
G1 X80.877 Y133.051 E0.02007
G1 X81.196 Y133.605 E0.02007
G1 X81.394 Y134.214 E0.02007
G1 X81.461 Y134.850 E0.02006
G1 X81.394 Y135.486 E0.02006
G1 X81.196 Y136.095 E0.02007
G1 X80.877 Y136.649 E0.02007
G1 X80.448 Y137.125 E0.02007
G1 X79.931 Y137.501 E0.02006
G1 X79.346 Y137.761 E0.02007
G1 X78.720 Y137.894 E0.02007
G1 X78.080 Y137.894 E0.02007
G1 X77.454 Y137.761 E0.02007
G1 X76.869 Y137.501 E0.02006
G1 X76.352 Y137.125 E0.02006
G1 X75.923 Y136.649 E0.02007
G1 X75.603 Y136.095 E0.02007
G1 X75.406 Y135.486 E0.02007
G1 X75.339 Y134.850 E0.02006
G1 X75.406 Y134.214 E0.02006
G1 X75.603 Y133.605 E0.02007
G1 X75.923 Y133.051 E0.02007
G1 X76.352 Y132.575 E0.02007
G1 X76.869 Y132.199 E0.02006
G1 X77.454 Y131.939 E0.02006
G1 X77.982 Y131.827 E0.01691
G1 X78.199 Y131.447 F7200.000
G1 F5760
G1 X78.720 Y131.806 E-0.25587
G1 X79.346 Y131.939 E-0.22165
G1 X79.931 Y132.199 E-0.22165
G1 X80.073 Y132.302 E-0.06082
G1 E-0.04000 F2100.00000
G1 Z0.800 F7200.000
G1 X73.080 Y113.283
G1 Z0.200
G1 E0.80000 F2100.00000
G1 F1800
G1 X72.299 Y113.449 E0.02504
G1 X71.501 Y113.449 E0.02504
G1 X70.720 Y113.283 E0.02504
G1 X69.990 Y112.958 E0.02504
G1 X69.344 Y112.489 E0.02503
G1 X68.810 Y111.895 E0.02504
G1 X68.410 Y111.204 E0.02505
G1 X68.164 Y110.444 E0.02504
G1 X68.081 Y109.650 E0.02503
G1 X68.164 Y108.856 E0.02503
G1 X68.410 Y108.097 E0.02504
G1 X68.810 Y107.405 E0.02505
G1 X69.344 Y106.811 E0.02504
G1 X69.990 Y106.342 E0.02503
G1 X70.720 Y106.017 E0.02504
G1 X71.501 Y105.851 E0.02504
G1 X72.299 Y105.851 E0.02504
G1 X73.080 Y106.017 E0.02504
G1 X73.810 Y106.342 E0.02504
G1 X74.456 Y106.812 E0.02504
G1 X74.990 Y107.405 E0.02504
G1 X75.389 Y108.096 E0.02504
G1 X75.636 Y108.856 E0.02504
G1 X75.719 Y109.650 E0.02504
G1 X75.636 Y110.444 E0.02504
G1 X75.388 Y111.207 E0.02514
G1 X74.975 Y111.912 E0.02565
G1 X74.456 Y112.488 E0.02431
G1 X73.810 Y112.958 E0.02503
G1 X73.135 Y113.258 E0.02316
G1 X72.982 Y112.914 F7200.000
G1 F1800
G1 X72.260 Y113.071 E0.02318
G1 X71.540 Y113.071 E0.02255
G1 X70.837 Y112.922 E0.02255
G1 X70.180 Y112.629 E0.02255
G1 X69.598 Y112.207 E0.02255
G1 X69.117 Y111.672 E0.02256
G1 X68.757 Y111.049 E0.02256
G1 X68.535 Y110.365 E0.02256
G1 X68.460 Y109.650 E0.02254
G1 X68.535 Y108.935 E0.02254
G1 X68.757 Y108.251 E0.02255
G1 X69.117 Y107.628 E0.02256
G1 X69.598 Y107.093 E0.02256
G1 X70.180 Y106.671 E0.02255
G1 X70.837 Y106.378 E0.02255
G1 X71.540 Y106.229 E0.02255
G1 X72.260 Y106.229 E0.02255
G1 X72.963 Y106.378 E0.02255
G1 X73.620 Y106.671 E0.02255
G1 X74.202 Y107.093 E0.02255
G1 X74.683 Y107.628 E0.02255
G1 X75.043 Y108.251 E0.02255
G1 X75.265 Y108.935 E0.02255
G1 X75.340 Y109.650 E0.02255
G1 X75.265 Y110.365 E0.02255
G1 X75.042 Y111.051 E0.02261
G1 X74.669 Y111.688 E0.02316
G1 X74.202 Y112.207 E0.02187
G1 X73.620 Y112.629 E0.02255
G1 X73.037 Y112.889 E0.02003
G1 X72.883 Y112.545 F7200.000
G1 F1800
G1 X72.220 Y112.694 E0.02132
G1 X71.580 Y112.694 E0.02006
G1 X70.954 Y112.561 E0.02007
G1 X70.369 Y112.301 E0.02007
G1 X69.852 Y111.925 E0.02006
G1 X69.423 Y111.449 E0.02007
G1 X69.103 Y110.895 E0.02007
G1 X68.905 Y110.286 E0.02007
G1 X68.839 Y109.650 E0.02006
G1 X68.905 Y109.014 E0.02006
G1 X69.103 Y108.405 E0.02007
G1 X69.423 Y107.851 E0.02007
G1 X69.852 Y107.375 E0.02007
G1 X70.369 Y106.999 E0.02006
G1 X70.954 Y106.739 E0.02006
G1 X71.580 Y106.606 E0.02007
G1 X72.220 Y106.606 E0.02007
G1 X72.846 Y106.739 E0.02007
G1 X73.431 Y106.999 E0.02007
G1 X73.948 Y107.375 E0.02007
G1 X74.377 Y107.851 E0.02007
G1 X74.696 Y108.405 E0.02007
G1 X74.894 Y109.014 E0.02007
G1 X74.961 Y109.650 E0.02007
G1 X74.894 Y110.286 E0.02007
G1 X74.696 Y110.896 E0.02009
G1 X74.363 Y111.465 E0.02067
G1 X73.948 Y111.925 E0.01942
G1 X73.431 Y112.301 E0.02006
G1 X72.938 Y112.520 E0.01691
G1 X72.804 Y112.937 F7200.000
G1 F5760
G1 X72.220 Y112.694 E-0.25588
G1 X71.580 Y112.694 E-0.22165
G1 X70.954 Y112.561 E-0.22166
G1 X70.794 Y112.490 E-0.06081
G1 E-0.04000 F2100.00000
G1 Z0.800 F7200.000
G1 X105.410 Y132.605
G1 Z0.200
G1 E0.80000 F2100.00000
G1 F1800
G1 X105.944 Y132.012 E0.02504
G1 X106.590 Y131.542 E0.02504
G1 X107.320 Y131.217 E0.02503
G1 X108.101 Y131.051 E0.02504
G1 X108.899 Y131.051 E0.02504
G1 X109.680 Y131.217 E0.02504
G1 X110.410 Y131.542 E0.02503
G1 X111.056 Y132.012 E0.02504
G1 X111.590 Y132.605 E0.02504
G1 X111.989 Y133.297 E0.02504
G1 X112.236 Y134.056 E0.02504
G1 X112.319 Y134.850 E0.02503
G1 X112.236 Y135.644 E0.02503
G1 X111.989 Y136.403 E0.02504
G1 X111.590 Y137.095 E0.02504
G1 X111.056 Y137.688 E0.02504
G1 X110.410 Y138.158 E0.02504
G1 X109.680 Y138.483 E0.02504
G1 X108.899 Y138.649 E0.02504
G1 X108.101 Y138.649 E0.02504
G1 X107.320 Y138.483 E0.02504
G1 X106.590 Y138.158 E0.02504
G1 X105.944 Y137.688 E0.02504
G1 X105.410 Y137.095 E0.02504
G1 X105.011 Y136.403 E0.02504
G1 X104.764 Y135.644 E0.02504
G1 X104.681 Y134.850 E0.02503
G1 X104.764 Y134.056 E0.02503
G1 X105.011 Y133.297 E0.02504
G1 X105.380 Y132.657 E0.02316
G1 X105.707 Y132.845 F7200.000
G1 F1800
G1 X106.198 Y132.293 E0.02318
G1 X106.780 Y131.871 E0.02255
G1 X107.437 Y131.578 E0.02255
G1 X108.140 Y131.429 E0.02255
G1 X108.860 Y131.429 E0.02255
G1 X109.563 Y131.578 E0.02255
G1 X110.220 Y131.871 E0.02255
G1 X110.802 Y132.293 E0.02255
G1 X111.283 Y132.828 E0.02255
G1 X111.643 Y133.451 E0.02255
G1 X111.865 Y134.135 E0.02255
G1 X111.940 Y134.850 E0.02255
G1 X111.865 Y135.565 E0.02255
G1 X111.643 Y136.249 E0.02255
G1 X111.283 Y136.872 E0.02255
G1 X110.802 Y137.407 E0.02255
G1 X110.220 Y137.829 E0.02255
G1 X109.563 Y138.122 E0.02255
G1 X108.860 Y138.271 E0.02255
G1 X108.140 Y138.271 E0.02255
G1 X107.437 Y138.122 E0.02255
G1 X106.780 Y137.829 E0.02255
G1 X106.198 Y137.407 E0.02255
G1 X105.717 Y136.872 E0.02255
G1 X105.357 Y136.249 E0.02255
G1 X105.135 Y135.565 E0.02255
G1 X105.060 Y134.850 E0.02255
G1 X105.135 Y134.135 E0.02255
G1 X105.357 Y133.451 E0.02255
G1 X105.677 Y132.897 E0.02003
G1 X106.003 Y133.086 F7200.000
G1 F1800
G1 X106.452 Y132.575 E0.02132
G1 X106.969 Y132.199 E0.02006
G1 X107.554 Y131.939 E0.02006
G1 X108.180 Y131.806 E0.02007
G1 X108.820 Y131.806 E0.02007
G1 X109.446 Y131.939 E0.02007
G1 X110.031 Y132.199 E0.02006
G1 X110.548 Y132.575 E0.02006
G1 X110.977 Y133.051 E0.02007
G1 X111.296 Y133.605 E0.02007
G1 X111.494 Y134.214 E0.02007
G1 X111.561 Y134.850 E0.02006
G1 X111.494 Y135.486 E0.02006
G1 X111.296 Y136.095 E0.02007
G1 X110.977 Y136.649 E0.02007
G1 X110.548 Y137.125 E0.02007
G1 X110.031 Y137.501 E0.02006
G1 X109.446 Y137.761 E0.02006
G1 X108.820 Y137.894 E0.02007
G1 X108.180 Y137.894 E0.02007
G1 X107.554 Y137.761 E0.02007
G1 X106.969 Y137.501 E0.02006
G1 X106.452 Y137.125 E0.02006
G1 X106.023 Y136.649 E0.02007
G1 X105.703 Y136.095 E0.02007
G1 X105.506 Y135.486 E0.02007
G1 X105.439 Y134.850 E0.02006
G1 X105.506 Y134.214 E0.02006
G1 X105.703 Y133.605 E0.02007
G1 X105.973 Y133.138 E0.01691
G1 X105.837 Y132.722 F7200.000
G1 F5760
G1 X106.452 Y132.575 E-0.25590
G1 X106.969 Y132.199 E-0.22164
G1 X107.554 Y131.939 E-0.22164
G1 X107.726 Y131.902 E-0.06082
G1 E-0.04000 F2100.00000
G1 Z0.800 F7200.000
G1 X121.344 Y112.488
G1 Z0.200
G1 E0.80000 F2100.00000
G1 F1800
G1 X120.810 Y111.895 E0.02504
G1 X120.411 Y111.204 E0.02504
G1 X120.164 Y110.444 E0.02504
G1 X120.081 Y109.650 E0.02504
G1 X120.164 Y108.856 E0.02504
G1 X120.412 Y108.093 E0.02514
G1 X120.825 Y107.388 E0.02565
G1 X121.344 Y106.812 E0.02431
G1 X121.990 Y106.342 E0.02504
G1 X122.720 Y106.017 E0.02504
G1 X123.501 Y105.851 E0.02504
G1 X124.299 Y105.851 E0.02504
G1 X125.080 Y106.017 E0.02504
G1 X125.810 Y106.342 E0.02504
G1 X126.456 Y106.812 E0.02504
G1 X126.990 Y107.405 E0.02504
G1 X127.389 Y108.096 E0.02504
G1 X127.636 Y108.856 E0.02504
G1 X127.719 Y109.650 E0.02504
G1 X127.636 Y110.444 E0.02504
G1 X127.389 Y111.204 E0.02504
G1 X126.990 Y111.895 E0.02504
G1 X126.456 Y112.488 E0.02504
G1 X125.810 Y112.958 E0.02503
G1 X125.080 Y113.283 E0.02504
G1 X124.299 Y113.449 E0.02504
G1 X123.501 Y113.449 E0.02504
G1 X122.720 Y113.283 E0.02504
G1 X121.990 Y112.958 E0.02504
G1 X121.393 Y112.524 E0.02315
G1 X121.614 Y112.219 F7200.000
G1 F1800
G1 X121.117 Y111.672 E0.02318
G1 X120.757 Y111.049 E0.02255
G1 X120.535 Y110.365 E0.02255
G1 X120.460 Y109.650 E0.02255
G1 X120.535 Y108.935 E0.02255
G1 X120.758 Y108.249 E0.02261
G1 X121.131 Y107.612 E0.02316
G1 X121.598 Y107.093 E0.02187
G1 X122.180 Y106.671 E0.02255
G1 X122.837 Y106.378 E0.02255
G1 X123.540 Y106.229 E0.02255
G1 X124.260 Y106.229 E0.02255
G1 X124.963 Y106.378 E0.02255
G1 X125.620 Y106.671 E0.02255
G1 X126.202 Y107.093 E0.02255
G1 X126.683 Y107.628 E0.02255
G1 X127.043 Y108.251 E0.02255
G1 X127.265 Y108.935 E0.02255
G1 X127.340 Y109.650 E0.02255
G1 X127.265 Y110.365 E0.02255
G1 X127.043 Y111.049 E0.02255
G1 X126.683 Y111.672 E0.02255
G1 X126.202 Y112.207 E0.02255
G1 X125.620 Y112.629 E0.02255
G1 X124.963 Y112.922 E0.02255
G1 X124.260 Y113.071 E0.02255
G1 X123.540 Y113.071 E0.02255
G1 X122.837 Y112.922 E0.02255
G1 X122.180 Y112.629 E0.02255
G1 X121.663 Y112.254 E0.02003
G1 X121.885 Y111.949 F7200.000
G1 F1800
G1 X121.423 Y111.449 E0.02132
G1 X121.104 Y110.895 E0.02007
G1 X120.906 Y110.286 E0.02007
G1 X120.839 Y109.650 E0.02007
G1 X120.906 Y109.014 E0.02007
G1 X121.104 Y108.404 E0.02009
G1 X121.437 Y107.835 E0.02068
G1 X121.852 Y107.375 E0.01942
G1 X122.369 Y106.999 E0.02007
G1 X122.954 Y106.739 E0.02006
G1 X123.580 Y106.606 E0.02007
G1 X124.220 Y106.606 E0.02007
G1 X124.846 Y106.739 E0.02007
G1 X125.431 Y106.999 E0.02006
G1 X125.948 Y107.375 E0.02007
G1 X126.377 Y107.851 E0.02007
G1 X126.697 Y108.405 E0.02007
G1 X126.894 Y109.014 E0.02006
G1 X126.961 Y109.650 E0.02007
G1 X126.894 Y110.286 E0.02007
G1 X126.697 Y110.895 E0.02007
G1 X126.377 Y111.449 E0.02007
G1 X125.948 Y111.925 E0.02007
G1 X125.431 Y112.301 E0.02006
G1 X124.846 Y112.561 E0.02007
G1 X124.220 Y112.694 E0.02007
G1 X123.580 Y112.694 E0.02006
G1 X122.954 Y112.561 E0.02007
G1 X122.369 Y112.301 E0.02007
G1 X121.933 Y111.984 E0.01691
G1 X121.505 Y112.076 F7200.000
G1 F5760
G1 X121.423 Y111.449 E-0.25589
G1 X121.104 Y110.895 E-0.22165
G1 X120.906 Y110.286 E-0.22165
G1 X120.887 Y110.112 E-0.06081
G1 E-0.04000 F2100.00000
G1 Z0.800 F7200.000
G1 X99.810 Y70.958
G1 Z0.200
G1 E0.80000 F2100.00000
G1 F1800
G1 X99.080 Y71.283 E0.02503
G1 X98.299 Y71.449 E0.02504
G1 X97.501 Y71.449 E0.02504
G1 X96.720 Y71.283 E0.02504
G1 X95.990 Y70.958 E0.02503
G1 X95.344 Y70.488 E0.02504
G1 X94.810 Y69.895 E0.02504
G1 X94.411 Y69.203 E0.02504
G1 X94.164 Y68.444 E0.02504
G1 X94.081 Y67.650 E0.02503
G1 X94.164 Y66.856 E0.02504
G1 X94.411 Y66.096 E0.02503
G1 X94.810 Y65.405 E0.02504
G1 X95.344 Y64.812 E0.02504
G1 X95.990 Y64.342 E0.02504
G1 X96.720 Y64.017 E0.02503
G1 X97.501 Y63.851 E0.02504
G1 X98.299 Y63.851 E0.02504
G1 X99.080 Y64.017 E0.02504
G1 X99.810 Y64.342 E0.02504
G1 X100.456 Y64.812 E0.02504
G1 X100.990 Y65.405 E0.02504
G1 X101.389 Y66.096 E0.02504
G1 X101.636 Y66.856 E0.02503
G1 X101.719 Y67.650 E0.02504
G1 X101.636 Y68.444 E0.02503
G1 X101.389 Y69.203 E0.02504
G1 X100.990 Y69.895 E0.02504
G1 X100.456 Y70.488 E0.02504
G1 X99.858 Y70.923 E0.02315
G1 X99.637 Y70.617 F7200.000
G1 F1800
G1 X98.963 Y70.922 E0.02317
G1 X98.260 Y71.071 E0.02255
G1 X97.540 Y71.071 E0.02255
G1 X96.837 Y70.922 E0.02255
G1 X96.180 Y70.629 E0.02255
G1 X95.598 Y70.207 E0.02255
G1 X95.117 Y69.672 E0.02255
G1 X94.757 Y69.049 E0.02255
G1 X94.535 Y68.365 E0.02255
G1 X94.460 Y67.650 E0.02255
G1 X94.535 Y66.935 E0.02255
G1 X94.757 Y66.251 E0.02255
G1 X95.117 Y65.628 E0.02255
G1 X95.598 Y65.093 E0.02255
G1 X96.180 Y64.671 E0.02255
G1 X96.837 Y64.378 E0.02255
G1 X97.540 Y64.229 E0.02255
G1 X98.260 Y64.229 E0.02255
G1 X98.963 Y64.378 E0.02255
G1 X99.620 Y64.671 E0.02255
G1 X100.202 Y65.093 E0.02255
G1 X100.683 Y65.628 E0.02255
G1 X101.043 Y66.251 E0.02255
G1 X101.265 Y66.935 E0.02255
G1 X101.340 Y67.650 E0.02255
G1 X101.265 Y68.365 E0.02255
G1 X101.043 Y69.049 E0.02255
G1 X100.683 Y69.672 E0.02255
G1 X100.202 Y70.207 E0.02255
G1 X99.685 Y70.582 E0.02003
G1 X99.464 Y70.277 F7200.000
G1 F1800
G1 X98.846 Y70.561 E0.02132
G1 X98.220 Y70.694 E0.02007
G1 X97.580 Y70.694 E0.02007
G1 X96.954 Y70.561 E0.02007
G1 X96.369 Y70.301 E0.02006
G1 X95.852 Y69.925 E0.02006
G1 X95.423 Y69.449 E0.02007
G1 X95.103 Y68.895 E0.02007
