; generated by Slic3r Prusa Edition 1.39.2+win64 on 2018-05-24 at 07:43:33

; 

; external perimeters extrusion width = 0.45mm
; perimeters extrusion width = 0.45mm
; infill extrusion width = 0.45mm
; solid infill extrusion width = 0.45mm
; top infill extrusion width = 0.45mm
; first layer extrusion width = 0.42mm

M107
M115 U3.1.0 ; tell printer latest fw version
M83  ; extruder relative mode
M104 S205 ; set extruder temp
M140 S55 ; set bed temp
M190 S55 ; wait for bed temp
M109 S205 ; wait for extruder temp
G28 W ; home all without mesh bed level
G80 ; mesh bed leveling
G1 Y-3.0 F1000.0 ; go outside print area
G92 E0.0
G1 X60.0 E9.0  F1000.0 ; intro line
G1 X100.0 E12.5  F1000.0 ; intro line
G92 E0.0
M900 K30; Filament gcode
G21 ; set units to millimeters
G90 ; use absolute coordinates
M83 ; use relative distances for extrusion
;BEFORE_LAYER_CHANGE
;0.2


G1 E-0.80000 F2100.00000
G1 Z0.600 F7200.000
;AFTER_LAYER_CHANGE
;0.2
G1 X99.230 Y77.527
G1 Z0.200
G1 E0.80000 F2100.00000
M204 S1000
G1 F1800
G1 X100.986 Y76.288 E0.06739
G1 X102.837 Y75.519 E0.06284
G1 X104.518 Y75.174 E0.05382
G1 X106.236 Y75.161 E0.05386
G1 X106.724 Y75.213 E0.01538
G1 X108.624 Y75.669 E0.06128
G1 X110.236 Y76.408 E0.05561
G1 X111.928 Y77.683 E0.06643
G1 X113.092 Y78.997 E0.05504
G1 X114.024 Y80.595 E0.05800
G1 X115.822 Y85.506 E0.16400
G1 X115.877 Y86.013 E0.01597
G1 X115.876 Y119.005 E1.03446
G1 X115.749 Y119.711 E0.02249
G1 X114.038 Y124.375 E0.15575
G1 X113.087 Y126.011 E0.05935
G1 X111.840 Y127.408 E0.05870
G1 X110.203 Y128.613 E0.06373
G1 X108.431 Y129.407 E0.06087
G1 X106.505 Y129.823 E0.06180
G1 X104.703 Y129.838 E0.05648
G1 X102.600 Y129.417 E0.06725
G1 X100.645 Y128.516 E0.06749
G1 X99.051 Y127.295 E0.06296
G1 X97.915 Y126.013 E0.05372
G1 X97.039 Y124.523 E0.05418
G1 X90.472 Y108.994 E0.52864
G1 X89.478 Y105.891 E0.10217
G1 X89.124 Y102.433 E0.10900
G1 X89.480 Y99.099 E0.10511
G1 X90.483 Y95.974 E0.10291
G1 X96.925 Y80.704 E0.51966
G1 X97.824 Y79.122 E0.05706
G1 X99.190 Y77.572 E0.06476
G1 F5760
G1 X100.975 Y76.296 E-0.76000
G1 E-0.04000 F2100.00000
G1 Z0.800 F7200.000
G1 X105.101 Y116.701
G1 Z0.200
G1 E0.80000 F2100.00000
G1 F1800
G1 X105.899 Y116.701 E0.02504
G1 X106.681 Y116.868 E0.02504
G1 X107.410 Y117.192 E0.02503
G1 X108.056 Y117.661 E0.02503
G1 X108.590 Y118.255 E0.02504
G1 X108.990 Y118.947 E0.02505
G1 X109.236 Y119.706 E0.02505
G1 X109.319 Y120.500 E0.02502
G1 X109.236 Y121.294 E0.02502
G1 X108.990 Y122.054 E0.02505
G1 X108.590 Y122.745 E0.02505
G1 X108.056 Y123.339 E0.02504
G1 X107.410 Y123.808 E0.02503
G1 X106.681 Y124.133 E0.02503
G1 X105.899 Y124.299 E0.02504
G1 X105.101 Y124.299 E0.02504
G1 X104.319 Y124.133 E0.02504
G1 X103.590 Y123.808 E0.02503
G1 X102.944 Y123.339 E0.02503
G1 X102.410 Y122.745 E0.02504
G1 X102.010 Y122.054 E0.02505
G1 X101.764 Y121.294 E0.02505
G1 X101.681 Y120.500 E0.02502
G1 X101.764 Y119.706 E0.02502
G1 X102.010 Y118.947 E0.02505
G1 X102.410 Y118.255 E0.02505
G1 X102.944 Y117.661 E0.02504
G1 X103.590 Y117.192 E0.02503
G1 X104.319 Y116.868 E0.02503
G1 X105.042 Y116.714 E0.02316
G1 X105.120 Y117.083 F7200.000
G1 F1800
G1 X105.860 Y117.079 E0.02318
G1 X106.563 Y117.228 E0.02256
G1 X107.220 Y117.521 E0.02254
G1 X107.802 Y117.943 E0.02254
G1 X108.283 Y118.478 E0.02256
G1 X108.643 Y119.101 E0.02256
G1 X108.865 Y119.785 E0.02256
G1 X108.940 Y120.500 E0.02254
G1 X108.865 Y121.215 E0.02254
G1 X108.643 Y121.899 E0.02256
G1 X108.283 Y122.522 E0.02256
G1 X107.802 Y123.057 E0.02256
G1 X107.220 Y123.479 E0.02254
G1 X106.563 Y123.772 E0.02254
G1 X105.860 Y123.922 E0.02256
G1 X105.140 Y123.922 E0.02256
G1 X104.437 Y123.772 E0.02256
G1 X103.780 Y123.479 E0.02254
G1 X103.198 Y123.057 E0.02254
G1 X102.717 Y122.522 E0.02256
G1 X102.357 Y121.899 E0.02256
G1 X102.135 Y121.215 E0.02256
G1 X102.060 Y120.500 E0.02254
G1 X102.135 Y119.785 E0.02254
G1 X102.357 Y119.101 E0.02256
G1 X102.717 Y118.478 E0.02256
G1 X103.198 Y117.943 E0.02256
G1 X103.780 Y117.521 E0.02254
G1 X104.437 Y117.228 E0.02254
G1 X105.062 Y117.095 E0.02004
G1 X105.140 Y117.464 F7200.000
G1 F1800
G1 X105.820 Y117.456 E0.02132
G1 X106.446 Y117.589 E0.02007
G1 X107.031 Y117.849 E0.02006
G1 X107.548 Y118.225 E0.02006
G1 X107.977 Y118.701 E0.02007
G1 X108.297 Y119.255 E0.02007
G1 X108.495 Y119.864 E0.02007
G1 X108.561 Y120.500 E0.02006
G1 X108.495 Y121.136 E0.02006
G1 X108.297 Y121.745 E0.02007
G1 X107.977 Y122.299 E0.02007
G1 X107.548 Y122.775 E0.02007
G1 X107.031 Y123.151 E0.02006
G1 X106.446 Y123.411 E0.02006
G1 X105.820 Y123.544 E0.02007
G1 X105.180 Y123.544 E0.02007
G1 X104.554 Y123.411 E0.02007
G1 X103.969 Y123.151 E0.02006
G1 X103.452 Y122.775 E0.02006
G1 X103.023 Y122.299 E0.02007
G1 X102.703 Y121.745 E0.02007
G1 X102.505 Y121.136 E0.02007
G1 X102.439 Y120.500 E0.02006
G1 X102.505 Y119.864 E0.02006
G1 X102.703 Y119.255 E0.02007
G1 X103.023 Y118.701 E0.02007
G1 X103.452 Y118.225 E0.02007
G1 X103.969 Y117.849 E0.02006
G1 X104.554 Y117.589 E0.02006
G1 X105.081 Y117.477 E0.01691
G1 X105.299 Y117.097 F7200.000
G1 F5760
G1 X105.820 Y117.456 E-0.25595
G1 X106.446 Y117.589 E-0.22173
G1 X107.031 Y117.849 E-0.22155
G1 X107.173 Y117.952 E-0.06077
G1 E-0.04000 F2100.00000
G1 Z0.800 F7200.000
G1 X105.101 Y106.299
G1 Z0.200
G1 E0.80000 F2100.00000
G1 F1800
G1 X104.319 Y106.133 E0.02504
G1 X103.590 Y105.808 E0.02503
G1 X102.944 Y105.339 E0.02503
G1 X102.410 Y104.745 E0.02504
G1 X102.010 Y104.054 E0.02505
G1 X101.764 Y103.294 E0.02504
G1 X101.681 Y102.500 E0.02502
G1 X101.764 Y101.706 E0.02502
G1 X102.010 Y100.947 E0.02504
G1 X102.410 Y100.255 E0.02505
G1 X102.944 Y99.661 E0.02504
G1 X103.590 Y99.192 E0.02503
G1 X104.319 Y98.868 E0.02503
G1 X105.101 Y98.701 E0.02504
G1 X105.899 Y98.701 E0.02504
G1 X106.681 Y98.868 E0.02504
G1 X107.410 Y99.192 E0.02503
G1 X108.056 Y99.661 E0.02503
G1 X108.590 Y100.255 E0.02504
G1 X108.990 Y100.947 E0.02505
G1 X109.236 Y101.706 E0.02504
G1 X109.319 Y102.500 E0.02502
G1 X109.236 Y103.294 E0.02502
G1 X108.990 Y104.054 E0.02504
G1 X108.590 Y104.745 E0.02505
G1 X108.056 Y105.339 E0.02504
G1 X107.410 Y105.808 E0.02503
G1 X106.681 Y106.133 E0.02503
G1 X105.899 Y106.299 E0.02504
G1 X105.161 Y106.299 E0.02316
G1 X105.161 Y105.922 F7200.000
G1 F1800
G1 X104.437 Y105.772 E0.02318
G1 X103.780 Y105.479 E0.02254
G1 X103.198 Y105.057 E0.02254
G1 X102.717 Y104.522 E0.02256
G1 X102.357 Y103.899 E0.02256
G1 X102.135 Y103.215 E0.02256
G1 X102.060 Y102.500 E0.02254
G1 X102.135 Y101.785 E0.02254
G1 X102.357 Y101.101 E0.02256
G1 X102.717 Y100.478 E0.02256
G1 X103.198 Y99.943 E0.02256
G1 X103.780 Y99.521 E0.02254
G1 X104.437 Y99.228 E0.02254
G1 X105.140 Y99.079 E0.02256
G1 X105.860 Y99.079 E0.02256
G1 X106.563 Y99.228 E0.02256
G1 X107.220 Y99.521 E0.02254
G1 X107.802 Y99.943 E0.02254
G1 X108.283 Y100.478 E0.02256
G1 X108.643 Y101.101 E0.02256
G1 X108.865 Y101.785 E0.02256
G1 X108.940 Y102.500 E0.02254
G1 X108.865 Y103.215 E0.02254
G1 X108.643 Y103.899 E0.02256
G1 X108.283 Y104.522 E0.02256
G1 X107.802 Y105.057 E0.02256
G1 X107.220 Y105.479 E0.02254
G1 X106.563 Y105.772 E0.02254
G1 X105.860 Y105.922 E0.02256
G1 X105.221 Y105.922 E0.02004
G1 X105.221 Y105.544 F7200.000
G1 F1800
G1 X104.554 Y105.411 E0.02132
G1 X103.969 Y105.151 E0.02006
G1 X103.452 Y104.775 E0.02006
G1 X103.023 Y104.299 E0.02007
G1 X102.703 Y103.745 E0.02007
G1 X102.505 Y103.136 E0.02007
G1 X102.439 Y102.500 E0.02006
G1 X102.505 Y101.864 E0.02006
G1 X102.703 Y101.255 E0.02007
G1 X103.023 Y100.701 E0.02007
G1 X103.452 Y100.225 E0.02007
G1 X103.969 Y99.849 E0.02006
G1 X104.554 Y99.589 E0.02006
G1 X105.180 Y99.456 E0.02007
G1 X105.820 Y99.456 E0.02007
G1 X106.446 Y99.589 E0.02007
G1 X107.031 Y99.849 E0.02006
G1 X107.548 Y100.225 E0.02006
G1 X107.977 Y100.701 E0.02007
G1 X108.297 Y101.255 E0.02007
G1 X108.495 Y101.864 E0.02007
G1 X108.561 Y102.500 E0.02006
G1 X108.495 Y103.136 E0.02006
G1 X108.297 Y103.745 E0.02007
G1 X107.977 Y104.299 E0.02007
G1 X107.548 Y104.775 E0.02007
G1 X107.031 Y105.151 E0.02006
G1 X106.446 Y105.411 E0.02006
G1 X105.820 Y105.544 E0.02007
G1 X105.281 Y105.544 E0.01691
G1 X104.989 Y105.870 F7200.000
G1 F5760
G1 X104.554 Y105.411 E-0.25596
G1 X103.969 Y105.151 E-0.22155
G1 X103.452 Y104.775 E-0.22162
G1 X103.334 Y104.644 E-0.06086
G1 E-0.04000 F2100.00000
G1 Z0.800 F7200.000
G1 X105.101 Y88.299
G1 Z0.200
G1 E0.80000 F2100.00000
G1 F1800
G1 X104.319 Y88.133 E0.02504
G1 X103.590 Y87.808 E0.02503
G1 X102.944 Y87.339 E0.02503
G1 X102.410 Y86.745 E0.02504
G1 X102.010 Y86.054 E0.02505
G1 X101.764 Y85.294 E0.02504
G1 X101.681 Y84.500 E0.02502
G1 X101.764 Y83.706 E0.02502
G1 X102.010 Y82.947 E0.02504
G1 X102.410 Y82.255 E0.02505
G1 X102.944 Y81.661 E0.02504
G1 X103.590 Y81.192 E0.02503
G1 X104.319 Y80.868 E0.02503
G1 X105.101 Y80.701 E0.02504
G1 X105.899 Y80.701 E0.02504
G1 X106.681 Y80.868 E0.02504
G1 X107.410 Y81.192 E0.02503
G1 X108.056 Y81.661 E0.02503
G1 X108.590 Y82.255 E0.02504
G1 X108.990 Y82.947 E0.02505
G1 X109.236 Y83.706 E0.02504
G1 X109.319 Y84.500 E0.02502
G1 X109.236 Y85.294 E0.02502
G1 X108.990 Y86.054 E0.02504
G1 X108.590 Y86.745 E0.02505
G1 X108.056 Y87.339 E0.02504
G1 X107.410 Y87.808 E0.02503
G1 X106.681 Y88.133 E0.02503
G1 X105.899 Y88.299 E0.02504
G1 X105.161 Y88.299 E0.02316
G1 X105.161 Y87.922 F7200.000
G1 F1800
G1 X104.437 Y87.772 E0.02318
G1 X103.780 Y87.479 E0.02254
G1 X103.198 Y87.057 E0.02254
G1 X102.717 Y86.522 E0.02256
G1 X102.357 Y85.899 E0.02256
G1 X102.135 Y85.215 E0.02256
G1 X102.060 Y84.500 E0.02254
G1 X102.135 Y83.785 E0.02254
G1 X102.357 Y83.101 E0.02256
G1 X102.717 Y82.478 E0.02256
G1 X103.198 Y81.943 E0.02256
G1 X103.780 Y81.521 E0.02254
G1 X104.437 Y81.228 E0.02254
G1 X105.140 Y81.079 E0.02256
G1 X105.860 Y81.079 E0.02256
G1 X106.563 Y81.228 E0.02256
G1 X107.220 Y81.521 E0.02254
G1 X107.802 Y81.943 E0.02254
G1 X108.283 Y82.478 E0.02256
G1 X108.643 Y83.101 E0.02256
G1 X108.865 Y83.785 E0.02256
G1 X108.940 Y84.500 E0.02254
G1 X108.865 Y85.215 E0.02254
G1 X108.643 Y85.899 E0.02256
G1 X108.283 Y86.522 E0.02256
G1 X107.802 Y87.057 E0.02256
G1 X107.220 Y87.479 E0.02254
G1 X106.563 Y87.772 E0.02254
G1 X105.860 Y87.922 E0.02256
G1 X105.221 Y87.922 E0.02004
G1 X105.221 Y87.544 F7200.000
G1 F1800
G1 X104.554 Y87.411 E0.02132
G1 X103.969 Y87.151 E0.02006
G1 X103.452 Y86.775 E0.02006
G1 X103.023 Y86.299 E0.02007
G1 X102.703 Y85.745 E0.02007
G1 X102.505 Y85.136 E0.02007
G1 X102.439 Y84.500 E0.02006
G1 X102.505 Y83.864 E0.02006
G1 X102.703 Y83.255 E0.02007
G1 X103.023 Y82.701 E0.02007
G1 X103.452 Y82.225 E0.02007
G1 X103.969 Y81.849 E0.02006
G1 X104.554 Y81.589 E0.02006
G1 X105.180 Y81.456 E0.02007
G1 X105.820 Y81.456 E0.02007
G1 X106.446 Y81.589 E0.02007
G1 X107.031 Y81.849 E0.02006
G1 X107.548 Y82.225 E0.02006
G1 X107.977 Y82.701 E0.02007
G1 X108.297 Y83.255 E0.02007
G1 X108.495 Y83.864 E0.02007
G1 X108.561 Y84.500 E0.02006
G1 X108.495 Y85.136 E0.02006
G1 X108.297 Y85.745 E0.02007
G1 X107.977 Y86.299 E0.02007
G1 X107.548 Y86.775 E0.02007
G1 X107.031 Y87.151 E0.02006
G1 X106.446 Y87.411 E0.02006
G1 X105.820 Y87.544 E0.02007
G1 X105.281 Y87.544 E0.01691
G1 X104.989 Y87.870 F7200.000
G1 F5760
G1 X104.554 Y87.411 E-0.25596
G1 X103.969 Y87.151 E-0.22155
G1 X103.452 Y86.775 E-0.22162
G1 X103.334 Y86.644 E-0.06086
G1 E-0.04000 F2100.00000
G1 Z0.800 F7200.000
G1 X99.425 Y84.938
G1 Z0.200
G1 E0.80000 F2100.00000
G1 F1800
G1 X99.601 Y83.246 E0.05334
G1 X99.991 Y82.047 E0.03951
G1 X100.621 Y80.955 E0.03953
G1 X101.465 Y80.018 E0.03953
G1 X102.485 Y79.277 E0.03953
G1 X103.637 Y78.765 E0.03953
G1 X104.867 Y78.503 E0.03944
G1 X106.164 Y78.510 E0.04067
G1 X107.363 Y78.765 E0.03845
G1 X108.515 Y79.277 E0.03953
G1 X109.535 Y80.018 E0.03953
G1 X110.379 Y80.955 E0.03953
G1 X111.009 Y82.047 E0.03953
G1 X111.399 Y83.246 E0.03954
G1 X111.439 Y83.629 E0.01206
G1 X112.536 Y86.213 E0.08801
G1 X112.536 Y118.745 E1.02002
G1 X111.445 Y121.314 E0.08753
G1 X111.399 Y121.754 E0.01385
G1 X111.009 Y122.953 E0.03954
G1 X110.379 Y124.045 E0.03953
G1 X109.535 Y124.982 E0.03953
G1 X108.515 Y125.723 E0.03953
G1 X107.363 Y126.235 E0.03953
G1 X106.131 Y126.498 E0.03952
G1 X104.869 Y126.498 E0.03955
G1 X103.637 Y126.235 E0.03952
G1 X102.485 Y125.723 E0.03953
G1 X101.465 Y124.982 E0.03953
G1 X100.621 Y124.045 E0.03953
G1 X99.991 Y122.953 E0.03953
G1 X99.601 Y121.754 E0.03953
G1 X99.411 Y119.941 E0.05715
G1 X98.981 Y120.123 E0.01463
G1 X94.178 Y108.809 E0.38539
G1 X93.596 Y107.800 E0.03654
G1 X92.754 Y105.209 E0.08541
G1 X92.469 Y102.500 E0.08542
G1 X92.754 Y99.791 E0.08542
G1 X93.596 Y97.200 E0.08540
G1 X94.110 Y96.310 E0.03224
G1 X99.011 Y84.763 E0.39331
G1 X99.369 Y84.914 E0.01219
G1 X99.103 Y84.392 F7200.000
G1 F1800
G1 X99.230 Y83.167 E0.03862
G1 X99.644 Y81.893 E0.04200
G1 X100.315 Y80.733 E0.04202
G1 X101.211 Y79.737 E0.04201
G1 X102.295 Y78.949 E0.04202
G1 X103.519 Y78.404 E0.04202
G1 X104.828 Y78.126 E0.04196
G1 X106.205 Y78.133 E0.04315
G1 X107.481 Y78.404 E0.04090
G1 X108.705 Y78.949 E0.04202
G1 X109.789 Y79.737 E0.04202
G1 X110.685 Y80.733 E0.04201
G1 X111.356 Y81.893 E0.04202
G1 X111.770 Y83.168 E0.04202
G1 X111.808 Y83.533 E0.01153
G1 X112.913 Y86.136 E0.08865
G1 X112.913 Y118.821 E1.02483
G1 X111.814 Y121.410 E0.08817
G1 X111.770 Y121.833 E0.01332
G1 X111.356 Y123.107 E0.04202
G1 X110.685 Y124.268 E0.04202
G1 X109.789 Y125.263 E0.04201
G1 X108.705 Y126.051 E0.04202
G1 X107.481 Y126.596 E0.04202
G1 X106.170 Y126.875 E0.04200
G1 X104.830 Y126.875 E0.04203
G1 X103.519 Y126.596 E0.04200
G1 X102.295 Y126.051 E0.04202
G1 X101.211 Y125.263 E0.04202
G1 X100.315 Y124.268 E0.04201
G1 X99.644 Y123.107 E0.04202
G1 X99.230 Y121.833 E0.04201
G1 X99.089 Y120.487 E0.04242
G1 X98.781 Y120.618 E0.01048
G1 X93.840 Y108.978 E0.39648
G1 X93.249 Y107.954 E0.03706
G1 X92.383 Y105.288 E0.08789
G1 X92.090 Y102.500 E0.08790
G1 X92.383 Y99.712 E0.08790
G1 X93.249 Y97.046 E0.08789
G1 X93.772 Y96.141 E0.03276
G1 X98.811 Y84.269 E0.40439
G1 X99.047 Y84.369 E0.00803
G1 F5760
G1 X99.230 Y83.167 E-0.42102
G1 X99.533 Y82.236 E-0.33898
G1 E-0.04000 F2100.00000
G1 Z0.800 F7200.000
G1 X98.767 Y121.033
G1 Z0.200
G1 E0.80000 F2100.00000
G1 F1800
G1 X98.581 Y121.112 E0.00633
G1 X93.502 Y109.146 E0.40757
G1 X92.903 Y108.108 E0.03758
G1 X92.013 Y105.367 E0.09038
G1 X91.711 Y102.500 E0.09039
G1 X92.013 Y99.633 E0.09039
G1 X92.903 Y96.892 E0.09038
G1 X93.434 Y95.973 E0.03328
G1 X98.611 Y83.775 E0.41547
G1 X98.780 Y83.847 E0.00575
G1 X98.860 Y83.088 E0.02390
G1 X99.298 Y81.739 E0.04450
G1 X100.008 Y80.510 E0.04450
G1 X100.957 Y79.455 E0.04450
G1 X102.106 Y78.621 E0.04450
G1 X103.402 Y78.043 E0.04450
G1 X104.790 Y77.748 E0.04447
G1 X106.245 Y77.756 E0.04564
G1 X107.598 Y78.043 E0.04336
G1 X108.894 Y78.621 E0.04450
G1 X110.043 Y79.455 E0.04450
G1 X110.992 Y80.510 E0.04450
G1 X111.702 Y81.739 E0.04450
G1 X112.140 Y83.089 E0.04450
G1 X112.177 Y83.438 E0.01101
G1 X113.290 Y86.059 E0.08929
G1 X113.290 Y118.898 E1.02964
G1 X112.183 Y121.505 E0.08881
G1 X112.140 Y121.911 E0.01280
G1 X111.702 Y123.261 E0.04450
G1 X110.992 Y124.490 E0.04450
G1 X110.043 Y125.545 E0.04450
G1 X108.894 Y126.379 E0.04450
G1 X107.598 Y126.957 E0.04450
G1 X106.210 Y127.252 E0.04449
G1 X104.790 Y127.252 E0.04452
G1 X103.402 Y126.957 E0.04449
G1 X102.106 Y126.379 E0.04450
G1 X100.957 Y125.545 E0.04450
G1 X100.008 Y124.490 E0.04450
G1 X99.298 Y123.261 E0.04450
G1 X98.860 Y121.912 E0.04450
G1 X98.773 Y121.093 E0.02581
G1 X98.699 Y120.843 F7200.000
G1 F5760
G1 X98.581 Y121.112 E-0.06688
G1 X97.799 Y119.270 E-0.69312
G1 E-0.04000 F2100.00000
G1 Z0.800 F7200.000
G1 X99.401 Y119.823
G1 Z0.200
G1 E0.80000 F2100.00000
G1 F1800
G1 X98.983 Y119.405 E0.01870
G1 X98.586 Y118.469 E0.03217
G1 X101.493 Y121.376 E0.13015
G1 X101.424 Y120.769 E0.01934
G1 X98.189 Y117.534 E0.14485
G1 X97.792 Y116.598 E0.03217
G1 X101.424 Y120.231 E0.16263
G1 X101.475 Y119.743 E0.01551
G1 X97.395 Y115.663 E0.18269
G1 X96.998 Y114.727 E0.03217
G1 X101.591 Y119.321 E0.20566
G1 X101.723 Y118.915 E0.01353
G1 X96.601 Y113.792 E0.22935
G1 X96.204 Y112.856 E0.03217
G1 X101.907 Y118.560 E0.25535
G1 X102.104 Y118.218 E0.01248
G1 X95.806 Y111.921 E0.28195
G1 X95.409 Y110.985 E0.03217
G1 X102.337 Y117.913 E0.31016
G1 X102.592 Y117.630 E0.01207
G1 X95.012 Y110.050 E0.33937
