; generated by Slic3r Prusa Edition 1.39.2+win64 on 2018-08-04 at 06:40:28

; 

; external perimeters extrusion width = 0.45mm
; perimeters extrusion width = 0.45mm
; infill extrusion width = 0.45mm
; solid infill extrusion width = 0.45mm
; top infill extrusion width = 0.45mm
; first layer extrusion width = 0.42mm

M107
M115 U3.1.0 ; tell printer latest fw version
M83  ; extruder relative mode
M104 S205 ; set extruder temp
M140 S55 ; set bed temp
M190 S55 ; wait for bed temp
M109 S205 ; wait for extruder temp
G28 W ; home all without mesh bed level
G80 ; mesh bed leveling
G1 Y-3.0 F1000.0 ; go outside print area
G92 E0.0
G1 X60.0 E9.0  F1000.0 ; intro line
G1 X100.0 E12.5  F1000.0 ; intro line
G92 E0.0
M900 K30; Filament gcode
G21 ; set units to millimeters
G90 ; use absolute coordinates
M83 ; use relative distances for extrusion
;BEFORE_LAYER_CHANGE
;0.2


G1 E-0.80000 F2100.00000
G1 Z0.600 F7200.000
;AFTER_LAYER_CHANGE
;0.2
G1 X88.868 Y74.711
G1 Z0.200
G1 E0.80000 F2100.00000
M204 S1000
G1 F1800
G1 X90.896 Y72.458 E0.09505
G1 X92.832 Y71.070 E0.07469
G1 X95.179 Y70.026 E0.08054
G1 X97.691 Y69.490 E0.08054
G1 X100.054 Y69.475 E0.07410
G1 X102.789 Y70.013 E0.08738
G1 X105.021 Y70.988 E0.07636
G1 X126.249 Y81.316 E0.74021
G1 X128.393 Y82.843 E0.08252
G1 X130.267 Y84.937 E0.08812
G1 X141.943 Y103.770 E0.69476
G1 X142.798 Y105.344 E0.05616
G1 X143.257 Y106.796 E0.04776
G1 X143.430 Y108.317 E0.04800
G1 X144.546 Y124.016 E0.49347
G1 X144.384 Y125.583 E0.04937
G1 X141.722 Y140.899 E0.48742
G1 X141.250 Y142.395 E0.04920
G1 X135.982 Y157.224 E0.49341
G1 X135.154 Y158.631 E0.05121
G1 X133.985 Y159.925 E0.05467
G1 X132.580 Y160.944 E0.05443
G1 X131.002 Y161.650 E0.05420
G1 X129.297 Y162.018 E0.05467
G1 X127.763 Y162.034 E0.04811
G1 X125.774 Y161.648 E0.06353
G1 X98.934 Y151.443 E0.90030
G1 X97.485 Y150.786 E0.04990
G1 X96.247 Y149.905 E0.04764
G1 X94.907 Y148.477 E0.06140
G1 X93.993 Y146.890 E0.05740
G1 X87.893 Y130.091 E0.56040
G1 X87.175 Y127.837 E0.07416
G1 X86.910 Y125.420 E0.07625
G1 X86.177 Y103.845 E0.67684
G1 X86.629 Y81.730 E0.69357
G1 X86.893 Y79.251 E0.07814
G1 X87.690 Y76.782 E0.08137
G1 X88.838 Y74.763 E0.07281
G1 F5760
G1 X90.299 Y73.126 E-0.76000
G1 E-0.04000 F2100.00000
G1 Z0.800 F7200.000
G1 X97.682 Y101.118
G1 Z0.200
G1 E0.80000 F2100.00000
G1 F1800
G1 X98.259 Y100.995 E0.01848
G1 X98.848 Y100.995 E0.01848
G1 X99.425 Y101.118 E0.01848
G1 X99.963 Y101.357 E0.01848
G1 X100.440 Y101.704 E0.01848
G1 X100.835 Y102.142 E0.01848
G1 X101.129 Y102.652 E0.01848
G1 X101.311 Y103.213 E0.01848
G1 X101.373 Y103.799 E0.01848
G1 X101.311 Y104.385 E0.01848
G1 X101.129 Y104.946 E0.01848
G1 X100.835 Y105.456 E0.01848
G1 X100.440 Y105.894 E0.01848
G1 X99.963 Y106.241 E0.01848
G1 X99.425 Y106.481 E0.01848
G1 X98.848 Y106.603 E0.01848
G1 X98.259 Y106.603 E0.01848
G1 X97.682 Y106.481 E0.01848
G1 X97.144 Y106.241 E0.01848
G1 X96.667 Y105.894 E0.01848
G1 X96.273 Y105.456 E0.01848
G1 X95.978 Y104.946 E0.01848
G1 X95.796 Y104.385 E0.01848
G1 X95.734 Y103.799 E0.01848
G1 X95.796 Y103.213 E0.01848
G1 X95.978 Y102.652 E0.01848
G1 X96.273 Y102.142 E0.01848
G1 X96.667 Y101.704 E0.01848
G1 X97.144 Y101.357 E0.01848
G1 X97.627 Y101.142 E0.01660
G1 X97.781 Y101.486 F7200.000
G1 F1800
G1 X98.298 Y101.372 E0.01662
G1 X98.809 Y101.372 E0.01600
G1 X99.308 Y101.478 E0.01600
G1 X99.774 Y101.686 E0.01600
G1 X100.186 Y101.986 E0.01600
G1 X100.528 Y102.365 E0.01600
G1 X100.783 Y102.806 E0.01600
G1 X100.941 Y103.292 E0.01600
G1 X100.994 Y103.799 E0.01600
G1 X100.941 Y104.306 E0.01600
G1 X100.783 Y104.792 E0.01600
G1 X100.528 Y105.233 E0.01600
G1 X100.186 Y105.613 E0.01600
G1 X99.774 Y105.912 E0.01600
G1 X99.308 Y106.120 E0.01600
G1 X98.809 Y106.226 E0.01600
G1 X98.298 Y106.226 E0.01600
G1 X97.799 Y106.120 E0.01600
G1 X97.333 Y105.912 E0.01600
G1 X96.921 Y105.613 E0.01600
G1 X96.579 Y105.233 E0.01600
G1 X96.324 Y104.792 E0.01600
G1 X96.167 Y104.306 E0.01600
G1 X96.113 Y103.799 E0.01600
G1 X96.167 Y103.292 E0.01600
G1 X96.324 Y102.806 E0.01600
G1 X96.579 Y102.365 E0.01600
G1 X96.921 Y101.986 E0.01600
G1 X97.333 Y101.686 E0.01600
G1 X97.726 Y101.511 E0.01348
G1 X97.917 Y101.839 F7200.000
G1 F1800
G1 X98.338 Y101.749 E0.01351
G1 X98.769 Y101.749 E0.01351
G1 X99.190 Y101.839 E0.01351
G1 X99.584 Y102.014 E0.01351
G1 X99.933 Y102.267 E0.01351
G1 X100.221 Y102.588 E0.01351
G1 X100.437 Y102.961 E0.01351
G1 X100.570 Y103.371 E0.01351
G1 X100.615 Y103.799 E0.01351
G1 X100.570 Y104.228 E0.01351
G1 X100.437 Y104.637 E0.01351
G1 X100.221 Y105.011 E0.01351
G1 X99.933 Y105.331 E0.01351
G1 X99.584 Y105.584 E0.01351
G1 X99.190 Y105.759 E0.01351
G1 X98.769 Y105.849 E0.01351
G1 X98.338 Y105.849 E0.01351
G1 X97.917 Y105.759 E0.01351
G1 X97.523 Y105.584 E0.01351
G1 X97.174 Y105.331 E0.01351
G1 X96.886 Y105.011 E0.01351
G1 X96.671 Y104.637 E0.01351
G1 X96.537 Y104.228 E0.01351
G1 X96.492 Y103.799 E0.01351
G1 X96.537 Y103.371 E0.01351
G1 X96.671 Y102.961 E0.01351
G1 X96.886 Y102.588 E0.01351
G1 X97.174 Y102.267 E0.01351
G1 X97.523 Y102.014 E0.01351
G1 X97.862 Y101.863 E0.01163
G1 X98.000 Y101.448 F7200.000
G1 F5760
G1 X98.338 Y101.749 E-0.16963
G1 X98.769 Y101.749 E-0.14924
G1 X99.190 Y101.839 E-0.14924
G1 X99.584 Y102.014 E-0.14924
G1 X99.917 Y102.256 E-0.14265
G1 E-0.04000 F2100.00000
G1 Z0.800 F7200.000
G1 X95.763 Y95.211
G1 Z0.200
G1 E0.80000 F2100.00000
G1 F1800
G1 X97.608 Y94.818 E0.05913
G1 X99.536 Y94.826 E0.06048
G1 X101.344 Y95.211 E0.05795
G1 X103.069 Y95.978 E0.05919
G1 X104.596 Y97.088 E0.05919
G1 X105.859 Y98.491 E0.05919
G1 X106.803 Y100.126 E0.05919
G1 X107.387 Y101.921 E0.05919
G1 X107.584 Y103.799 E0.05919
G1 X107.387 Y105.677 E0.05919
G1 X106.803 Y107.472 E0.05919
G1 X105.879 Y109.073 E0.05794
G1 X104.595 Y110.511 E0.06048
G1 X103.069 Y111.620 E0.05913
G1 X101.344 Y112.388 E0.05919
G1 X99.497 Y112.780 E0.05919
G1 X97.610 Y112.780 E0.05919
G1 X95.763 Y112.388 E0.05919
G1 X94.038 Y111.620 E0.05919
G1 X92.511 Y110.510 E0.05919
G1 X91.248 Y109.107 E0.05919
G1 X90.304 Y107.472 E0.05919
G1 X89.720 Y105.677 E0.05919
G1 X89.523 Y103.799 E0.05919
G1 X89.720 Y101.921 E0.05919
G1 X90.304 Y100.126 E0.05919
G1 X91.248 Y98.491 E0.05919
G1 X92.511 Y97.088 E0.05919
G1 X94.038 Y95.978 E0.05919
G1 X95.708 Y95.235 E0.05731
G1 X95.555 Y94.890 F7200.000
G1 F1800
G1 X95.646 Y94.850 E0.00312
G1 X97.569 Y94.441 E0.06164
G1 X99.577 Y94.449 E0.06296
G1 X101.461 Y94.850 E0.06041
G1 X103.258 Y95.650 E0.06168
G1 X104.850 Y96.806 E0.06168
G1 X106.166 Y98.268 E0.06168
G1 X107.150 Y99.972 E0.06168
G1 X107.758 Y101.843 E0.06168
G1 X107.963 Y103.799 E0.06168
G1 X107.758 Y105.755 E0.06168
G1 X107.150 Y107.626 E0.06168
G1 X106.186 Y109.295 E0.06041
G1 X104.849 Y110.793 E0.06296
G1 X103.258 Y111.948 E0.06164
G1 X101.461 Y112.748 E0.06168
G1 X99.537 Y113.157 E0.06168
G1 X97.570 Y113.157 E0.06168
G1 X95.646 Y112.748 E0.06168
G1 X93.849 Y111.948 E0.06168
G1 X92.257 Y110.792 E0.06168
G1 X90.941 Y109.330 E0.06168
G1 X89.957 Y107.626 E0.06168
G1 X89.349 Y105.755 E0.06168
G1 X89.144 Y103.799 E0.06168
G1 X89.349 Y101.843 E0.06168
G1 X89.957 Y99.972 E0.06168
G1 X90.941 Y98.268 E0.06168
G1 X92.257 Y96.806 E0.06168
G1 X93.849 Y95.650 E0.06168
G1 X95.500 Y94.915 E0.05667
G1 X95.347 Y94.570 F7200.000
G1 F1800
G1 X95.529 Y94.489 E0.00625
G1 X97.530 Y94.064 E0.06415
G1 X99.617 Y94.072 E0.06545
G1 X101.578 Y94.489 E0.06287
G1 X103.448 Y95.322 E0.06416
G1 X105.104 Y96.525 E0.06416
G1 X106.473 Y98.045 E0.06416
G1 X107.496 Y99.818 E0.06416
G1 X108.128 Y101.764 E0.06416
G1 X108.342 Y103.799 E0.06416
G1 X108.128 Y105.834 E0.06416
G1 X107.496 Y107.781 E0.06416
G1 X106.494 Y109.517 E0.06287
G1 X105.103 Y111.074 E0.06545
G1 X103.448 Y112.276 E0.06415
G1 X101.578 Y113.109 E0.06416
G1 X99.577 Y113.534 E0.06416
G1 X97.530 Y113.534 E0.06416
G1 X95.529 Y113.109 E0.06416
G1 X93.659 Y112.276 E0.06416
G1 X92.004 Y111.074 E0.06416
G1 X90.634 Y109.553 E0.06416
G1 X89.611 Y107.781 E0.06416
G1 X88.979 Y105.834 E0.06416
G1 X88.765 Y103.799 E0.06416
G1 X88.979 Y101.764 E0.06416
G1 X89.611 Y99.818 E0.06416
G1 X90.634 Y98.045 E0.06416
G1 X92.004 Y96.525 E0.06416
G1 X93.659 Y95.322 E0.06416
G1 X95.292 Y94.595 E0.05604
G1 X95.512 Y94.681 F7200.000
G1 F5760
G1 X95.529 Y94.489 E-0.08980
G1 X97.421 Y94.087 E-0.67020
G1 E-0.04000 F2100.00000
G1 Z0.800 F7200.000
G1 X103.636 Y96.530
G1 Z0.200
G1 E0.80000 F2100.00000
G1 F1800
G1 X105.909 Y98.804 E0.10151
G1 F5760
G1 X104.358 Y97.252 E-0.76000
G1 E-0.04000 F2100.00000
G1 Z0.800 F7200.000
G1 X106.643 Y100.074
G1 Z0.200
G1 E0.80000 F2100.00000
G1 F1800
G1 X102.686 Y96.118 E0.17667
G1 X101.718 Y95.687 E0.03346
G1 X106.674 Y100.642 E0.22127
G1 X106.932 Y101.437 E0.02641
G1 X100.900 Y95.405 E0.26936
G1 X100.218 Y95.260 E0.02201
G1 X107.129 Y102.171 E0.30858
G1 X107.192 Y102.771 E0.01905
G1 X99.536 Y95.115 E0.34185
G1 X98.990 Y95.107 E0.01722
G1 X107.255 Y103.371 E0.36902
G1 X107.300 Y103.799 E0.01359
G1 X107.285 Y103.938 E0.00443
G1 X98.451 Y95.105 E0.39445
G1 X97.912 Y95.102 E0.01703
G1 X107.234 Y104.424 E0.41625
G1 X107.183 Y104.910 E0.01543
G1 X97.420 Y95.147 E0.43594
G1 X96.977 Y95.242 E0.01430
G1 X107.132 Y105.396 E0.45344
G1 X107.109 Y105.617 E0.00702
G1 X107.037 Y105.838 E0.00733
G1 X96.534 Y95.336 E0.46897
G1 X96.091 Y95.430 E0.01430
G1 X106.905 Y106.244 E0.48286
G1 X106.773 Y106.649 E0.01346
G1 X95.681 Y95.557 E0.49531
G1 X95.309 Y95.722 E0.01284
G1 X106.642 Y107.054 E0.50602
G1 X106.544 Y107.356 E0.01003
G1 X106.494 Y107.443 E0.00316
G1 X94.938 Y95.887 E0.51599
G1 X94.566 Y96.053 E0.01284
G1 X99.320 Y100.806 E0.21225
G1 X98.878 Y100.712 E0.01426
G1 X98.689 Y100.712 E0.00597
G1 X94.195 Y96.218 E0.20067
G1 X93.881 Y96.442 E0.01216
G1 X98.165 Y100.726 E0.19129
G1 X97.722 Y100.820 E0.01430
G1 X93.570 Y96.668 E0.18540
G1 X93.259 Y96.894 E0.01214
G1 X97.330 Y100.965 E0.18178
G1 X96.966 Y101.137 E0.01273
G1 X92.948 Y97.120 E0.17939
G1 X92.701 Y97.299 E0.00964
G1 X92.649 Y97.357 E0.00247
G1 X96.655 Y101.363 E0.17887
G1 X96.477 Y101.492 E0.00694
G1 X96.368 Y101.613 E0.00514
G1 X92.394 Y97.640 E0.17742
G1 X92.140 Y97.923 E0.01201
G1 X96.113 Y101.896 E0.17742
G1 X96.043 Y101.975 E0.00334
G1 X95.901 Y102.220 E0.00895
G1 X91.886 Y98.205 E0.17928
G1 X91.631 Y98.488 E0.01201
G1 X95.709 Y102.565 E0.18207
G1 X95.577 Y102.971 E0.01346
G1 X91.400 Y98.793 E0.18653
G1 X91.203 Y99.134 E0.01241
G1 X95.490 Y103.420 E0.19140
G1 X95.450 Y103.799 E0.01203
G1 X95.464 Y103.931 E0.00420
G1 X91.007 Y99.474 E0.19902
G1 X90.810 Y99.815 E0.01241
G1 X95.819 Y104.824 E0.22368
G1 F5760
G1 X94.268 Y103.272 E-0.76000
G1 E-0.04000 F2100.00000
G1 Z0.800 F7200.000
G1 X97.533 Y106.538
G1 Z0.200
G1 E0.80000 F2100.00000
G1 F1800
G1 X102.541 Y111.545 E0.22359
G1 X102.912 Y111.380 E0.01284
G1 X98.418 Y106.886 E0.20067
G1 X98.942 Y106.872 E0.01653
G1 X103.226 Y111.156 E0.19129
G1 X103.537 Y110.930 E0.01214
G1 X99.385 Y106.778 E0.18540
G1 X99.513 Y106.751 E0.00413
G1 X99.777 Y106.633 E0.00913
G1 X103.848 Y110.704 E0.18178
G1 X104.159 Y110.478 E0.01214
G1 X100.141 Y106.461 E0.17939
G1 X100.452 Y106.235 E0.01214
G1 X104.458 Y110.240 E0.17884
G1 X104.711 Y109.956 E0.01201
G1 X100.739 Y105.985 E0.17734
G1 X100.994 Y105.702 E0.01201
G1 X104.964 Y109.673 E0.17730
G1 X105.218 Y109.389 E0.01201
G1 X101.206 Y105.378 E0.17911
G1 X101.398 Y105.033 E0.01247
G1 X105.471 Y109.105 E0.18185
G1 X105.649 Y108.906 E0.00844
G1 X105.707 Y108.805 E0.00369
G1 X101.530 Y104.628 E0.18653
G1 X101.590 Y104.444 E0.00608
G1 X101.618 Y104.178 E0.00846
G1 X105.904 Y108.464 E0.19140
G1 X106.100 Y108.124 E0.01241
G1 X101.643 Y103.667 E0.19902
G1 X101.590 Y103.154 E0.01629
G1 X101.552 Y103.039 E0.00382
G1 X106.421 Y107.908 E0.21742
G1 F5760
G1 X104.870 Y106.356 E-0.76000
G1 E-0.04000 F2100.00000
G1 Z0.800 F7200.000
G1 X102.298 Y111.839
G1 Z0.200
G1 E0.80000 F2100.00000
G1 F1800
G1 X90.613 Y100.155 E0.52173
G1 X90.564 Y100.242 E0.00315
G1 X90.465 Y100.544 E0.01004
G1 X101.798 Y111.876 E0.50601
G1 X101.426 Y112.042 E0.01284
G1 X90.334 Y100.949 E0.49530
G1 X90.202 Y101.355 E0.01346
G1 X101.016 Y112.168 E0.48286
G1 X100.573 Y112.262 E0.01430
G1 X90.070 Y101.760 E0.46897
G1 X89.998 Y101.981 E0.00733
G1 X89.975 Y102.202 E0.00703
G1 X100.130 Y112.357 E0.45343
G1 X99.687 Y112.451 E0.01430
G1 X89.924 Y102.688 E0.43594
G1 X89.873 Y103.174 E0.01543
G1 X99.197 Y112.497 E0.41632
G1 X98.660 Y112.497 E0.01696
G1 X89.822 Y103.660 E0.39462
G1 X89.807 Y103.799 E0.00442
G1 X89.852 Y104.227 E0.01359
G1 X98.123 Y112.497 E0.36929
G1 X97.639 Y112.497 E0.01526
G1 X97.571 Y112.483 E0.00220
G1 X89.915 Y104.827 E0.34184
G1 X89.978 Y105.427 E0.01905
G1 X96.889 Y112.338 E0.30858
G1 X96.207 Y112.193 E0.02201
G1 X90.175 Y106.161 E0.26935
G1 X90.433 Y106.956 E0.02641
G1 X95.389 Y111.911 E0.22126
G1 X94.421 Y111.480 E0.03346
G1 X90.464 Y107.524 E0.17665
G1 F5760
G1 X92.016 Y109.076 E-0.76000
G1 E-0.04000 F2100.00000
G1 Z0.800 F7200.000
G1 X91.198 Y108.795
G1 Z0.200
G1 E0.80000 F2100.00000
G1 F1800
G1 X93.471 Y111.068 E0.10149
G1 F5760
G1 X91.919 Y109.516 E-0.76000
G1 E-0.04000 F2100.00000
G1 Z0.800 F7200.000
G1 X98.411 Y122.585
G1 Z0.200
G1 E0.80000 F2100.00000
G1 F1800
G1 X98.987 Y122.462 E0.01848
G1 X99.577 Y122.462 E0.01848
G1 X100.153 Y122.585 E0.01848
G1 X100.692 Y122.824 E0.01848
G1 X101.169 Y123.171 E0.01848
G1 X101.563 Y123.609 E0.01848
G1 X101.858 Y124.119 E0.01848
G1 X102.040 Y124.680 E0.01848
G1 X102.101 Y125.266 E0.01848
G1 X102.040 Y125.852 E0.01848
G1 X101.858 Y126.413 E0.01848
G1 X101.563 Y126.923 E0.01848
G1 X101.169 Y127.361 E0.01848
G1 X100.692 Y127.708 E0.01848
G1 X100.153 Y127.948 E0.01848
G1 X99.577 Y128.070 E0.01848
G1 X98.987 Y128.070 E0.01848
G1 X98.411 Y127.948 E0.01848
G1 X97.872 Y127.708 E0.01848
G1 X97.395 Y127.361 E0.01848
G1 X97.001 Y126.923 E0.01848
G1 X96.706 Y126.413 E0.01848
G1 X96.524 Y125.852 E0.01848
G1 X96.462 Y125.266 E0.01848
G1 X96.524 Y124.680 E0.01848
G1 X96.706 Y124.119 E0.01848
G1 X97.001 Y123.609 E0.01848
G1 X97.395 Y123.171 E0.01848
G1 X97.872 Y122.824 E0.01848
G1 X98.356 Y122.609 E0.01660
G1 X98.509 Y122.953 F7200.000
G1 F1800
G1 X99.027 Y122.839 E0.01662
G1 X99.537 Y122.839 E0.01600
G1 X100.036 Y122.945 E0.01600
G1 X100.502 Y123.153 E0.01600
G1 X100.915 Y123.453 E0.01600
G1 X101.256 Y123.832 E0.01600
G1 X101.511 Y124.273 E0.01600
G1 X101.669 Y124.759 E0.01600
G1 X101.722 Y125.266 E0.01600
G1 X101.669 Y125.773 E0.01600
G1 X101.511 Y126.259 E0.01600
G1 X101.256 Y126.700 E0.01600
G1 X100.915 Y127.080 E0.01600
G1 X100.502 Y127.379 E0.01600
G1 X100.036 Y127.587 E0.01600
G1 X99.537 Y127.693 E0.01600
G1 X99.027 Y127.693 E0.01600
G1 X98.528 Y127.587 E0.01600
G1 X98.062 Y127.379 E0.01600
G1 X97.649 Y127.080 E0.01600
G1 X97.308 Y126.700 E0.01600
G1 X97.053 Y126.259 E0.01600
G1 X96.895 Y125.773 E0.01600
G1 X96.842 Y125.266 E0.01600
G1 X96.895 Y124.759 E0.01600
G1 X97.053 Y124.273 E0.01600
G1 X97.308 Y123.832 E0.01600
G1 X97.649 Y123.453 E0.01600
G1 X98.062 Y123.153 E0.01600
G1 X98.454 Y122.978 E0.01348
G1 X98.645 Y123.306 F7200.000
G1 F1800
G1 X99.067 Y123.216 E0.01351
G1 X99.497 Y123.216 E0.01351
G1 X99.919 Y123.306 E0.01351
G1 X100.313 Y123.481 E0.01351
G1 X100.661 Y123.734 E0.01351
G1 X100.949 Y124.055 E0.01351
G1 X101.165 Y124.428 E0.01351
G1 X101.298 Y124.838 E0.01351
G1 X101.343 Y125.266 E0.01351
G1 X101.298 Y125.695 E0.01351
G1 X101.165 Y126.104 E0.01351
G1 X100.949 Y126.478 E0.01351
G1 X100.661 Y126.798 E0.01351
G1 X100.313 Y127.051 E0.01351
G1 X99.919 Y127.226 E0.01351
G1 X99.497 Y127.316 E0.01351
G1 X99.067 Y127.316 E0.01351
G1 X98.645 Y127.226 E0.01351
G1 X98.251 Y127.051 E0.01351
G1 X97.903 Y126.798 E0.01351
G1 X97.614 Y126.478 E0.01351
G1 X97.399 Y126.104 E0.01351
G1 X97.266 Y125.695 E0.01351
G1 X97.221 Y125.266 E0.01351
G1 X97.266 Y124.838 E0.01351
G1 X97.399 Y124.428 E0.01351
G1 X97.614 Y124.055 E0.01351
G1 X97.903 Y123.734 E0.01351
G1 X98.251 Y123.481 E0.01351
G1 X98.590 Y123.330 E0.01163
G1 X98.728 Y122.915 F7200.000
G1 F5760
G1 X99.067 Y123.216 E-0.16963
G1 X99.497 Y123.216 E-0.14924
G1 X99.919 Y123.306 E-0.14924
G1 X100.313 Y123.481 E-0.14924
G1 X100.646 Y123.723 E-0.14265
G1 E-0.04000 F2100.00000
G1 Z0.800 F7200.000
G1 X96.491 Y116.678
G1 Z0.200
G1 E0.80000 F2100.00000
G1 F1800
G1 X98.336 Y116.285 E0.05913
