; generated by Slic3r Prusa Edition 1.39.2+win64 on 2018-05-28 at 06:52:26

; 

; external perimeters extrusion width = 0.45mm
; perimeters extrusion width = 0.45mm
; infill extrusion width = 0.45mm
; solid infill extrusion width = 0.45mm
; top infill extrusion width = 0.45mm
; first layer extrusion width = 0.42mm

M107
M115 U3.1.0 ; tell printer latest fw version
M83  ; extruder relative mode
M104 S205 ; set extruder temp
M140 S55 ; set bed temp
M190 S55 ; wait for bed temp
M109 S205 ; wait for extruder temp
G28 W ; home all without mesh bed level
G80 ; mesh bed leveling
G1 Y-3.0 F1000.0 ; go outside print area
G92 E0.0
G1 X60.0 E9.0  F1000.0 ; intro line
G1 X100.0 E12.5  F1000.0 ; intro line
G92 E0.0
M900 K30; Filament gcode
G21 ; set units to millimeters
G90 ; use absolute coordinates
M83 ; use relative distances for extrusion
;BEFORE_LAYER_CHANGE
;0.2


G1 E-0.80000 F2100.00000
G1 Z0.600 F7200.000
;AFTER_LAYER_CHANGE
;0.2
G1 X93.962 Y93.025
G1 Z0.200
G1 E0.80000 F2100.00000
M204 S1000
G1 F1800
G1 X96.118 Y91.457 E0.08360
G1 X98.530 Y90.380 E0.08283
G1 X101.137 Y89.819 E0.08360
G1 X103.549 Y89.801 E0.07564
G1 X106.381 Y90.351 E0.09045
G1 X108.620 Y91.324 E0.07654
G1 X109.117 Y91.610 E0.01796
G1 X111.236 Y93.224 E0.08353
G1 X112.837 Y95.029 E0.07564
G1 X114.174 Y97.364 E0.08437
G1 X114.983 Y99.883 E0.08296
G1 X115.243 Y102.752 E0.09034
G1 X114.970 Y105.178 E0.07654
G1 X114.140 Y107.712 E0.08360
G1 X112.814 Y110.002 E0.08296
G1 X111.017 Y111.994 E0.08411
G1 X108.875 Y113.547 E0.08296
G1 X106.443 Y114.629 E0.08347
G1 X103.839 Y115.184 E0.08347
G1 X101.201 Y115.188 E0.08271
G1 X98.568 Y114.633 E0.08437
G1 X96.149 Y113.560 E0.08296
G1 X93.985 Y111.996 E0.08373
G1 X92.347 Y110.202 E0.07616
G1 X90.977 Y107.941 E0.08289
G1 X90.745 Y107.418 E0.01792
G1 X90.013 Y105.097 E0.07632
G1 X89.757 Y102.248 E0.08970
G1 X90.029 Y99.826 E0.07642
G1 X90.858 Y97.291 E0.08360
G1 X92.183 Y95.001 E0.08296
G1 X93.922 Y93.070 E0.08146
G1 X94.201 Y93.321 F7200.000
G1 F1800
G1 X96.310 Y91.782 E0.08189
G1 X98.656 Y90.735 E0.08054
G1 X101.186 Y90.193 E0.08113
G1 X103.549 Y90.178 E0.07410
G1 X106.280 Y90.715 E0.08726
G1 X108.467 Y91.668 E0.07481
G1 X108.895 Y91.915 E0.01550
G1 X110.956 Y93.476 E0.08106
G1 X112.528 Y95.246 E0.07421
G1 X113.825 Y97.506 E0.08172
G1 X114.612 Y99.955 E0.08065
G1 X114.867 Y102.723 E0.08715
G1 X114.602 Y105.094 E0.07481
G1 X113.798 Y107.554 E0.08113
G1 X112.512 Y109.777 E0.08054
G1 X110.769 Y111.710 E0.08160
G1 X108.686 Y113.220 E0.08065
G1 X106.326 Y114.271 E0.08101
G1 X103.795 Y114.809 E0.08113
G1 X101.230 Y114.812 E0.08042
G1 X98.680 Y114.273 E0.08172
G1 X96.332 Y113.231 E0.08054
G1 X94.233 Y111.712 E0.08125
G1 X92.631 Y109.954 E0.07457
G1 X91.304 Y107.753 E0.08059
G1 X91.104 Y107.302 E0.01546
G1 X90.385 Y105.030 E0.07472
G1 X90.133 Y102.277 E0.08667
G1 X90.397 Y99.909 E0.07469
G1 X91.200 Y97.450 E0.08113
G1 X92.488 Y95.223 E0.08066
G1 X94.160 Y93.366 E0.07835
G1 F5760
G1 X95.927 Y92.064 E-0.76000
G1 E-0.04000 F2100.00000
G1 Z0.800 F7200.000
G1 X100.613 Y100.405
G1 Z0.200
G1 E0.80000 F2100.00000
G1 F1800
G1 X101.090 Y100.058 E0.01848
G1 X101.629 Y99.819 E0.01848
G1 X102.205 Y99.696 E0.01848
G1 X102.795 Y99.696 E0.01848
G1 X103.371 Y99.819 E0.01848
G1 X103.910 Y100.058 E0.01848
G1 X104.387 Y100.405 E0.01848
G1 X104.781 Y100.843 E0.01848
G1 X105.076 Y101.353 E0.01848
G1 X105.258 Y101.914 E0.01848
G1 X105.319 Y102.500 E0.01848
G1 X105.258 Y103.086 E0.01848
G1 X105.076 Y103.647 E0.01848
G1 X104.781 Y104.157 E0.01848
G1 X104.387 Y104.595 E0.01848
G1 X103.910 Y104.942 E0.01848
G1 X103.371 Y105.181 E0.01848
G1 X102.795 Y105.304 E0.01848
G1 X102.205 Y105.304 E0.01848
G1 X101.629 Y105.181 E0.01848
G1 X101.090 Y104.942 E0.01848
G1 X100.613 Y104.595 E0.01848
G1 X100.219 Y104.157 E0.01848
G1 X99.924 Y103.647 E0.01848
G1 X99.742 Y103.086 E0.01848
G1 X99.681 Y102.500 E0.01848
G1 X99.742 Y101.914 E0.01848
G1 X99.924 Y101.353 E0.01848
G1 X100.219 Y100.843 E0.01848
G1 X100.573 Y100.449 E0.01660
G1 X100.853 Y100.702 F7200.000
G1 F1800
G1 X101.280 Y100.387 E0.01662
G1 X101.746 Y100.179 E0.01600
G1 X102.245 Y100.073 E0.01600
G1 X102.755 Y100.073 E0.01600
G1 X103.254 Y100.179 E0.01600
G1 X103.720 Y100.387 E0.01600
G1 X104.133 Y100.686 E0.01600
G1 X104.474 Y101.066 E0.01600
G1 X104.729 Y101.507 E0.01600
G1 X104.887 Y101.993 E0.01600
G1 X104.940 Y102.500 E0.01600
G1 X104.887 Y103.007 E0.01600
G1 X104.729 Y103.493 E0.01600
G1 X104.474 Y103.934 E0.01600
G1 X104.133 Y104.314 E0.01600
G1 X103.720 Y104.613 E0.01600
G1 X103.254 Y104.821 E0.01600
G1 X102.755 Y104.927 E0.01600
G1 X102.245 Y104.927 E0.01600
G1 X101.746 Y104.821 E0.01600
G1 X101.280 Y104.613 E0.01600
G1 X100.867 Y104.314 E0.01600
G1 X100.526 Y103.934 E0.01600
G1 X100.271 Y103.493 E0.01600
G1 X100.113 Y103.007 E0.01600
G1 X100.060 Y102.500 E0.01600
G1 X100.113 Y101.993 E0.01600
G1 X100.271 Y101.507 E0.01600
G1 X100.526 Y101.066 E0.01600
G1 X100.813 Y100.746 E0.01348
G1 X101.121 Y100.968 F7200.000
G1 F1800
G1 X101.469 Y100.715 E0.01351
G1 X101.863 Y100.540 E0.01351
G1 X102.285 Y100.450 E0.01351
G1 X102.715 Y100.450 E0.01351
G1 X103.137 Y100.540 E0.01351
G1 X103.531 Y100.715 E0.01351
G1 X103.879 Y100.968 E0.01351
G1 X104.168 Y101.288 E0.01351
G1 X104.383 Y101.662 E0.01351
G1 X104.516 Y102.071 E0.01351
G1 X104.561 Y102.500 E0.01351
G1 X104.516 Y102.929 E0.01351
G1 X104.383 Y103.338 E0.01351
G1 X104.168 Y103.712 E0.01351
G1 X103.879 Y104.032 E0.01351
G1 X103.531 Y104.285 E0.01351
G1 X103.137 Y104.460 E0.01351
G1 X102.715 Y104.550 E0.01351
G1 X102.285 Y104.550 E0.01351
G1 X101.863 Y104.460 E0.01351
G1 X101.469 Y104.285 E0.01351
G1 X101.121 Y104.032 E0.01351
G1 X100.832 Y103.712 E0.01351
G1 X100.617 Y103.338 E0.01351
G1 X100.484 Y102.929 E0.01351
G1 X100.439 Y102.500 E0.01351
G1 X100.484 Y102.071 E0.01351
G1 X100.617 Y101.662 E0.01351
G1 X100.832 Y101.288 E0.01351
G1 X101.081 Y101.013 E0.01163
G1 X101.038 Y100.577 F7200.000
G1 F5760
G1 X101.469 Y100.715 E-0.16963
G1 X101.863 Y100.540 E-0.14924
G1 X102.285 Y100.450 E-0.14924
G1 X102.715 Y100.450 E-0.14924
G1 X103.118 Y100.536 E-0.14264
G1 E-0.04000 F2100.00000
G1 Z0.800 F7200.000
G1 X96.457 Y95.789
G1 Z0.200
G1 E0.80000 F2100.00000
G1 F1800
G1 X97.985 Y94.679 E0.05919
G1 X99.709 Y93.911 E0.05919
G1 X101.554 Y93.519 E0.05913
G1 X103.483 Y93.527 E0.06048
G1 X105.291 Y93.911 E0.05795
G1 X107.015 Y94.679 E0.05919
G1 X108.543 Y95.789 E0.05919
G1 X109.806 Y97.192 E0.05919
G1 X110.750 Y98.827 E0.05919
G1 X111.333 Y100.622 E0.05919
G1 X111.531 Y102.500 E0.05919
G1 X111.333 Y104.378 E0.05919
G1 X110.750 Y106.173 E0.05919
G1 X109.826 Y107.774 E0.05794
G1 X108.541 Y109.212 E0.06048
G1 X107.015 Y110.321 E0.05913
G1 X105.291 Y111.089 E0.05919
G1 X103.444 Y111.481 E0.05919
G1 X101.556 Y111.481 E0.05919
G1 X99.709 Y111.089 E0.05919
G1 X97.985 Y110.321 E0.05919
G1 X96.457 Y109.211 E0.05919
G1 X95.194 Y107.808 E0.05919
G1 X94.250 Y106.173 E0.05919
G1 X93.667 Y104.378 E0.05919
G1 X93.469 Y102.500 E0.05919
G1 X93.667 Y100.622 E0.05919
G1 X94.250 Y98.827 E0.05919
G1 X95.194 Y97.192 E0.05919
G1 X96.417 Y95.834 E0.05731
G1 X96.137 Y95.581 F7200.000
G1 F1800
G1 X96.204 Y95.507 E0.00312
G1 X97.795 Y94.351 E0.06168
G1 X99.592 Y93.551 E0.06168
G1 X101.515 Y93.142 E0.06164
G1 X103.523 Y93.150 E0.06296
G1 X105.408 Y93.551 E0.06041
G1 X107.205 Y94.351 E0.06168
G1 X108.796 Y95.507 E0.06168
G1 X110.113 Y96.969 E0.06168
G1 X111.096 Y98.673 E0.06168
G1 X111.704 Y100.544 E0.06168
G1 X111.910 Y102.500 E0.06168
G1 X111.704 Y104.456 E0.06168
G1 X111.096 Y106.327 E0.06168
G1 X110.133 Y107.996 E0.06041
G1 X108.795 Y109.493 E0.06296
G1 X107.205 Y110.649 E0.06164
G1 X105.408 Y111.449 E0.06168
G1 X103.484 Y111.858 E0.06168
G1 X101.516 Y111.858 E0.06168
G1 X99.592 Y111.449 E0.06168
G1 X97.795 Y110.649 E0.06168
G1 X96.204 Y109.493 E0.06168
G1 X94.887 Y108.031 E0.06168
G1 X93.904 Y106.327 E0.06168
G1 X93.296 Y104.456 E0.06168
G1 X93.090 Y102.500 E0.06168
G1 X93.296 Y100.544 E0.06168
G1 X93.904 Y98.673 E0.06168
G1 X94.887 Y96.969 E0.06168
G1 X96.097 Y95.626 E0.05667
G1 X95.817 Y95.374 F7200.000
G1 F1800
G1 X95.950 Y95.225 E0.00625
G1 X97.606 Y94.023 E0.06416
G1 X99.475 Y93.190 E0.06416
G1 X101.476 Y92.765 E0.06415
G1 X103.564 Y92.773 E0.06545
G1 X105.525 Y93.190 E0.06287
G1 X107.394 Y94.023 E0.06416
G1 X109.050 Y95.225 E0.06416
G1 X110.419 Y96.746 E0.06416
G1 X111.443 Y98.519 E0.06416
G1 X112.075 Y100.465 E0.06416
G1 X112.289 Y102.500 E0.06416
G1 X112.075 Y104.535 E0.06416
G1 X111.443 Y106.481 E0.06416
G1 X110.440 Y108.218 E0.06287
G1 X109.050 Y109.775 E0.06545
G1 X107.394 Y110.977 E0.06415
G1 X105.525 Y111.810 E0.06416
G1 X103.523 Y112.235 E0.06416
G1 X101.477 Y112.235 E0.06416
G1 X99.475 Y111.810 E0.06416
G1 X97.606 Y110.977 E0.06416
G1 X95.950 Y109.775 E0.06416
G1 X94.581 Y108.254 E0.06416
G1 X93.557 Y106.481 E0.06416
G1 X92.925 Y104.535 E0.06416
G1 X92.711 Y102.500 E0.06416
G1 X92.925 Y100.465 E0.06416
G1 X93.557 Y98.519 E0.06416
G1 X94.581 Y96.746 E0.06416
G1 X95.776 Y95.418 E0.05604
G1 X96.013 Y95.408 F7200.000
G1 F5760
G1 X95.950 Y95.225 E-0.08980
G1 X97.515 Y94.088 E-0.67020
G1 E-0.04000 F2100.00000
G1 Z0.800 F7200.000
G1 X99.766 Y103.525
G1 Z0.200
G1 E0.80000 F2100.00000
G1 F1800
G1 X94.756 Y98.516 E0.22368
G1 X94.953 Y98.175 E0.01241
G1 X99.410 Y102.632 E0.19902
G1 X99.396 Y102.500 E0.00420
G1 X99.436 Y102.121 E0.01203
G1 X95.150 Y97.835 E0.19140
G1 X95.346 Y97.494 E0.01241
G1 X99.523 Y101.672 E0.18653
G1 X99.655 Y101.266 E0.01346
G1 X95.578 Y97.189 E0.18207
G1 X95.832 Y96.906 E0.01201
G1 X99.847 Y100.921 E0.17928
G1 X99.989 Y100.676 E0.00895
G1 X100.060 Y100.597 E0.00334
G1 X96.086 Y96.624 E0.17742
G1 X96.341 Y96.341 E0.01201
G1 X100.314 Y100.314 E0.17742
G1 X100.423 Y100.193 E0.00514
G1 X100.601 Y100.064 E0.00694
G1 X96.595 Y96.058 E0.17887
G1 X96.648 Y96.000 E0.00247
G1 X96.895 Y95.821 E0.00964
G1 X100.912 Y99.838 E0.17939
G1 X101.277 Y99.666 E0.01273
G1 X97.206 Y95.595 E0.18178
G1 X97.517 Y95.369 E0.01214
G1 X101.669 Y99.521 E0.18540
G1 X102.112 Y99.427 E0.01430
G1 X97.828 Y95.143 E0.19129
G1 X98.141 Y94.919 E0.01216
G1 X102.635 Y99.413 E0.20067
G1 X102.824 Y99.413 E0.00597
G1 X103.266 Y99.507 E0.01426
G1 X98.513 Y94.754 E0.21225
G1 X98.884 Y94.588 E0.01284
G1 X110.440 Y106.144 E0.51599
G1 X110.490 Y106.057 E0.00316
G1 X110.588 Y105.755 E0.01003
G1 X99.256 Y94.423 E0.50602
G1 X99.628 Y94.257 E0.01284
G1 X110.720 Y105.350 E0.49531
G1 X110.852 Y104.945 E0.01346
G1 X100.038 Y94.131 E0.48286
G1 X100.481 Y94.037 E0.01430
G1 X110.983 Y104.539 E0.46897
G1 X111.055 Y104.318 E0.00733
G1 X111.078 Y104.097 E0.00702
G1 X100.924 Y93.942 E0.45344
G1 X101.366 Y93.848 E0.01430
G1 X111.129 Y103.611 E0.43594
G1 X111.180 Y103.125 E0.01543
G1 X101.858 Y93.803 E0.41625
G1 X102.398 Y93.806 E0.01703
G1 X111.232 Y102.639 E0.39445
G1 X111.246 Y102.500 E0.00443
G1 X111.201 Y102.072 E0.01359
G1 X102.937 Y93.808 E0.36902
G1 X103.482 Y93.816 E0.01722
G1 X111.138 Y101.472 E0.34185
G1 X111.075 Y100.872 E0.01905
G1 X104.164 Y93.961 E0.30858
G1 X104.846 Y94.106 E0.02201
G1 X110.879 Y100.138 E0.26936
G1 X110.620 Y99.343 E0.02641
G1 X105.665 Y94.388 E0.22127
G1 X106.633 Y94.819 E0.03346
G1 X110.589 Y98.775 E0.17667
G1 F5760
G1 X109.038 Y97.223 E-0.76000
G1 E-0.04000 F2100.00000
G1 Z0.800 F7200.000
G1 X109.856 Y97.504
G1 Z0.200
G1 E0.80000 F2100.00000
G1 F1800
G1 X107.582 Y95.231 E0.10151
G1 F5760
G1 X109.134 Y96.783 E-0.76000
G1 E-0.04000 F2100.00000
G1 Z0.800 F7200.000
G1 X110.368 Y106.609
G1 Z0.200
G1 E0.80000 F2100.00000
G1 F1800
G1 X105.499 Y101.740 E0.21742
G1 X105.536 Y101.855 E0.00382
G1 X105.590 Y102.368 E0.01629
G1 X110.047 Y106.825 E0.19902
G1 X109.850 Y107.165 E0.01241
G1 X105.564 Y102.879 E0.19140
G1 X105.536 Y103.145 E0.00846
G1 X105.476 Y103.328 E0.00608
G1 X109.654 Y107.506 E0.18653
G1 X109.595 Y107.607 E0.00369
G1 X109.417 Y107.806 E0.00844
G1 X105.345 Y103.734 E0.18185
G1 X105.153 Y104.079 E0.01247
G1 X109.164 Y108.090 E0.17911
G1 X108.911 Y108.374 E0.01201
G1 X104.940 Y104.403 E0.17730
G1 X104.686 Y104.686 E0.01201
G1 X108.657 Y108.657 E0.17734
G1 X108.404 Y108.941 E0.01201
G1 X104.399 Y104.936 E0.17884
G1 X104.088 Y105.162 E0.01214
G1 X108.105 Y109.179 E0.17939
G1 X107.794 Y109.405 E0.01214
G1 X103.723 Y105.334 E0.18178
G1 X103.459 Y105.452 E0.00913
G1 X103.331 Y105.479 E0.00413
G1 X107.483 Y109.631 E0.18540
G1 X107.172 Y109.857 E0.01214
G1 X102.888 Y105.573 E0.19129
G1 X102.365 Y105.587 E0.01653
G1 X106.859 Y110.081 E0.20067
G1 X106.487 Y110.246 E0.01284
G1 X101.480 Y105.239 E0.22359
G1 F5760
G1 X103.031 Y106.791 E-0.76000
G1 E-0.04000 F2100.00000
G1 Z0.800 F7200.000
G1 X97.417 Y109.769
G1 Z0.200
G1 E0.80000 F2100.00000
G1 F1800
G1 X95.144 Y107.496 E0.10149
G1 F5760
G1 X96.696 Y109.047 E-0.76000
G1 E-0.04000 F2100.00000
G1 Z0.800 F7200.000
G1 X94.411 Y106.225
G1 Z0.200
G1 E0.80000 F2100.00000
G1 F1800
G1 X98.367 Y110.181 E0.17665
G1 X99.335 Y110.612 E0.03346
G1 X94.380 Y105.657 E0.22126
G1 X94.121 Y104.862 E0.02641
G1 X100.154 Y110.894 E0.26935
G1 X100.836 Y111.039 E0.02201
G1 X93.925 Y104.128 E0.30858
G1 X93.862 Y103.528 E0.01905
G1 X101.518 Y111.184 E0.34184
G1 X101.586 Y111.198 E0.00220
G1 X102.069 Y111.198 E0.01526
G1 X93.799 Y102.928 E0.36929
G1 X93.754 Y102.500 E0.01359
G1 X93.768 Y102.361 E0.00442
G1 X102.606 Y111.198 E0.39462
G1 X103.143 Y111.198 E0.01696
G1 X93.820 Y101.875 E0.41632
G1 X93.871 Y101.389 E0.01543
G1 X103.633 Y111.152 E0.43594
G1 X104.076 Y111.058 E0.01430
G1 X93.922 Y100.903 E0.45343
G1 X93.945 Y100.682 E0.00703
G1 X94.017 Y100.461 E0.00733
G1 X104.519 Y110.963 E0.46897
G1 X104.962 Y110.869 E0.01430
G1 X94.148 Y100.056 E0.48286
G1 X94.280 Y99.650 E0.01346
G1 X105.372 Y110.743 E0.49530
G1 X105.744 Y110.577 E0.01284
G1 X94.412 Y99.245 E0.50601
G1 X94.510 Y98.943 E0.01004
G1 X94.560 Y98.856 E0.00315
G1 X106.244 Y110.540 E0.52173
M106 S249.9
;BEFORE_LAYER_CHANGE
;0.35


G1 F5760
G1 X104.692 Y108.989 E-0.76000
G1 E-0.04000 F2100.00000
G1 Z0.800 F7200.000
;AFTER_LAYER_CHANGE
;0.35
G1 X108.875 Y113.547
G1 Z0.350
G1 E0.80000 F2100.00000
G1 F3000
G1 X106.443 Y114.629 E0.06439
G1 X103.839 Y115.184 E0.06439
G1 X101.201 Y115.188 E0.06379
G1 X98.568 Y114.633 E0.06508
G1 X96.149 Y113.560 E0.06399
G1 X93.985 Y111.996 E0.06458
G1 X92.347 Y110.202 E0.05875
G1 X90.977 Y107.941 E0.06394
G1 X90.745 Y107.418 E0.01383
G1 X90.013 Y105.097 E0.05887
G1 X89.757 Y102.248 E0.06919
G1 X90.029 Y99.826 E0.05894
G1 X90.858 Y97.291 E0.06448
G1 X92.183 Y95.001 E0.06399
G1 X93.962 Y93.025 E0.06429
G1 X96.118 Y91.457 E0.06448
G1 X98.530 Y90.380 E0.06389
G1 X101.137 Y89.819 E0.06448
G1 X103.549 Y89.801 E0.05835
G1 X106.381 Y90.351 E0.06977
G1 X108.620 Y91.324 E0.05904
G1 X109.117 Y91.610 E0.01386
G1 X111.236 Y93.224 E0.06443
G1 X112.837 Y95.029 E0.05835
G1 X114.174 Y97.364 E0.06508
G1 X114.983 Y99.883 E0.06399
G1 X115.243 Y102.752 E0.06968
G1 X114.970 Y105.178 E0.05904
G1 X114.140 Y107.712 E0.06449
G1 X112.814 Y110.002 E0.06399
G1 X111.017 Y111.994 E0.06488
G1 X108.923 Y113.512 E0.06254
G1 F5760
G1 X106.923 Y114.413 E-0.76000
G1 E-0.04000 F2100.00000
G1 Z0.950 F7200.000
G1 X103.958 Y105.026
G1 Z0.350
G1 E0.80000 F2100.00000
M204 S800
G1 F1200
G1 X103.401 Y105.274 E0.01589
G1 X102.805 Y105.400 E0.01589
G1 X102.195 Y105.400 E0.01589
G1 X101.599 Y105.274 E0.01589
G1 X101.042 Y105.026 E0.01589
G1 X100.549 Y104.667 E0.01589
G1 X100.141 Y104.214 E0.01589
G1 X99.836 Y103.686 E0.01589
G1 X99.647 Y103.106 E0.01589
G1 X99.584 Y102.500 E0.01589
G1 X99.647 Y101.894 E0.01589
G1 X99.836 Y101.314 E0.01589
G1 X100.141 Y100.786 E0.01589
G1 X100.549 Y100.333 E0.01589
G1 X101.042 Y99.974 E0.01589
G1 X101.599 Y99.726 E0.01589
G1 X102.195 Y99.600 E0.01589
G1 X102.805 Y99.600 E0.01589
G1 X103.401 Y99.726 E0.01589
G1 X103.958 Y99.974 E0.01589
G1 X104.451 Y100.333 E0.01589
G1 X104.859 Y100.786 E0.01589
G1 X105.164 Y101.314 E0.01589
G1 X105.353 Y101.894 E0.01589
G1 X105.416 Y102.500 E0.01589
G1 X105.353 Y103.106 E0.01589
G1 X105.164 Y103.686 E0.01589
G1 X104.859 Y104.214 E0.01589
G1 X104.451 Y104.667 E0.01589
G1 X104.007 Y104.990 E0.01432
M204 S1000
G1 X103.761 Y104.652 F7200.000
M204 S800
G1 F1200
G1 X103.271 Y104.874 E0.01401
G1 X102.761 Y104.983 E0.01360
G1 X102.239 Y104.983 E0.01360
