; generated by Slic3r Prusa Edition 1.39.2+win64 on 2018-05-24 at 14:00:56

; 

; external perimeters extrusion width = 0.45mm
; perimeters extrusion width = 0.45mm
; infill extrusion width = 0.45mm
; solid infill extrusion width = 0.45mm
; top infill extrusion width = 0.45mm
; first layer extrusion width = 0.42mm

M107
M115 U3.1.0 ; tell printer latest fw version
M83  ; extruder relative mode
M104 S205 ; set extruder temp
M140 S55 ; set bed temp
M190 S55 ; wait for bed temp
M109 S205 ; wait for extruder temp
G28 W ; home all without mesh bed level
G80 ; mesh bed leveling
G1 Y-3.0 F1000.0 ; go outside print area
G92 E0.0
G1 X60.0 E9.0  F1000.0 ; intro line
G1 X100.0 E12.5  F1000.0 ; intro line
G92 E0.0
M900 K30; Filament gcode
G21 ; set units to millimeters
G90 ; use absolute coordinates
M83 ; use relative distances for extrusion
;BEFORE_LAYER_CHANGE
;0.2


G1 E-0.80000 F2100.00000
G1 Z0.600 F7200.000
;AFTER_LAYER_CHANGE
;0.2
G1 X88.057 Y64.131
G1 Z0.200
G1 E0.80000 F2100.00000
M204 S1000
G1 F1800
G1 X88.547 Y63.618 E0.02225
G1 X89.164 Y63.275 E0.02213
G1 X89.858 Y63.127 E0.02225
G1 X115.004 Y63.123 E0.78843
G1 X115.895 Y63.298 E0.02849
G1 X116.659 Y63.797 E0.02860
G1 X117.176 Y64.544 E0.02849
G1 X117.376 Y65.430 E0.02849
G1 X117.377 Y139.504 E2.32252
G1 X117.260 Y140.238 E0.02331
G1 X116.941 Y140.872 E0.02225
G1 X116.450 Y141.384 E0.02225
G1 X115.829 Y141.728 E0.02225
G1 X115.131 Y141.873 E0.02237
G1 X89.989 Y141.877 E0.78831
G1 X89.262 Y141.760 E0.02308
G1 X88.612 Y141.430 E0.02284
G1 X88.091 Y140.916 E0.02296
G1 X87.750 Y140.268 E0.02296
G1 X87.623 Y139.547 E0.02296
G1 X87.623 Y65.496 E2.32180
G1 X87.740 Y64.762 E0.02331
G1 X88.030 Y64.185 E0.02025
G1 F5760
G1 X88.547 Y63.618 E-0.26571
G1 X89.164 Y63.275 E-0.24448
G1 X89.858 Y63.127 E-0.24578
G1 X89.870 Y63.127 E-0.00403
G1 E-0.04000 F2100.00000
G1 Z0.800 F7200.000
G1 X101.768 Y122.246
G1 Z0.200
G1 E0.80000 F2100.00000
G1 F1800
G1 X102.252 Y122.144 E0.01553
G1 X102.748 Y122.144 E0.01552
G1 X103.232 Y122.246 E0.01553
G1 X103.685 Y122.448 E0.01553
G1 X104.085 Y122.739 E0.01553
G1 X104.417 Y123.107 E0.01553
G1 X104.665 Y123.536 E0.01553
G1 X104.818 Y124.007 E0.01553
G1 X104.869 Y124.500 E0.01553
G1 X104.818 Y124.993 E0.01553
G1 X104.665 Y125.464 E0.01553
G1 X104.417 Y125.893 E0.01553
G1 X104.085 Y126.261 E0.01553
G1 X103.685 Y126.552 E0.01553
G1 X103.232 Y126.754 E0.01553
G1 X102.748 Y126.856 E0.01553
G1 X102.252 Y126.856 E0.01552
G1 X101.768 Y126.754 E0.01553
G1 X101.315 Y126.552 E0.01553
G1 X100.915 Y126.261 E0.01553
G1 X100.583 Y125.893 E0.01553
G1 X100.335 Y125.464 E0.01553
G1 X100.182 Y124.993 E0.01553
G1 X100.131 Y124.500 E0.01553
G1 X100.182 Y124.007 E0.01553
G1 X100.335 Y123.536 E0.01553
G1 X100.583 Y123.107 E0.01553
G1 X100.915 Y122.739 E0.01553
G1 X101.315 Y122.448 E0.01553
G1 X101.713 Y122.271 E0.01365
G1 X101.866 Y122.615 F7200.000
G1 F1800
G1 X102.292 Y122.521 E0.01367
G1 X102.708 Y122.521 E0.01304
G1 X103.115 Y122.607 E0.01305
G1 X103.495 Y122.776 E0.01305
G1 X103.832 Y123.021 E0.01305
G1 X104.110 Y123.330 E0.01305
G1 X104.318 Y123.690 E0.01305
G1 X104.447 Y124.086 E0.01304
G1 X104.490 Y124.500 E0.01305
G1 X104.447 Y124.914 E0.01305
G1 X104.318 Y125.310 E0.01304
G1 X104.110 Y125.670 E0.01305
G1 X103.832 Y125.979 E0.01305
G1 X103.495 Y126.224 E0.01305
G1 X103.115 Y126.393 E0.01305
G1 X102.708 Y126.479 E0.01305
G1 X102.292 Y126.479 E0.01304
G1 X101.885 Y126.393 E0.01305
G1 X101.505 Y126.224 E0.01305
G1 X101.168 Y125.979 E0.01305
G1 X100.890 Y125.670 E0.01305
G1 X100.682 Y125.310 E0.01305
G1 X100.553 Y124.914 E0.01304
G1 X100.510 Y124.500 E0.01305
G1 X100.553 Y124.086 E0.01305
G1 X100.682 Y123.690 E0.01304
G1 X100.890 Y123.330 E0.01305
G1 X101.168 Y123.021 E0.01305
G1 X101.505 Y122.776 E0.01305
G1 X101.812 Y122.640 E0.01053
G1 X102.002 Y122.968 F7200.000
G1 F1800
G1 X102.332 Y122.898 E0.01056
G1 X102.668 Y122.898 E0.01056
G1 X102.998 Y122.968 E0.01056
G1 X103.306 Y123.105 E0.01056
G1 X103.578 Y123.303 E0.01056
G1 X103.803 Y123.553 E0.01056
G1 X103.972 Y123.845 E0.01056
G1 X104.076 Y124.165 E0.01056
G1 X104.111 Y124.500 E0.01056
G1 X104.076 Y124.835 E0.01056
G1 X103.972 Y125.155 E0.01056
G1 X103.803 Y125.447 E0.01056
G1 X103.578 Y125.697 E0.01056
G1 X103.306 Y125.895 E0.01056
G1 X102.998 Y126.032 E0.01056
G1 X102.668 Y126.102 E0.01056
G1 X102.332 Y126.102 E0.01056
G1 X102.002 Y126.032 E0.01056
G1 X101.694 Y125.895 E0.01056
G1 X101.422 Y125.697 E0.01056
G1 X101.197 Y125.447 E0.01056
G1 X101.028 Y125.155 E0.01056
G1 X100.924 Y124.835 E0.01056
G1 X100.889 Y124.500 E0.01056
G1 X100.924 Y124.165 E0.01056
G1 X101.028 Y123.845 E0.01056
G1 X101.197 Y123.553 E0.01056
G1 X101.422 Y123.303 E0.01056
G1 X101.694 Y123.105 E0.01056
G1 X101.947 Y122.992 E0.00868
G1 X102.072 Y122.638 F7200.000
G1 F5760
G1 X102.332 Y122.898 E-0.13706
G1 X102.668 Y122.898 E-0.11662
G1 X102.998 Y122.968 E-0.11667
G1 X103.306 Y123.105 E-0.11667
G1 X103.578 Y123.303 E-0.11666
G1 X103.803 Y123.553 E-0.11665
G1 X103.861 Y123.652 E-0.03967
G1 E-0.04000 F2100.00000
G1 Z0.800 F7200.000
G1 X108.315 Y112.552
G1 Z0.200
G1 E0.80000 F2100.00000
G1 F1800
G1 X107.913 Y112.259 E0.01561
G1 X107.578 Y111.884 E0.01576
G1 X107.335 Y111.464 E0.01522
G1 X107.182 Y110.993 E0.01553
G1 X107.131 Y110.500 E0.01553
G1 X107.182 Y110.007 E0.01553
G1 X107.335 Y109.536 E0.01553
G1 X107.583 Y109.107 E0.01553
G1 X107.915 Y108.739 E0.01553
G1 X108.315 Y108.448 E0.01553
G1 X108.768 Y108.246 E0.01553
G1 X109.252 Y108.144 E0.01553
G1 X109.748 Y108.144 E0.01553
G1 X110.232 Y108.246 E0.01553
G1 X110.685 Y108.448 E0.01553
G1 X111.087 Y108.741 E0.01561
G1 X111.422 Y109.116 E0.01576
G1 X111.665 Y109.536 E0.01522
G1 X111.818 Y110.007 E0.01553
G1 X111.869 Y110.500 E0.01553
G1 X111.818 Y110.993 E0.01553
G1 X111.665 Y111.464 E0.01553
G1 X111.417 Y111.893 E0.01553
G1 X111.085 Y112.261 E0.01553
G1 X110.685 Y112.552 E0.01553
G1 X110.232 Y112.754 E0.01553
G1 X109.748 Y112.856 E0.01553
G1 X109.252 Y112.856 E0.01553
G1 X108.768 Y112.754 E0.01553
G1 X108.370 Y112.576 E0.01365
G1 X108.523 Y112.232 F7200.000
G1 F1800
G1 X108.167 Y111.978 E0.01372
G1 X107.885 Y111.662 E0.01327
G1 X107.682 Y111.309 E0.01277
G1 X107.553 Y110.914 E0.01304
G1 X107.510 Y110.500 E0.01305
G1 X107.553 Y110.086 E0.01305
G1 X107.682 Y109.691 E0.01304
G1 X107.890 Y109.330 E0.01305
G1 X108.168 Y109.021 E0.01305
G1 X108.505 Y108.776 E0.01304
G1 X108.885 Y108.607 E0.01305
G1 X109.292 Y108.521 E0.01305
G1 X109.708 Y108.521 E0.01304
G1 X110.115 Y108.607 E0.01305
G1 X110.495 Y108.776 E0.01305
G1 X110.833 Y109.022 E0.01309
G1 X111.115 Y109.338 E0.01327
G1 X111.318 Y109.691 E0.01277
G1 X111.447 Y110.086 E0.01304
G1 X111.490 Y110.500 E0.01305
G1 X111.447 Y110.914 E0.01305
G1 X111.318 Y111.309 E0.01304
G1 X111.110 Y111.670 E0.01305
G1 X110.832 Y111.979 E0.01305
G1 X110.495 Y112.224 E0.01304
G1 X110.115 Y112.393 E0.01305
G1 X109.708 Y112.479 E0.01305
G1 X109.292 Y112.479 E0.01304
G1 X108.885 Y112.393 E0.01305
G1 X108.578 Y112.256 E0.01053
G1 X108.694 Y111.895 F7200.000
G1 F1800
G1 X108.421 Y111.697 E0.01058
G1 X108.193 Y111.440 E0.01079
G1 X108.028 Y111.155 E0.01032
G1 X107.924 Y110.835 E0.01056
G1 X107.889 Y110.500 E0.01056
G1 X107.924 Y110.165 E0.01056
G1 X108.028 Y109.845 E0.01056
G1 X108.197 Y109.553 E0.01056
G1 X108.422 Y109.303 E0.01056
G1 X108.694 Y109.105 E0.01056
G1 X109.002 Y108.968 E0.01056
G1 X109.332 Y108.898 E0.01056
G1 X109.668 Y108.898 E0.01056
G1 X109.998 Y108.968 E0.01056
G1 X110.306 Y109.105 E0.01056
G1 X110.579 Y109.303 E0.01058
G1 X110.807 Y109.560 E0.01079
G1 X110.972 Y109.845 E0.01032
G1 X111.076 Y110.165 E0.01056
G1 X111.111 Y110.500 E0.01056
G1 X111.076 Y110.835 E0.01056
G1 X110.972 Y111.155 E0.01056
G1 X110.803 Y111.447 E0.01056
G1 X110.578 Y111.697 E0.01056
G1 X110.306 Y111.895 E0.01056
G1 X109.998 Y112.032 E0.01056
G1 X109.668 Y112.102 E0.01056
G1 X109.332 Y112.102 E0.01056
G1 X109.002 Y112.032 E0.01056
G1 X108.749 Y111.920 E0.00868
G1 X108.402 Y112.064 F7200.000
G1 F5760
G1 X108.421 Y111.697 E-0.13723
G1 X108.193 Y111.440 E-0.11914
G1 X108.028 Y111.155 E-0.11395
G1 X107.924 Y110.835 E-0.11664
G1 X107.889 Y110.500 E-0.11667
G1 X107.924 Y110.165 E-0.11667
G1 X107.959 Y110.056 E-0.03969
G1 E-0.04000 F2100.00000
G1 Z0.800 F7200.000
G1 X97.818 Y110.993
G1 Z0.200
G1 E0.80000 F2100.00000
G1 F1800
G1 X97.665 Y111.464 E0.01553
G1 X97.417 Y111.893 E0.01553
G1 X97.085 Y112.261 E0.01553
G1 X96.685 Y112.552 E0.01553
G1 X96.232 Y112.754 E0.01553
G1 X95.748 Y112.856 E0.01553
G1 X95.252 Y112.856 E0.01552
G1 X94.768 Y112.754 E0.01553
G1 X94.315 Y112.552 E0.01553
G1 X93.915 Y112.261 E0.01553
G1 X93.583 Y111.893 E0.01553
G1 X93.335 Y111.464 E0.01553
G1 X93.182 Y110.993 E0.01553
G1 X93.131 Y110.500 E0.01553
G1 X93.182 Y110.007 E0.01553
G1 X93.335 Y109.536 E0.01553
G1 X93.583 Y109.107 E0.01553
G1 X93.915 Y108.739 E0.01553
G1 X94.315 Y108.448 E0.01553
G1 X94.768 Y108.246 E0.01553
G1 X95.252 Y108.144 E0.01553
G1 X95.748 Y108.144 E0.01552
G1 X96.232 Y108.246 E0.01553
G1 X96.685 Y108.448 E0.01553
G1 X97.085 Y108.739 E0.01553
G1 X97.417 Y109.107 E0.01553
G1 X97.665 Y109.536 E0.01553
G1 X97.818 Y110.007 E0.01553
G1 X97.869 Y110.500 E0.01553
G1 X97.824 Y110.933 E0.01365
G1 X97.449 Y110.894 F7200.000
G1 F1800
G1 X97.318 Y111.310 E0.01367
G1 X97.110 Y111.670 E0.01305
G1 X96.832 Y111.979 E0.01305
G1 X96.495 Y112.224 E0.01305
G1 X96.115 Y112.393 E0.01305
G1 X95.708 Y112.479 E0.01305
G1 X95.292 Y112.479 E0.01304
G1 X94.885 Y112.393 E0.01305
G1 X94.505 Y112.224 E0.01305
G1 X94.168 Y111.979 E0.01305
G1 X93.890 Y111.670 E0.01305
G1 X93.682 Y111.310 E0.01305
G1 X93.553 Y110.914 E0.01304
G1 X93.510 Y110.500 E0.01305
G1 X93.553 Y110.086 E0.01305
G1 X93.682 Y109.690 E0.01304
G1 X93.890 Y109.330 E0.01305
G1 X94.168 Y109.021 E0.01305
G1 X94.505 Y108.776 E0.01305
G1 X94.885 Y108.607 E0.01305
G1 X95.292 Y108.521 E0.01305
G1 X95.708 Y108.521 E0.01304
G1 X96.115 Y108.607 E0.01305
G1 X96.495 Y108.776 E0.01305
G1 X96.832 Y109.021 E0.01305
G1 X97.110 Y109.330 E0.01305
G1 X97.318 Y109.690 E0.01305
G1 X97.447 Y110.086 E0.01304
G1 X97.490 Y110.500 E0.01305
G1 X97.455 Y110.834 E0.01053
G1 X97.076 Y110.835 F7200.000
G1 F1800
G1 X96.972 Y111.155 E0.01056
G1 X96.803 Y111.447 E0.01056
G1 X96.578 Y111.697 E0.01056
G1 X96.306 Y111.895 E0.01056
G1 X95.998 Y112.032 E0.01056
G1 X95.668 Y112.102 E0.01056
G1 X95.332 Y112.102 E0.01056
G1 X95.002 Y112.032 E0.01056
G1 X94.694 Y111.895 E0.01056
G1 X94.422 Y111.697 E0.01056
G1 X94.197 Y111.447 E0.01056
G1 X94.028 Y111.155 E0.01056
G1 X93.924 Y110.835 E0.01056
G1 X93.889 Y110.500 E0.01056
G1 X93.924 Y110.165 E0.01056
G1 X94.028 Y109.845 E0.01056
G1 X94.197 Y109.553 E0.01056
G1 X94.422 Y109.303 E0.01056
G1 X94.694 Y109.105 E0.01056
G1 X95.002 Y108.968 E0.01056
G1 X95.332 Y108.898 E0.01056
G1 X95.668 Y108.898 E0.01056
G1 X95.998 Y108.968 E0.01056
G1 X96.306 Y109.105 E0.01056
G1 X96.578 Y109.303 E0.01056
G1 X96.803 Y109.553 E0.01056
G1 X96.972 Y109.845 E0.01056
G1 X97.076 Y110.165 E0.01056
G1 X97.111 Y110.500 E0.01056
G1 X97.082 Y110.775 E0.00868
G1 X97.326 Y111.060 F7200.000
G1 F5760
G1 X96.972 Y111.155 E-0.13703
G1 X96.803 Y111.447 E-0.11668
G1 X96.578 Y111.697 E-0.11665
G1 X96.306 Y111.895 E-0.11666
G1 X95.998 Y112.032 E-0.11667
G1 X95.668 Y112.102 E-0.11667
G1 X95.554 Y112.102 E-0.03964
G1 E-0.04000 F2100.00000
G1 Z0.800 F7200.000
G1 X100.593 Y100.802
G1 Z0.200
G1 E0.80000 F2100.00000
G1 F1800
G1 X98.687 Y97.500 E0.11956
G1 X100.593 Y94.198 E0.11956
G1 X104.407 Y94.198 E0.11956
G1 X106.313 Y97.500 E0.11956
G1 X104.407 Y100.802 E0.11956
G1 X100.653 Y100.802 E0.11768
G1 X100.811 Y100.425 F7200.000
G1 F1800
G1 X99.122 Y97.500 E0.10591
G1 X100.811 Y94.575 E0.10591
G1 X104.189 Y94.575 E0.10591
G1 X105.878 Y97.500 E0.10591
G1 X104.189 Y100.425 E0.10591
G1 X100.871 Y100.425 E0.10403
G1 X101.029 Y100.048 F7200.000
G1 F1800
G1 X99.558 Y97.500 E0.09226
G1 X101.029 Y94.952 E0.09226
G1 X103.971 Y94.952 E0.09226
G1 X105.442 Y97.500 E0.09226
G1 X103.971 Y100.048 E0.09226
G1 X101.089 Y100.048 E0.09038
G1 X100.682 Y100.248 F7200.000
G1 F5760
G1 X99.959 Y98.167 E-0.76000
G1 E-0.04000 F2100.00000
G1 Z0.800 F7200.000
G1 X100.593 Y74.198
G1 Z0.200
G1 E0.80000 F2100.00000
G1 F1800
G1 X104.407 Y74.198 E0.11956
G1 X106.313 Y77.500 E0.11956
G1 X104.407 Y80.802 E0.11956
G1 X100.593 Y80.802 E0.11956
G1 X98.687 Y77.500 E0.11956
G1 X100.563 Y74.250 E0.11768
G1 X100.811 Y74.575 F7200.000
G1 F1800
G1 X104.189 Y74.575 E0.10591
G1 X105.878 Y77.500 E0.10591
G1 X104.189 Y80.425 E0.10591
G1 X100.811 Y80.425 E0.10591
G1 X99.122 Y77.500 E0.10591
G1 X100.781 Y74.627 E0.10403
G1 X101.029 Y74.952 F7200.000
G1 F1800
G1 X103.971 Y74.952 E0.09226
G1 X105.442 Y77.500 E0.09226
G1 X103.971 Y80.048 E0.09226
G1 X101.029 Y80.048 E0.09226
G1 X99.558 Y77.500 E0.09226
G1 X100.999 Y75.004 E0.09038
G1 X101.029 Y74.552 F7200.000
G1 F5760
G1 X103.193 Y74.965 E-0.76000
G1 E-0.04000 F2100.00000
G1 Z0.800 F7200.000
G1 X90.964 Y66.464
G1 Z0.200
G1 E0.80000 F2100.00000
G1 F1800
G1 X114.036 Y66.464 E0.72340
G1 X114.036 Y138.536 E2.25976
G1 X90.964 Y138.536 E0.72340
G1 X90.964 Y66.524 E2.25788
G1 X90.587 Y66.087 F7200.000
G1 F1800
G1 X114.413 Y66.087 E0.74704
G1 X114.413 Y138.913 E2.28340
G1 X90.587 Y138.913 E0.74704
G1 X90.587 Y66.147 E2.28152
G1 X90.210 Y65.710 F7200.000
G1 F1800
G1 X114.790 Y65.710 E0.77069
G1 X114.790 Y139.290 E2.30705
G1 X90.210 Y139.290 E0.77069
G1 X90.210 Y65.770 E2.30517
G1 X90.576 Y65.872 F7200.000
G1 F5760
G1 X92.404 Y65.765 E-0.76000
G1 E-0.04000 F2100.00000
G1 Z0.800 F7200.000
G1 X99.527 Y79.182
G1 Z0.200
G1 E0.80000 F2100.00000
G1 F1800
G1 X91.247 Y70.902 E0.36862
G1 X91.247 Y70.366 E0.01685
G1 X98.368 Y77.487 E0.31701
G1 X98.564 Y77.148 E0.01234
G1 X91.247 Y69.831 E0.32573
G1 X91.247 Y69.295 E0.01685
G1 X98.760 Y76.808 E0.33446
G1 X98.956 Y76.469 E0.01234
G1 X91.247 Y68.760 E0.34318
G1 X91.247 Y68.225 E0.01685
G1 X99.152 Y76.129 E0.35190
G1 X99.348 Y75.790 E0.01234
G1 X91.247 Y67.689 E0.36063
G1 X91.247 Y67.154 E0.01685
G1 X99.543 Y75.450 E0.36935
G1 X99.739 Y75.111 E0.01234
G1 X91.375 Y66.747 E0.37236
G1 X91.911 Y66.747 E0.01685
G1 X99.935 Y74.772 E0.35725
G1 X100.131 Y74.432 E0.01234
G1 X92.446 Y66.747 E0.34213
G1 X92.982 Y66.747 E0.01685
G1 X100.327 Y74.093 E0.32702
G1 X100.430 Y73.915 E0.00647
G1 X100.685 Y73.915 E0.00802
G1 X93.517 Y66.747 E0.31910
G1 X94.052 Y66.747 E0.01685
G1 X101.220 Y73.915 E0.31910
G1 X101.756 Y73.915 E0.01685
G1 X94.588 Y66.747 E0.31910
G1 X95.123 Y66.747 E0.01685
G1 X102.291 Y73.915 E0.31910
G1 X102.826 Y73.915 E0.01685
G1 X95.659 Y66.747 E0.31910
G1 X96.194 Y66.747 E0.01685
G1 X103.362 Y73.915 E0.31910
G1 X103.897 Y73.915 E0.01685
G1 X96.729 Y66.747 E0.31910
G1 X97.265 Y66.747 E0.01685
G1 X113.753 Y83.235 E0.73404
G1 X113.753 Y82.700 E0.01685
G1 X97.800 Y66.747 E0.71020
G1 X98.336 Y66.747 E0.01685
G1 X113.753 Y82.164 E0.68637
G1 X113.753 Y81.629 E0.01685
G1 X98.871 Y66.747 E0.66253
G1 X99.406 Y66.747 E0.01685
G1 X113.753 Y81.094 E0.63869
G1 X113.753 Y80.558 E0.01685
G1 X99.942 Y66.747 E0.61486
G1 X100.477 Y66.747 E0.01685
G1 X113.753 Y80.023 E0.59102
G1 X113.753 Y79.487 E0.01685
G1 X101.013 Y66.747 E0.56719
G1 X101.548 Y66.747 E0.01685
G1 X113.753 Y78.952 E0.54335
G1 X113.753 Y78.417 E0.01685
G1 X102.083 Y66.747 E0.51952
G1 X102.619 Y66.747 E0.01685
G1 X113.753 Y77.881 E0.49568
G1 X113.753 Y77.346 E0.01685
G1 X103.154 Y66.747 E0.47185
G1 X103.690 Y66.747 E0.01685
G1 X113.753 Y76.810 E0.44801
G1 X113.753 Y76.275 E0.01685
G1 X104.225 Y66.747 E0.42417
G1 X104.761 Y66.747 E0.01685
G1 X113.753 Y75.739 E0.40034
G1 X113.753 Y75.204 E0.01685
G1 X105.296 Y66.747 E0.37650
G1 X105.831 Y66.747 E0.01685
G1 X113.753 Y74.669 E0.35267
G1 X113.753 Y74.133 E0.01685
G1 X106.367 Y66.747 E0.32883
G1 X106.902 Y66.747 E0.01685
G1 X113.753 Y73.598 E0.30500
G1 X113.753 Y73.062 E0.01685
G1 X107.438 Y66.747 E0.28116
G1 X107.973 Y66.747 E0.01685
G1 X113.753 Y72.527 E0.25733
G1 X113.753 Y71.992 E0.01685
G1 X108.508 Y66.747 E0.23349
G1 X109.044 Y66.747 E0.01685
G1 X113.753 Y71.456 E0.20965
G1 X113.753 Y70.921 E0.01685
G1 X109.579 Y66.747 E0.18582
G1 X110.115 Y66.747 E0.01685
G1 X113.753 Y70.385 E0.16198
G1 X113.753 Y69.850 E0.01685
G1 X110.650 Y66.747 E0.13815
