; generated by Slic3r Prusa Edition 1.39.2+win64 on 2018-05-31 at 15:36:55

; 

; external perimeters extrusion width = 0.45mm
; perimeters extrusion width = 0.45mm
; infill extrusion width = 0.45mm
; solid infill extrusion width = 0.45mm
; top infill extrusion width = 0.45mm
; first layer extrusion width = 0.42mm

M107
M115 U3.1.0 ; tell printer latest fw version
M83  ; extruder relative mode
M104 S205 ; set extruder temp
M140 S55 ; set bed temp
M190 S55 ; wait for bed temp
M109 S205 ; wait for extruder temp
G28 W ; home all without mesh bed level
G80 ; mesh bed leveling
G1 Y-3.0 F1000.0 ; go outside print area
G92 E0.0
G1 X60.0 E9.0  F1000.0 ; intro line
G1 X100.0 E12.5  F1000.0 ; intro line
G92 E0.0
M900 K30; Filament gcode
G21 ; set units to millimeters
G90 ; use absolute coordinates
M83 ; use relative distances for extrusion
;BEFORE_LAYER_CHANGE
;0.2


G1 E-0.80000 F2100.00000
G1 Z0.600 F7200.000
;AFTER_LAYER_CHANGE
;0.2
G1 X73.639 Y68.301
G1 Z0.200
G1 E0.80000 F2100.00000
M204 S1000
G1 F1800
G1 X74.367 Y67.959 E0.02520
G1 X94.750 Y62.886 E0.65858
G1 X130.004 Y62.873 E1.10537
G1 X130.895 Y63.048 E0.02849
G1 X131.656 Y63.545 E0.02849
G1 X132.175 Y64.291 E0.02849
G1 X132.376 Y65.177 E0.02849
G1 X132.377 Y125.269 E1.88416
G1 X132.260 Y125.988 E0.02284
G1 X131.932 Y126.635 E0.02272
G1 X131.410 Y127.164 E0.02331
G1 X111.497 Y141.673 E0.77253
G1 X110.695 Y142.051 E0.02778
G1 X110.104 Y142.127 E0.01870
G1 X74.977 Y142.127 E1.10137
G1 X74.262 Y142.010 E0.02272
G1 X73.615 Y141.682 E0.02272
G1 X73.205 Y141.309 E0.01740
G1 X72.891 Y140.847 E0.01752
G1 X72.693 Y140.324 E0.01752
G1 X72.623 Y139.770 E0.01752
G1 X72.623 Y70.235 E2.18023
G1 X72.739 Y69.516 E0.02284
G1 X73.068 Y68.865 E0.02284
G1 X73.597 Y68.343 E0.02332
G1 F5760
G1 X74.367 Y67.959 E-0.29802
G1 X75.661 Y67.637 E-0.46198
G1 E-0.04000 F2100.00000
G1 Z0.800 F7200.000
G1 X89.236 Y127.101
G1 Z0.200
G1 E0.80000 F2100.00000
G1 F1800
G1 X89.742 Y126.994 E0.01621
G1 X90.258 Y126.994 E0.01619
G1 X90.764 Y127.101 E0.01621
G1 X91.235 Y127.312 E0.01617
G1 X91.652 Y127.614 E0.01617
G1 X91.999 Y127.999 E0.01623
G1 X92.256 Y128.446 E0.01618
G1 X92.415 Y128.935 E0.01611
G1 X92.469 Y129.452 E0.01630
G1 X92.415 Y129.964 E0.01614
G1 X92.256 Y130.454 E0.01614
G1 X91.999 Y130.901 E0.01618
G1 X91.652 Y131.286 E0.01623
G1 X91.235 Y131.588 E0.01617
G1 X90.764 Y131.799 E0.01617
G1 X90.258 Y131.906 E0.01621
G1 X89.742 Y131.906 E0.01619
G1 X89.236 Y131.799 E0.01621
G1 X88.765 Y131.588 E0.01617
G1 X88.348 Y131.285 E0.01618
G1 X88.001 Y130.901 E0.01623
G1 X87.744 Y130.454 E0.01618
G1 X87.586 Y129.967 E0.01605
G1 X87.531 Y129.449 E0.01634
G1 X87.585 Y128.936 E0.01616
G1 X87.744 Y128.446 E0.01614
G1 X88.001 Y127.999 E0.01618
G1 X88.348 Y127.614 E0.01623
G1 X88.765 Y127.312 E0.01618
G1 X89.181 Y127.126 E0.01429
G1 X89.335 Y127.470 F7200.000
G1 F1800
G1 X89.781 Y127.371 E0.01434
G1 X90.219 Y127.371 E0.01371
G1 X90.647 Y127.462 E0.01372
G1 X91.045 Y127.640 E0.01368
G1 X91.399 Y127.896 E0.01370
G1 X91.692 Y128.222 E0.01373
G1 X91.909 Y128.600 E0.01369
G1 X92.044 Y129.015 E0.01366
G1 X92.090 Y129.451 E0.01377
G1 X92.044 Y129.885 E0.01367
G1 X91.909 Y130.300 E0.01367
G1 X91.692 Y130.678 E0.01369
G1 X91.399 Y131.004 E0.01373
G1 X91.045 Y131.260 E0.01370
G1 X90.647 Y131.438 E0.01368
G1 X90.219 Y131.529 E0.01372
G1 X89.781 Y131.529 E0.01371
G1 X89.353 Y131.438 E0.01372
G1 X88.955 Y131.260 E0.01369
G1 X88.601 Y131.004 E0.01370
G1 X88.308 Y130.678 E0.01373
G1 X88.091 Y130.300 E0.01369
G1 X87.956 Y129.887 E0.01362
G1 X87.910 Y129.449 E0.01379
G1 X87.956 Y129.015 E0.01369
G1 X88.091 Y128.600 E0.01368
G1 X88.308 Y128.222 E0.01369
G1 X88.601 Y127.896 E0.01373
G1 X88.955 Y127.640 E0.01370
G1 X89.280 Y127.495 E0.01117
G1 X89.471 Y127.823 F7200.000
G1 F1800
G1 X89.821 Y127.748 E0.01123
G1 X90.179 Y127.748 E0.01123
G1 X90.529 Y127.823 E0.01123
G1 X90.856 Y127.968 E0.01120
G1 X91.145 Y128.178 E0.01122
G1 X91.385 Y128.444 E0.01123
G1 X91.563 Y128.754 E0.01121
G1 X91.673 Y129.094 E0.01120
G1 X91.711 Y129.450 E0.01124
G1 X91.673 Y129.806 E0.01121
G1 X91.563 Y130.146 E0.01120
G1 X91.385 Y130.456 E0.01121
G1 X91.145 Y130.722 E0.01123
G1 X90.856 Y130.932 E0.01122
G1 X90.529 Y131.077 E0.01120
G1 X90.179 Y131.152 E0.01123
G1 X89.821 Y131.152 E0.01123
G1 X89.471 Y131.077 E0.01123
G1 X89.144 Y130.932 E0.01120
G1 X88.855 Y130.722 E0.01122
G1 X88.615 Y130.456 E0.01123
G1 X88.437 Y130.146 E0.01120
G1 X88.327 Y129.807 E0.01119
G1 X88.289 Y129.450 E0.01125
G1 X88.326 Y129.094 E0.01121
G1 X88.437 Y128.754 E0.01121
G1 X88.615 Y128.444 E0.01120
G1 X88.855 Y128.178 E0.01123
G1 X89.144 Y127.968 E0.01122
G1 X89.416 Y127.847 E0.00932
G1 X89.545 Y127.472 F7200.000
G1 F5760
G1 X89.821 Y127.748 E-0.14440
G1 X90.179 Y127.748 E-0.12403
G1 X90.529 Y127.823 E-0.12402
G1 X90.856 Y127.968 E-0.12374
G1 X91.145 Y128.178 E-0.12393
G1 X91.377 Y128.435 E-0.11988
G1 E-0.04000 F2100.00000
G1 Z0.800 F7200.000
G1 X82.415 Y128.935
G1 Z0.200
G1 E0.80000 F2100.00000
G1 F1800
G1 X82.469 Y129.452 E0.01630
G1 X82.415 Y129.964 E0.01614
G1 X82.256 Y130.454 E0.01614
G1 X81.999 Y130.901 E0.01618
G1 X81.652 Y131.286 E0.01623
G1 X81.235 Y131.588 E0.01617
G1 X80.764 Y131.799 E0.01617
G1 X80.258 Y131.906 E0.01621
G1 X79.742 Y131.906 E0.01619
G1 X79.236 Y131.799 E0.01621
G1 X78.765 Y131.588 E0.01617
G1 X78.348 Y131.285 E0.01618
G1 X78.001 Y130.901 E0.01623
G1 X77.744 Y130.454 E0.01618
G1 X77.586 Y129.967 E0.01605
G1 X77.531 Y129.449 E0.01634
G1 X77.585 Y128.936 E0.01616
G1 X77.744 Y128.446 E0.01614
G1 X78.001 Y127.999 E0.01618
G1 X78.348 Y127.614 E0.01623
G1 X78.765 Y127.312 E0.01618
G1 X79.236 Y127.101 E0.01617
G1 X79.742 Y126.994 E0.01621
G1 X80.258 Y126.994 E0.01619
G1 X80.764 Y127.101 E0.01621
G1 X81.235 Y127.312 E0.01617
G1 X81.652 Y127.614 E0.01617
G1 X81.999 Y127.999 E0.01623
G1 X82.256 Y128.446 E0.01618
G1 X82.396 Y128.878 E0.01423
G1 X82.038 Y128.995 F7200.000
G1 F1800
G1 X82.090 Y129.451 E0.01441
G1 X82.044 Y129.885 E0.01367
G1 X81.909 Y130.300 E0.01367
G1 X81.692 Y130.678 E0.01369
G1 X81.399 Y131.004 E0.01373
G1 X81.045 Y131.260 E0.01370
G1 X80.647 Y131.438 E0.01368
G1 X80.219 Y131.529 E0.01372
G1 X79.781 Y131.529 E0.01371
G1 X79.353 Y131.438 E0.01372
G1 X78.955 Y131.260 E0.01369
G1 X78.601 Y131.004 E0.01370
G1 X78.308 Y130.678 E0.01373
G1 X78.091 Y130.300 E0.01369
G1 X77.956 Y129.887 E0.01362
G1 X77.910 Y129.449 E0.01379
G1 X77.956 Y129.015 E0.01369
G1 X78.091 Y128.600 E0.01368
G1 X78.308 Y128.222 E0.01369
G1 X78.601 Y127.896 E0.01373
G1 X78.955 Y127.640 E0.01370
G1 X79.353 Y127.462 E0.01368
G1 X79.781 Y127.371 E0.01372
G1 X80.219 Y127.371 E0.01371
G1 X80.647 Y127.462 E0.01372
G1 X81.045 Y127.640 E0.01368
G1 X81.399 Y127.896 E0.01370
G1 X81.692 Y128.222 E0.01373
G1 X81.909 Y128.600 E0.01369
G1 X82.019 Y128.938 E0.01112
G1 X81.673 Y129.094 F7200.000
G1 F1800
G1 X81.711 Y129.450 E0.01124
G1 X81.673 Y129.806 E0.01121
G1 X81.563 Y130.146 E0.01120
G1 X81.385 Y130.456 E0.01121
G1 X81.145 Y130.722 E0.01123
G1 X80.856 Y130.932 E0.01122
G1 X80.529 Y131.077 E0.01120
G1 X80.179 Y131.152 E0.01123
G1 X79.821 Y131.152 E0.01123
G1 X79.471 Y131.077 E0.01123
G1 X79.144 Y130.932 E0.01120
G1 X78.855 Y130.722 E0.01122
G1 X78.615 Y130.456 E0.01123
G1 X78.437 Y130.146 E0.01120
G1 X78.327 Y129.807 E0.01119
G1 X78.289 Y129.450 E0.01125
G1 X78.326 Y129.094 E0.01121
G1 X78.437 Y128.754 E0.01121
G1 X78.615 Y128.444 E0.01120
G1 X78.855 Y128.178 E0.01123
G1 X79.144 Y127.968 E0.01122
G1 X79.471 Y127.823 E0.01120
G1 X79.821 Y127.748 E0.01123
G1 X80.179 Y127.748 E0.01123
G1 X80.529 Y127.823 E0.01123
G1 X80.856 Y127.968 E0.01120
G1 X81.145 Y128.178 E0.01122
G1 X81.385 Y128.444 E0.01123
G1 X81.563 Y128.754 E0.01121
G1 X81.655 Y129.037 E0.00932
G1 X82.014 Y129.205 F7200.000
G1 F5760
G1 X81.711 Y129.450 E-0.14459
G1 X81.673 Y129.806 E-0.12382
G1 X81.563 Y130.146 E-0.12377
G1 X81.385 Y130.456 E-0.12378
G1 X81.145 Y130.722 E-0.12404
G1 X80.865 Y130.925 E-0.12000
G1 E-0.04000 F2100.00000
G1 Z0.800 F7200.000
G1 X102.001 Y113.701
G1 Z0.200
G1 E0.80000 F2100.00000
G1 F1800
G1 X101.744 Y113.254 E0.01618
G1 X101.586 Y112.767 E0.01605
G1 X101.531 Y112.249 E0.01634
G1 X101.585 Y111.736 E0.01616
G1 X101.744 Y111.246 E0.01614
G1 X102.001 Y110.799 E0.01618
G1 X102.348 Y110.415 E0.01623
G1 X102.765 Y110.111 E0.01618
G1 X103.236 Y109.901 E0.01617
G1 X103.742 Y109.794 E0.01620
G1 X104.258 Y109.794 E0.01619
G1 X104.764 Y109.901 E0.01621
G1 X105.235 Y110.111 E0.01617
G1 X105.652 Y110.414 E0.01618
G1 X105.999 Y110.799 E0.01623
G1 X106.256 Y111.246 E0.01618
G1 X106.415 Y111.735 E0.01611
G1 X106.469 Y112.252 E0.01630
G1 X106.415 Y112.764 E0.01614
G1 X106.256 Y113.254 E0.01614
G1 X105.999 Y113.701 E0.01618
G1 X105.652 Y114.086 E0.01623
G1 X105.235 Y114.389 E0.01618
G1 X104.764 Y114.599 E0.01617
G1 X104.258 Y114.706 E0.01621
G1 X103.742 Y114.706 E0.01619
G1 X103.236 Y114.599 E0.01620
G1 X102.765 Y114.389 E0.01617
G1 X102.348 Y114.085 E0.01618
G1 X102.041 Y113.745 E0.01435
G1 X102.321 Y113.493 F7200.000
G1 F1800
G1 X102.091 Y113.100 E0.01430
G1 X101.956 Y112.687 E0.01362
G1 X101.910 Y112.249 E0.01379
G1 X101.956 Y111.815 E0.01369
G1 X102.091 Y111.400 E0.01368
G1 X102.308 Y111.022 E0.01369
G1 X102.601 Y110.696 E0.01373
G1 X102.955 Y110.440 E0.01370
G1 X103.353 Y110.262 E0.01368
G1 X103.781 Y110.171 E0.01372
G1 X104.219 Y110.171 E0.01371
G1 X104.647 Y110.262 E0.01372
G1 X105.045 Y110.440 E0.01368
G1 X105.399 Y110.696 E0.01370
G1 X105.692 Y111.022 E0.01373
G1 X105.909 Y111.400 E0.01369
G1 X106.044 Y111.815 E0.01366
G1 X106.090 Y112.251 E0.01377
G1 X106.044 Y112.685 E0.01367
G1 X105.909 Y113.100 E0.01367
G1 X105.692 Y113.478 E0.01369
G1 X105.399 Y113.804 E0.01373
G1 X105.045 Y114.060 E0.01370
G1 X104.647 Y114.238 E0.01368
G1 X104.219 Y114.329 E0.01372
G1 X103.781 Y114.329 E0.01371
G1 X103.353 Y114.238 E0.01372
G1 X102.955 Y114.060 E0.01368
G1 X102.601 Y113.804 E0.01370
G1 X102.362 Y113.538 E0.01123
G1 X102.615 Y113.256 F7200.000
G1 F1800
G1 X102.437 Y112.946 E0.01120
G1 X102.327 Y112.607 E0.01119
G1 X102.289 Y112.250 E0.01125
G1 X102.326 Y111.894 E0.01121
G1 X102.437 Y111.554 E0.01121
G1 X102.615 Y111.244 E0.01120
G1 X102.855 Y110.978 E0.01123
G1 X103.144 Y110.768 E0.01122
G1 X103.471 Y110.623 E0.01120
G1 X103.821 Y110.548 E0.01123
G1 X104.179 Y110.548 E0.01123
G1 X104.529 Y110.623 E0.01123
G1 X104.856 Y110.768 E0.01120
G1 X105.145 Y110.978 E0.01122
G1 X105.385 Y111.244 E0.01123
G1 X105.563 Y111.554 E0.01120
G1 X105.673 Y111.894 E0.01120
G1 X105.711 Y112.250 E0.01124
G1 X105.673 Y112.606 E0.01121
G1 X105.563 Y112.946 E0.01120
G1 X105.385 Y113.256 E0.01120
G1 X105.145 Y113.522 E0.01123
G1 X104.856 Y113.732 E0.01122
G1 X104.529 Y113.877 E0.01120
G1 X104.179 Y113.952 E0.01123
G1 X103.821 Y113.952 E0.01123
G1 X103.471 Y113.877 E0.01123
G1 X103.144 Y113.732 E0.01120
G1 X102.855 Y113.522 E0.01122
G1 X102.655 Y113.300 E0.00935
G1 X102.260 Y113.293 F7200.000
G1 F5760
G1 X102.437 Y112.946 E-0.14416
G1 X102.327 Y112.607 E-0.12356
G1 X102.289 Y112.250 E-0.12427
G1 X102.326 Y111.894 E-0.12385
G1 X102.437 Y111.554 E-0.12380
G1 X102.610 Y111.253 E-0.12035
G1 E-0.04000 F2100.00000
G1 Z0.800 F7200.000
G1 X116.313 Y111.034
G1 Z0.200
G1 E0.80000 F2100.00000
G1 F1800
G1 X116.231 Y110.250 E0.02471
G1 X116.313 Y109.466 E0.02471
G1 X116.556 Y108.717 E0.02472
G1 X116.951 Y108.035 E0.02470
G1 X117.477 Y107.449 E0.02469
G1 X118.116 Y106.985 E0.02473
G1 X118.835 Y106.665 E0.02471
G1 X119.606 Y106.501 E0.02469
G1 X120.394 Y106.501 E0.02473
G1 X121.165 Y106.665 E0.02469
G1 X121.884 Y106.985 E0.02471
G1 X122.523 Y107.449 E0.02473
G1 X123.049 Y108.035 E0.02469
G1 X123.444 Y108.717 E0.02470
G1 X123.687 Y109.466 E0.02472
G1 X123.769 Y110.250 E0.02471
G1 X123.687 Y111.034 E0.02471
G1 X123.444 Y111.783 E0.02472
G1 X123.049 Y112.465 E0.02470
G1 X122.523 Y113.051 E0.02469
G1 X121.884 Y113.515 E0.02473
G1 X121.165 Y113.835 E0.02471
G1 X120.394 Y113.999 E0.02469
G1 X119.606 Y113.999 E0.02473
G1 X118.835 Y113.835 E0.02469
G1 X118.116 Y113.515 E0.02471
G1 X117.477 Y113.051 E0.02473
G1 X116.951 Y112.465 E0.02469
G1 X116.556 Y111.783 E0.02470
G1 X116.331 Y111.091 E0.02284
G1 X116.690 Y110.974 F7200.000
G1 F1800
G1 X116.610 Y110.250 E0.02284
G1 X116.684 Y109.545 E0.02222
G1 X116.903 Y108.871 E0.02223
G1 X117.257 Y108.257 E0.02222
G1 X117.731 Y107.731 E0.02221
G1 X118.305 Y107.314 E0.02224
G1 X118.953 Y107.026 E0.02222
G1 X119.645 Y106.878 E0.02220
G1 X120.355 Y106.878 E0.02225
G1 X121.047 Y107.026 E0.02220
G1 X121.695 Y107.314 E0.02222
G1 X122.269 Y107.731 E0.02224
G1 X122.743 Y108.257 E0.02221
G1 X123.097 Y108.871 E0.02222
G1 X123.316 Y109.545 E0.02223
G1 X123.390 Y110.250 E0.02222
G1 X123.316 Y110.955 E0.02222
G1 X123.097 Y111.629 E0.02223
G1 X122.743 Y112.243 E0.02222
G1 X122.269 Y112.769 E0.02221
G1 X121.695 Y113.186 E0.02224
G1 X121.047 Y113.474 E0.02222
G1 X120.355 Y113.622 E0.02220
G1 X119.645 Y113.622 E0.02225
G1 X118.953 Y113.474 E0.02220
G1 X118.305 Y113.186 E0.02222
G1 X117.731 Y112.769 E0.02224
G1 X117.257 Y112.243 E0.02221
G1 X116.903 Y111.629 E0.02222
G1 X116.708 Y111.031 E0.01971
G1 X117.067 Y110.915 F7200.000
G1 F1800
G1 X116.989 Y110.250 E0.02098
G1 X117.054 Y109.624 E0.01974
G1 X117.249 Y109.025 E0.01974
G1 X117.564 Y108.480 E0.01974
G1 X117.985 Y108.012 E0.01972
G1 X118.494 Y107.642 E0.01975
G1 X119.070 Y107.386 E0.01974
G1 X119.685 Y107.255 E0.01972
G1 X120.315 Y107.255 E0.01976
G1 X120.930 Y107.386 E0.01972
G1 X121.506 Y107.642 E0.01974
G1 X122.015 Y108.012 E0.01975
G1 X122.436 Y108.480 E0.01972
G1 X122.751 Y109.025 E0.01974
G1 X122.946 Y109.624 E0.01974
G1 X123.011 Y110.250 E0.01974
G1 X122.946 Y110.876 E0.01974
G1 X122.751 Y111.475 E0.01974
G1 X122.436 Y112.020 E0.01974
G1 X122.015 Y112.488 E0.01972
G1 X121.506 Y112.858 E0.01975
G1 X120.930 Y113.114 E0.01974
G1 X120.315 Y113.245 E0.01972
G1 X119.685 Y113.245 E0.01976
G1 X119.070 Y113.114 E0.01972
G1 X118.494 Y112.858 E0.01974
G1 X117.985 Y112.488 E0.01975
G1 X117.564 Y112.020 E0.01972
G1 X117.249 Y111.475 E0.01974
G1 X117.086 Y110.972 E0.01659
G1 X116.685 Y110.795 F7200.000
G1 F5760
G1 X116.989 Y110.250 E-0.25218
G1 X117.054 Y109.624 E-0.21802
G1 X117.249 Y109.025 E-0.21807
G1 X117.353 Y108.846 E-0.07173
G1 E-0.04000 F2100.00000
G1 Z0.800 F7200.000
G1 X105.235 Y84.388
G1 Z0.200
G1 E0.80000 F2100.00000
G1 F1800
G1 X104.764 Y84.599 E0.01617
G1 X104.258 Y84.706 E0.01621
G1 X103.742 Y84.706 E0.01619
G1 X103.236 Y84.599 E0.01621
G1 X102.765 Y84.388 E0.01617
G1 X102.348 Y84.086 E0.01617
G1 X102.001 Y83.701 E0.01623
G1 X101.744 Y83.254 E0.01618
G1 X101.586 Y82.767 E0.01604
G1 X101.531 Y82.249 E0.01634
G1 X101.585 Y81.736 E0.01616
G1 X101.744 Y81.246 E0.01614
G1 X102.001 Y80.799 E0.01618
G1 X102.348 Y80.414 E0.01623
G1 X102.765 Y80.112 E0.01617
G1 X103.236 Y79.901 E0.01617
G1 X103.742 Y79.794 E0.01621
G1 X104.258 Y79.794 E0.01619
G1 X104.764 Y79.901 E0.01621
G1 X105.235 Y80.112 E0.01617
G1 X105.652 Y80.414 E0.01617
G1 X105.999 Y80.799 E0.01623
G1 X106.256 Y81.246 E0.01618
G1 X106.415 Y81.735 E0.01611
G1 X106.469 Y82.252 E0.01630
G1 X106.415 Y82.764 E0.01614
G1 X106.256 Y83.254 E0.01614
G1 X105.999 Y83.701 E0.01618
G1 X105.652 Y84.086 E0.01623
G1 X105.283 Y84.353 E0.01429
G1 X105.062 Y84.048 F7200.000
G1 F1800
G1 X104.647 Y84.238 E0.01432
G1 X104.219 Y84.329 E0.01372
G1 X103.781 Y84.329 E0.01371
G1 X103.353 Y84.238 E0.01372
G1 X102.955 Y84.060 E0.01368
G1 X102.601 Y83.804 E0.01370
G1 X102.308 Y83.478 E0.01373
G1 X102.091 Y83.100 E0.01369
G1 X101.956 Y82.687 E0.01361
G1 X101.910 Y82.249 E0.01379
G1 X101.956 Y81.815 E0.01369
G1 X102.091 Y81.400 E0.01367
G1 X102.308 Y81.022 E0.01369
G1 X102.601 Y80.696 E0.01373
G1 X102.955 Y80.440 E0.01370
G1 X103.353 Y80.262 E0.01368
G1 X103.781 Y80.171 E0.01372
G1 X104.219 Y80.171 E0.01371
G1 X104.647 Y80.262 E0.01372
G1 X105.045 Y80.440 E0.01368
G1 X105.399 Y80.696 E0.01370
G1 X105.692 Y81.022 E0.01373
G1 X105.909 Y81.400 E0.01369
G1 X106.044 Y81.815 E0.01366
G1 X106.090 Y82.251 E0.01377
G1 X106.044 Y82.685 E0.01367
G1 X105.909 Y83.100 E0.01367
G1 X105.692 Y83.478 E0.01369
G1 X105.399 Y83.804 E0.01373
G1 X105.110 Y84.013 E0.01117
G1 X104.856 Y83.732 F7200.000
G1 F1800
G1 X104.529 Y83.877 E0.01120
G1 X104.179 Y83.952 E0.01123
