; generated by Slic3r Prusa Edition 1.39.2+win64 on 2018-07-02 at 11:53:31

; 

; external perimeters extrusion width = 0.45mm
; perimeters extrusion width = 0.45mm
; infill extrusion width = 0.45mm
; solid infill extrusion width = 0.45mm
; top infill extrusion width = 0.45mm
; first layer extrusion width = 0.42mm

M107
M115 U3.1.0 ; tell printer latest fw version
M83  ; extruder relative mode
M104 S205 ; set extruder temp
M140 S55 ; set bed temp
M190 S55 ; wait for bed temp
M109 S205 ; wait for extruder temp
G28 W ; home all without mesh bed level
G80 ; mesh bed leveling
G1 Y-3.0 F1000.0 ; go outside print area
G92 E0.0
G1 X60.0 E9.0  F1000.0 ; intro line
G1 X100.0 E12.5  F1000.0 ; intro line
G92 E0.0
M900 K30; Filament gcode
G21 ; set units to millimeters
G90 ; use absolute coordinates
M83 ; use relative distances for extrusion
;BEFORE_LAYER_CHANGE
;0.2


G1 E-0.80000 F2100.00000
G1 Z0.600 F7200.000
;AFTER_LAYER_CHANGE
;0.2
G1 X94.870 Y90.037
G1 Z0.200
G1 E0.80000 F2100.00000
M204 S1000
G1 F1800
G1 X95.217 Y89.388 E0.02307
G1 X95.723 Y88.854 E0.02307
G1 X96.353 Y88.474 E0.02307
G1 X97.065 Y88.273 E0.02320
G1 X107.554 Y88.246 E0.32887
G1 X108.544 Y88.431 E0.03157
G1 X109.404 Y88.963 E0.03170
G1 X110.014 Y89.769 E0.03170
G1 X110.292 Y90.737 E0.03157
G1 X110.304 Y114.021 E0.73003
G1 X110.130 Y114.963 E0.03006
G1 X109.776 Y115.622 E0.02345
G1 X109.257 Y116.161 E0.02345
G1 X108.613 Y116.541 E0.02345
G1 X107.886 Y116.734 E0.02358
G1 X97.913 Y116.754 E0.31270
G1 X96.987 Y116.580 E0.02955
G1 X96.453 Y116.312 E0.01873
G1 X95.990 Y115.935 E0.01873
G1 X95.619 Y115.466 E0.01873
G1 X95.357 Y114.929 E0.01873
G1 X95.222 Y114.377 E0.01784
G1 X94.705 Y110.219 E0.13136
G1 X94.696 Y90.980 E0.60325
G1 X94.859 Y90.096 E0.02817
G1 X95.226 Y90.165 F7200.000
G1 F1800
G1 X95.533 Y89.594 E0.02032
G1 X95.979 Y89.132 E0.02012
G1 X96.533 Y88.807 E0.02012
G1 X97.156 Y88.641 E0.02024
G1 X107.554 Y88.623 E0.32600
G1 X108.417 Y88.787 E0.02755
G1 X109.159 Y89.250 E0.02743
G1 X109.685 Y89.954 E0.02755
G1 X109.919 Y90.801 E0.02755
G1 X109.927 Y114.015 E0.72786
G1 X109.773 Y114.842 E0.02637
G1 X109.462 Y115.412 E0.02036
G1 X109.006 Y115.879 E0.02048
G1 X108.443 Y116.203 E0.02036
G1 X107.810 Y116.363 E0.02048
G1 X97.920 Y116.377 E0.31010
G1 X97.108 Y116.223 E0.02590
G1 X96.641 Y115.984 E0.01645
G1 X96.238 Y115.649 E0.01645
G1 X95.918 Y115.233 E0.01645
G1 X95.697 Y114.757 E0.01645
G1 X95.079 Y110.170 E0.14513
G1 X95.073 Y90.981 E0.60165
G1 X95.215 Y90.223 E0.02416
G1 F5760
G1 X95.533 Y89.594 E-0.24438
G1 X95.979 Y89.132 E-0.22228
G1 X96.533 Y88.807 E-0.22228
G1 X96.731 Y88.754 E-0.07107
G1 E-0.04000 F2100.00000
G1 Z0.800 F7200.000
G1 X101.515 Y102.775
G1 Z0.200
G1 E0.80000 F2100.00000
G1 F1800
G1 X102.006 Y102.556 E0.01684
G1 X102.531 Y102.445 E0.01684
G1 X103.069 Y102.445 E0.01684
G1 X103.594 Y102.556 E0.01684
G1 X104.085 Y102.775 E0.01684
G1 X104.519 Y103.090 E0.01684
G1 X104.879 Y103.490 E0.01684
G1 X105.149 Y103.958 E0.01695
G1 X105.315 Y104.480 E0.01718
G1 X105.369 Y105.000 E0.01639
G1 X105.313 Y105.534 E0.01684
G1 X105.147 Y106.045 E0.01684
G1 X104.879 Y106.510 E0.01684
G1 X104.519 Y106.910 E0.01684
G1 X104.085 Y107.225 E0.01684
G1 X103.594 Y107.444 E0.01684
G1 X103.069 Y107.555 E0.01684
G1 X102.531 Y107.555 E0.01684
G1 X102.006 Y107.444 E0.01684
G1 X101.515 Y107.225 E0.01684
G1 X101.081 Y106.910 E0.01684
G1 X100.721 Y106.510 E0.01684
G1 X100.453 Y106.045 E0.01684
G1 X100.287 Y105.534 E0.01684
G1 X100.231 Y105.000 E0.01684
G1 X100.287 Y104.466 E0.01684
G1 X100.453 Y103.955 E0.01684
G1 X100.721 Y103.490 E0.01684
G1 X101.081 Y103.090 E0.01684
G1 X101.467 Y102.810 E0.01496
G1 X101.688 Y103.115 F7200.000
G1 F1800
G1 X102.123 Y102.917 E0.01498
G1 X102.571 Y102.822 E0.01436
G1 X103.029 Y102.822 E0.01435
G1 X103.477 Y102.917 E0.01436
G1 X103.895 Y103.103 E0.01436
G1 X104.266 Y103.372 E0.01435
G1 X104.572 Y103.712 E0.01436
G1 X104.802 Y104.111 E0.01442
G1 X104.944 Y104.558 E0.01470
G1 X104.990 Y105.000 E0.01395
G1 X104.942 Y105.455 E0.01436
G1 X104.801 Y105.891 E0.01436
G1 X104.572 Y106.288 E0.01436
G1 X104.266 Y106.628 E0.01436
G1 X103.895 Y106.897 E0.01435
G1 X103.477 Y107.083 E0.01436
G1 X103.029 Y107.178 E0.01436
G1 X102.571 Y107.178 E0.01435
G1 X102.123 Y107.083 E0.01436
G1 X101.705 Y106.897 E0.01436
G1 X101.334 Y106.628 E0.01435
G1 X101.028 Y106.288 E0.01436
G1 X100.799 Y105.891 E0.01436
G1 X100.658 Y105.455 E0.01436
G1 X100.610 Y105.000 E0.01436
G1 X100.658 Y104.545 E0.01436
G1 X100.799 Y104.109 E0.01436
G1 X101.028 Y103.712 E0.01436
G1 X101.334 Y103.372 E0.01436
G1 X101.640 Y103.150 E0.01183
G1 X101.894 Y103.432 F7200.000
G1 F1800
G1 X102.240 Y103.277 E0.01187
G1 X102.611 Y103.199 E0.01187
G1 X102.989 Y103.199 E0.01187
G1 X103.360 Y103.277 E0.01187
G1 X103.706 Y103.432 E0.01187
G1 X104.012 Y103.654 E0.01187
G1 X104.265 Y103.935 E0.01187
G1 X104.455 Y104.264 E0.01190
G1 X104.573 Y104.635 E0.01221
G1 X104.611 Y105.000 E0.01150
G1 X104.572 Y105.377 E0.01187
G1 X104.455 Y105.737 E0.01187
G1 X104.265 Y106.065 E0.01187
G1 X104.012 Y106.346 E0.01187
G1 X103.706 Y106.568 E0.01187
G1 X103.360 Y106.723 E0.01187
G1 X102.989 Y106.801 E0.01187
G1 X102.611 Y106.801 E0.01187
G1 X102.240 Y106.723 E0.01187
G1 X101.894 Y106.568 E0.01187
G1 X101.588 Y106.346 E0.01187
G1 X101.335 Y106.065 E0.01187
G1 X101.145 Y105.737 E0.01187
G1 X101.028 Y105.377 E0.01187
G1 X100.989 Y105.000 E0.01187
G1 X101.028 Y104.623 E0.01187
G1 X101.145 Y104.263 E0.01187
G1 X101.335 Y103.935 E0.01187
G1 X101.588 Y103.654 E0.01187
G1 X101.846 Y103.467 E0.00999
G1 X101.894 Y103.053 F7200.000
G1 F5760
G1 X102.240 Y103.277 E-0.15154
G1 X102.611 Y103.199 E-0.13115
G1 X102.989 Y103.199 E-0.13113
G1 X103.360 Y103.277 E-0.13114
G1 X103.706 Y103.432 E-0.13115
G1 X103.902 Y103.574 E-0.08389
G1 E-0.04000 F2100.00000
G1 Z0.800 F7200.000
G1 X102.531 Y97.555
G1 Z0.200
G1 E0.80000 F2100.00000
G1 F1800
G1 X102.006 Y97.444 E0.01684
G1 X101.515 Y97.225 E0.01684
G1 X101.081 Y96.909 E0.01684
G1 X100.721 Y96.510 E0.01684
G1 X100.451 Y96.042 E0.01694
G1 X100.285 Y95.520 E0.01718
G1 X100.231 Y95.000 E0.01639
G1 X100.287 Y94.466 E0.01684
G1 X100.453 Y93.955 E0.01684
G1 X100.721 Y93.490 E0.01684
G1 X101.081 Y93.091 E0.01684
G1 X101.515 Y92.775 E0.01684
G1 X102.006 Y92.556 E0.01684
G1 X102.531 Y92.445 E0.01684
G1 X103.069 Y92.445 E0.01684
G1 X103.594 Y92.556 E0.01684
G1 X104.085 Y92.775 E0.01684
G1 X104.519 Y93.091 E0.01684
G1 X104.879 Y93.490 E0.01684
G1 X105.149 Y93.958 E0.01694
G1 X105.315 Y94.480 E0.01718
G1 X105.369 Y95.000 E0.01639
G1 X105.313 Y95.534 E0.01684
G1 X105.147 Y96.045 E0.01684
G1 X104.879 Y96.510 E0.01684
G1 X104.519 Y96.909 E0.01684
G1 X104.085 Y97.225 E0.01684
G1 X103.594 Y97.444 E0.01684
G1 X103.069 Y97.555 E0.01684
G1 X102.591 Y97.555 E0.01496
G1 X102.591 Y97.178 F7200.000
G1 F1800
G1 X102.123 Y97.083 E0.01498
G1 X101.705 Y96.897 E0.01436
G1 X101.334 Y96.628 E0.01436
G1 X101.028 Y96.287 E0.01436
G1 X100.798 Y95.889 E0.01442
G1 X100.656 Y95.442 E0.01470
G1 X100.610 Y95.000 E0.01395
G1 X100.658 Y94.545 E0.01436
G1 X100.799 Y94.109 E0.01436
G1 X101.028 Y93.713 E0.01436
G1 X101.334 Y93.372 E0.01436
G1 X101.705 Y93.103 E0.01436
G1 X102.123 Y92.917 E0.01436
G1 X102.571 Y92.822 E0.01436
G1 X103.029 Y92.822 E0.01436
G1 X103.477 Y92.917 E0.01436
G1 X103.895 Y93.103 E0.01436
G1 X104.266 Y93.372 E0.01436
G1 X104.572 Y93.713 E0.01436
G1 X104.802 Y94.111 E0.01442
G1 X104.944 Y94.558 E0.01470
G1 X104.990 Y95.000 E0.01395
G1 X104.942 Y95.455 E0.01436
G1 X104.801 Y95.891 E0.01436
G1 X104.572 Y96.287 E0.01436
G1 X104.266 Y96.628 E0.01436
G1 X103.895 Y96.897 E0.01436
G1 X103.477 Y97.083 E0.01436
G1 X103.029 Y97.178 E0.01436
G1 X102.651 Y97.178 E0.01184
G1 X102.611 Y96.801 F7200.000
G1 F1800
G1 X102.240 Y96.723 E0.01187
G1 X101.894 Y96.569 E0.01187
G1 X101.588 Y96.346 E0.01187
G1 X101.335 Y96.065 E0.01187
G1 X101.145 Y95.736 E0.01189
G1 X101.027 Y95.365 E0.01221
G1 X100.989 Y95.000 E0.01150
G1 X101.028 Y94.623 E0.01187
G1 X101.145 Y94.263 E0.01187
G1 X101.335 Y93.935 E0.01187
G1 X101.588 Y93.654 E0.01187
G1 X101.894 Y93.431 E0.01187
G1 X102.240 Y93.277 E0.01187
G1 X102.611 Y93.199 E0.01187
G1 X102.989 Y93.199 E0.01187
G1 X103.360 Y93.277 E0.01187
G1 X103.706 Y93.431 E0.01187
G1 X104.012 Y93.654 E0.01187
G1 X104.265 Y93.935 E0.01187
G1 X104.455 Y94.264 E0.01189
G1 X104.573 Y94.635 E0.01221
G1 X104.611 Y95.000 E0.01150
G1 X104.572 Y95.377 E0.01187
G1 X104.455 Y95.737 E0.01187
G1 X104.265 Y96.065 E0.01187
G1 X104.012 Y96.346 E0.01187
G1 X103.706 Y96.569 E0.01187
G1 X103.360 Y96.723 E0.01187
G1 X102.989 Y96.801 E0.01187
G1 X102.671 Y96.801 E0.00999
G1 X102.388 Y97.108 F7200.000
G1 F5760
G1 X102.240 Y96.723 E-0.15153
G1 X101.894 Y96.569 E-0.13114
G1 X101.588 Y96.346 E-0.13114
G1 X101.335 Y96.065 E-0.13114
G1 X101.145 Y95.736 E-0.13139
G1 X101.072 Y95.506 E-0.08365
G1 E-0.04000 F2100.00000
G1 Z0.800 F7200.000
G1 X98.914 Y109.036
G1 Z0.200
G1 E0.80000 F2100.00000
G1 F1800
G1 X98.414 Y109.036 E0.01568
G1 X98.414 Y91.964 E0.53527
G1 X106.586 Y91.964 E0.25622
G1 X106.586 Y113.036 E0.66069
G1 X98.914 Y113.036 E0.24054
G1 X98.914 Y109.096 E0.12354
G1 X98.537 Y109.413 F7200.000
G1 F1800
G1 X98.037 Y109.413 E0.01568
G1 X98.037 Y91.587 E0.55892
G1 X106.963 Y91.587 E0.27986
G1 X106.963 Y113.413 E0.68433
G1 X98.537 Y113.413 E0.26419
G1 X98.537 Y109.473 E0.12354
G1 X98.160 Y109.790 F7200.000
G1 F1800
G1 X97.660 Y109.790 E0.01568
G1 X97.660 Y91.210 E0.58256
G1 X107.340 Y91.210 E0.30351
G1 X107.340 Y113.790 E0.70798
G1 X98.160 Y113.790 E0.28783
G1 X98.160 Y109.850 E0.12354
G1 X98.009 Y109.420 F7200.000
G1 F5760
G1 X97.660 Y109.790 E-0.17442
G1 X97.660 Y108.099 E-0.58558
G1 E-0.04000 F2100.00000
G1 Z0.800 F7200.000
G1 X99.004 Y108.923
G1 Z0.200
G1 E0.80000 F2100.00000
G1 F1800
G1 X98.527 Y108.446 E0.02120
G1 F5760
G1 X99.004 Y108.923 E-0.23334
G1 E-0.56666 F2100.00000
G1 Z0.800 F7200.000
G1 X99.027 Y112.158
G1 Z0.200
G1 E0.80000 F2100.00000
G1 F1800
G1 X99.623 Y112.753 E0.02650
G1 X100.158 Y112.753 E0.01684
G1 X99.197 Y111.792 E0.04277
G1 X99.197 Y111.257 E0.01684
G1 X100.693 Y112.753 E0.06658
G1 X101.228 Y112.753 E0.01684
G1 X99.197 Y110.722 E0.09040
G1 X99.197 Y110.186 E0.01684
G1 X101.764 Y112.753 E0.11422
G1 X102.299 Y112.753 E0.01684
G1 X99.197 Y109.651 E0.13804
G1 X99.197 Y109.116 E0.01684
G1 X102.834 Y112.753 E0.16186
G1 X103.369 Y112.753 E0.01684
G1 X98.697 Y108.081 E0.20793
G1 X98.697 Y107.546 E0.01684
G1 X103.904 Y112.753 E0.23175
G1 X104.440 Y112.753 E0.01684
G1 X98.697 Y107.010 E0.25557
G1 X98.697 Y106.475 E0.01684
G1 X104.975 Y112.753 E0.27939
G1 X105.510 Y112.753 E0.01684
G1 X98.697 Y105.940 E0.30320
G1 X98.697 Y105.405 E0.01684
G1 X106.215 Y112.923 E0.33457
G1 F5760
G1 X104.663 Y111.371 E-0.76000
G1 E-0.04000 F2100.00000
G1 Z0.800 F7200.000
G1 X106.473 Y103.011
G1 Z0.200
G1 E0.80000 F2100.00000
G1 F1800
G1 X98.697 Y95.236 E0.34605
G1 X98.697 Y95.771 E0.01684
G1 X106.303 Y103.377 E0.33850
G1 X106.303 Y103.912 E0.01684
G1 X98.697 Y96.306 E0.33850
G1 X98.697 Y96.841 E0.01684
G1 X106.303 Y104.447 E0.33850
G1 X106.303 Y104.983 E0.01684
G1 X105.524 Y104.203 E0.03469
G1 X105.593 Y104.422 E0.00722
G1 X105.638 Y104.853 E0.01365
G1 X106.303 Y105.518 E0.02958
G1 X106.303 Y106.053 E0.01684
G1 X105.615 Y105.365 E0.03060
G1 X105.591 Y105.593 E0.00721
G1 X105.522 Y105.807 E0.00708
G1 X106.303 Y106.588 E0.03476
G1 X106.303 Y107.124 E0.01684
G1 X105.383 Y106.203 E0.04096
G1 X105.187 Y106.542 E0.01233
G1 X106.303 Y107.659 E0.04968
G1 X106.303 Y108.194 E0.01684
G1 X104.956 Y106.847 E0.05994
G1 X104.701 Y107.127 E0.01192
G1 X106.303 Y108.729 E0.07130
G1 X106.303 Y109.264 E0.01684
G1 X104.391 Y107.352 E0.08510
G1 X104.227 Y107.471 E0.00638
G1 X104.053 Y107.549 E0.00601
G1 X106.303 Y109.800 E0.10015
G1 X106.303 Y110.335 E0.01684
G1 X103.682 Y107.714 E0.11663
G1 X103.241 Y107.808 E0.01420
G1 X106.303 Y110.870 E0.13628
G1 X106.303 Y111.405 E0.01684
G1 X102.736 Y107.838 E0.15875
G1 X102.502 Y107.838 E0.00737
G1 X102.120 Y107.757 E0.01230
G1 X106.303 Y111.940 E0.18618
G1 X106.303 Y112.476 E0.01684
G1 X98.697 Y104.870 E0.33850
G1 X98.697 Y104.334 E0.01684
G1 X100.034 Y105.671 E0.05950
G1 X100.009 Y105.593 E0.00258
G1 X99.952 Y105.054 E0.01707
G1 X98.697 Y103.799 E0.05585
G1 X98.697 Y103.264 E0.01684
G1 X99.992 Y104.559 E0.05766
G1 X100.009 Y104.407 E0.00484
G1 X100.098 Y104.130 E0.00915
G1 X98.697 Y102.729 E0.06237
G1 X98.697 Y102.193 E0.01684
G1 X100.248 Y103.744 E0.06902
G1 X100.444 Y103.405 E0.01233
G1 X98.697 Y101.658 E0.07773
G1 X98.697 Y101.123 E0.01684
G1 X100.683 Y103.109 E0.08840
G1 X100.947 Y102.838 E0.01191
G1 X98.697 Y100.588 E0.10014
G1 X98.697 Y100.053 E0.01684
G1 X101.257 Y102.613 E0.11394
G1 X101.373 Y102.529 E0.00451
G1 X101.605 Y102.425 E0.00799
G1 X98.697 Y99.517 E0.12941
G1 X98.697 Y98.982 E0.01684
G1 X101.986 Y102.271 E0.14638
G1 X102.428 Y102.178 E0.01420
G1 X98.697 Y98.447 E0.16603
G1 X98.697 Y97.912 E0.01684
G1 X102.947 Y102.162 E0.18914
G1 X103.098 Y102.162 E0.00476
G1 X103.586 Y102.265 E0.01569
G1 X98.527 Y97.207 E0.22512
G1 F5760
G1 X100.079 Y98.758 E-0.76000
G1 E-0.04000 F2100.00000
G1 Z0.800 F7200.000
G1 X101.480 Y92.667
G1 Z0.200
G1 E0.80000 F2100.00000
G1 F1800
G1 X101.060 Y92.247 E0.01868
G1 X100.525 Y92.247 E0.01684
G1 X101.045 Y92.767 E0.02314
G1 X100.890 Y92.879 E0.00601
G1 X100.763 Y93.020 E0.00598
G1 X99.990 Y92.247 E0.03442
G1 X99.455 Y92.247 E0.01684
G1 X100.510 Y93.302 E0.04695
G1 X100.310 Y93.637 E0.01228
G1 X98.919 Y92.247 E0.06187
G1 X98.697 Y92.247 E0.00700
G1 X98.697 Y92.560 E0.00984
G1 X100.140 Y94.003 E0.06421
G1 X100.009 Y94.406 E0.01337
G1 X98.697 Y93.095 E0.05837
G1 X98.697 Y93.630 E0.01684
G1 X99.958 Y94.891 E0.05611
G1 X99.946 Y95.000 E0.00346
G1 X99.995 Y95.463 E0.01466
G1 X98.697 Y94.165 E0.05776
G1 X98.697 Y94.700 E0.01684
G1 X106.303 Y102.307 E0.33850
G1 X106.303 Y101.771 E0.01684
G1 X102.334 Y97.803 E0.17662
G1 X102.502 Y97.838 E0.00539
G1 X102.905 Y97.838 E0.01269
G1 X106.303 Y101.236 E0.15122
G1 X106.303 Y100.701 E0.01684
G1 X103.380 Y97.778 E0.13007
G1 X103.682 Y97.714 E0.00970
G1 X103.799 Y97.662 E0.00404
G1 X106.303 Y100.166 E0.11143
G1 X106.303 Y99.631 E0.01684
G1 X104.170 Y97.497 E0.09495
G1 X104.489 Y97.281 E0.01213
G1 X106.303 Y99.095 E0.08074
G1 X106.303 Y98.560 E0.01684
G1 X104.783 Y97.040 E0.06766
G1 X105.036 Y96.758 E0.01193
G1 X106.303 Y98.025 E0.05638
G1 X106.303 Y97.490 E0.01684
G1 X105.249 Y96.435 E0.04693
G1 X105.407 Y96.161 E0.00997
G1 X105.432 Y96.084 E0.00255
G1 X106.303 Y96.954 E0.03876
G1 X106.303 Y96.419 E0.01684
G1 X105.563 Y95.680 E0.03292
G1 X105.591 Y95.593 E0.00285
G1 X105.631 Y95.212 E0.01205
G1 X106.303 Y95.884 E0.02989
G1 X106.303 Y95.349 E0.01684
G1 X105.619 Y94.664 E0.03046
G1 X105.593 Y94.422 E0.00767
G1 X105.445 Y93.956 E0.01540
G1 X106.303 Y94.814 E0.03819
G1 X106.303 Y94.278 E0.01684
G1 X104.272 Y92.247 E0.09041
G1 X104.807 Y92.247 E0.01684
G1 X106.303 Y93.743 E0.06659
G1 X106.303 Y93.208 E0.01684
G1 X105.342 Y92.247 E0.04277
G1 X105.877 Y92.247 E0.01684
G1 X106.473 Y92.842 E0.02650
G1 F5760
G1 X105.877 Y92.247 E-0.29169
G1 X105.342 Y92.247 E-0.18537
G1 X105.920 Y92.825 E-0.28294
G1 E-0.04000 F2100.00000
G1 Z0.800 F7200.000
G1 X103.854 Y92.302
G1 Z0.200
G1 E0.80000 F2100.00000
G1 F1800
G1 X103.700 Y92.269 E0.00323
G1 X103.676 Y92.266 E0.00047
G1 X103.484 Y92.245 E0.00363
G1 X103.292 Y92.225 E0.00298
G1 X103.099 Y92.205 E0.00233
G1 X102.512 Y92.204 E0.00511
G1 X102.116 Y92.245 E0.00345
G1 X101.746 Y92.302 E0.00702
M106 S249.9
;BEFORE_LAYER_CHANGE
;0.35


G1 F5760
G1 X102.116 Y92.245 E-0.12959
G1 E-0.67041 F2100.00000
G1 Z0.800 F7200.000
;AFTER_LAYER_CHANGE
;0.35
G1 X108.544 Y88.431
G1 Z0.350
G1 E0.80000 F2100.00000
G1 F3000
G1 X109.404 Y88.963 E0.02445
G1 X110.014 Y89.769 E0.02445
G1 X110.292 Y90.737 E0.02435
G1 X110.304 Y114.021 E0.56310
G1 X110.130 Y114.963 E0.02318
G1 X109.776 Y115.622 E0.01809
G1 X109.257 Y116.161 E0.01809
G1 X108.613 Y116.541 E0.01809
G1 X107.886 Y116.734 E0.01819
G1 X97.913 Y116.754 E0.24120
G1 X96.987 Y116.580 E0.02279
G1 X96.453 Y116.312 E0.01445
G1 X95.990 Y115.935 E0.01445
G1 X95.619 Y115.466 E0.01445
G1 X95.357 Y114.929 E0.01445
G1 X95.222 Y114.377 E0.01376
G1 X94.705 Y110.219 E0.10132
