; generated by Slic3r Prusa Edition 1.39.2+win64 on 2018-05-31 at 17:34:35

; 

; external perimeters extrusion width = 0.45mm
; perimeters extrusion width = 0.45mm
; infill extrusion width = 0.45mm
; solid infill extrusion width = 0.45mm
; top infill extrusion width = 0.45mm
; first layer extrusion width = 0.42mm

M107
M115 U3.1.0 ; tell printer latest fw version
M83  ; extruder relative mode
M104 S205 ; set extruder temp
M140 S55 ; set bed temp
M190 S55 ; wait for bed temp
M109 S205 ; wait for extruder temp
G28 W ; home all without mesh bed level
G80 ; mesh bed leveling
G1 Y-3.0 F1000.0 ; go outside print area
G92 E0.0
G1 X60.0 E9.0  F1000.0 ; intro line
G1 X100.0 E12.5  F1000.0 ; intro line
G92 E0.0
M900 K30; Filament gcode
G21 ; set units to millimeters
G90 ; use absolute coordinates
M83 ; use relative distances for extrusion
;BEFORE_LAYER_CHANGE
;0.2


G1 E-0.80000 F2100.00000
G1 Z0.600 F7200.000
;AFTER_LAYER_CHANGE
;0.2
G1 X93.900 Y83.708
G1 Z0.200
G1 E0.80000 F2100.00000
M204 S1000
G1 F1800
G1 X95.703 Y82.077 E0.07623
G1 X97.792 Y80.868 E0.07569
G1 X100.083 Y80.123 E0.07553
G1 X102.472 Y79.872 E0.07532
G1 X104.844 Y80.117 E0.07479
G1 X106.917 Y80.772 E0.06817
G1 X108.990 Y81.907 E0.07410
G1 X109.432 Y82.225 E0.01707
G1 X111.041 Y83.695 E0.06831
G1 X112.434 Y85.616 E0.07442
G1 X113.408 Y87.793 E0.07479
G1 X113.875 Y89.904 E0.06777
G1 X113.980 Y91.366 E0.04597
G1 X113.975 Y122.539 E0.97740
G1 X113.778 Y123.411 E0.02803
G1 X113.309 Y124.177 E0.02816
G1 X112.619 Y124.751 E0.02816
G1 X111.781 Y125.073 E0.02816
G1 X111.239 Y125.129 E0.01707
G1 X105.855 Y125.097 E0.16880
G1 X105.294 Y124.948 E0.01822
G1 X104.772 Y124.682 E0.01835
G1 X104.322 Y124.315 E0.01822
G1 X103.958 Y123.862 E0.01822
G1 X91.612 Y95.137 E0.98033
G1 X91.077 Y92.846 E0.07376
G1 X91.031 Y90.215 E0.08252
G1 X91.523 Y87.856 E0.07554
G1 X92.506 Y85.638 E0.07608
G1 X93.865 Y83.757 E0.07276
G1 F5760
G1 X95.484 Y82.277 E-0.76000
G1 E-0.04000 F2100.00000
G1 Z0.800 F7200.000
G1 X111.711 Y124.702
G1 Z0.200
G1 E0.80000 F2100.00000
G1 F1800
G1 X105.946 Y124.729 E0.18078
G1 X105.448 Y124.603 E0.01609
G1 X104.989 Y124.374 E0.01609
G1 X104.590 Y124.051 E0.01609
G1 X104.270 Y123.650 E0.01609
G1 X91.959 Y94.990 E0.97800
G1 X91.446 Y92.773 E0.07137
G1 X91.407 Y90.244 E0.07931
G1 X91.884 Y87.967 E0.07294
G1 X92.834 Y85.822 E0.07354
G1 X94.184 Y83.956 E0.07222
G1 X95.928 Y82.380 E0.07370
G1 X97.946 Y81.212 E0.07309
G1 X100.161 Y80.491 E0.07305
G1 X102.472 Y80.249 E0.07283
G1 X104.768 Y80.487 E0.07238
G1 X106.795 Y81.129 E0.06668
G1 X109.185 Y82.509 E0.08652
G1 X110.752 Y83.938 E0.06650
G1 X112.108 Y85.805 E0.07234
G1 X113.052 Y87.915 E0.07250
G1 X113.506 Y89.977 E0.06620
G1 X113.603 Y91.369 E0.04373
G1 X113.600 Y122.497 E0.97600
G1 X113.434 Y123.256 E0.02437
G1 X113.031 Y123.921 E0.02437
G1 X112.436 Y124.421 E0.02437
G1 X111.767 Y124.680 E0.02249
G1 F5760
G1 X109.573 Y124.699 E-0.76000
G1 E-0.04000 F2100.00000
G1 Z0.800 F7200.000
G1 X103.582 Y96.578
G1 Z0.200
G1 E0.80000 F2100.00000
G1 F1800
G1 X102.476 Y96.694 E0.03487
G1 X101.370 Y96.578 E0.03487
G1 X100.312 Y96.235 E0.03487
G1 X99.349 Y95.679 E0.03487
G1 X98.523 Y94.934 E0.03487
G1 X97.869 Y94.035 E0.03487
G1 X97.417 Y93.019 E0.03487
G1 X97.186 Y91.931 E0.03487
G1 X97.186 Y90.819 E0.03487
G1 X97.417 Y89.731 E0.03487
G1 X97.869 Y88.715 E0.03487
G1 X98.523 Y87.816 E0.03487
G1 X99.349 Y87.071 E0.03487
G1 X100.312 Y86.515 E0.03487
G1 X101.370 Y86.172 E0.03487
G1 X102.476 Y86.056 E0.03486
G1 X103.582 Y86.172 E0.03488
G1 X104.640 Y86.515 E0.03487
G1 X105.603 Y87.071 E0.03487
G1 X106.429 Y87.816 E0.03487
G1 X107.083 Y88.715 E0.03487
G1 X107.535 Y89.731 E0.03487
G1 X107.766 Y90.819 E0.03487
G1 X107.766 Y91.931 E0.03487
G1 X107.535 Y93.019 E0.03487
G1 X107.083 Y94.035 E0.03487
G1 X106.429 Y94.934 E0.03487
G1 X105.603 Y95.679 E0.03487
G1 X104.640 Y96.235 E0.03487
G1 X103.639 Y96.560 E0.03299
G1 X103.523 Y96.201 F7200.000
G1 F1800
G1 X102.476 Y96.315 E0.03301
G1 X101.449 Y96.207 E0.03238
G1 X100.467 Y95.888 E0.03238
G1 X99.572 Y95.372 E0.03238
G1 X98.805 Y94.681 E0.03238
G1 X98.198 Y93.845 E0.03238
G1 X97.778 Y92.902 E0.03238
G1 X97.563 Y91.891 E0.03238
G1 X97.563 Y90.859 E0.03238
G1 X97.778 Y89.848 E0.03238
G1 X98.198 Y88.905 E0.03238
G1 X98.805 Y88.069 E0.03238
G1 X99.572 Y87.378 E0.03238
G1 X100.467 Y86.862 E0.03238
G1 X101.449 Y86.543 E0.03238
G1 X102.476 Y86.435 E0.03238
G1 X103.503 Y86.543 E0.03239
G1 X104.485 Y86.862 E0.03238
G1 X105.380 Y87.378 E0.03238
G1 X106.147 Y88.069 E0.03238
G1 X106.754 Y88.905 E0.03238
G1 X107.175 Y89.848 E0.03238
G1 X107.389 Y90.859 E0.03238
G1 X107.389 Y91.891 E0.03238
G1 X107.175 Y92.902 E0.03238
G1 X106.754 Y93.845 E0.03238
G1 X106.147 Y94.681 E0.03238
G1 X105.380 Y95.372 E0.03238
G1 X104.485 Y95.888 E0.03238
G1 X103.580 Y96.182 E0.02986
G1 X103.463 Y95.824 F7200.000
G1 F1800
G1 X102.476 Y95.936 E0.03115
G1 X101.528 Y95.836 E0.02990
G1 X100.621 Y95.542 E0.02990
G1 X99.795 Y95.065 E0.02990
G1 X99.086 Y94.427 E0.02990
G1 X98.526 Y93.656 E0.02990
G1 X98.138 Y92.784 E0.02990
G1 X97.940 Y91.852 E0.02990
G1 X97.940 Y90.898 E0.02990
G1 X98.138 Y89.966 E0.02990
G1 X98.526 Y89.094 E0.02990
G1 X99.086 Y88.323 E0.02990
G1 X99.795 Y87.685 E0.02990
G1 X100.621 Y87.208 E0.02990
G1 X101.528 Y86.914 E0.02990
G1 X102.476 Y86.814 E0.02990
G1 X103.424 Y86.914 E0.02990
G1 X104.331 Y87.208 E0.02990
G1 X105.157 Y87.685 E0.02990
G1 X105.866 Y88.323 E0.02990
G1 X106.426 Y89.094 E0.02990
G1 X106.814 Y89.966 E0.02990
G1 X107.012 Y90.898 E0.02990
G1 X107.012 Y91.852 E0.02990
G1 X106.814 Y92.784 E0.02990
G1 X106.426 Y93.656 E0.02990
G1 X105.866 Y94.427 E0.02990
G1 X105.157 Y95.065 E0.02990
G1 X104.331 Y95.542 E0.02990
G1 X103.520 Y95.805 E0.02674
G1 X103.342 Y96.205 F7200.000
G1 F5760
G1 X102.476 Y95.936 E-0.36447
G1 X101.528 Y95.836 E-0.33026
G1 X101.349 Y95.778 E-0.06527
G1 E-0.04000 F2100.00000
G1 Z0.800 F7200.000
G1 X107.240 Y97.559
G1 Z0.200
G1 E0.80000 F2100.00000
G1 F1800
G1 X105.641 Y98.483 E0.05791
G1 X104.094 Y98.986 E0.05100
G1 X102.476 Y99.156 E0.05100
G1 X100.858 Y98.986 E0.05100
G1 X99.311 Y98.483 E0.05100
G1 X97.903 Y97.670 E0.05100
G1 X96.694 Y96.581 E0.05100
G1 X95.738 Y95.265 E0.05100
G1 X95.076 Y93.779 E0.05100
G1 X94.738 Y92.188 E0.05100
G1 X94.738 Y90.562 E0.05100
G1 X95.076 Y88.971 E0.05100
G1 X95.738 Y87.485 E0.05100
G1 X96.694 Y86.169 E0.05100
G1 X97.903 Y85.080 E0.05100
G1 X99.311 Y84.267 E0.05100
G1 X100.858 Y83.764 E0.05100
G1 X102.476 Y83.594 E0.05100
G1 X104.087 Y83.764 E0.05079
G1 X105.641 Y84.267 E0.05122
G1 X107.049 Y85.080 E0.05099
G1 X108.258 Y86.169 E0.05100
G1 X109.214 Y87.485 E0.05100
G1 X109.876 Y88.971 E0.05100
G1 X110.214 Y90.562 E0.05100
G1 X110.214 Y92.339 E0.05573
G1 X110.262 Y92.339 E0.00150
G1 X110.262 Y121.411 E0.91152
G1 X107.240 Y121.411 E0.09474
G1 X107.240 Y97.619 E0.74596
G1 X106.863 Y98.212 F7200.000
G1 F1800
G1 X105.795 Y98.829 E0.03868
G1 X104.173 Y99.356 E0.05349
G1 X102.476 Y99.535 E0.05348
G1 X100.780 Y99.356 E0.05348
G1 X99.157 Y98.829 E0.05349
G1 X97.680 Y97.976 E0.05349
G1 X96.412 Y96.835 E0.05349
G1 X95.410 Y95.455 E0.05349
G1 X94.716 Y93.896 E0.05349
G1 X94.361 Y92.228 E0.05349
G1 X94.361 Y90.522 E0.05348
G1 X94.716 Y88.854 E0.05349
G1 X95.410 Y87.295 E0.05349
G1 X96.412 Y85.915 E0.05349
G1 X97.680 Y84.774 E0.05349
G1 X99.157 Y83.921 E0.05349
G1 X100.780 Y83.394 E0.05349
G1 X102.476 Y83.215 E0.05348
G1 X104.166 Y83.393 E0.05327
G1 X105.795 Y83.921 E0.05370
G1 X107.272 Y84.774 E0.05348
G1 X108.540 Y85.915 E0.05349
G1 X109.543 Y87.295 E0.05349
G1 X110.236 Y88.854 E0.05349
G1 X110.591 Y90.522 E0.05349
G1 X110.591 Y91.962 E0.04515
G1 X110.639 Y91.962 E0.00150
G1 X110.639 Y121.788 E0.93517
G1 X106.863 Y121.788 E0.11839
G1 X106.863 Y98.272 E0.73731
G1 X106.486 Y98.866 F7200.000
G1 F1800
G1 X105.949 Y99.176 E0.01944
G1 X104.251 Y99.727 E0.05597
G1 X102.476 Y99.914 E0.05597
G1 X100.701 Y99.727 E0.05597
G1 X99.003 Y99.176 E0.05597
G1 X97.457 Y98.283 E0.05597
G1 X96.130 Y97.089 E0.05597
G1 X95.081 Y95.644 E0.05597
G1 X94.355 Y94.014 E0.05597
G1 X93.984 Y92.268 E0.05597
G1 X93.984 Y90.482 E0.05597
G1 X94.355 Y88.736 E0.05597
G1 X95.081 Y87.106 E0.05597
G1 X96.130 Y85.661 E0.05597
G1 X97.457 Y84.467 E0.05597
G1 X99.003 Y83.574 E0.05597
G1 X100.701 Y83.023 E0.05597
G1 X102.476 Y82.836 E0.05597
G1 X104.244 Y83.022 E0.05575
G1 X105.949 Y83.574 E0.05619
G1 X107.495 Y84.467 E0.05597
G1 X108.822 Y85.661 E0.05597
G1 X109.871 Y87.106 E0.05597
G1 X110.597 Y88.736 E0.05597
G1 X110.968 Y90.482 E0.05597
G1 X110.968 Y91.585 E0.03457
G1 X111.016 Y91.585 E0.00150
G1 X111.016 Y122.165 E0.95881
G1 X106.486 Y122.165 E0.14204
G1 X106.486 Y98.926 E0.72866
G1 X106.325 Y98.499 F7200.000
G1 F5760
G1 X105.949 Y99.176 E-0.20516
G1 X104.426 Y99.671 E-0.55484
G1 E-0.04000 F2100.00000
G1 Z0.800 F7200.000
G1 X107.288 Y97.401
G1 Z0.200
G1 E0.80000 F2100.00000
G1 F1800
G1 X105.783 Y95.897 E0.06711
G1 X105.446 Y96.096 E0.01235
G1 X106.824 Y97.473 E0.06145
G1 X106.484 Y97.670 E0.01238
G1 X105.106 Y96.292 E0.06145
G1 X104.766 Y96.488 E0.01238
G1 X106.144 Y97.866 E0.06145
G1 X105.804 Y98.062 E0.01238
G1 X104.363 Y96.622 E0.06425
G1 X103.958 Y96.753 E0.01342
G1 X105.452 Y98.247 E0.06661
G1 X105.047 Y98.378 E0.01342
G1 X103.536 Y96.867 E0.06739
G1 X103.051 Y96.918 E0.01539
G1 X104.642 Y98.510 E0.07098
G1 X104.237 Y98.642 E0.01342
G1 X102.565 Y96.969 E0.07457
G1 X102.476 Y96.979 E0.00283
G1 X101.987 Y96.927 E0.01552
G1 X103.792 Y98.733 E0.08053
G1 X103.307 Y98.784 E0.01539
G1 X101.387 Y96.864 E0.08561
G1 X101.311 Y96.856 E0.00242
G1 X100.618 Y96.631 E0.02299
G1 X102.821 Y98.835 E0.09829
G1 X102.476 Y98.871 E0.01095
G1 X102.303 Y98.853 E0.00548
G1 X99.600 Y96.150 E0.12057
G1 F5760
G1 X101.152 Y97.701 E-0.76000
G1 E-0.04000 F2100.00000
G1 Z0.800 F7200.000
G1 X98.860 Y98.091
G1 Z0.200
G1 E0.80000 F2100.00000
G1 F1800
G1 X95.724 Y94.956 E0.13986
G1 F5760
G1 X97.275 Y96.507 E-0.76000
G1 E-0.04000 F2100.00000
G1 Z0.800 F7200.000
G1 X97.620 Y94.170
G1 Z0.200
G1 E0.80000 F2100.00000
G1 F1800
G1 X95.021 Y91.571 E0.11591
G1 X95.021 Y91.034 E0.01692
G1 X97.189 Y93.203 E0.09671
G1 X97.147 Y93.107 E0.00331
G1 X97.016 Y92.493 E0.01978
G1 X95.037 Y90.514 E0.08825
G1 X95.131 Y90.072 E0.01426
G1 X96.903 Y91.844 E0.07901
G1 X96.903 Y91.307 E0.01692
G1 X95.225 Y89.630 E0.07482
G1 X95.319 Y89.187 E0.01426
G1 X96.906 Y90.774 E0.07077
G1 X97.000 Y90.332 E0.01426
G1 X95.464 Y88.795 E0.06852
G1 X95.629 Y88.424 E0.01281
G1 X97.094 Y89.889 E0.06534
G1 X97.147 Y89.643 E0.00793
G1 X97.220 Y89.479 E0.00569
G1 X95.794 Y88.053 E0.06358
G1 X95.960 Y87.682 E0.01281
G1 X97.385 Y89.107 E0.06358
G1 X97.550 Y88.736 E0.01281
G1 X96.176 Y87.362 E0.06128
G1 X96.402 Y87.052 E0.01211
G1 X97.749 Y88.399 E0.06009
G1 X97.975 Y88.088 E0.01211
G1 X96.628 Y86.741 E0.06009
G1 X96.854 Y86.430 E0.01211
G1 X98.201 Y87.778 E0.06009
G1 X98.312 Y87.625 E0.00594
G1 X98.455 Y87.496 E0.00610
G1 X97.123 Y86.163 E0.05943
G1 X97.405 Y85.909 E0.01198
G1 X98.738 Y87.242 E0.05943
G1 X99.020 Y86.988 E0.01198
G1 X97.687 Y85.655 E0.05943
G1 X97.970 Y85.401 E0.01198
G1 X99.327 Y86.758 E0.06053
G1 X99.667 Y86.562 E0.01238
G1 X98.289 Y85.184 E0.06145
G1 X98.629 Y84.988 E0.01238
G1 X100.007 Y86.365 E0.06145
G1 X100.197 Y86.256 E0.00692
G1 X100.375 Y86.198 E0.00592
G1 X98.969 Y84.791 E0.06272
G1 X99.309 Y84.595 E0.01238
G1 X100.780 Y86.066 E0.06561
G1 X101.185 Y85.935 E0.01342
G1 X99.692 Y84.441 E0.06661
G1 X100.096 Y84.309 E0.01342
G1 X101.646 Y85.859 E0.06909
G1 X102.131 Y85.808 E0.01539
G1 X100.501 Y84.178 E0.07268
G1 X100.906 Y84.046 E0.01342
G1 X102.649 Y85.789 E0.07774
G1 X103.249 Y85.852 E0.01901
G1 X101.389 Y83.993 E0.08293
G1 X101.875 Y83.942 E0.01539
G1 X103.915 Y85.983 E0.09102
G1 X104.710 Y86.241 E0.02635
G1 X102.360 Y83.891 E0.10481
G1 X102.476 Y83.879 E0.00368
G1 X102.932 Y83.927 E0.01446
G1 X109.931 Y90.926 E0.31217
G1 X109.931 Y90.591 E0.01055
G1 X109.877 Y90.335 E0.00827
G1 X103.531 Y83.990 E0.28300
G1 X104.028 Y84.042 E0.01575
G1 X104.164 Y84.086 E0.00451
G1 X109.732 Y89.654 E0.24833
G1 X109.605 Y89.059 E0.01919
G1 X109.551 Y88.937 E0.00421
G1 X104.958 Y84.343 E0.20487
G1 X105.525 Y84.527 E0.01883
G1 X105.886 Y84.736 E0.01314
G1 X109.455 Y88.305 E0.15918
G1 F5760
G1 X107.904 Y86.753 E-0.76000
G1 E-0.04000 F2100.00000
G1 Z0.800 F7200.000
G1 X108.815 Y87.128
G1 Z0.200
G1 E0.80000 F2100.00000
G1 F1800
G1 X106.692 Y85.005 E0.09470
G1 F5760
G1 X108.243 Y86.556 E-0.76000
G1 E-0.04000 F2100.00000
G1 Z0.800 F7200.000
G1 X110.101 Y91.632
G1 Z0.200
G1 E0.80000 F2100.00000
G1 F1800
G1 X107.559 Y89.091 E0.11335
G1 X107.806 Y89.643 E0.01908
G1 X107.868 Y89.935 E0.00941
G1 X109.931 Y91.999 E0.09204
G1 X109.931 Y92.535 E0.01692
G1 X108.012 Y90.616 E0.08558
G1 X108.049 Y90.789 E0.00558
G1 X108.049 Y91.189 E0.01262
G1 X109.979 Y93.119 E0.08607
G1 X109.979 Y93.656 E0.01692
G1 X108.049 Y91.726 E0.08607
G1 X108.049 Y91.961 E0.00741
G1 X107.996 Y92.209 E0.00802
G1 X109.979 Y94.192 E0.08843
G1 X109.979 Y94.729 E0.01692
G1 X107.902 Y92.652 E0.09263
G1 X107.808 Y93.094 E0.01426
G1 X109.979 Y95.265 E0.09682
G1 X109.979 Y95.801 E0.01692
G1 X107.645 Y93.467 E0.10410
G1 X107.480 Y93.838 E0.01281
G1 X109.979 Y96.338 E0.11147
G1 X109.979 Y96.874 E0.01692
G1 X107.309 Y94.204 E0.11908
G1 X107.084 Y94.515 E0.01211
G1 X109.979 Y97.410 E0.12914
G1 X109.979 Y97.947 E0.01692
G1 X106.858 Y94.826 E0.13921
G1 X106.630 Y95.134 E0.01210
G1 X109.979 Y98.483 E0.14937
G1 X109.979 Y99.020 E0.01692
G1 X106.348 Y95.388 E0.16196
G1 X106.066 Y95.642 E0.01198
G1 X109.979 Y99.556 E0.17455
G1 X109.979 Y100.092 E0.01692
G1 X107.523 Y97.636 E0.10954
G1 X107.523 Y98.173 E0.01692
G1 X109.979 Y100.629 E0.10954
G1 X109.979 Y101.165 E0.01692
G1 X107.523 Y98.709 E0.10954
G1 X107.523 Y99.245 E0.01692
G1 X109.979 Y101.701 E0.10954
G1 X109.979 Y102.238 E0.01692
G1 X107.523 Y99.782 E0.10954
G1 X107.523 Y100.318 E0.01692
G1 X109.979 Y102.774 E0.10954
G1 X109.979 Y103.311 E0.01692
G1 X107.523 Y100.855 E0.10954
G1 X107.523 Y101.391 E0.01692
G1 X109.979 Y103.847 E0.10954
G1 X109.979 Y104.383 E0.01692
G1 X107.523 Y101.927 E0.10954
G1 X107.523 Y102.464 E0.01692
G1 X109.979 Y104.920 E0.10954
G1 X109.979 Y105.456 E0.01692
G1 X107.523 Y103.000 E0.10954
G1 X107.523 Y103.536 E0.01692
G1 X109.979 Y105.993 E0.10954
G1 X109.979 Y106.529 E0.01692
G1 X107.523 Y104.073 E0.10954
G1 X107.523 Y104.609 E0.01692
G1 X109.979 Y107.065 E0.10954
G1 X109.979 Y107.602 E0.01692
G1 X107.523 Y105.146 E0.10954
G1 X107.523 Y105.682 E0.01692
G1 X109.979 Y108.138 E0.10954
G1 X109.979 Y108.674 E0.01692
G1 X107.523 Y106.218 E0.10954
G1 X107.523 Y106.755 E0.01692
G1 X109.979 Y109.211 E0.10954
G1 X109.979 Y109.747 E0.01692
G1 X107.523 Y107.291 E0.10954
G1 X107.523 Y107.827 E0.01692
G1 X109.979 Y110.284 E0.10954
G1 X109.979 Y110.820 E0.01692
G1 X107.523 Y108.364 E0.10954
G1 X107.523 Y108.900 E0.01692
G1 X109.979 Y111.356 E0.10954
G1 X109.979 Y111.893 E0.01692
G1 X107.523 Y109.437 E0.10954
G1 X107.523 Y109.973 E0.01692
G1 X109.979 Y112.429 E0.10954
G1 X109.979 Y112.965 E0.01692
G1 X107.523 Y110.509 E0.10954
G1 X107.523 Y111.046 E0.01692
G1 X109.979 Y113.502 E0.10954
G1 X109.979 Y114.038 E0.01692
G1 X107.523 Y111.582 E0.10954
G1 X107.523 Y112.119 E0.01692
G1 X109.979 Y114.575 E0.10954
G1 X109.979 Y115.111 E0.01692
G1 X107.523 Y112.655 E0.10954
G1 X107.523 Y113.191 E0.01692
G1 X109.979 Y115.647 E0.10954
G1 X109.979 Y116.184 E0.01692
G1 X107.523 Y113.728 E0.10954
G1 X107.523 Y114.264 E0.01692
G1 X109.979 Y116.720 E0.10954
G1 X109.979 Y117.257 E0.01692
G1 X107.523 Y114.800 E0.10954
G1 X107.523 Y115.337 E0.01692
G1 X109.979 Y117.793 E0.10954
G1 X109.979 Y118.329 E0.01692
G1 X107.523 Y115.873 E0.10954
G1 X107.523 Y116.410 E0.01692
G1 X109.979 Y118.866 E0.10954
G1 X109.979 Y119.402 E0.01692
G1 X107.523 Y116.946 E0.10954
G1 X107.523 Y117.482 E0.01692
G1 X109.979 Y119.938 E0.10954
G1 X109.979 Y120.475 E0.01692
G1 X107.523 Y118.019 E0.10954
G1 X107.523 Y118.555 E0.01692
G1 X109.979 Y121.011 E0.10954
G1 X109.979 Y121.128 E0.00369
G1 X109.560 Y121.128 E0.01323
G1 X107.523 Y119.091 E0.09083
G1 X107.523 Y119.628 E0.01692
G1 X109.023 Y121.128 E0.06691
G1 X108.487 Y121.128 E0.01692
G1 X107.523 Y120.164 E0.04299
G1 X107.523 Y120.701 E0.01692
