; generated by Slic3r Prusa Edition 1.39.2+win64 on 2018-06-07 at 13:07:40

; 

; external perimeters extrusion width = 0.45mm
; perimeters extrusion width = 0.45mm
; infill extrusion width = 0.45mm
; solid infill extrusion width = 0.45mm
; top infill extrusion width = 0.45mm
; first layer extrusion width = 0.42mm

M107
M115 U3.1.0 ; tell printer latest fw version
M83  ; extruder relative mode
M104 S205 ; set extruder temp
M140 S55 ; set bed temp
M190 S55 ; wait for bed temp
M109 S205 ; wait for extruder temp
G28 W ; home all without mesh bed level
G80 ; mesh bed leveling
G1 Y-3.0 F1000.0 ; go outside print area
G92 E0.0
G1 X60.0 E9.0  F1000.0 ; intro line
G1 X100.0 E12.5  F1000.0 ; intro line
G92 E0.0
M900 K30; Filament gcode
G21 ; set units to millimeters
G90 ; use absolute coordinates
M83 ; use relative distances for extrusion
;BEFORE_LAYER_CHANGE
;0.2


G1 E-0.80000 F2100.00000
G1 Z0.600 F7200.000
;AFTER_LAYER_CHANGE
;0.2
G1 X82.337 Y89.217
G1 Z0.200
G1 E0.80000 F2100.00000
M204 S1000
G1 F1800
G1 X82.980 Y89.123 E0.02036
G1 X122.004 Y89.123 E1.22357
G1 X122.888 Y89.295 E0.02825
G1 X123.642 Y89.781 E0.02813
G1 X124.162 Y90.513 E0.02813
G1 X124.374 Y91.388 E0.02825
G1 X124.375 Y113.610 E0.69675
G1 X124.280 Y114.173 E0.01787
G1 X124.052 Y114.699 E0.01799
G1 X123.705 Y115.156 E0.01799
G1 X123.259 Y115.516 E0.01799
G1 X122.663 Y115.783 E0.02048
G1 X122.020 Y115.877 E0.02036
G1 X82.958 Y115.877 E1.22476
G1 X82.375 Y115.793 E0.01846
G1 X81.831 Y115.569 E0.01846
G1 X81.358 Y115.219 E0.01846
G1 X80.984 Y114.759 E0.01858
G1 X80.720 Y114.174 E0.02012
G1 X80.623 Y113.535 E0.02024
G1 X80.624 Y91.428 E0.69317
G1 X80.713 Y90.853 E0.01823
G1 X80.938 Y90.317 E0.01823
G1 X81.289 Y89.849 E0.01835
G1 X81.741 Y89.484 E0.01823
G1 X82.283 Y89.242 E0.01860
G1 F5760
G1 X82.980 Y89.123 E-0.24496
G1 X84.467 Y89.123 E-0.51504
G1 E-0.04000 F2100.00000
G1 Z0.800 F7200.000
G1 X116.010 Y93.583
G1 Z0.200
G1 E0.80000 F2100.00000
G1 F1800
G1 X116.114 Y93.263 E0.01056
G1 X116.283 Y92.971 E0.01056
G1 X116.508 Y92.721 E0.01056
G1 X116.780 Y92.523 E0.01056
G1 X117.088 Y92.386 E0.01056
G1 X117.418 Y92.316 E0.01056
G1 X117.754 Y92.316 E0.01056
G1 X118.084 Y92.386 E0.01056
G1 X118.392 Y92.523 E0.01056
G1 X118.664 Y92.721 E0.01056
G1 X118.889 Y92.971 E0.01056
G1 X119.058 Y93.263 E0.01056
G1 X119.162 Y93.583 E0.01056
G1 X119.197 Y93.918 E0.01056
G1 X119.162 Y94.253 E0.01056
G1 X119.058 Y94.573 E0.01056
G1 X118.889 Y94.865 E0.01056
G1 X118.664 Y95.115 E0.01056
G1 X118.392 Y95.313 E0.01056
G1 X118.084 Y95.450 E0.01056
G1 X117.754 Y95.520 E0.01056
G1 X117.418 Y95.520 E0.01056
G1 X117.088 Y95.450 E0.01056
G1 X116.780 Y95.313 E0.01056
G1 X116.508 Y95.115 E0.01056
G1 X116.283 Y94.865 E0.01056
G1 X116.114 Y94.573 E0.01056
G1 X116.010 Y94.253 E0.01056
G1 X115.975 Y93.918 E0.01056
G1 X116.004 Y93.643 E0.00868
G1 X115.760 Y93.358 F7200.000
G1 F5760
G1 X116.114 Y93.263 E-0.13705
G1 X116.283 Y92.971 E-0.11667
G1 X116.508 Y92.721 E-0.11664
G1 X116.780 Y92.523 E-0.11667
G1 X117.088 Y92.386 E-0.11667
G1 X117.418 Y92.316 E-0.11666
G1 X117.532 Y92.316 E-0.03963
G1 E-0.04000 F2100.00000
G1 Z0.800 F7200.000
G1 X88.924 Y108.348
G1 Z0.200
G1 E0.80000 F2100.00000
G1 F1800
G1 X89.053 Y108.744 E0.01304
G1 X89.096 Y109.158 E0.01305
G1 X89.053 Y109.572 E0.01305
G1 X88.924 Y109.968 E0.01304
G1 X88.716 Y110.328 E0.01305
G1 X88.438 Y110.637 E0.01305
G1 X88.101 Y110.882 E0.01304
G1 X87.721 Y111.051 E0.01305
G1 X87.314 Y111.137 E0.01305
G1 X86.898 Y111.137 E0.01304
G1 X86.491 Y111.051 E0.01305
G1 X86.111 Y110.882 E0.01305
G1 X85.774 Y110.637 E0.01304
G1 X85.496 Y110.328 E0.01305
G1 X85.288 Y109.968 E0.01305
G1 X85.159 Y109.572 E0.01304
G1 X85.116 Y109.158 E0.01305
G1 X85.159 Y108.744 E0.01305
G1 X85.288 Y108.348 E0.01304
G1 X85.496 Y107.988 E0.01305
G1 X85.774 Y107.679 E0.01305
G1 X86.111 Y107.434 E0.01304
G1 X86.491 Y107.265 E0.01305
G1 X86.898 Y107.179 E0.01305
G1 X87.314 Y107.179 E0.01304
G1 X87.721 Y107.265 E0.01305
G1 X88.101 Y107.434 E0.01305
G1 X88.438 Y107.679 E0.01304
G1 X88.716 Y107.988 E0.01305
G1 X88.894 Y108.297 E0.01116
G1 X88.568 Y108.485 F7200.000
G1 F1800
G1 X88.682 Y108.823 E0.01119
G1 X88.717 Y109.158 E0.01056
G1 X88.682 Y109.493 E0.01056
G1 X88.578 Y109.813 E0.01056
G1 X88.409 Y110.105 E0.01056
G1 X88.184 Y110.355 E0.01056
G1 X87.912 Y110.553 E0.01056
G1 X87.604 Y110.690 E0.01056
G1 X87.274 Y110.760 E0.01056
G1 X86.938 Y110.760 E0.01056
G1 X86.608 Y110.690 E0.01056
G1 X86.300 Y110.553 E0.01056
G1 X86.028 Y110.355 E0.01056
G1 X85.803 Y110.105 E0.01056
G1 X85.634 Y109.813 E0.01056
G1 X85.530 Y109.493 E0.01056
G1 X85.495 Y109.158 E0.01056
G1 X85.530 Y108.823 E0.01056
G1 X85.634 Y108.503 E0.01056
G1 X85.803 Y108.211 E0.01056
G1 X86.028 Y107.961 E0.01056
G1 X86.300 Y107.763 E0.01056
G1 X86.608 Y107.626 E0.01056
G1 X86.938 Y107.556 E0.01056
G1 X87.274 Y107.556 E0.01056
G1 X87.604 Y107.626 E0.01056
G1 X87.912 Y107.763 E0.01056
G1 X88.184 Y107.961 E0.01056
G1 X88.409 Y108.211 E0.01056
G1 X88.538 Y108.433 E0.00804
G1 X88.923 Y108.519 F7200.000
G1 F5760
G1 X88.682 Y108.823 E-0.14400
G1 X88.717 Y109.158 E-0.11667
G1 X88.682 Y109.493 E-0.11667
G1 X88.578 Y109.813 E-0.11664
G1 X88.409 Y110.105 E-0.11667
G1 X88.184 Y110.355 E-0.11666
G1 X88.108 Y110.411 E-0.03269
G1 E-0.04000 F2100.00000
G1 Z0.800 F7200.000
G1 X115.596 Y109.158
G1 Z0.200
G1 E0.80000 F2100.00000
G1 F1800
G1 X115.639 Y108.744 E0.01305
G1 X115.768 Y108.348 E0.01305
G1 X115.976 Y107.988 E0.01305
G1 X116.254 Y107.679 E0.01305
G1 X116.591 Y107.434 E0.01305
G1 X116.971 Y107.265 E0.01305
G1 X117.378 Y107.179 E0.01305
G1 X117.794 Y107.179 E0.01304
G1 X118.201 Y107.265 E0.01305
G1 X118.581 Y107.434 E0.01305
G1 X118.918 Y107.679 E0.01305
G1 X119.196 Y107.988 E0.01305
G1 X119.404 Y108.348 E0.01305
G1 X119.533 Y108.744 E0.01305
G1 X119.576 Y109.158 E0.01305
G1 X119.533 Y109.572 E0.01305
G1 X119.404 Y109.968 E0.01305
G1 X119.196 Y110.328 E0.01305
G1 X118.918 Y110.637 E0.01305
G1 X118.581 Y110.882 E0.01305
G1 X118.201 Y111.051 E0.01305
G1 X117.794 Y111.137 E0.01305
G1 X117.378 Y111.137 E0.01304
G1 X116.971 Y111.051 E0.01305
G1 X116.591 Y110.882 E0.01305
G1 X116.254 Y110.637 E0.01305
G1 X115.976 Y110.328 E0.01304
G1 X115.768 Y109.968 E0.01305
G1 X115.639 Y109.572 E0.01305
G1 X115.602 Y109.218 E0.01116
G1 X115.977 Y109.178 F7200.000
G1 F1800
G1 X116.010 Y108.823 E0.01119
G1 X116.114 Y108.503 E0.01056
G1 X116.283 Y108.211 E0.01056
G1 X116.508 Y107.961 E0.01056
G1 X116.780 Y107.763 E0.01056
G1 X117.088 Y107.626 E0.01056
G1 X117.418 Y107.556 E0.01056
G1 X117.754 Y107.556 E0.01056
G1 X118.084 Y107.626 E0.01056
G1 X118.392 Y107.763 E0.01056
G1 X118.664 Y107.961 E0.01056
G1 X118.889 Y108.211 E0.01056
G1 X119.058 Y108.503 E0.01056
G1 X119.162 Y108.823 E0.01056
G1 X119.197 Y109.158 E0.01056
G1 X119.162 Y109.493 E0.01056
G1 X119.058 Y109.813 E0.01056
G1 X118.889 Y110.105 E0.01056
G1 X118.664 Y110.355 E0.01056
G1 X118.392 Y110.553 E0.01056
G1 X118.084 Y110.690 E0.01056
G1 X117.754 Y110.760 E0.01056
G1 X117.418 Y110.760 E0.01056
G1 X117.088 Y110.690 E0.01056
G1 X116.780 Y110.553 E0.01056
G1 X116.508 Y110.355 E0.01056
G1 X116.283 Y110.105 E0.01056
G1 X116.114 Y109.813 E0.01056
G1 X116.010 Y109.493 E0.01056
G1 X115.983 Y109.238 E0.00804
G1 X115.666 Y109.003 F7200.000
G1 F5760
G1 X116.010 Y108.823 E-0.14401
G1 X116.114 Y108.503 E-0.11664
G1 X116.283 Y108.211 E-0.11668
G1 X116.508 Y107.961 E-0.11665
G1 X116.780 Y107.763 E-0.11666
G1 X117.088 Y107.626 E-0.11668
G1 X117.180 Y107.606 E-0.03269
G1 E-0.04000 F2100.00000
G1 Z0.800 F7200.000
G1 X108.036 Y96.536
G1 Z0.200
G1 E0.80000 F2100.00000
G1 F1800
G1 X108.036 Y107.464 E0.34265
G1 X115.940 Y107.464 E0.24783
G1 X115.669 Y107.765 E0.01270
G1 X115.421 Y108.194 E0.01553
G1 X115.268 Y108.665 E0.01553
G1 X115.217 Y109.158 E0.01553
G1 X115.268 Y109.651 E0.01553
G1 X115.421 Y110.122 E0.01553
G1 X115.669 Y110.551 E0.01553
G1 X116.000 Y110.919 E0.01553
G1 X116.401 Y111.210 E0.01553
G1 X116.854 Y111.412 E0.01553
G1 X117.338 Y111.514 E0.01553
G1 X117.834 Y111.514 E0.01552
G1 X118.318 Y111.412 E0.01553
G1 X118.771 Y111.210 E0.01553
G1 X119.172 Y110.919 E0.01553
G1 X119.503 Y110.551 E0.01553
G1 X119.751 Y110.122 E0.01553
G1 X119.904 Y109.651 E0.01553
G1 X119.955 Y109.158 E0.01553
G1 X119.904 Y108.665 E0.01553
G1 X119.751 Y108.194 E0.01553
G1 X119.503 Y107.765 E0.01553
G1 X119.232 Y107.464 E0.01270
G1 X121.036 Y107.464 E0.05656
G1 X121.036 Y112.536 E0.15902
G1 X83.964 Y112.536 E1.16236
G1 X83.964 Y107.464 E0.15902
G1 X85.460 Y107.464 E0.04691
G1 X85.189 Y107.765 E0.01270
G1 X84.941 Y108.194 E0.01553
G1 X84.788 Y108.665 E0.01553
G1 X84.737 Y109.158 E0.01553
G1 X84.788 Y109.651 E0.01553
G1 X84.941 Y110.122 E0.01553
G1 X85.189 Y110.551 E0.01553
G1 X85.521 Y110.919 E0.01553
G1 X85.921 Y111.210 E0.01553
G1 X86.374 Y111.412 E0.01553
G1 X86.858 Y111.514 E0.01553
G1 X87.354 Y111.514 E0.01553
G1 X87.838 Y111.412 E0.01553
G1 X88.291 Y111.210 E0.01553
G1 X88.691 Y110.919 E0.01553
G1 X89.023 Y110.551 E0.01553
G1 X89.271 Y110.122 E0.01553
G1 X89.424 Y109.651 E0.01553
G1 X89.475 Y109.158 E0.01553
G1 X89.424 Y108.665 E0.01553
G1 X89.271 Y108.194 E0.01553
G1 X89.023 Y107.765 E0.01553
G1 X88.752 Y107.464 E0.01270
G1 X93.464 Y107.464 E0.14775
G1 X93.464 Y96.536 E0.34265
G1 X83.964 Y96.536 E0.29787
G1 X83.964 Y92.464 E0.12766
G1 X85.244 Y92.464 E0.04013
G1 X85.189 Y92.525 E0.00258
G1 X84.941 Y92.954 E0.01553
G1 X84.788 Y93.425 E0.01553
G1 X84.737 Y93.918 E0.01553
G1 X84.788 Y94.411 E0.01553
G1 X84.941 Y94.882 E0.01553
G1 X85.189 Y95.311 E0.01553
G1 X85.521 Y95.679 E0.01553
G1 X85.921 Y95.970 E0.01553
G1 X86.374 Y96.171 E0.01553
G1 X86.858 Y96.274 E0.01553
G1 X87.354 Y96.274 E0.01553
G1 X87.838 Y96.171 E0.01553
G1 X88.291 Y95.970 E0.01553
G1 X88.691 Y95.679 E0.01553
G1 X89.023 Y95.311 E0.01553
G1 X89.271 Y94.882 E0.01553
G1 X89.424 Y94.411 E0.01553
G1 X89.475 Y93.918 E0.01553
G1 X89.424 Y93.425 E0.01553
G1 X89.271 Y92.954 E0.01553
G1 X89.023 Y92.525 E0.01553
G1 X88.968 Y92.464 E0.00258
G1 X115.724 Y92.464 E0.83892
G1 X115.669 Y92.525 E0.00258
G1 X115.421 Y92.954 E0.01553
G1 X115.268 Y93.425 E0.01553
G1 X115.217 Y93.918 E0.01553
G1 X115.268 Y94.411 E0.01553
G1 X115.421 Y94.882 E0.01553
G1 X115.669 Y95.311 E0.01553
G1 X116.000 Y95.679 E0.01553
G1 X116.401 Y95.970 E0.01553
G1 X116.854 Y96.172 E0.01553
G1 X117.338 Y96.274 E0.01553
G1 X117.834 Y96.274 E0.01553
G1 X118.318 Y96.172 E0.01553
G1 X118.771 Y95.970 E0.01553
G1 X119.172 Y95.679 E0.01553
G1 X119.503 Y95.311 E0.01553
G1 X119.751 Y94.882 E0.01553
G1 X119.904 Y94.411 E0.01553
G1 X119.955 Y93.918 E0.01553
G1 X119.904 Y93.425 E0.01553
G1 X119.751 Y92.954 E0.01553
G1 X119.503 Y92.525 E0.01553
G1 X119.448 Y92.464 E0.00258
G1 X121.036 Y92.464 E0.04979
G1 X121.036 Y96.536 E0.12766
G1 X108.096 Y96.536 E0.40572
G1 X108.413 Y96.913 F7200.000
G1 F1800
G1 X108.413 Y107.087 E0.31900
G1 X121.413 Y107.087 E0.40761
G1 X121.413 Y112.913 E0.18267
G1 X83.587 Y112.913 E1.18600
G1 X83.587 Y107.087 E0.18267
G1 X93.087 Y107.087 E0.29787
G1 X93.087 Y96.913 E0.31900
G1 X83.587 Y96.913 E0.29787
G1 X83.587 Y92.087 E0.15131
G1 X86.352 Y92.087 E0.08668
G1 X86.111 Y92.194 E0.00827
G1 X85.774 Y92.439 E0.01305
G1 X85.496 Y92.748 E0.01305
G1 X85.288 Y93.108 E0.01305
G1 X85.159 Y93.504 E0.01305
G1 X85.116 Y93.918 E0.01305
G1 X85.159 Y94.332 E0.01305
G1 X85.288 Y94.728 E0.01305
G1 X85.496 Y95.088 E0.01305
G1 X85.774 Y95.397 E0.01305
G1 X86.111 Y95.642 E0.01305
G1 X86.491 Y95.811 E0.01305
G1 X86.898 Y95.897 E0.01305
G1 X87.314 Y95.897 E0.01305
G1 X87.721 Y95.811 E0.01305
G1 X88.101 Y95.642 E0.01305
G1 X88.438 Y95.397 E0.01305
G1 X88.716 Y95.088 E0.01305
G1 X88.924 Y94.728 E0.01305
G1 X89.053 Y94.332 E0.01305
G1 X89.096 Y93.918 E0.01305
G1 X89.053 Y93.504 E0.01305
G1 X88.924 Y93.108 E0.01305
G1 X88.716 Y92.748 E0.01305
G1 X88.438 Y92.439 E0.01305
G1 X88.101 Y92.194 E0.01305
G1 X87.860 Y92.087 E0.00827
G1 X116.832 Y92.087 E0.90838
G1 X116.591 Y92.194 E0.00827
G1 X116.254 Y92.439 E0.01305
G1 X115.976 Y92.748 E0.01304
G1 X115.768 Y93.108 E0.01305
G1 X115.639 Y93.504 E0.01305
G1 X115.596 Y93.918 E0.01305
G1 X115.639 Y94.332 E0.01305
G1 X115.768 Y94.728 E0.01305
G1 X115.976 Y95.088 E0.01305
G1 X116.254 Y95.397 E0.01304
G1 X116.591 Y95.642 E0.01305
G1 X116.971 Y95.811 E0.01305
G1 X117.378 Y95.897 E0.01305
G1 X117.794 Y95.897 E0.01304
G1 X118.201 Y95.811 E0.01305
G1 X118.581 Y95.642 E0.01305
G1 X118.918 Y95.397 E0.01305
G1 X119.196 Y95.088 E0.01304
G1 X119.404 Y94.728 E0.01305
G1 X119.533 Y94.332 E0.01305
G1 X119.576 Y93.918 E0.01305
G1 X119.533 Y93.504 E0.01304
G1 X119.404 Y93.108 E0.01305
G1 X119.196 Y92.748 E0.01305
G1 X118.918 Y92.439 E0.01304
G1 X118.581 Y92.194 E0.01305
G1 X118.340 Y92.087 E0.00827
G1 X121.413 Y92.087 E0.09634
G1 X121.413 Y96.913 E0.15131
G1 X108.473 Y96.913 E0.40572
G1 F5760
G1 X108.460 Y99.107 E-0.76000
G1 E-0.04000 F2100.00000
G1 Z0.800 F7200.000
G1 X88.682 Y94.253
G1 Z0.200
G1 E0.80000 F2100.00000
G1 F1800
G1 X88.578 Y94.573 E0.01056
G1 X88.409 Y94.865 E0.01056
G1 X88.184 Y95.115 E0.01056
G1 X87.912 Y95.313 E0.01056
G1 X87.604 Y95.450 E0.01056
G1 X87.274 Y95.520 E0.01056
G1 X86.938 Y95.520 E0.01056
G1 X86.608 Y95.450 E0.01056
G1 X86.300 Y95.313 E0.01056
G1 X86.028 Y95.115 E0.01056
G1 X85.803 Y94.865 E0.01056
G1 X85.634 Y94.573 E0.01056
G1 X85.530 Y94.253 E0.01056
G1 X85.495 Y93.918 E0.01056
G1 X85.530 Y93.583 E0.01056
G1 X85.634 Y93.263 E0.01056
G1 X85.803 Y92.971 E0.01056
G1 X86.028 Y92.721 E0.01056
G1 X86.300 Y92.523 E0.01056
G1 X86.608 Y92.386 E0.01056
G1 X86.938 Y92.316 E0.01056
G1 X87.274 Y92.316 E0.01056
G1 X87.604 Y92.386 E0.01056
G1 X87.912 Y92.523 E0.01056
G1 X88.184 Y92.721 E0.01056
G1 X88.409 Y92.971 E0.01056
G1 X88.578 Y93.263 E0.01056
G1 X88.682 Y93.583 E0.01056
G1 X88.717 Y93.918 E0.01056
G1 X88.688 Y94.193 E0.00868
G1 X88.932 Y94.478 F7200.000
G1 F5760
G1 X88.578 Y94.573 E-0.13705
G1 X88.409 Y94.865 E-0.11666
G1 X88.184 Y95.115 E-0.11666
G1 X87.912 Y95.313 E-0.11666
G1 X87.604 Y95.450 E-0.11666
G1 X87.274 Y95.520 E-0.11666
G1 X87.160 Y95.520 E-0.03965
G1 E-0.04000 F2100.00000
G1 Z0.800 F7200.000
G1 X108.790 Y97.290
G1 Z0.200
G1 E0.80000 F2100.00000
G1 F1800
G1 X108.790 Y106.710 E0.29536
G1 X121.790 Y106.710 E0.40761
G1 X121.790 Y113.290 E0.20631
G1 X83.210 Y113.290 E1.20965
G1 X83.210 Y106.710 E0.20631
G1 X92.710 Y106.710 E0.29787
G1 X92.710 Y97.290 E0.29536
G1 X83.210 Y97.290 E0.29787
G1 X83.210 Y91.710 E0.17496
G1 X121.790 Y91.710 E1.20965
G1 X121.790 Y97.290 E0.17496
G1 X108.850 Y97.290 E0.40572
G1 X108.394 Y97.344 F7200.000
G1 F5760
G1 X108.836 Y99.484 E-0.76000
G1 E-0.04000 F2100.00000
G1 Z0.800 F7200.000
G1 X115.228 Y94.653
G1 Z0.200
G1 E0.80000 F2100.00000
G1 F1800
G1 X113.322 Y92.747 E0.08482
G1 X113.857 Y92.747 E0.01683
G1 X114.941 Y93.831 E0.04825
G1 X114.995 Y93.350 E0.01523
G1 X114.392 Y92.747 E0.02685
G1 X114.927 Y92.747 E0.01683
G1 X115.261 Y93.081 E0.01487
G1 F5760
G1 X114.927 Y92.747 E-0.16370
G1 X114.392 Y92.747 E-0.18532
G1 X114.995 Y93.350 E-0.29557
G1 X114.958 Y93.682 E-0.11541
G1 E-0.04000 F2100.00000
G1 Z0.800 F7200.000
G1 X117.017 Y92.052
G1 Z0.200
G1 E0.80000 F2100.00000
G1 F1800
G1 X117.398 Y92.013 E0.00736
G1 X117.798 Y92.014 E0.00769
G1 X118.155 Y92.052 E0.00826
G1 F5760
G1 X117.798 Y92.014 E-0.12426
G1 E-0.67574 F2100.00000
G1 Z0.800 F7200.000
G1 X120.923 Y93.345
G1 Z0.200
G1 E0.80000 F2100.00000
G1 F1800
G1 X120.325 Y92.747 E0.02668
G1 X119.958 Y92.747 E0.01160
G1 X120.010 Y92.839 E0.00334
G1 X120.073 Y93.032 E0.00642
G1 X120.753 Y93.712 E0.03034
G1 X120.753 Y94.249 E0.01694
G1 X120.218 Y93.714 E0.02386
G1 X120.240 Y93.918 E0.00648
G1 X120.206 Y94.238 E0.01017
G1 X120.753 Y94.785 E0.02441
G1 X120.753 Y95.322 E0.01694
G1 X120.113 Y94.682 E0.02857
G1 X120.010 Y94.997 E0.01047
G1 X119.967 Y95.073 E0.00274
G1 X120.753 Y95.859 E0.03508
G1 X120.753 Y96.253 E0.01244
G1 X120.611 Y96.253 E0.00449
G1 X119.770 Y95.413 E0.03750
G1 X119.733 Y95.478 E0.00237
G1 X119.527 Y95.706 E0.00970
G1 X120.074 Y96.253 E0.02440
G1 X119.537 Y96.253 E0.01694
G1 X119.253 Y95.969 E0.01267
G1 X118.942 Y96.195 E0.01213
G1 X119.170 Y96.423 E0.01017
G1 F5760
G1 X118.942 Y96.195 E-0.11159
G1 X119.253 Y95.969 E-0.13309
G1 X119.537 Y96.253 E-0.13911
