; generated by Slic3r Prusa Edition 1.39.2+win64 on 2018-05-31 at 14:46:17

; 

; external perimeters extrusion width = 0.45mm
; perimeters extrusion width = 0.45mm
; infill extrusion width = 0.45mm
; solid infill extrusion width = 0.45mm
; top infill extrusion width = 0.45mm
; first layer extrusion width = 0.42mm

M107
M115 U3.1.0 ; tell printer latest fw version
M83  ; extruder relative mode
M104 S205 ; set extruder temp
M140 S55 ; set bed temp
M190 S55 ; wait for bed temp
M109 S205 ; wait for extruder temp
G28 W ; home all without mesh bed level
G80 ; mesh bed leveling
G1 Y-3.0 F1000.0 ; go outside print area
G92 E0.0
G1 X60.0 E9.0  F1000.0 ; intro line
G1 X100.0 E12.5  F1000.0 ; intro line
G92 E0.0
M900 K30; Filament gcode
G21 ; set units to millimeters
G90 ; use absolute coordinates
M83 ; use relative distances for extrusion
;BEFORE_LAYER_CHANGE
;0.2


G1 E-0.80000 F2100.00000
G1 Z0.600 F7200.000
;AFTER_LAYER_CHANGE
;0.2
G1 X74.816 Y90.939
G1 Z0.200
G1 E0.80000 F2100.00000
M204 S1000
G1 F1800
G1 X75.463 Y90.684 E0.02178
G1 X110.639 Y82.651 E1.13132
G1 X129.004 Y82.623 E0.57583
G1 X129.895 Y82.798 E0.02849
G1 X130.659 Y83.297 E0.02860
G1 X131.176 Y84.044 E0.02849
G1 X131.376 Y84.930 E0.02849
G1 X131.376 Y120.076 E1.10197
G1 X131.281 Y120.669 E0.01882
G1 X131.039 Y121.222 E0.01894
G1 X130.665 Y121.697 E0.01894
G1 X130.184 Y122.061 E0.01894
G1 X129.630 Y122.292 E0.01882
G1 X129.035 Y122.377 E0.01882
G1 X110.670 Y122.354 E0.57584
G1 X75.485 Y115.321 E1.12501
G1 X75.020 Y115.166 E0.01538
G1 X74.593 Y114.916 E0.01550
G1 X74.227 Y114.584 E0.01550
G1 X73.938 Y114.183 E0.01550
G1 X73.708 Y113.629 E0.01882
G1 X73.623 Y113.035 E0.01882
G1 X73.625 Y92.912 E0.63092
G1 X73.722 Y92.320 E0.01882
G1 X73.965 Y91.771 E0.01882
G1 X74.338 Y91.301 E0.01882
G1 X74.768 Y90.975 E0.01694
G1 F5760
G1 X75.463 Y90.684 E-0.26063
G1 X76.868 Y90.363 E-0.49937
G1 E-0.04000 F2100.00000
G1 Z0.800 F7200.000
G1 X116.011 Y111.444
G1 Z0.200
G1 E0.80000 F2100.00000
G1 F1800
G1 X116.422 Y110.742 E0.02549
G1 X116.944 Y110.162 E0.02449
G1 X117.590 Y109.692 E0.02504
G1 X118.320 Y109.367 E0.02504
G1 X119.101 Y109.201 E0.02504
G1 X119.899 Y109.201 E0.02504
G1 X120.680 Y109.367 E0.02504
G1 X121.410 Y109.692 E0.02504
G1 X122.056 Y110.162 E0.02504
G1 X122.590 Y110.755 E0.02504
G1 X122.989 Y111.447 E0.02504
G1 X123.236 Y112.206 E0.02504
G1 X123.319 Y113.000 E0.02503
G1 X123.236 Y113.794 E0.02503
G1 X122.989 Y114.556 E0.02511
G1 X122.578 Y115.258 E0.02549
G1 X122.056 Y115.838 E0.02449
G1 X121.410 Y116.308 E0.02504
G1 X120.680 Y116.633 E0.02504
G1 X119.899 Y116.799 E0.02504
G1 X119.101 Y116.799 E0.02504
G1 X118.320 Y116.633 E0.02504
G1 X117.590 Y116.308 E0.02504
G1 X116.944 Y115.838 E0.02504
G1 X116.410 Y115.245 E0.02504
G1 X116.011 Y114.553 E0.02504
G1 X115.764 Y113.794 E0.02504
G1 X115.681 Y113.000 E0.02503
G1 X115.764 Y112.206 E0.02503
G1 X115.993 Y111.501 E0.02323
G1 X116.352 Y111.618 F7200.000
G1 F1800
G1 X116.728 Y110.966 E0.02360
G1 X117.198 Y110.443 E0.02204
G1 X117.780 Y110.021 E0.02255
G1 X118.437 Y109.728 E0.02255
G1 X119.140 Y109.579 E0.02255
G1 X119.860 Y109.579 E0.02255
G1 X120.563 Y109.728 E0.02255
G1 X121.220 Y110.021 E0.02255
G1 X121.802 Y110.443 E0.02255
G1 X122.283 Y110.978 E0.02255
G1 X122.643 Y111.601 E0.02255
G1 X122.865 Y112.285 E0.02255
G1 X122.940 Y113.000 E0.02255
G1 X122.865 Y113.715 E0.02255
G1 X122.642 Y114.401 E0.02260
G1 X122.272 Y115.034 E0.02301
G1 X121.802 Y115.557 E0.02204
G1 X121.220 Y115.979 E0.02255
G1 X120.563 Y116.272 E0.02255
G1 X119.860 Y116.421 E0.02255
G1 X119.140 Y116.421 E0.02255
G1 X118.437 Y116.272 E0.02255
G1 X117.780 Y115.979 E0.02255
G1 X117.198 Y115.557 E0.02255
G1 X116.717 Y115.022 E0.02255
G1 X116.357 Y114.399 E0.02255
G1 X116.135 Y113.715 E0.02255
G1 X116.060 Y113.000 E0.02255
G1 X116.135 Y112.285 E0.02255
G1 X116.333 Y111.675 E0.02011
G1 X116.692 Y111.791 F7200.000
G1 F1800
G1 X117.034 Y111.189 E0.02171
G1 X117.452 Y110.725 E0.01958
G1 X117.969 Y110.349 E0.02006
G1 X118.554 Y110.089 E0.02006
G1 X119.180 Y109.956 E0.02007
G1 X119.820 Y109.956 E0.02006
G1 X120.446 Y110.089 E0.02007
G1 X121.031 Y110.349 E0.02006
G1 X121.548 Y110.725 E0.02006
G1 X121.977 Y111.201 E0.02007
G1 X122.297 Y111.755 E0.02007
G1 X122.494 Y112.364 E0.02007
G1 X122.561 Y113.000 E0.02006
G1 X122.494 Y113.636 E0.02006
G1 X122.296 Y114.246 E0.02008
G1 X121.966 Y114.811 E0.02052
G1 X121.548 Y115.275 E0.01958
G1 X121.031 Y115.651 E0.02006
G1 X120.446 Y115.911 E0.02006
G1 X119.820 Y116.044 E0.02007
G1 X119.180 Y116.044 E0.02006
G1 X118.554 Y115.911 E0.02007
G1 X117.969 Y115.651 E0.02006
G1 X117.452 Y115.275 E0.02006
G1 X117.023 Y114.799 E0.02007
G1 X116.703 Y114.245 E0.02007
G1 X116.506 Y113.636 E0.02007
G1 X116.439 Y113.000 E0.02006
G1 X116.506 Y112.364 E0.02006
G1 X116.673 Y111.848 E0.01699
G1 X116.455 Y111.469 F7200.000
G1 F5760
G1 X117.034 Y111.189 E-0.26024
G1 X117.452 Y110.725 E-0.21632
G1 X117.969 Y110.349 E-0.22164
G1 X118.132 Y110.276 E-0.06180
G1 E-0.04000 F2100.00000
G1 Z0.800 F7200.000
G1 X119.101 Y95.799
G1 Z0.200
G1 E0.80000 F2100.00000
G1 F1800
G1 X118.320 Y95.633 E0.02504
G1 X117.590 Y95.308 E0.02504
G1 X116.944 Y94.838 E0.02504
G1 X116.410 Y94.245 E0.02504
G1 X116.011 Y93.553 E0.02504
G1 X115.764 Y92.794 E0.02504
G1 X115.681 Y92.000 E0.02503
G1 X115.764 Y91.206 E0.02503
G1 X116.011 Y90.447 E0.02504
G1 X116.410 Y89.755 E0.02504
G1 X116.944 Y89.162 E0.02504
G1 X117.590 Y88.692 E0.02504
G1 X118.320 Y88.367 E0.02504
G1 X119.101 Y88.201 E0.02504
G1 X119.899 Y88.201 E0.02504
G1 X120.680 Y88.367 E0.02504
G1 X121.410 Y88.692 E0.02504
G1 X122.056 Y89.162 E0.02504
G1 X122.590 Y89.755 E0.02504
G1 X122.989 Y90.447 E0.02504
G1 X123.236 Y91.206 E0.02504
G1 X123.319 Y92.000 E0.02503
G1 X123.236 Y92.794 E0.02503
G1 X122.989 Y93.553 E0.02504
G1 X122.590 Y94.245 E0.02504
G1 X122.056 Y94.838 E0.02504
G1 X121.410 Y95.308 E0.02504
G1 X120.680 Y95.633 E0.02504
G1 X119.899 Y95.799 E0.02504
G1 X119.161 Y95.799 E0.02316
G1 X119.161 Y95.421 F7200.000
G1 F1800
G1 X118.437 Y95.272 E0.02318
G1 X117.780 Y94.979 E0.02255
G1 X117.198 Y94.557 E0.02255
G1 X116.717 Y94.022 E0.02255
G1 X116.357 Y93.399 E0.02255
G1 X116.135 Y92.715 E0.02255
G1 X116.060 Y92.000 E0.02255
G1 X116.135 Y91.285 E0.02255
G1 X116.357 Y90.601 E0.02255
G1 X116.717 Y89.978 E0.02255
G1 X117.198 Y89.443 E0.02255
G1 X117.780 Y89.021 E0.02255
G1 X118.437 Y88.728 E0.02255
G1 X119.140 Y88.579 E0.02255
G1 X119.860 Y88.579 E0.02255
G1 X120.563 Y88.728 E0.02255
G1 X121.220 Y89.021 E0.02255
G1 X121.802 Y89.443 E0.02255
G1 X122.283 Y89.978 E0.02255
G1 X122.643 Y90.601 E0.02255
G1 X122.865 Y91.285 E0.02255
G1 X122.940 Y92.000 E0.02255
G1 X122.865 Y92.715 E0.02255
G1 X122.643 Y93.399 E0.02255
G1 X122.283 Y94.022 E0.02255
G1 X121.802 Y94.557 E0.02255
G1 X121.220 Y94.979 E0.02255
G1 X120.563 Y95.272 E0.02255
G1 X119.860 Y95.421 E0.02255
G1 X119.221 Y95.421 E0.02003
G1 X119.221 Y95.044 F7200.000
G1 F1800
G1 X118.554 Y94.911 E0.02132
G1 X117.969 Y94.651 E0.02006
G1 X117.452 Y94.275 E0.02006
G1 X117.023 Y93.799 E0.02007
G1 X116.703 Y93.245 E0.02007
G1 X116.506 Y92.636 E0.02007
G1 X116.439 Y92.000 E0.02006
G1 X116.506 Y91.364 E0.02006
G1 X116.703 Y90.755 E0.02007
G1 X117.023 Y90.201 E0.02007
G1 X117.452 Y89.725 E0.02007
G1 X117.969 Y89.349 E0.02006
G1 X118.554 Y89.089 E0.02006
G1 X119.180 Y88.956 E0.02007
G1 X119.820 Y88.956 E0.02006
G1 X120.446 Y89.089 E0.02007
G1 X121.031 Y89.349 E0.02006
G1 X121.548 Y89.725 E0.02006
G1 X121.977 Y90.201 E0.02007
G1 X122.297 Y90.755 E0.02007
G1 X122.494 Y91.364 E0.02007
G1 X122.561 Y92.000 E0.02006
G1 X122.494 Y92.636 E0.02006
G1 X122.297 Y93.245 E0.02007
G1 X121.977 Y93.799 E0.02007
G1 X121.548 Y94.275 E0.02007
G1 X121.031 Y94.651 E0.02006
G1 X120.446 Y94.911 E0.02006
G1 X119.820 Y95.044 E0.02007
G1 X119.281 Y95.044 E0.01691
G1 X118.989 Y95.370 F7200.000
G1 F5760
G1 X118.554 Y94.911 E-0.25588
G1 X117.969 Y94.651 E-0.22164
G1 X117.452 Y94.275 E-0.22164
G1 X117.334 Y94.144 E-0.06083
G1 E-0.04000 F2100.00000
G1 Z0.800 F7200.000
G1 X111.964 Y93.964
G1 Z0.200
G1 E0.80000 F2100.00000
G1 F1800
G1 X111.964 Y85.964 E0.25083
G1 X128.036 Y85.964 E0.50392
G1 X128.036 Y119.036 E1.03694
G1 X111.964 Y119.036 E0.50392
G1 X111.964 Y112.036 E0.21948
G1 X76.964 Y112.036 E1.09740
G1 X76.964 Y93.964 E0.56663
G1 X111.904 Y93.964 E1.09552
G1 X111.587 Y93.587 F7200.000
G1 F1800
G1 X111.587 Y85.587 E0.25083
G1 X128.413 Y85.587 E0.52756
G1 X128.413 Y119.413 E1.06059
G1 X111.587 Y119.413 E0.52756
G1 X111.587 Y112.413 E0.21948
G1 X76.587 Y112.413 E1.09740
G1 X76.587 Y93.587 E0.59027
G1 X111.527 Y93.587 E1.09552
G1 X111.210 Y93.210 F7200.000
G1 F1800
G1 X111.210 Y85.210 E0.25083
G1 X128.790 Y85.210 E0.55121
G1 X128.790 Y119.790 E1.08423
G1 X111.210 Y119.790 E0.55121
G1 X111.210 Y112.790 E0.21948
G1 X76.210 Y112.790 E1.09740
G1 X76.210 Y93.210 E0.61392
G1 X111.150 Y93.210 E1.09552
G1 X111.604 Y93.142 F7200.000
G1 F5760
G1 X111.166 Y91.016 E-0.76000
G1 E-0.04000 F2100.00000
G1 Z0.800 F7200.000
G1 X115.932 Y93.643
G1 Z0.200
G1 E0.80000 F2100.00000
G1 F1800
G1 X112.247 Y89.958 E0.16447
G1 X112.247 Y89.421 E0.01694
G1 X115.463 Y92.637 E0.14357
G1 X115.400 Y92.038 E0.01904
G1 X112.247 Y88.884 E0.14075
G1 X112.247 Y88.348 E0.01694
G1 X115.444 Y91.545 E0.14271
G1 X115.486 Y91.147 E0.01263
G1 X115.510 Y91.073 E0.00243
G1 X112.247 Y87.811 E0.14564
G1 X112.247 Y87.274 E0.01694
G1 X115.641 Y90.668 E0.15152
G1 X115.784 Y90.274 E0.01323
G1 X112.247 Y86.737 E0.15788
G1 X112.247 Y86.247 E0.01547
G1 X112.294 Y86.247 E0.00147
G1 X115.980 Y89.934 E0.16456
G1 X116.177 Y89.593 E0.01240
G1 X112.830 Y86.247 E0.14937
G1 X113.367 Y86.247 E0.01694
G1 X116.430 Y89.310 E0.13672
G1 X116.685 Y89.027 E0.01200
G1 X113.904 Y86.247 E0.12411
G1 X114.441 Y86.247 E0.01694
G1 X116.980 Y88.786 E0.11334
G1 X117.291 Y88.560 E0.01213
G1 X114.978 Y86.247 E0.10325
G1 X115.515 Y86.247 E0.01694
G1 X117.632 Y88.364 E0.09451
G1 X118.003 Y88.199 E0.01283
G1 X116.051 Y86.247 E0.08713
G1 X116.588 Y86.247 E0.01694
G1 X118.402 Y88.061 E0.08097
G1 X118.845 Y87.967 E0.01429
G1 X117.125 Y86.247 E0.07677
G1 X117.662 Y86.247 E0.01694
G1 X119.334 Y87.919 E0.07462
G1 X119.870 Y87.919 E0.01694
G1 X118.199 Y86.247 E0.07462
G1 X118.736 Y86.247 E0.01694
G1 X120.536 Y88.048 E0.08039
G1 X120.768 Y88.097 E0.00748
G1 X121.407 Y88.381 E0.02207
G1 X119.272 Y86.247 E0.09528
G1 X119.809 Y86.247 E0.01694
G1 X127.753 Y94.191 E0.35459
G1 X127.753 Y93.654 E0.01694
G1 X120.346 Y86.247 E0.33063
G1 X120.883 Y86.247 E0.01694
G1 X127.753 Y93.117 E0.30667
G1 X127.753 Y92.580 E0.01694
G1 X121.420 Y86.247 E0.28270
G1 X121.957 Y86.247 E0.01694
G1 X127.753 Y92.043 E0.25874
G1 X127.753 Y91.507 E0.01694
G1 X122.493 Y86.247 E0.23478
G1 X123.030 Y86.247 E0.01694
G1 X127.753 Y90.970 E0.21082
G1 X127.753 Y90.433 E0.01694
G1 X123.567 Y86.247 E0.18685
G1 X124.104 Y86.247 E0.01694
G1 X127.753 Y89.896 E0.16289
G1 X127.753 Y89.359 E0.01694
G1 X124.641 Y86.247 E0.13893
G1 X125.178 Y86.247 E0.01694
G1 X127.753 Y88.822 E0.11497
G1 X127.753 Y88.286 E0.01694
G1 X125.714 Y86.247 E0.09100
G1 X126.251 Y86.247 E0.01694
G1 X127.753 Y87.749 E0.06704
G1 X127.753 Y87.212 E0.01694
G1 X126.788 Y86.247 E0.04308
G1 X127.325 Y86.247 E0.01694
G1 X127.923 Y86.845 E0.02669
G1 F5760
G1 X127.325 Y86.247 E-0.29287
G1 X126.788 Y86.247 E-0.18593
G1 X127.362 Y86.821 E-0.28120
G1 E-0.04000 F2100.00000
G1 Z0.800 F7200.000
G1 X127.923 Y94.897
G1 Z0.200
G1 E0.80000 F2100.00000
G1 F1800
G1 X123.102 Y90.077 E0.21516
G1 X123.249 Y90.331 E0.00925
G1 X123.456 Y90.967 E0.02111
G1 X127.753 Y95.264 E0.19182
G1 X127.753 Y95.801 E0.01694
G1 X123.563 Y91.611 E0.18704
G1 X123.604 Y92.000 E0.01234
G1 X123.586 Y92.171 E0.00542
G1 X127.753 Y96.338 E0.18601
G1 X127.753 Y96.875 E0.01694
G1 X123.535 Y92.657 E0.18829
G1 X123.514 Y92.853 E0.00624
G1 X123.436 Y93.094 E0.00801
G1 X127.753 Y97.412 E0.19271
G1 X127.753 Y97.949 E0.01694
G1 X123.304 Y93.500 E0.19859
G1 X123.249 Y93.669 E0.00563
G1 X123.135 Y93.867 E0.00721
G1 X127.753 Y98.485 E0.20615
G1 X127.753 Y99.022 E0.01694
G1 X122.938 Y94.207 E0.21492
G1 X122.820 Y94.412 E0.00746
G1 X122.719 Y94.525 E0.00478
G1 X127.753 Y99.559 E0.22472
G1 X127.753 Y100.096 E0.01694
G1 X122.464 Y94.807 E0.23607
G1 X122.202 Y95.082 E0.01198
G1 X127.753 Y100.633 E0.24778
G1 X127.753 Y101.170 E0.01694
G1 X121.891 Y95.308 E0.26166
G1 X121.580 Y95.533 E0.01213
G1 X127.753 Y101.706 E0.27554
G1 X127.753 Y102.243 E0.01694
G1 X121.214 Y95.704 E0.29187
G1 X120.843 Y95.870 E0.01283
G1 X127.753 Y102.780 E0.30846
G1 X127.753 Y103.317 E0.01694
G1 X120.414 Y95.978 E0.32758
G1 X119.972 Y96.072 E0.01429
G1 X127.753 Y103.854 E0.34734
G1 X127.753 Y104.390 E0.01694
G1 X119.444 Y96.081 E0.37090
G1 X119.071 Y96.081 E0.01177
G1 X118.863 Y96.037 E0.00672
G1 X127.753 Y104.927 E0.39684
G1 X127.753 Y105.464 E0.01694
G1 X117.825 Y95.536 E0.44316
G1 F5760
G1 X119.377 Y97.088 E-0.76000
G1 E-0.04000 F2100.00000
G1 Z0.800 F7200.000
G1 X127.923 Y106.171
G1 Z0.200
G1 E0.80000 F2100.00000
G1 F1800
G1 X112.247 Y90.495 E0.69973
G1 X112.247 Y91.032 E0.01694
G1 X127.753 Y106.538 E0.69215
G1 X127.753 Y107.075 E0.01694
G1 X112.247 Y91.568 E0.69215
G1 X112.247 Y92.105 E0.01694
G1 X127.753 Y107.611 E0.69215
G1 X127.753 Y108.148 E0.01694
G1 X112.247 Y92.642 E0.69215
G1 X112.247 Y93.179 E0.01694
G1 X127.753 Y108.685 E0.69215
G1 X127.753 Y109.222 E0.01694
G1 X112.247 Y93.716 E0.69215
G1 X112.241 Y94.247 E0.01677
G1 X127.753 Y109.759 E0.69241
G1 X127.753 Y110.296 E0.01694
G1 X111.704 Y94.247 E0.71637
G1 X111.168 Y94.247 E0.01694
G1 X127.753 Y110.832 E0.74033
G1 X127.753 Y111.369 E0.01694
G1 X110.631 Y94.247 E0.76429
G1 X110.094 Y94.247 E0.01694
G1 X127.753 Y111.906 E0.78826
G1 X127.753 Y112.443 E0.01694
G1 X109.557 Y94.247 E0.81222
G1 X109.020 Y94.247 E0.01694
G1 X127.753 Y112.980 E0.83618
G1 X127.753 Y113.517 E0.01694
G1 X108.483 Y94.247 E0.86014
G1 X107.947 Y94.247 E0.01694
G1 X127.753 Y114.053 E0.88411
G1 X127.753 Y114.590 E0.01694
G1 X107.410 Y94.247 E0.90807
G1 X106.873 Y94.247 E0.01694
G1 X127.753 Y115.127 E0.93203
G1 X127.753 Y115.664 E0.01694
G1 X106.336 Y94.247 E0.95599
G1 X105.799 Y94.247 E0.01694
G1 X120.617 Y109.065 E0.66144
G1 X119.936 Y108.920 E0.02200
G1 X105.263 Y94.247 E0.65497
G1 X104.726 Y94.247 E0.01694
G1 X119.397 Y108.919 E0.65491
G1 X119.071 Y108.919 E0.01030
G1 X118.897 Y108.956 E0.00560
G1 X104.189 Y94.247 E0.65655
G1 X103.652 Y94.247 E0.01694
G1 X118.455 Y109.050 E0.66075
G1 X118.232 Y109.097 E0.00719
G1 X118.047 Y109.179 E0.00637
G1 X103.115 Y94.247 E0.66653
G1 X102.578 Y94.247 E0.01694
G1 X117.676 Y109.345 E0.67392
G1 X117.448 Y109.446 E0.00787
G1 X117.328 Y109.533 E0.00469
G1 X102.042 Y94.247 E0.68234
G1 X101.505 Y94.247 E0.01694
G1 X117.017 Y109.759 E0.69243
G1 X116.715 Y109.994 E0.01208
G1 X100.968 Y94.247 E0.70290
G1 X100.431 Y94.247 E0.01694
G1 X116.460 Y110.276 E0.71551
G1 X116.206 Y110.559 E0.01200
G1 X99.894 Y94.247 E0.72812
G1 X99.357 Y94.247 E0.01694
G1 X116.005 Y110.895 E0.74311
G1 X115.807 Y111.233 E0.01239
G1 X98.821 Y94.247 E0.75823
G1 X98.284 Y94.247 E0.01694
G1 X115.657 Y111.620 E0.77549
G1 X115.525 Y112.025 E0.01345
G1 X97.747 Y94.247 E0.79358
G1 X97.210 Y94.247 E0.01694
G1 X115.450 Y112.487 E0.81419
G1 X115.399 Y112.973 E0.01542
G1 X96.673 Y94.247 E0.83587
G1 X96.136 Y94.247 E0.01694
G1 X115.456 Y113.566 E0.86236
G1 X115.486 Y113.853 E0.00911
G1 X115.621 Y114.268 E0.01377
G1 X95.600 Y94.247 E0.89368
G1 X95.063 Y94.247 E0.01694
G1 X119.569 Y118.753 E1.09389
G1 X120.106 Y118.753 E0.01694
G1 X118.262 Y116.909 E0.08230
G1 X118.944 Y117.054 E0.02200
G1 X120.643 Y118.753 E0.07583
G1 X121.179 Y118.753 E0.01694
G1 X119.508 Y117.081 E0.07462
G1 X119.929 Y117.081 E0.01330
G1 X120.024 Y117.061 E0.00307
G1 X121.716 Y118.753 E0.07553
G1 X122.253 Y118.753 E0.01694
G1 X120.467 Y116.967 E0.07973
G1 X120.768 Y116.903 E0.00972
G1 X120.887 Y116.850 E0.00410
G1 X122.790 Y118.753 E0.08494
G1 X123.327 Y118.753 E0.01694
G1 X121.258 Y116.685 E0.09233
G1 X121.552 Y116.554 E0.01014
G1 X121.617 Y116.507 E0.00254
G1 X123.864 Y118.753 E0.10027
G1 X124.400 Y118.753 E0.01694
G1 X121.928 Y116.281 E0.11036
G1 X122.239 Y116.055 E0.01213
G1 X124.937 Y118.753 E0.12044
G1 X125.474 Y118.753 E0.01694
