; generated by Slic3r Prusa Edition 1.39.2+win64 on 2018-05-29 at 17:27:58

; 

; external perimeters extrusion width = 0.45mm
; perimeters extrusion width = 0.45mm
; infill extrusion width = 0.45mm
; solid infill extrusion width = 0.45mm
; top infill extrusion width = 0.45mm
; first layer extrusion width = 0.42mm

M107
M115 U3.1.0 ; tell printer latest fw version
M83  ; extruder relative mode
M104 S205 ; set extruder temp
M140 S55 ; set bed temp
M190 S55 ; wait for bed temp
M109 S205 ; wait for extruder temp
G28 W ; home all without mesh bed level
G80 ; mesh bed leveling
G1 Y-3.0 F1000.0 ; go outside print area
G92 E0.0
G1 X60.0 E9.0  F1000.0 ; intro line
G1 X100.0 E12.5  F1000.0 ; intro line
G92 E0.0
M900 K30; Filament gcode
G21 ; set units to millimeters
G90 ; use absolute coordinates
M83 ; use relative distances for extrusion
;BEFORE_LAYER_CHANGE
;0.2


G1 E-0.80000 F2100.00000
G1 Z0.600 F7200.000
;AFTER_LAYER_CHANGE
;0.2
G1 X40.994 Y67.484
G1 Z0.200
G1 E0.80000 F2100.00000
M204 S1000
G1 F1800
G1 X41.576 Y67.231 E0.01989
G1 X42.207 Y67.141 E0.01998
G1 X123.763 Y66.560 E2.55722
G1 X162.780 Y66.559 E1.22335
G1 X163.636 Y66.720 E0.02731
G1 X164.374 Y67.177 E0.02720
G1 X164.901 Y67.870 E0.02731
G1 X165.142 Y68.707 E0.02731
G1 X165.148 Y91.100 E0.70211
G1 X158.995 Y136.425 E1.43416
G1 X158.861 Y136.924 E0.01621
G1 X158.620 Y137.386 E0.01633
G1 X158.288 Y137.782 E0.01621
G1 X157.874 Y138.098 E0.01633
G1 X157.285 Y138.353 E0.02012
G1 X156.653 Y138.441 E0.02000
G1 X47.626 Y138.440 E3.41846
G1 X47.028 Y138.359 E0.01894
G1 X46.469 Y138.129 E0.01894
G1 X45.987 Y137.766 E0.01894
G1 X45.611 Y137.293 E0.01894
G1 X45.399 Y136.842 E0.01562
G1 X45.287 Y136.361 E0.01550
G1 X39.852 Y91.676 E1.41138
G1 X39.849 Y69.408 E0.69822
G1 X39.947 Y68.835 E0.01823
G1 X40.181 Y68.302 E0.01823
G1 X40.537 Y67.843 E0.01823
G1 X40.947 Y67.521 E0.01635
G1 F5760
G1 X41.576 Y67.231 E-0.23982
G1 X42.207 Y67.141 E-0.22075
G1 X43.071 Y67.135 E-0.29943
G1 E-0.04000 F2100.00000
G1 Z0.800 F7200.000
G1 X101.060 Y129.995
G1 Z0.200
G1 E0.80000 F2100.00000
G1 F1800
G1 X101.461 Y129.703 E0.01553
G1 X101.913 Y129.502 E0.01553
G1 X102.398 Y129.399 E0.01553
G1 X102.893 Y129.399 E0.01552
G1 X103.378 Y129.502 E0.01553
G1 X103.830 Y129.703 E0.01553
G1 X104.231 Y129.995 E0.01553
G1 X104.562 Y130.363 E0.01553
G1 X104.810 Y130.792 E0.01553
G1 X104.963 Y131.263 E0.01553
G1 X105.015 Y131.755 E0.01553
G1 X104.963 Y132.248 E0.01553
G1 X104.810 Y132.719 E0.01553
G1 X104.562 Y133.148 E0.01553
G1 X104.231 Y133.516 E0.01553
G1 X103.830 Y133.807 E0.01553
G1 X103.378 Y134.009 E0.01553
G1 X102.893 Y134.112 E0.01553
G1 X102.398 Y134.112 E0.01552
G1 X101.913 Y134.009 E0.01553
G1 X101.461 Y133.807 E0.01553
G1 X101.060 Y133.516 E0.01553
G1 X100.728 Y133.148 E0.01553
G1 X100.481 Y132.719 E0.01553
G1 X100.328 Y132.248 E0.01553
G1 X100.276 Y131.755 E0.01553
G1 X100.328 Y131.263 E0.01553
G1 X100.481 Y130.792 E0.01553
G1 X100.728 Y130.363 E0.01553
G1 X101.020 Y130.039 E0.01365
G1 X101.300 Y130.291 F7200.000
G1 F1800
G1 X101.650 Y130.032 E0.01367
G1 X102.030 Y129.863 E0.01305
G1 X102.437 Y129.776 E0.01305
G1 X102.853 Y129.776 E0.01304
G1 X103.260 Y129.863 E0.01305
G1 X103.641 Y130.032 E0.01305
G1 X103.977 Y130.276 E0.01305
G1 X104.256 Y130.586 E0.01305
G1 X104.464 Y130.946 E0.01305
G1 X104.592 Y131.342 E0.01305
G1 X104.636 Y131.755 E0.01305
G1 X104.592 Y132.169 E0.01305
G1 X104.464 Y132.565 E0.01305
G1 X104.256 Y132.925 E0.01305
G1 X103.977 Y133.235 E0.01305
G1 X103.641 Y133.479 E0.01305
G1 X103.260 Y133.648 E0.01305
G1 X102.853 Y133.735 E0.01305
G1 X102.437 Y133.735 E0.01304
G1 X102.030 Y133.648 E0.01305
G1 X101.650 Y133.479 E0.01305
G1 X101.314 Y133.235 E0.01305
G1 X101.035 Y132.925 E0.01305
G1 X100.827 Y132.565 E0.01305
G1 X100.699 Y132.169 E0.01305
G1 X100.655 Y131.755 E0.01305
G1 X100.699 Y131.342 E0.01305
G1 X100.827 Y130.946 E0.01305
G1 X101.035 Y130.586 E0.01305
G1 X101.260 Y130.336 E0.01053
G1 X101.567 Y130.558 F7200.000
G1 F1800
G1 X101.840 Y130.360 E0.01056
G1 X102.148 Y130.223 E0.01056
G1 X102.477 Y130.153 E0.01056
G1 X102.814 Y130.153 E0.01056
G1 X103.143 Y130.223 E0.01056
G1 X103.451 Y130.360 E0.01056
G1 X103.723 Y130.558 E0.01056
G1 X103.949 Y130.808 E0.01056
G1 X104.117 Y131.100 E0.01056
G1 X104.221 Y131.420 E0.01056
G1 X104.257 Y131.755 E0.01056
G1 X104.221 Y132.090 E0.01056
G1 X104.117 Y132.411 E0.01056
G1 X103.949 Y132.702 E0.01056
G1 X103.723 Y132.953 E0.01056
G1 X103.451 Y133.151 E0.01056
G1 X103.143 Y133.288 E0.01056
G1 X102.814 Y133.358 E0.01056
G1 X102.477 Y133.358 E0.01056
G1 X102.148 Y133.288 E0.01056
G1 X101.840 Y133.151 E0.01056
G1 X101.567 Y132.953 E0.01056
G1 X101.342 Y132.702 E0.01056
G1 X101.173 Y132.411 E0.01056
G1 X101.069 Y132.090 E0.01056
G1 X101.034 Y131.755 E0.01056
G1 X101.069 Y131.420 E0.01056
G1 X101.173 Y131.100 E0.01056
G1 X101.342 Y130.808 E0.01056
G1 X101.527 Y130.603 E0.00868
G1 X101.497 Y130.229 F7200.000
G1 F5760
G1 X101.840 Y130.360 E-0.13705
G1 X102.148 Y130.223 E-0.11668
G1 X102.477 Y130.153 E-0.11667
G1 X102.814 Y130.153 E-0.11662
G1 X103.143 Y130.223 E-0.11667
G1 X103.451 Y130.360 E-0.11668
G1 X103.544 Y130.427 E-0.03964
G1 E-0.04000 F2100.00000
G1 Z0.800 F7200.000
G1 X110.366 Y122.482
G1 Z0.200
G1 E0.80000 F2100.00000
G1 F1800
G1 X110.034 Y122.114 E0.01553
G1 X109.787 Y121.685 E0.01553
G1 X109.634 Y121.214 E0.01553
G1 X109.582 Y120.721 E0.01553
G1 X109.634 Y120.229 E0.01553
G1 X109.787 Y119.758 E0.01553
G1 X110.034 Y119.329 E0.01553
G1 X110.366 Y118.961 E0.01553
G1 X110.767 Y118.669 E0.01553
G1 X111.219 Y118.468 E0.01553
G1 X111.704 Y118.365 E0.01553
G1 X112.199 Y118.365 E0.01552
G1 X112.684 Y118.468 E0.01553
G1 X113.136 Y118.669 E0.01553
G1 X113.537 Y118.961 E0.01553
G1 X113.868 Y119.329 E0.01553
G1 X114.116 Y119.758 E0.01553
G1 X114.269 Y120.229 E0.01553
G1 X114.321 Y120.721 E0.01553
G1 X114.269 Y121.214 E0.01553
G1 X114.116 Y121.685 E0.01553
G1 X113.868 Y122.114 E0.01553
G1 X113.537 Y122.482 E0.01553
G1 X113.136 Y122.773 E0.01553
G1 X112.684 Y122.975 E0.01553
G1 X112.199 Y123.078 E0.01553
G1 X111.704 Y123.078 E0.01552
G1 X111.219 Y122.975 E0.01553
G1 X110.767 Y122.773 E0.01553
G1 X110.414 Y122.518 E0.01365
G1 X110.636 Y122.212 F7200.000
G1 F1800
G1 X110.341 Y121.891 E0.01367
G1 X110.133 Y121.531 E0.01305
G1 X110.005 Y121.135 E0.01305
G1 X109.961 Y120.721 E0.01305
G1 X110.005 Y120.308 E0.01305
G1 X110.133 Y119.912 E0.01305
G1 X110.341 Y119.552 E0.01305
G1 X110.620 Y119.242 E0.01305
G1 X110.956 Y118.998 E0.01305
G1 X111.336 Y118.829 E0.01305
G1 X111.743 Y118.742 E0.01305
G1 X112.159 Y118.742 E0.01304
G1 X112.566 Y118.829 E0.01305
G1 X112.947 Y118.998 E0.01305
G1 X113.283 Y119.242 E0.01305
G1 X113.562 Y119.552 E0.01305
G1 X113.770 Y119.912 E0.01305
G1 X113.898 Y120.308 E0.01305
G1 X113.942 Y120.721 E0.01305
G1 X113.898 Y121.135 E0.01305
G1 X113.770 Y121.531 E0.01305
G1 X113.562 Y121.891 E0.01305
G1 X113.283 Y122.201 E0.01305
G1 X112.947 Y122.445 E0.01305
G1 X112.566 Y122.614 E0.01305
G1 X112.159 Y122.701 E0.01305
G1 X111.743 Y122.701 E0.01304
G1 X111.336 Y122.614 E0.01305
G1 X110.956 Y122.445 E0.01305
G1 X110.685 Y122.248 E0.01053
G1 X110.873 Y121.919 F7200.000
G1 F1800
G1 X110.648 Y121.668 E0.01056
G1 X110.479 Y121.377 E0.01056
G1 X110.375 Y121.056 E0.01056
G1 X110.340 Y120.721 E0.01056
G1 X110.375 Y120.386 E0.01056
G1 X110.479 Y120.066 E0.01056
G1 X110.648 Y119.774 E0.01056
G1 X110.873 Y119.524 E0.01056
G1 X111.146 Y119.326 E0.01056
G1 X111.454 Y119.189 E0.01056
G1 X111.783 Y119.119 E0.01056
G1 X112.120 Y119.119 E0.01056
G1 X112.449 Y119.189 E0.01056
G1 X112.757 Y119.326 E0.01056
G1 X113.029 Y119.524 E0.01056
G1 X113.255 Y119.774 E0.01056
G1 X113.423 Y120.066 E0.01056
G1 X113.527 Y120.386 E0.01056
G1 X113.563 Y120.721 E0.01056
G1 X113.527 Y121.056 E0.01056
G1 X113.423 Y121.377 E0.01056
G1 X113.255 Y121.668 E0.01056
G1 X113.029 Y121.919 E0.01056
G1 X112.757 Y122.117 E0.01056
G1 X112.449 Y122.254 E0.01056
G1 X112.120 Y122.324 E0.01056
G1 X111.783 Y122.324 E0.01056
G1 X111.454 Y122.254 E0.01056
G1 X111.146 Y122.117 E0.01056
G1 X110.922 Y121.954 E0.00868
G1 X110.553 Y122.023 F7200.000
G1 F5760
G1 X110.648 Y121.668 E-0.13704
G1 X110.479 Y121.377 E-0.11668
G1 X110.375 Y121.056 E-0.11664
G1 X110.340 Y120.721 E-0.11667
G1 X110.375 Y120.386 E-0.11667
G1 X110.479 Y120.066 E-0.11664
G1 X110.537 Y119.967 E-0.03966
G1 E-0.04000 F2100.00000
G1 Z0.800 F7200.000
G1 X116.481 Y120.620
G1 Z0.200
G1 E0.80000 F2100.00000
G1 F1800
G1 X116.481 Y109.191 E0.35833
G1 X139.410 Y109.191 E0.71890
G1 X139.410 Y120.620 E0.35833
G1 X116.541 Y120.620 E0.71702
G1 X116.858 Y120.243 F7200.000
G1 F1800
G1 X116.858 Y109.568 E0.33468
G1 X139.032 Y109.568 E0.69526
G1 X139.032 Y120.243 E0.33468
G1 X116.918 Y120.243 E0.69337
G1 X117.235 Y119.865 F7200.000
G1 F1800
G1 X117.235 Y109.945 E0.31103
G1 X138.655 Y109.945 E0.67161
G1 X138.655 Y119.865 E0.31103
G1 X117.295 Y119.865 E0.66973
G1 X116.840 Y119.923 F7200.000
G1 F5760
G1 X117.282 Y117.671 E-0.76000
G1 E-0.04000 F2100.00000
G1 Z0.800 F7200.000
G1 X112.684 Y107.735
G1 Z0.200
G1 E0.80000 F2100.00000
G1 F1800
G1 X112.199 Y107.838 E0.01553
G1 X111.704 Y107.838 E0.01553
G1 X111.219 Y107.735 E0.01553
G1 X110.767 Y107.533 E0.01553
G1 X110.366 Y107.242 E0.01553
G1 X110.034 Y106.874 E0.01553
G1 X109.787 Y106.445 E0.01553
G1 X109.634 Y105.974 E0.01553
G1 X109.582 Y105.481 E0.01553
G1 X109.634 Y104.989 E0.01553
G1 X109.787 Y104.518 E0.01553
G1 X110.034 Y104.089 E0.01553
G1 X110.366 Y103.721 E0.01553
G1 X110.767 Y103.429 E0.01553
G1 X111.219 Y103.228 E0.01553
G1 X111.704 Y103.125 E0.01553
G1 X112.199 Y103.125 E0.01553
G1 X112.684 Y103.228 E0.01553
G1 X113.136 Y103.429 E0.01553
G1 X113.537 Y103.721 E0.01553
G1 X113.868 Y104.089 E0.01553
G1 X114.116 Y104.518 E0.01553
G1 X114.269 Y104.989 E0.01553
G1 X114.321 Y105.481 E0.01553
G1 X114.269 Y105.974 E0.01553
G1 X114.116 Y106.445 E0.01553
G1 X113.868 Y106.874 E0.01553
G1 X113.537 Y107.242 E0.01553
G1 X113.136 Y107.533 E0.01553
G1 X112.738 Y107.711 E0.01365
G1 X112.585 Y107.366 F7200.000
G1 F1800
G1 X112.159 Y107.461 E0.01367
G1 X111.743 Y107.461 E0.01304
G1 X111.336 Y107.374 E0.01305
G1 X110.956 Y107.205 E0.01305
G1 X110.620 Y106.961 E0.01305
G1 X110.341 Y106.651 E0.01304
G1 X110.133 Y106.291 E0.01305
G1 X110.005 Y105.895 E0.01305
G1 X109.961 Y105.481 E0.01305
G1 X110.005 Y105.068 E0.01305
G1 X110.133 Y104.672 E0.01305
G1 X110.341 Y104.312 E0.01305
G1 X110.620 Y104.002 E0.01304
G1 X110.956 Y103.758 E0.01305
G1 X111.336 Y103.589 E0.01305
G1 X111.743 Y103.502 E0.01305
G1 X112.159 Y103.502 E0.01304
G1 X112.566 Y103.589 E0.01305
G1 X112.947 Y103.758 E0.01305
G1 X113.283 Y104.002 E0.01305
G1 X113.562 Y104.312 E0.01304
G1 X113.770 Y104.672 E0.01305
G1 X113.898 Y105.068 E0.01305
G1 X113.942 Y105.481 E0.01305
G1 X113.898 Y105.895 E0.01305
G1 X113.770 Y106.291 E0.01305
G1 X113.562 Y106.651 E0.01305
G1 X113.283 Y106.961 E0.01304
G1 X112.947 Y107.205 E0.01305
G1 X112.640 Y107.342 E0.01053
G1 X112.449 Y107.014 F7200.000
G1 F1800
G1 X112.120 Y107.084 E0.01056
G1 X111.783 Y107.084 E0.01056
G1 X111.454 Y107.014 E0.01056
G1 X111.146 Y106.877 E0.01056
G1 X110.873 Y106.679 E0.01056
G1 X110.648 Y106.428 E0.01056
G1 X110.479 Y106.137 E0.01056
G1 X110.375 Y105.816 E0.01056
G1 X110.340 Y105.481 E0.01056
G1 X110.375 Y105.146 E0.01056
G1 X110.479 Y104.826 E0.01056
G1 X110.648 Y104.534 E0.01056
G1 X110.873 Y104.284 E0.01056
G1 X111.146 Y104.086 E0.01056
G1 X111.454 Y103.949 E0.01056
G1 X111.783 Y103.879 E0.01056
G1 X112.120 Y103.879 E0.01056
G1 X112.449 Y103.949 E0.01056
G1 X112.757 Y104.086 E0.01056
G1 X113.029 Y104.284 E0.01056
G1 X113.255 Y104.534 E0.01056
G1 X113.423 Y104.826 E0.01056
G1 X113.527 Y105.146 E0.01056
G1 X113.563 Y105.481 E0.01056
G1 X113.527 Y105.816 E0.01056
G1 X113.423 Y106.137 E0.01056
G1 X113.255 Y106.428 E0.01056
G1 X113.029 Y106.679 E0.01056
G1 X112.757 Y106.877 E0.01056
G1 X112.504 Y106.989 E0.00868
G1 X112.379 Y107.343 F7200.000
G1 F5760
G1 X112.120 Y107.084 E-0.13706
G1 X111.783 Y107.084 E-0.11663
G1 X111.454 Y107.014 E-0.11666
G1 X111.146 Y106.877 E-0.11667
G1 X110.873 Y106.679 E-0.11667
G1 X110.648 Y106.428 E-0.11664
G1 X110.591 Y106.329 E-0.03966
G1 E-0.04000 F2100.00000
G1 Z0.800 F7200.000
G1 X104.231 Y98.516
G1 Z0.200
G1 E0.80000 F2100.00000
G1 F1800
G1 X103.830 Y98.807 E0.01553
G1 X103.378 Y99.009 E0.01553
G1 X102.893 Y99.112 E0.01553
G1 X102.398 Y99.112 E0.01553
G1 X101.913 Y99.009 E0.01553
G1 X101.461 Y98.807 E0.01553
G1 X101.060 Y98.516 E0.01553
G1 X100.728 Y98.148 E0.01553
G1 X100.481 Y97.719 E0.01553
G1 X100.328 Y97.248 E0.01553
G1 X100.276 Y96.755 E0.01553
G1 X100.328 Y96.263 E0.01553
G1 X100.481 Y95.792 E0.01553
G1 X100.728 Y95.363 E0.01553
G1 X101.060 Y94.995 E0.01553
G1 X101.461 Y94.703 E0.01553
G1 X101.913 Y94.502 E0.01553
G1 X102.398 Y94.399 E0.01553
G1 X102.893 Y94.399 E0.01553
G1 X103.378 Y94.502 E0.01553
G1 X103.830 Y94.703 E0.01553
G1 X104.231 Y94.995 E0.01553
G1 X104.562 Y95.363 E0.01553
G1 X104.810 Y95.792 E0.01553
G1 X104.963 Y96.263 E0.01553
G1 X105.015 Y96.755 E0.01553
G1 X104.963 Y97.248 E0.01553
G1 X104.810 Y97.719 E0.01553
G1 X104.562 Y98.148 E0.01553
G1 X104.271 Y98.472 E0.01365
G1 X103.991 Y98.219 F7200.000
G1 F1800
G1 X103.641 Y98.479 E0.01367
G1 X103.260 Y98.648 E0.01305
G1 X102.853 Y98.735 E0.01305
G1 X102.437 Y98.735 E0.01304
G1 X102.030 Y98.648 E0.01305
G1 X101.650 Y98.479 E0.01305
G1 X101.314 Y98.235 E0.01305
G1 X101.035 Y97.925 E0.01304
G1 X100.827 Y97.565 E0.01305
G1 X100.699 Y97.169 E0.01305
G1 X100.655 Y96.755 E0.01305
G1 X100.699 Y96.342 E0.01305
G1 X100.827 Y95.946 E0.01305
G1 X101.035 Y95.586 E0.01305
G1 X101.314 Y95.276 E0.01304
G1 X101.650 Y95.032 E0.01305
G1 X102.030 Y94.863 E0.01305
G1 X102.437 Y94.776 E0.01305
G1 X102.853 Y94.776 E0.01304
G1 X103.260 Y94.863 E0.01305
G1 X103.641 Y95.032 E0.01305
G1 X103.977 Y95.276 E0.01305
G1 X104.256 Y95.586 E0.01304
G1 X104.464 Y95.946 E0.01305
G1 X104.592 Y96.342 E0.01305
G1 X104.636 Y96.755 E0.01305
G1 X104.592 Y97.169 E0.01305
G1 X104.464 Y97.565 E0.01305
G1 X104.256 Y97.925 E0.01305
G1 X104.031 Y98.175 E0.01052
G1 X103.723 Y97.953 F7200.000
G1 F1800
G1 X103.451 Y98.151 E0.01056
G1 X103.143 Y98.288 E0.01056
G1 X102.814 Y98.358 E0.01056
G1 X102.477 Y98.358 E0.01056
G1 X102.148 Y98.288 E0.01056
G1 X101.840 Y98.151 E0.01056
G1 X101.567 Y97.953 E0.01056
G1 X101.342 Y97.702 E0.01056
G1 X101.173 Y97.411 E0.01056
G1 X101.069 Y97.090 E0.01056
G1 X101.034 Y96.755 E0.01056
G1 X101.069 Y96.420 E0.01056
G1 X101.173 Y96.100 E0.01056
G1 X101.342 Y95.808 E0.01056
G1 X101.567 Y95.558 E0.01056
G1 X101.840 Y95.360 E0.01056
G1 X102.148 Y95.223 E0.01056
G1 X102.477 Y95.153 E0.01056
G1 X102.814 Y95.153 E0.01056
G1 X103.143 Y95.223 E0.01056
G1 X103.451 Y95.360 E0.01056
G1 X103.723 Y95.558 E0.01056
G1 X103.949 Y95.808 E0.01056
G1 X104.117 Y96.100 E0.01056
G1 X104.221 Y96.420 E0.01056
G1 X104.257 Y96.755 E0.01056
G1 X104.221 Y97.090 E0.01056
G1 X104.117 Y97.411 E0.01056
G1 X103.949 Y97.702 E0.01056
G1 X103.764 Y97.908 E0.00868
G1 X103.794 Y98.282 F7200.000
G1 F5760
G1 X103.451 Y98.151 E-0.13707
G1 X103.143 Y98.288 E-0.11667
G1 X102.814 Y98.358 E-0.11666
G1 X102.477 Y98.358 E-0.11663
G1 X102.148 Y98.288 E-0.11666
G1 X101.840 Y98.151 E-0.11667
G1 X101.747 Y98.083 E-0.03964
G1 E-0.04000 F2100.00000
G1 Z0.800 F7200.000
G1 X92.596 Y104.518
G1 Z0.200
G1 E0.80000 F2100.00000
G1 F1800
G1 X92.749 Y104.989 E0.01553
G1 X92.801 Y105.481 E0.01553
G1 X92.749 Y105.974 E0.01553
G1 X92.596 Y106.445 E0.01553
G1 X92.348 Y106.874 E0.01553
G1 X92.017 Y107.242 E0.01553
G1 X91.616 Y107.533 E0.01553
G1 X91.164 Y107.735 E0.01553
G1 X90.679 Y107.838 E0.01553
G1 X90.184 Y107.838 E0.01553
G1 X89.699 Y107.735 E0.01553
G1 X89.247 Y107.533 E0.01553
G1 X88.846 Y107.242 E0.01553
G1 X88.514 Y106.874 E0.01553
G1 X88.267 Y106.445 E0.01553
G1 X88.114 Y105.974 E0.01553
G1 X88.062 Y105.481 E0.01553
G1 X88.114 Y104.989 E0.01553
G1 X88.267 Y104.518 E0.01553
G1 X88.514 Y104.089 E0.01553
G1 X88.846 Y103.721 E0.01553
G1 X89.247 Y103.429 E0.01553
G1 X89.699 Y103.228 E0.01553
G1 X90.184 Y103.125 E0.01553
G1 X90.679 Y103.125 E0.01553
G1 X91.164 Y103.228 E0.01553
G1 X91.616 Y103.429 E0.01553
G1 X92.017 Y103.721 E0.01553
