; generated by Slic3r Prusa Edition 1.39.2+win64 on 2018-06-07 at 13:00:35

; 

; external perimeters extrusion width = 0.45mm
; perimeters extrusion width = 0.45mm
; infill extrusion width = 0.45mm
; solid infill extrusion width = 0.45mm
; top infill extrusion width = 0.45mm
; first layer extrusion width = 0.42mm

M107
M115 U3.1.0 ; tell printer latest fw version
M83  ; extruder relative mode
M104 S205 ; set extruder temp
M140 S55 ; set bed temp
M190 S55 ; wait for bed temp
M109 S205 ; wait for extruder temp
G28 W ; home all without mesh bed level
G80 ; mesh bed leveling
G1 Y-3.0 F1000.0 ; go outside print area
G92 E0.0
G1 X60.0 E9.0  F1000.0 ; intro line
G1 X100.0 E12.5  F1000.0 ; intro line
G92 E0.0
M900 K30; Filament gcode
G21 ; set units to millimeters
G90 ; use absolute coordinates
M83 ; use relative distances for extrusion
;BEFORE_LAYER_CHANGE
;0.2


G1 E-0.80000 F2100.00000
G1 Z0.600 F7200.000
;AFTER_LAYER_CHANGE
;0.2
G1 X47.086 Y78.806
G1 Z0.200
G1 E0.80000 F2100.00000
M204 S1000
G1 F1800
G1 X47.995 Y78.623 E0.02907
G1 X157.004 Y78.623 E3.41789
G1 X157.899 Y78.799 E0.02860
G1 X158.664 Y79.303 E0.02872
G1 X159.182 Y80.058 E0.02872
G1 X159.377 Y80.953 E0.02872
G1 X159.376 Y124.076 E1.35209
G1 X159.258 Y124.742 E0.02119
G1 X158.956 Y125.350 E0.02130
G1 X158.494 Y125.849 E0.02130
G1 X157.914 Y126.194 E0.02119
G1 X157.005 Y126.377 E0.02907
G1 X47.973 Y126.377 E3.41861
G1 X47.291 Y126.269 E0.02166
G1 X46.672 Y125.971 E0.02154
G1 X46.161 Y125.506 E0.02166
G1 X45.806 Y124.914 E0.02166
G1 X45.623 Y124.009 E0.02896
G1 X45.624 Y80.935 E1.35054
G1 X45.739 Y80.266 E0.02130
G1 X46.039 Y79.656 E0.02130
G1 X46.503 Y79.154 E0.02142
G1 X47.035 Y78.836 E0.01942
G1 F5760
G1 X47.995 Y78.623 E-0.34081
G1 X49.205 Y78.623 E-0.41919
G1 E-0.04000 F2100.00000
G1 Z0.800 F7200.000
G1 X101.083 Y118.299
G1 Z0.200
G1 E0.80000 F2100.00000
G1 F1800
G1 X101.415 Y117.931 E0.01553
G1 X101.815 Y117.640 E0.01553
G1 X102.268 Y117.438 E0.01553
G1 X102.752 Y117.336 E0.01553
G1 X103.248 Y117.336 E0.01552
G1 X103.732 Y117.438 E0.01553
G1 X104.185 Y117.640 E0.01553
G1 X104.586 Y117.931 E0.01553
G1 X104.917 Y118.299 E0.01553
G1 X105.165 Y118.728 E0.01553
G1 X105.318 Y119.199 E0.01553
G1 X105.369 Y119.692 E0.01553
G1 X105.318 Y120.185 E0.01553
G1 X105.165 Y120.656 E0.01553
G1 X104.917 Y121.085 E0.01553
G1 X104.586 Y121.453 E0.01553
G1 X104.185 Y121.744 E0.01553
G1 X103.732 Y121.946 E0.01553
G1 X103.248 Y122.048 E0.01553
G1 X102.752 Y122.048 E0.01552
G1 X102.268 Y121.946 E0.01553
G1 X101.815 Y121.744 E0.01553
G1 X101.415 Y121.453 E0.01553
G1 X101.083 Y121.085 E0.01553
G1 X100.835 Y120.656 E0.01553
G1 X100.682 Y120.185 E0.01553
G1 X100.631 Y119.692 E0.01553
G1 X100.682 Y119.199 E0.01553
G1 X100.835 Y118.728 E0.01553
G1 X101.053 Y118.351 E0.01365
G1 X101.380 Y118.540 F7200.000
G1 F1800
G1 X101.668 Y118.213 E0.01367
G1 X102.005 Y117.968 E0.01305
G1 X102.385 Y117.799 E0.01305
G1 X102.792 Y117.713 E0.01305
G1 X103.208 Y117.713 E0.01304
G1 X103.615 Y117.799 E0.01305
G1 X103.995 Y117.968 E0.01305
G1 X104.332 Y118.213 E0.01305
G1 X104.610 Y118.522 E0.01305
G1 X104.818 Y118.882 E0.01305
G1 X104.947 Y119.278 E0.01305
G1 X104.990 Y119.692 E0.01305
G1 X104.947 Y120.106 E0.01305
G1 X104.818 Y120.502 E0.01305
G1 X104.610 Y120.862 E0.01305
G1 X104.332 Y121.171 E0.01305
G1 X103.995 Y121.416 E0.01305
G1 X103.615 Y121.585 E0.01305
G1 X103.208 Y121.671 E0.01305
G1 X102.792 Y121.671 E0.01304
G1 X102.385 Y121.585 E0.01305
G1 X102.005 Y121.416 E0.01305
G1 X101.668 Y121.171 E0.01305
G1 X101.390 Y120.862 E0.01305
G1 X101.182 Y120.502 E0.01305
G1 X101.053 Y120.106 E0.01305
G1 X101.010 Y119.692 E0.01305
G1 X101.053 Y119.278 E0.01305
G1 X101.182 Y118.882 E0.01305
G1 X101.350 Y118.592 E0.01053
G1 X101.697 Y118.745 F7200.000
G1 F1800
G1 X101.922 Y118.495 E0.01056
G1 X102.194 Y118.297 E0.01056
G1 X102.502 Y118.160 E0.01056
G1 X102.832 Y118.090 E0.01056
G1 X103.168 Y118.090 E0.01056
G1 X103.498 Y118.160 E0.01056
G1 X103.806 Y118.297 E0.01056
G1 X104.078 Y118.495 E0.01056
G1 X104.303 Y118.745 E0.01056
G1 X104.472 Y119.037 E0.01056
G1 X104.576 Y119.357 E0.01056
G1 X104.611 Y119.692 E0.01056
G1 X104.576 Y120.027 E0.01056
G1 X104.472 Y120.347 E0.01056
G1 X104.303 Y120.639 E0.01056
G1 X104.078 Y120.889 E0.01056
G1 X103.806 Y121.087 E0.01056
G1 X103.498 Y121.224 E0.01056
G1 X103.168 Y121.294 E0.01056
G1 X102.832 Y121.294 E0.01056
G1 X102.502 Y121.224 E0.01056
G1 X102.194 Y121.087 E0.01056
G1 X101.922 Y120.889 E0.01056
G1 X101.697 Y120.639 E0.01056
G1 X101.528 Y120.347 E0.01056
G1 X101.424 Y120.027 E0.01056
G1 X101.389 Y119.692 E0.01056
G1 X101.424 Y119.357 E0.01056
G1 X101.528 Y119.037 E0.01056
G1 X101.667 Y118.797 E0.00868
G1 X101.560 Y118.437 F7200.000
G1 F5760
G1 X101.922 Y118.495 E-0.13705
G1 X102.194 Y118.297 E-0.11666
G1 X102.502 Y118.160 E-0.11668
G1 X102.832 Y118.090 E-0.11667
G1 X103.168 Y118.090 E-0.11662
G1 X103.498 Y118.160 E-0.11667
G1 X103.602 Y118.206 E-0.03967
G1 E-0.04000 F2100.00000
G1 Z0.800 F7200.000
G1 X110.721 Y110.419
G1 Z0.200
G1 E0.80000 F2100.00000
G1 F1800
G1 X110.389 Y110.051 E0.01553
G1 X110.141 Y109.622 E0.01553
G1 X109.988 Y109.151 E0.01553
G1 X109.937 Y108.658 E0.01553
G1 X109.988 Y108.165 E0.01553
G1 X110.141 Y107.694 E0.01553
G1 X110.389 Y107.265 E0.01553
G1 X110.720 Y106.897 E0.01553
G1 X111.121 Y106.606 E0.01553
G1 X111.574 Y106.404 E0.01553
G1 X112.058 Y106.302 E0.01553
G1 X112.554 Y106.302 E0.01552
G1 X113.038 Y106.404 E0.01553
G1 X113.491 Y106.606 E0.01553
G1 X113.891 Y106.897 E0.01553
G1 X114.223 Y107.265 E0.01553
G1 X114.471 Y107.694 E0.01553
G1 X114.624 Y108.165 E0.01553
G1 X114.675 Y108.658 E0.01553
G1 X114.624 Y109.151 E0.01553
G1 X114.471 Y109.622 E0.01553
G1 X114.223 Y110.051 E0.01553
G1 X113.891 Y110.419 E0.01553
G1 X113.491 Y110.710 E0.01553
G1 X113.038 Y110.912 E0.01553
G1 X112.554 Y111.014 E0.01553
G1 X112.058 Y111.014 E0.01552
G1 X111.574 Y110.912 E0.01553
G1 X111.121 Y110.710 E0.01553
G1 X110.769 Y110.454 E0.01365
G1 X110.991 Y110.149 F7200.000
G1 F1800
G1 X110.696 Y109.828 E0.01367
G1 X110.488 Y109.468 E0.01305
G1 X110.359 Y109.072 E0.01305
G1 X110.316 Y108.658 E0.01305
G1 X110.359 Y108.244 E0.01305
G1 X110.488 Y107.848 E0.01305
G1 X110.696 Y107.488 E0.01305
G1 X110.974 Y107.179 E0.01305
G1 X111.311 Y106.934 E0.01305
G1 X111.691 Y106.765 E0.01305
G1 X112.098 Y106.679 E0.01305
G1 X112.514 Y106.679 E0.01304
G1 X112.921 Y106.765 E0.01305
G1 X113.301 Y106.934 E0.01305
G1 X113.638 Y107.179 E0.01305
G1 X113.916 Y107.488 E0.01305
G1 X114.124 Y107.848 E0.01305
G1 X114.253 Y108.244 E0.01305
G1 X114.296 Y108.658 E0.01305
G1 X114.253 Y109.072 E0.01305
G1 X114.124 Y109.468 E0.01305
G1 X113.916 Y109.828 E0.01305
G1 X113.638 Y110.137 E0.01305
G1 X113.301 Y110.382 E0.01305
G1 X112.921 Y110.551 E0.01305
G1 X112.514 Y110.637 E0.01305
G1 X112.098 Y110.637 E0.01304
G1 X111.691 Y110.551 E0.01305
G1 X111.311 Y110.382 E0.01305
G1 X111.039 Y110.184 E0.01053
G1 X111.228 Y109.855 F7200.000
G1 F1800
G1 X111.003 Y109.605 E0.01056
G1 X110.834 Y109.313 E0.01056
G1 X110.730 Y108.993 E0.01056
G1 X110.695 Y108.658 E0.01056
G1 X110.730 Y108.323 E0.01056
G1 X110.834 Y108.003 E0.01056
G1 X111.003 Y107.711 E0.01056
G1 X111.228 Y107.461 E0.01056
G1 X111.500 Y107.263 E0.01056
G1 X111.808 Y107.126 E0.01056
G1 X112.138 Y107.056 E0.01056
G1 X112.474 Y107.056 E0.01056
G1 X112.804 Y107.126 E0.01056
G1 X113.112 Y107.263 E0.01056
G1 X113.384 Y107.461 E0.01056
G1 X113.609 Y107.711 E0.01056
G1 X113.778 Y108.003 E0.01056
G1 X113.882 Y108.323 E0.01056
G1 X113.917 Y108.658 E0.01056
G1 X113.882 Y108.993 E0.01056
G1 X113.778 Y109.313 E0.01056
G1 X113.609 Y109.605 E0.01056
G1 X113.384 Y109.855 E0.01056
G1 X113.112 Y110.053 E0.01056
G1 X112.804 Y110.190 E0.01056
G1 X112.474 Y110.260 E0.01056
G1 X112.138 Y110.260 E0.01056
G1 X111.808 Y110.190 E0.01056
G1 X111.500 Y110.053 E0.01056
G1 X111.276 Y109.891 E0.00868
G1 X110.908 Y109.959 F7200.000
G1 F5760
G1 X111.003 Y109.605 E-0.13704
G1 X110.834 Y109.313 E-0.11668
G1 X110.730 Y108.993 E-0.11664
G1 X110.695 Y108.658 E-0.11667
G1 X110.730 Y108.323 E-0.11667
G1 X110.834 Y108.003 E-0.11664
G1 X110.891 Y107.904 E-0.03966
G1 E-0.04000 F2100.00000
G1 Z0.800 F7200.000
G1 X116.836 Y108.556
G1 Z0.200
G1 E0.80000 F2100.00000
G1 F1800
G1 X116.836 Y97.128 E0.35833
G1 X139.764 Y97.128 E0.71890
G1 X139.764 Y108.556 E0.35833
G1 X116.896 Y108.556 E0.71702
G1 X117.213 Y108.179 F7200.000
G1 F1800
G1 X117.213 Y97.505 E0.33468
G1 X139.387 Y97.505 E0.69526
G1 X139.387 Y108.179 E0.33468
G1 X117.273 Y108.179 E0.69337
G1 X117.590 Y107.802 F7200.000
G1 F1800
G1 X117.590 Y97.882 E0.31103
G1 X139.010 Y97.882 E0.67161
G1 X139.010 Y107.802 E0.31103
G1 X117.650 Y107.802 E0.66973
G1 X117.194 Y107.860 F7200.000
G1 F5760
G1 X117.637 Y105.608 E-0.76000
G1 E-0.04000 F2100.00000
G1 Z0.800 F7200.000
G1 X113.038 Y95.672
G1 Z0.200
G1 E0.80000 F2100.00000
G1 F1800
G1 X112.554 Y95.774 E0.01553
G1 X112.058 Y95.774 E0.01553
G1 X111.574 Y95.672 E0.01553
G1 X111.121 Y95.470 E0.01553
G1 X110.720 Y95.179 E0.01553
G1 X110.389 Y94.811 E0.01553
G1 X110.141 Y94.382 E0.01553
G1 X109.988 Y93.911 E0.01553
G1 X109.937 Y93.418 E0.01553
G1 X109.988 Y92.925 E0.01553
G1 X110.141 Y92.454 E0.01553
G1 X110.389 Y92.025 E0.01553
G1 X110.720 Y91.657 E0.01553
G1 X111.121 Y91.366 E0.01553
G1 X111.574 Y91.164 E0.01553
G1 X112.058 Y91.062 E0.01553
G1 X112.554 Y91.062 E0.01553
G1 X113.038 Y91.164 E0.01553
G1 X113.491 Y91.366 E0.01553
G1 X113.892 Y91.657 E0.01553
G1 X114.223 Y92.025 E0.01553
G1 X114.471 Y92.454 E0.01553
G1 X114.624 Y92.925 E0.01553
G1 X114.675 Y93.418 E0.01553
G1 X114.624 Y93.911 E0.01553
G1 X114.471 Y94.382 E0.01553
G1 X114.223 Y94.811 E0.01553
G1 X113.892 Y95.179 E0.01553
G1 X113.491 Y95.470 E0.01553
G1 X113.093 Y95.647 E0.01365
G1 X112.940 Y95.303 F7200.000
G1 F1800
G1 X112.514 Y95.397 E0.01367
G1 X112.098 Y95.397 E0.01304
G1 X111.691 Y95.311 E0.01305
G1 X111.311 Y95.142 E0.01305
G1 X110.974 Y94.897 E0.01305
G1 X110.696 Y94.588 E0.01304
G1 X110.488 Y94.228 E0.01305
G1 X110.359 Y93.832 E0.01305
G1 X110.316 Y93.418 E0.01305
G1 X110.359 Y93.004 E0.01305
G1 X110.488 Y92.608 E0.01305
G1 X110.696 Y92.248 E0.01305
G1 X110.974 Y91.939 E0.01304
G1 X111.311 Y91.694 E0.01305
G1 X111.691 Y91.525 E0.01305
G1 X112.098 Y91.439 E0.01305
G1 X112.514 Y91.439 E0.01304
G1 X112.921 Y91.525 E0.01305
G1 X113.301 Y91.694 E0.01305
G1 X113.638 Y91.939 E0.01305
G1 X113.916 Y92.248 E0.01304
G1 X114.124 Y92.608 E0.01305
G1 X114.253 Y93.004 E0.01305
G1 X114.296 Y93.418 E0.01305
G1 X114.253 Y93.832 E0.01305
G1 X114.124 Y94.228 E0.01305
G1 X113.916 Y94.588 E0.01305
G1 X113.638 Y94.897 E0.01304
G1 X113.301 Y95.142 E0.01305
G1 X112.994 Y95.278 E0.01053
G1 X112.804 Y94.950 F7200.000
G1 F1800
G1 X112.474 Y95.020 E0.01056
G1 X112.138 Y95.020 E0.01056
G1 X111.808 Y94.950 E0.01056
G1 X111.500 Y94.813 E0.01056
G1 X111.228 Y94.615 E0.01056
G1 X111.003 Y94.365 E0.01056
G1 X110.834 Y94.073 E0.01056
G1 X110.730 Y93.753 E0.01056
G1 X110.695 Y93.418 E0.01056
G1 X110.730 Y93.083 E0.01056
G1 X110.834 Y92.763 E0.01056
G1 X111.003 Y92.471 E0.01056
G1 X111.228 Y92.221 E0.01056
G1 X111.500 Y92.023 E0.01056
G1 X111.808 Y91.886 E0.01056
G1 X112.138 Y91.816 E0.01056
G1 X112.474 Y91.816 E0.01056
G1 X112.804 Y91.886 E0.01056
G1 X113.112 Y92.023 E0.01056
G1 X113.384 Y92.221 E0.01056
G1 X113.609 Y92.471 E0.01056
G1 X113.778 Y92.763 E0.01056
G1 X113.882 Y93.083 E0.01056
G1 X113.917 Y93.418 E0.01056
G1 X113.882 Y93.753 E0.01056
G1 X113.778 Y94.073 E0.01056
G1 X113.609 Y94.365 E0.01056
G1 X113.384 Y94.615 E0.01056
G1 X113.112 Y94.813 E0.01056
G1 X112.859 Y94.926 E0.00868
G1 X112.734 Y95.280 F7200.000
G1 F5760
G1 X112.474 Y95.020 E-0.13706
G1 X112.138 Y95.020 E-0.11663
G1 X111.808 Y94.950 E-0.11666
G1 X111.500 Y94.813 E-0.11667
G1 X111.228 Y94.615 E-0.11667
G1 X111.003 Y94.365 E-0.11664
G1 X110.945 Y94.266 E-0.03966
G1 E-0.04000 F2100.00000
G1 Z0.800 F7200.000
G1 X104.586 Y86.453
G1 Z0.200
G1 E0.80000 F2100.00000
G1 F1800
G1 X104.185 Y86.744 E0.01553
G1 X103.732 Y86.946 E0.01553
G1 X103.248 Y87.048 E0.01553
G1 X102.752 Y87.048 E0.01553
G1 X102.268 Y86.946 E0.01553
G1 X101.815 Y86.744 E0.01553
G1 X101.414 Y86.453 E0.01553
G1 X101.083 Y86.085 E0.01553
G1 X100.835 Y85.656 E0.01553
G1 X100.682 Y85.185 E0.01553
G1 X100.631 Y84.692 E0.01553
G1 X100.682 Y84.199 E0.01553
G1 X100.835 Y83.728 E0.01553
G1 X101.083 Y83.299 E0.01553
G1 X101.414 Y82.931 E0.01553
G1 X101.815 Y82.640 E0.01553
G1 X102.268 Y82.438 E0.01553
G1 X102.752 Y82.336 E0.01553
G1 X103.248 Y82.336 E0.01553
G1 X103.732 Y82.438 E0.01553
G1 X104.185 Y82.640 E0.01553
G1 X104.586 Y82.931 E0.01553
G1 X104.917 Y83.299 E0.01553
G1 X105.165 Y83.728 E0.01553
G1 X105.318 Y84.199 E0.01553
G1 X105.369 Y84.692 E0.01553
G1 X105.318 Y85.185 E0.01553
G1 X105.165 Y85.656 E0.01553
G1 X104.917 Y86.085 E0.01553
G1 X104.626 Y86.408 E0.01365
G1 X104.345 Y86.156 F7200.000
G1 F1800
G1 X103.995 Y86.416 E0.01367
G1 X103.615 Y86.585 E0.01305
G1 X103.208 Y86.671 E0.01305
G1 X102.792 Y86.671 E0.01304
G1 X102.385 Y86.585 E0.01305
G1 X102.005 Y86.416 E0.01305
G1 X101.668 Y86.171 E0.01305
G1 X101.390 Y85.862 E0.01304
G1 X101.182 Y85.502 E0.01305
G1 X101.053 Y85.106 E0.01305
G1 X101.010 Y84.692 E0.01305
G1 X101.053 Y84.278 E0.01305
G1 X101.182 Y83.882 E0.01305
G1 X101.390 Y83.522 E0.01305
G1 X101.668 Y83.213 E0.01304
G1 X102.005 Y82.968 E0.01305
G1 X102.385 Y82.799 E0.01305
G1 X102.792 Y82.713 E0.01305
G1 X103.208 Y82.713 E0.01304
G1 X103.615 Y82.799 E0.01305
G1 X103.995 Y82.968 E0.01305
G1 X104.332 Y83.213 E0.01305
G1 X104.610 Y83.522 E0.01304
G1 X104.818 Y83.882 E0.01305
G1 X104.947 Y84.278 E0.01305
G1 X104.990 Y84.692 E0.01305
G1 X104.947 Y85.106 E0.01305
G1 X104.818 Y85.502 E0.01305
G1 X104.610 Y85.862 E0.01305
G1 X104.386 Y86.111 E0.01052
G1 X104.078 Y85.889 F7200.000
G1 F1800
G1 X103.806 Y86.087 E0.01056
G1 X103.498 Y86.224 E0.01056
G1 X103.168 Y86.294 E0.01056
G1 X102.832 Y86.294 E0.01056
G1 X102.502 Y86.224 E0.01056
G1 X102.194 Y86.087 E0.01056
G1 X101.922 Y85.889 E0.01056
G1 X101.697 Y85.639 E0.01056
G1 X101.528 Y85.347 E0.01056
G1 X101.424 Y85.027 E0.01056
G1 X101.389 Y84.692 E0.01056
G1 X101.424 Y84.357 E0.01056
G1 X101.528 Y84.037 E0.01056
G1 X101.697 Y83.745 E0.01056
G1 X101.922 Y83.495 E0.01056
G1 X102.194 Y83.297 E0.01056
G1 X102.502 Y83.160 E0.01056
G1 X102.832 Y83.090 E0.01056
G1 X103.168 Y83.090 E0.01056
G1 X103.498 Y83.160 E0.01056
G1 X103.806 Y83.297 E0.01056
G1 X104.078 Y83.495 E0.01056
G1 X104.303 Y83.745 E0.01056
G1 X104.472 Y84.037 E0.01056
G1 X104.576 Y84.357 E0.01056
G1 X104.611 Y84.692 E0.01056
G1 X104.576 Y85.027 E0.01056
G1 X104.472 Y85.347 E0.01056
G1 X104.303 Y85.639 E0.01056
G1 X104.118 Y85.845 E0.00868
G1 X104.148 Y86.219 F7200.000
G1 F5760
G1 X103.806 Y86.087 E-0.13707
G1 X103.498 Y86.224 E-0.11667
G1 X103.168 Y86.294 E-0.11666
G1 X102.832 Y86.294 E-0.11663
G1 X102.502 Y86.224 E-0.11666
G1 X102.194 Y86.087 E-0.11667
G1 X102.102 Y86.020 E-0.03964
G1 E-0.04000 F2100.00000
G1 Z0.800 F7200.000
G1 X92.951 Y92.454
G1 Z0.200
G1 E0.80000 F2100.00000
G1 F1800
G1 X93.104 Y92.925 E0.01553
G1 X93.155 Y93.418 E0.01553
G1 X93.104 Y93.911 E0.01553
G1 X92.951 Y94.382 E0.01553
G1 X92.703 Y94.811 E0.01553
G1 X92.372 Y95.179 E0.01553
G1 X91.971 Y95.470 E0.01553
G1 X91.518 Y95.672 E0.01553
G1 X91.034 Y95.774 E0.01553
G1 X90.538 Y95.774 E0.01553
G1 X90.054 Y95.672 E0.01553
G1 X89.601 Y95.470 E0.01553
G1 X89.200 Y95.179 E0.01553
G1 X88.869 Y94.811 E0.01553
G1 X88.621 Y94.382 E0.01553
G1 X88.468 Y93.911 E0.01553
G1 X88.417 Y93.418 E0.01553
G1 X88.468 Y92.925 E0.01553
G1 X88.621 Y92.454 E0.01553
G1 X88.869 Y92.025 E0.01553
G1 X89.200 Y91.657 E0.01553
G1 X89.601 Y91.366 E0.01553
G1 X90.054 Y91.164 E0.01553
G1 X90.538 Y91.062 E0.01553
G1 X91.034 Y91.062 E0.01553
G1 X91.518 Y91.164 E0.01553
G1 X91.971 Y91.366 E0.01553
G1 X92.372 Y91.657 E0.01553
G1 X92.703 Y92.025 E0.01553
G1 X92.921 Y92.402 E0.01365
G1 X92.594 Y92.591 F7200.000
G1 F1800
G1 X92.733 Y93.004 E0.01367
G1 X92.776 Y93.418 E0.01305
G1 X92.733 Y93.832 E0.01305
G1 X92.604 Y94.228 E0.01305
G1 X92.396 Y94.588 E0.01305
G1 X92.118 Y94.897 E0.01304
G1 X91.781 Y95.142 E0.01305
G1 X91.401 Y95.311 E0.01305
G1 X90.994 Y95.397 E0.01305
