; generated by Slic3r Prusa Edition 1.39.2+win64 on 2018-06-07 at 15:40:17

; 

; external perimeters extrusion width = 0.45mm
; perimeters extrusion width = 0.45mm
; infill extrusion width = 0.45mm
; solid infill extrusion width = 0.45mm
; top infill extrusion width = 0.45mm
; first layer extrusion width = 0.42mm

M107
M115 U3.1.0 ; tell printer latest fw version
M83  ; extruder relative mode
M104 S205 ; set extruder temp
M140 S55 ; set bed temp
M190 S55 ; wait for bed temp
M109 S205 ; wait for extruder temp
G28 W ; home all without mesh bed level
G80 ; mesh bed leveling
G1 Y-3.0 F1000.0 ; go outside print area
G92 E0.0
G1 X60.0 E9.0  F1000.0 ; intro line
G1 X100.0 E12.5  F1000.0 ; intro line
G92 E0.0
M900 K30; Filament gcode
G21 ; set units to millimeters
G90 ; use absolute coordinates
M83 ; use relative distances for extrusion
;BEFORE_LAYER_CHANGE
;0.2


G1 E-0.80000 F2100.00000
G1 Z0.600 F7200.000
;AFTER_LAYER_CHANGE
;0.2
G1 X87.415 Y86.048
G1 Z0.200
G1 E0.80000 F2100.00000
M204 S1000
G1 F1800
G1 X87.864 Y85.261 E0.02841
G1 X88.280 Y84.849 E0.01835
G1 X88.773 Y84.534 E0.01835
G1 X89.318 Y84.332 E0.01822
G1 X89.897 Y84.248 E0.01835
G1 X115.004 Y84.246 E0.78722
G1 X116.013 Y84.439 E0.03221
G1 X116.884 Y84.991 E0.03233
G1 X117.491 Y85.825 E0.03233
G1 X117.748 Y86.819 E0.03221
G1 X117.754 Y115.057 E0.88539
G1 X117.586 Y115.948 E0.02841
G1 X117.138 Y116.736 E0.02841
G1 X116.768 Y117.112 E0.01656
G1 X116.332 Y117.410 E0.01656
G1 X110.404 Y120.457 E0.20900
G1 X109.817 Y120.675 E0.01963
G1 X109.200 Y120.754 E0.01950
G1 X94.971 Y120.714 E0.44613
G1 X94.145 Y120.430 E0.02739
G1 X88.263 Y117.137 E0.21136
G1 X87.840 Y116.709 E0.01886
G1 X87.521 Y116.199 E0.01886
G1 X87.319 Y115.632 E0.01886
G1 X87.246 Y115.035 E0.01886
G1 X87.246 Y86.943 E0.88083
G1 X87.404 Y86.107 E0.02665
G1 X87.769 Y86.179 F7200.000
G1 F1800
G1 X88.165 Y85.489 E0.02496
G1 X88.523 Y85.137 E0.01574
G1 X88.951 Y84.867 E0.01585
G1 X89.422 Y84.694 E0.01574
G1 X89.923 Y84.624 E0.01585
G1 X115.004 Y84.623 E0.78640
G1 X115.881 Y84.792 E0.02802
G1 X116.631 Y85.271 E0.02790
G1 X117.154 Y85.995 E0.02802
G1 X117.373 Y86.862 E0.02802
G1 X117.377 Y115.042 E0.88356
G1 X117.231 Y115.821 E0.02484
G1 X116.835 Y116.511 E0.02496
G1 X116.140 Y117.086 E0.02825
G1 X110.232 Y120.121 E0.20827
G1 X109.726 Y120.309 E0.01692
G1 X109.187 Y120.377 E0.01704
G1 X95.038 Y120.343 E0.44362
G1 X94.317 Y120.095 E0.02390
G1 X88.490 Y116.836 E0.20935
G1 X88.129 Y116.466 E0.01621
G1 X87.856 Y116.027 E0.01621
G1 X87.685 Y115.539 E0.01621
G1 X87.623 Y115.026 E0.01621
G1 X87.623 Y86.958 E0.88004
G1 X87.758 Y86.238 E0.02296
G1 F5760
G1 X88.165 Y85.489 E-0.29544
G1 X88.523 Y85.137 E-0.17382
G1 X88.951 Y84.867 E-0.17513
G1 X89.264 Y84.752 E-0.11561
G1 E-0.04000 F2100.00000
G1 Z0.800 F7200.000
G1 X90.964 Y87.964
G1 Z0.200
G1 E0.80000 F2100.00000
G1 F1800
G1 X114.036 Y87.964 E0.72340
G1 X114.036 Y114.036 E0.81746
G1 X107.748 Y114.036 E0.19714
G1 X107.748 Y117.036 E0.09406
G1 X96.852 Y117.036 E0.34165
G1 X96.852 Y114.036 E0.09406
G1 X90.964 Y114.036 E0.18460
G1 X90.964 Y88.024 E0.81558
G1 F5760
G1 X93.158 Y88.018 E-0.76000
G1 E-0.04000 F2100.00000
G1 Z0.800 F7200.000
G1 X108.125 Y114.413
G1 Z0.200
G1 E0.80000 F2100.00000
G1 F1800
G1 X108.125 Y117.413 E0.09406
G1 X96.475 Y117.413 E0.36530
G1 X96.475 Y114.413 E0.09406
G1 X90.587 Y114.413 E0.18460
G1 X90.587 Y87.587 E0.84111
G1 X114.413 Y87.587 E0.74704
G1 X114.413 Y114.413 E0.84111
G1 X108.185 Y114.413 E0.19526
G1 X108.502 Y114.790 F7200.000
G1 F1800
G1 X108.502 Y117.790 E0.09406
G1 X96.098 Y117.790 E0.38895
G1 X96.098 Y114.790 E0.09406
G1 X90.210 Y114.790 E0.18460
G1 X90.210 Y87.210 E0.86475
G1 X114.790 Y87.210 E0.77069
G1 X114.790 Y114.790 E0.86475
G1 X108.562 Y114.790 E0.19526
G1 X108.142 Y114.964 F7200.000
G1 F5760
G1 X108.519 Y116.984 E-0.76000
G1 E-0.04000 F2100.00000
G1 Z0.800 F7200.000
G1 X99.666 Y116.923
G1 Z0.200
G1 E0.80000 F2100.00000
G1 F1800
G1 X97.134 Y114.391 E0.11282
G1 X97.134 Y114.927 E0.01689
G1 X98.961 Y116.753 E0.08138
G1 X98.425 Y116.753 E0.01689
G1 X97.134 Y115.463 E0.05750
G1 X97.134 Y115.998 E0.01689
G1 X97.889 Y116.753 E0.03362
G1 X97.353 Y116.753 E0.01689
G1 X96.965 Y116.365 E0.01730
G1 F5760
G1 X97.353 Y116.753 E-0.19022
G1 X97.889 Y116.753 E-0.18561
G1 X97.134 Y115.998 E-0.36960
G1 X97.134 Y115.956 E-0.01457
G1 E-0.04000 F2100.00000
G1 Z0.800 F7200.000
G1 X91.077 Y113.157
G1 Z0.200
G1 E0.80000 F2100.00000
G1 F1800
G1 X91.674 Y113.753 E0.02658
G1 X92.210 Y113.753 E0.01689
G1 X91.247 Y112.790 E0.04290
G1 X91.247 Y112.255 E0.01689
G1 X92.745 Y113.753 E0.06677
G1 X93.281 Y113.753 E0.01689
G1 X91.247 Y111.719 E0.09065
G1 X91.247 Y111.183 E0.01689
G1 X93.817 Y113.753 E0.11453
G1 X94.353 Y113.753 E0.01689
G1 X91.247 Y110.647 E0.13841
G1 X91.247 Y110.111 E0.01689
G1 X94.889 Y113.753 E0.16229
G1 X95.425 Y113.753 E0.01689
G1 X91.247 Y109.575 E0.18617
G1 X91.247 Y109.039 E0.01689
G1 X95.961 Y113.753 E0.21005
G1 X96.497 Y113.753 E0.01689
G1 X91.247 Y108.503 E0.23393
G1 X91.247 Y107.967 E0.01689
G1 X100.033 Y116.753 E0.39149
G1 X100.569 Y116.753 E0.01689
G1 X91.247 Y107.431 E0.41537
G1 X91.247 Y106.896 E0.01689
G1 X101.104 Y116.753 E0.43925
G1 X101.640 Y116.753 E0.01689
G1 X91.247 Y106.360 E0.46313
G1 X91.247 Y105.824 E0.01689
G1 X102.176 Y116.753 E0.48701
G1 X102.712 Y116.753 E0.01689
G1 X91.247 Y105.288 E0.51088
G1 X91.247 Y104.752 E0.01689
G1 X103.248 Y116.753 E0.53476
G1 X103.784 Y116.753 E0.01689
G1 X91.247 Y104.216 E0.55864
G1 X91.247 Y103.680 E0.01689
G1 X104.320 Y116.753 E0.58252
G1 X104.856 Y116.753 E0.01689
G1 X91.247 Y103.144 E0.60640
G1 X91.247 Y102.608 E0.01689
G1 X105.392 Y116.753 E0.63028
G1 X105.927 Y116.753 E0.01689
G1 X91.247 Y102.073 E0.65416
G1 X91.247 Y101.537 E0.01689
G1 X106.463 Y116.753 E0.67804
G1 X106.999 Y116.753 E0.01689
G1 X91.247 Y101.001 E0.70192
G1 X91.247 Y100.465 E0.01689
G1 X107.465 Y116.683 E0.72269
G1 X107.465 Y116.148 E0.01689
G1 X91.247 Y99.929 E0.72269
G1 X91.247 Y99.393 E0.01689
G1 X107.465 Y115.612 E0.72269
G1 X107.465 Y115.076 E0.01689
G1 X91.247 Y98.857 E0.72269
G1 X91.247 Y98.321 E0.01689
G1 X107.465 Y114.540 E0.72269
G1 X107.465 Y114.004 E0.01689
G1 X91.247 Y97.785 E0.72269
G1 X91.247 Y97.249 E0.01689
G1 X107.751 Y113.753 E0.73539
G1 X108.286 Y113.753 E0.01689
G1 X91.247 Y96.714 E0.75927
G1 X91.247 Y96.178 E0.01689
G1 X108.822 Y113.753 E0.78315
G1 X109.358 Y113.753 E0.01689
G1 X91.247 Y95.642 E0.80703
G1 X91.247 Y95.106 E0.01689
G1 X109.894 Y113.753 E0.83091
G1 X110.430 Y113.753 E0.01689
G1 X91.247 Y94.570 E0.85479
G1 X91.247 Y94.034 E0.01689
G1 X110.966 Y113.753 E0.87867
G1 X111.502 Y113.753 E0.01689
G1 X91.247 Y93.498 E0.90255
G1 X91.247 Y92.962 E0.01689
G1 X112.038 Y113.753 E0.92643
G1 X112.574 Y113.753 E0.01689
G1 X91.247 Y92.426 E0.95031
G1 X91.247 Y91.891 E0.01689
G1 X113.109 Y113.753 E0.97419
G1 X113.645 Y113.753 E0.01689
G1 X91.247 Y91.355 E0.99807
G1 X91.247 Y90.819 E0.01689
G1 X113.753 Y113.325 E1.00287
G1 X113.753 Y112.789 E0.01689
G1 X91.247 Y90.283 E1.00287
G1 X91.247 Y89.747 E0.01689
G1 X113.753 Y112.253 E1.00287
G1 X113.753 Y111.717 E0.01689
G1 X91.247 Y89.211 E1.00287
G1 X91.247 Y88.675 E0.01689
G1 X113.753 Y111.181 E1.00287
G1 X113.753 Y110.645 E0.01689
G1 X91.355 Y88.247 E0.99807
G1 X91.890 Y88.247 E0.01689
G1 X113.753 Y110.110 E0.97419
G1 X113.753 Y109.574 E0.01689
G1 X92.426 Y88.247 E0.95031
G1 X92.962 Y88.247 E0.01689
G1 X113.753 Y109.038 E0.92643
G1 X113.753 Y108.502 E0.01689
G1 X93.498 Y88.247 E0.90255
G1 X94.034 Y88.247 E0.01689
G1 X113.753 Y107.966 E0.87867
G1 X113.753 Y107.430 E0.01689
G1 X94.570 Y88.247 E0.85479
G1 X95.106 Y88.247 E0.01689
G1 X113.753 Y106.894 E0.83091
G1 X113.753 Y106.358 E0.01689
G1 X95.642 Y88.247 E0.80704
G1 X96.178 Y88.247 E0.01689
G1 X113.753 Y105.822 E0.78316
G1 X113.753 Y105.286 E0.01689
G1 X96.714 Y88.247 E0.75928
G1 X97.249 Y88.247 E0.01689
G1 X113.753 Y104.751 E0.73540
G1 X113.753 Y104.215 E0.01689
G1 X97.785 Y88.247 E0.71152
G1 X98.321 Y88.247 E0.01689
G1 X113.753 Y103.679 E0.68764
G1 X113.753 Y103.143 E0.01689
G1 X98.857 Y88.247 E0.66376
G1 X99.393 Y88.247 E0.01689
G1 X113.753 Y102.607 E0.63988
G1 X113.753 Y102.071 E0.01689
G1 X99.929 Y88.247 E0.61600
G1 X100.465 Y88.247 E0.01689
G1 X113.753 Y101.535 E0.59212
G1 X113.753 Y100.999 E0.01689
G1 X101.001 Y88.247 E0.56824
G1 X101.537 Y88.247 E0.01689
G1 X113.753 Y100.463 E0.54436
G1 X113.753 Y99.928 E0.01689
G1 X102.072 Y88.247 E0.52048
G1 X102.608 Y88.247 E0.01689
G1 X113.753 Y99.392 E0.49661
G1 X113.753 Y98.856 E0.01689
G1 X103.144 Y88.247 E0.47273
G1 X103.680 Y88.247 E0.01689
G1 X113.753 Y98.320 E0.44885
G1 X113.753 Y97.784 E0.01689
G1 X104.216 Y88.247 E0.42497
G1 X104.752 Y88.247 E0.01689
G1 X113.753 Y97.248 E0.40109
G1 X113.753 Y96.712 E0.01689
G1 X105.288 Y88.247 E0.37721
G1 X105.824 Y88.247 E0.01689
G1 X113.753 Y96.176 E0.35333
G1 X113.753 Y95.640 E0.01689
G1 X106.360 Y88.247 E0.32945
G1 X106.895 Y88.247 E0.01689
G1 X113.753 Y95.105 E0.30557
G1 X113.753 Y94.569 E0.01689
G1 X107.431 Y88.247 E0.28169
G1 X107.967 Y88.247 E0.01689
G1 X113.753 Y94.033 E0.25781
G1 X113.753 Y93.497 E0.01689
G1 X108.503 Y88.247 E0.23393
G1 X109.039 Y88.247 E0.01689
G1 X113.753 Y92.961 E0.21005
G1 X113.753 Y92.425 E0.01689
G1 X109.575 Y88.247 E0.18617
G1 X110.111 Y88.247 E0.01689
G1 X113.753 Y91.889 E0.16230
G1 X113.753 Y91.353 E0.01689
G1 X110.647 Y88.247 E0.13842
G1 X111.183 Y88.247 E0.01689
G1 X113.753 Y90.817 E0.11454
G1 X113.753 Y90.281 E0.01689
G1 X111.719 Y88.247 E0.09066
G1 X112.254 Y88.247 E0.01689
G1 X113.753 Y89.746 E0.06678
G1 X113.753 Y89.210 E0.01689
G1 X112.790 Y88.247 E0.04290
G1 X113.326 Y88.247 E0.01689
G1 X113.923 Y88.843 E0.02658
M106 S242.25
;BEFORE_LAYER_CHANGE
;0.35


G1 F5760
G1 X113.326 Y88.247 E-0.29219
G1 X112.790 Y88.247 E-0.18561
G1 X113.366 Y88.823 E-0.28220
G1 E-0.04000 F2100.00000
G1 Z0.800 F7200.000
;AFTER_LAYER_CHANGE
;0.35
G1 X117.491 Y85.825
G1 Z0.350
G1 E0.80000 F2100.00000
G1 F3000
G1 X117.748 Y86.819 E0.02484
G1 X117.754 Y115.057 E0.68294
G1 X117.586 Y115.948 E0.02191
G1 X117.138 Y116.736 E0.02191
G1 X116.768 Y117.112 E0.01277
G1 X116.332 Y117.410 E0.01277
G1 X110.404 Y120.457 E0.16121
G1 X109.817 Y120.675 E0.01514
G1 X109.200 Y120.754 E0.01504
G1 X94.971 Y120.714 E0.34412
G1 X94.145 Y120.430 E0.02113
G1 X88.263 Y117.137 E0.16303
G1 X87.840 Y116.709 E0.01455
G1 X87.521 Y116.199 E0.01455
G1 X87.319 Y115.632 E0.01455
G1 X87.246 Y115.035 E0.01455
G1 X87.246 Y86.943 E0.67942
G1 X87.415 Y86.048 E0.02201
G1 X87.864 Y85.261 E0.02191
G1 X88.280 Y84.849 E0.01415
G1 X88.773 Y84.534 E0.01415
G1 X89.318 Y84.332 E0.01405
G1 X89.897 Y84.248 E0.01415
G1 X115.004 Y84.246 E0.60722
G1 X116.013 Y84.439 E0.02484
G1 X116.884 Y84.991 E0.02494
G1 X117.455 Y85.776 E0.02349
G1 F5760
G1 X117.748 Y86.819 E-0.37517
G1 X117.748 Y87.930 E-0.38483
G1 E-0.04000 F2100.00000
G1 Z0.950 F7200.000
G1 X113.939 Y88.061
G1 Z0.350
G1 E0.80000 F2100.00000
M204 S800
G1 F3000
G1 X113.939 Y113.939 E0.67429
G1 X107.893 Y113.939 E0.15755
G1 X107.893 Y116.939 E0.07817
G1 X96.707 Y116.939 E0.29144
G1 X96.707 Y113.939 E0.07817
G1 X91.061 Y113.939 E0.14713
G1 X91.061 Y88.061 E0.67429
G1 X113.879 Y88.061 E0.59456
M204 S1000
G1 F5760
G1 X113.884 Y90.255 E-0.76000
G1 E-0.04000 F2100.00000
G1 Z0.950 F7200.000
G1 X108.310 Y114.357
G1 Z0.350
G1 E0.80000 F2100.00000
M204 S800
G1 F3000
G1 X108.310 Y117.357 E0.07817
G1 X96.289 Y117.357 E0.31322
G1 X96.289 Y114.357 E0.07817
G1 X90.643 Y114.357 E0.14713
G1 X90.643 Y87.643 E0.69606
G1 X114.357 Y87.643 E0.61790
G1 X114.357 Y114.357 E0.69606
G1 X108.370 Y114.357 E0.15599
M204 S1000
G1 X108.728 Y114.775 F7200.000
M204 S800
G1 F2400
G1 X108.728 Y117.775 E0.07817
G1 X95.872 Y117.775 E0.33499
G1 X95.872 Y114.775 E0.07817
G1 X90.225 Y114.775 E0.14713
G1 X90.225 Y87.225 E0.71784
G1 X114.775 Y87.225 E0.63967
G1 X114.775 Y114.775 E0.71784
G1 X108.788 Y114.775 E0.15599
M204 S1000
G1 X108.368 Y114.950 F7200.000
G1 F5760
G1 X108.744 Y116.969 E-0.76000
G1 E-0.04000 F2100.00000
G1 Z0.950 F7200.000
G1 X106.977 Y116.814
G1 Z0.350
G1 E0.80000 F2100.00000
M204 S2000
G1 F3000
G1 X107.579 Y116.211 E0.02243
G1 X107.579 Y115.615 E0.01571
G1 X106.568 Y116.626 E0.03764
G1 X105.971 Y116.626 E0.01571
G1 X107.579 Y115.018 E0.05985
G1 X107.579 Y114.421 E0.01571
G1 X105.186 Y116.814 E0.08906
M204 S1000
G1 F5760
G1 X106.738 Y115.262 E-0.76000
G1 E-0.04000 F2100.00000
G1 Z0.950 F7200.000
G1 X112.961 Y113.814
G1 Z0.350
G1 E0.80000 F2100.00000
M204 S2000
G1 F3000
G1 X113.626 Y113.149 E0.02477
G1 X113.626 Y112.552 E0.01571
G1 X112.552 Y113.626 E0.03998
G1 X111.955 Y113.626 E0.01571
G1 X113.626 Y111.955 E0.06219
G1 X113.626 Y111.358 E0.01571
G1 X111.358 Y113.626 E0.08440
G1 X110.761 Y113.626 E0.01571
G1 X113.626 Y110.761 E0.10661
G1 X113.626 Y110.165 E0.01571
G1 X110.165 Y113.626 E0.12882
G1 X109.568 Y113.626 E0.01571
G1 X113.626 Y109.568 E0.15103
G1 X113.626 Y108.971 E0.01571
G1 X108.971 Y113.626 E0.17324
G1 X108.374 Y113.626 E0.01571
G1 X113.626 Y108.374 E0.19546
G1 X113.626 Y107.778 E0.01571
G1 X104.778 Y116.626 E0.32932
G1 X104.181 Y116.626 E0.01571
G1 X113.626 Y107.181 E0.35153
G1 X113.626 Y106.584 E0.01571
G1 X103.584 Y116.626 E0.37374
G1 X102.987 Y116.626 E0.01571
G1 X113.626 Y105.987 E0.39595
G1 X113.626 Y105.390 E0.01571
G1 X102.390 Y116.626 E0.41816
G1 X101.794 Y116.626 E0.01571
G1 X113.626 Y104.794 E0.44037
G1 X113.626 Y104.197 E0.01571
G1 X101.197 Y116.626 E0.46258
G1 X100.600 Y116.626 E0.01571
G1 X113.626 Y103.600 E0.48479
G1 X113.626 Y103.003 E0.01571
G1 X100.003 Y116.626 E0.50700
G1 X99.406 Y116.626 E0.01571
G1 X113.626 Y102.406 E0.52921
G1 X113.626 Y101.810 E0.01571
G1 X98.810 Y116.626 E0.55143
G1 X98.213 Y116.626 E0.01571
G1 X113.626 Y101.213 E0.57364
G1 X113.626 Y100.616 E0.01571
G1 X97.616 Y116.626 E0.59585
G1 X97.021 Y116.626 E0.01567
G1 X113.626 Y100.019 E0.61803
G1 X113.626 Y99.422 E0.01571
G1 X97.021 Y116.028 E0.61801
G1 X97.021 Y115.431 E0.01571
G1 X113.626 Y98.826 E0.61801
G1 X113.626 Y98.229 E0.01571
G1 X97.021 Y114.834 E0.61801
G1 X97.021 Y114.238 E0.01571
G1 X113.626 Y97.632 E0.61801
G1 X113.626 Y97.035 E0.01571
G1 X97.021 Y113.641 E0.61801
G1 X97.021 Y113.626 E0.00039
G1 X96.439 Y113.626 E0.01532
G1 X113.626 Y96.439 E0.63967
G1 X113.626 Y95.842 E0.01571
G1 X95.842 Y113.626 E0.66188
G1 X95.245 Y113.626 E0.01571
G1 X113.626 Y95.245 E0.68409
G1 X113.626 Y94.648 E0.01571
G1 X94.648 Y113.626 E0.70630
G1 X94.051 Y113.626 E0.01571
G1 X113.626 Y94.051 E0.72851
G1 X113.626 Y93.455 E0.01571
G1 X93.455 Y113.626 E0.75072
G1 X92.858 Y113.626 E0.01571
G1 X113.626 Y92.858 E0.77294
G1 X113.626 Y92.261 E0.01571
G1 X92.261 Y113.626 E0.79515
G1 X91.664 Y113.626 E0.01571
G1 X113.626 Y91.664 E0.81736
G1 X113.626 Y91.067 E0.01571
G1 X91.374 Y113.320 E0.82816
G1 X91.374 Y112.723 E0.01571
G1 X113.626 Y90.471 E0.82816
G1 X113.626 Y89.874 E0.01571
G1 X91.374 Y112.126 E0.82816
G1 X91.374 Y111.529 E0.01571
G1 X113.626 Y89.277 E0.82816
G1 X113.626 Y88.680 E0.01571
G1 X91.374 Y110.932 E0.82816
G1 X91.374 Y110.336 E0.01571
G1 X113.336 Y88.374 E0.81735
G1 X112.739 Y88.374 E0.01571
G1 X91.374 Y109.739 E0.79514
G1 X91.374 Y109.142 E0.01571
G1 X112.142 Y88.374 E0.77293
G1 X111.545 Y88.374 E0.01571
G1 X91.374 Y108.545 E0.75072
G1 X91.374 Y107.948 E0.01571
G1 X110.948 Y88.374 E0.72851
G1 X110.352 Y88.374 E0.01571
G1 X91.374 Y107.352 E0.70630
G1 X91.374 Y106.755 E0.01571
G1 X109.755 Y88.374 E0.68409
G1 X109.158 Y88.374 E0.01571
G1 X91.374 Y106.158 E0.66188
G1 X91.374 Y105.561 E0.01571
G1 X108.561 Y88.374 E0.63967
G1 X107.965 Y88.374 E0.01571
G1 X91.374 Y104.965 E0.61746
G1 X91.374 Y104.368 E0.01571
G1 X107.368 Y88.374 E0.59525
G1 X106.771 Y88.374 E0.01571
G1 X91.374 Y103.771 E0.57303
G1 X91.374 Y103.174 E0.01571
G1 X106.174 Y88.374 E0.55082
G1 X105.577 Y88.374 E0.01571
G1 X91.374 Y102.577 E0.52861
G1 X91.374 Y101.981 E0.01571
G1 X104.981 Y88.374 E0.50640
G1 X104.384 Y88.374 E0.01571
G1 X91.374 Y101.384 E0.48419
G1 X91.374 Y100.787 E0.01571
G1 X103.787 Y88.374 E0.46198
G1 X103.190 Y88.374 E0.01571
G1 X91.374 Y100.190 E0.43977
G1 X91.374 Y99.593 E0.01571
G1 X102.593 Y88.374 E0.41756
G1 X101.997 Y88.374 E0.01571
G1 X91.374 Y98.997 E0.39535
G1 X91.374 Y98.400 E0.01571
G1 X101.400 Y88.374 E0.37314
