; generated by Slic3r Prusa Edition 1.39.2+win64 on 2018-06-07 at 13:10:53

; 

; external perimeters extrusion width = 0.45mm
; perimeters extrusion width = 0.45mm
; infill extrusion width = 0.45mm
; solid infill extrusion width = 0.45mm
; top infill extrusion width = 0.45mm
; first layer extrusion width = 0.42mm

M107
M115 U3.1.0 ; tell printer latest fw version
M83  ; extruder relative mode
M104 S205 ; set extruder temp
M140 S55 ; set bed temp
M190 S55 ; wait for bed temp
M109 S205 ; wait for extruder temp
G28 W ; home all without mesh bed level
G80 ; mesh bed leveling
G1 Y-3.0 F1000.0 ; go outside print area
G92 E0.0
G1 X60.0 E9.0  F1000.0 ; intro line
G1 X100.0 E12.5  F1000.0 ; intro line
G92 E0.0
M900 K30; Filament gcode
G21 ; set units to millimeters
G90 ; use absolute coordinates
M83 ; use relative distances for extrusion
;BEFORE_LAYER_CHANGE
;0.2


G1 E-0.80000 F2100.00000
G1 Z0.600 F7200.000
;AFTER_LAYER_CHANGE
;0.2
G1 X82.337 Y89.217
G1 Z0.200
G1 E0.80000 F2100.00000
M204 S1000
G1 F1800
G1 X82.980 Y89.123 E0.02036
G1 X122.004 Y89.123 E1.22357
G1 X122.888 Y89.295 E0.02825
G1 X123.642 Y89.781 E0.02813
G1 X124.162 Y90.513 E0.02813
G1 X124.374 Y91.388 E0.02825
G1 X124.375 Y113.610 E0.69675
G1 X124.280 Y114.173 E0.01787
G1 X124.052 Y114.699 E0.01799
G1 X123.705 Y115.156 E0.01799
G1 X123.259 Y115.516 E0.01799
G1 X122.663 Y115.783 E0.02048
G1 X122.020 Y115.877 E0.02036
G1 X82.958 Y115.877 E1.22476
G1 X82.375 Y115.793 E0.01846
G1 X81.831 Y115.569 E0.01846
G1 X81.358 Y115.219 E0.01846
G1 X80.984 Y114.759 E0.01858
G1 X80.720 Y114.174 E0.02012
G1 X80.623 Y113.535 E0.02024
G1 X80.624 Y91.428 E0.69317
G1 X80.713 Y90.853 E0.01823
G1 X80.938 Y90.317 E0.01823
G1 X81.289 Y89.849 E0.01835
G1 X81.741 Y89.484 E0.01823
G1 X82.283 Y89.242 E0.01860
G1 F5760
G1 X82.980 Y89.123 E-0.24496
G1 X84.467 Y89.123 E-0.51504
G1 E-0.04000 F2100.00000
G1 Z0.800 F7200.000
G1 X85.727 Y92.386
G1 Z0.200
G1 E0.80000 F2100.00000
G1 F1800
G1 X86.075 Y92.133 E0.01351
G1 X86.469 Y91.958 E0.01351
G1 X86.891 Y91.868 E0.01351
G1 X87.321 Y91.868 E0.01351
G1 X87.743 Y91.958 E0.01351
G1 X88.137 Y92.133 E0.01351
G1 X88.485 Y92.386 E0.01351
G1 X88.774 Y92.706 E0.01351
G1 X88.989 Y93.080 E0.01351
G1 X89.122 Y93.489 E0.01351
G1 X89.167 Y93.918 E0.01351
G1 X89.122 Y94.347 E0.01351
G1 X88.989 Y94.756 E0.01351
G1 X88.774 Y95.130 E0.01351
G1 X88.485 Y95.450 E0.01351
G1 X88.137 Y95.703 E0.01351
G1 X87.743 Y95.878 E0.01351
G1 X87.321 Y95.968 E0.01351
G1 X86.891 Y95.968 E0.01351
G1 X86.469 Y95.878 E0.01351
G1 X86.075 Y95.703 E0.01351
G1 X85.727 Y95.450 E0.01351
G1 X85.438 Y95.130 E0.01351
G1 X85.223 Y94.756 E0.01351
G1 X85.090 Y94.347 E0.01351
G1 X85.045 Y93.918 E0.01351
G1 X85.090 Y93.489 E0.01351
G1 X85.223 Y93.080 E0.01351
G1 X85.438 Y92.706 E0.01351
G1 X85.687 Y92.431 E0.01163
G1 X85.644 Y91.995 F7200.000
G1 F5760
G1 X86.075 Y92.133 E-0.16963
G1 X86.469 Y91.958 E-0.14924
G1 X86.891 Y91.868 E-0.14924
G1 X87.321 Y91.868 E-0.14925
G1 X87.724 Y91.954 E-0.14264
G1 E-0.04000 F2100.00000
G1 Z0.800 F7200.000
G1 X115.525 Y93.918
G1 Z0.200
G1 E0.80000 F2100.00000
G1 F1800
G1 X115.570 Y93.489 E0.01351
G1 X115.703 Y93.080 E0.01351
G1 X115.918 Y92.706 E0.01351
G1 X116.207 Y92.386 E0.01351
G1 X116.555 Y92.133 E0.01351
G1 X116.949 Y91.958 E0.01351
G1 X117.371 Y91.868 E0.01351
G1 X117.801 Y91.868 E0.01351
G1 X118.223 Y91.958 E0.01351
G1 X118.617 Y92.133 E0.01351
G1 X118.965 Y92.386 E0.01351
G1 X119.254 Y92.706 E0.01351
G1 X119.469 Y93.080 E0.01353
G1 X119.604 Y93.503 E0.01391
G1 X119.647 Y93.918 E0.01308
G1 X119.602 Y94.347 E0.01351
G1 X119.469 Y94.756 E0.01351
G1 X119.254 Y95.130 E0.01351
G1 X118.965 Y95.450 E0.01351
G1 X118.617 Y95.703 E0.01351
G1 X118.223 Y95.878 E0.01351
G1 X117.801 Y95.968 E0.01351
G1 X117.371 Y95.968 E0.01351
G1 X116.949 Y95.878 E0.01351
G1 X116.555 Y95.703 E0.01351
G1 X116.207 Y95.450 E0.01351
G1 X115.918 Y95.130 E0.01351
G1 X115.703 Y94.756 E0.01351
G1 X115.570 Y94.347 E0.01351
G1 X115.531 Y93.978 E0.01163
G1 X115.178 Y93.718 F7200.000
G1 F5760
G1 X115.570 Y93.489 E-0.16962
G1 X115.703 Y93.080 E-0.14924
G1 X115.918 Y92.706 E-0.14925
G1 X116.207 Y92.386 E-0.14925
G1 X116.540 Y92.144 E-0.14264
G1 E-0.04000 F2100.00000
G1 Z0.800 F7200.000
G1 X89.682 Y108.011
G1 Z0.200
G1 E0.80000 F2100.00000
G1 F1800
G1 X89.864 Y108.572 E0.01848
G1 X89.925 Y109.158 E0.01848
G1 X89.864 Y109.744 E0.01848
G1 X89.681 Y110.308 E0.01859
G1 X89.376 Y110.827 E0.01888
G1 X88.993 Y111.253 E0.01797
G1 X88.516 Y111.600 E0.01848
G1 X87.977 Y111.840 E0.01848
G1 X87.401 Y111.962 E0.01848
G1 X86.811 Y111.962 E0.01848
G1 X86.235 Y111.840 E0.01848
G1 X85.696 Y111.600 E0.01848
G1 X85.219 Y111.253 E0.01848
G1 X84.825 Y110.815 E0.01848
G1 X84.530 Y110.305 E0.01848
G1 X84.348 Y109.744 E0.01848
G1 X84.287 Y109.158 E0.01848
G1 X84.348 Y108.572 E0.01848
G1 X84.530 Y108.011 E0.01848
G1 X84.825 Y107.501 E0.01848
G1 X85.219 Y107.063 E0.01848
G1 X85.696 Y106.716 E0.01848
G1 X86.235 Y106.476 E0.01848
G1 X86.811 Y106.354 E0.01848
G1 X87.401 Y106.354 E0.01848
G1 X87.977 Y106.476 E0.01848
G1 X88.516 Y106.716 E0.01848
G1 X88.993 Y107.063 E0.01848
G1 X89.387 Y107.501 E0.01848
G1 X89.652 Y107.959 E0.01660
G1 X89.325 Y108.148 F7200.000
G1 F1800
G1 X89.493 Y108.651 E0.01662
G1 X89.546 Y109.158 E0.01599
G1 X89.493 Y109.665 E0.01599
G1 X89.335 Y110.152 E0.01606
G1 X89.070 Y110.603 E0.01639
G1 X88.739 Y110.972 E0.01553
G1 X88.326 Y111.271 E0.01599
G1 X87.860 Y111.479 E0.01600
G1 X87.361 Y111.585 E0.01600
G1 X86.851 Y111.585 E0.01600
G1 X86.352 Y111.479 E0.01600
G1 X85.886 Y111.271 E0.01600
G1 X85.473 Y110.972 E0.01599
G1 X85.132 Y110.592 E0.01600
G1 X84.877 Y110.151 E0.01600
G1 X84.719 Y109.665 E0.01600
G1 X84.666 Y109.158 E0.01599
G1 X84.719 Y108.651 E0.01599
G1 X84.877 Y108.165 E0.01600
G1 X85.132 Y107.724 E0.01600
G1 X85.473 Y107.344 E0.01600
G1 X85.886 Y107.045 E0.01599
G1 X86.352 Y106.837 E0.01600
G1 X86.851 Y106.731 E0.01600
G1 X87.361 Y106.731 E0.01600
G1 X87.860 Y106.837 E0.01600
G1 X88.326 Y107.045 E0.01600
G1 X88.739 Y107.344 E0.01599
G1 X89.080 Y107.724 E0.01600
G1 X89.295 Y108.096 E0.01348
G1 X88.989 Y108.320 F7200.000
G1 F1800
G1 X89.122 Y108.730 E0.01351
G1 X89.167 Y109.158 E0.01351
G1 X89.122 Y109.586 E0.01351
G1 X88.989 Y109.997 E0.01354
G1 X88.764 Y110.380 E0.01391
G1 X88.485 Y110.690 E0.01308
G1 X88.137 Y110.943 E0.01351
G1 X87.743 Y111.118 E0.01351
G1 X87.321 Y111.208 E0.01351
G1 X86.891 Y111.208 E0.01351
G1 X86.469 Y111.118 E0.01351
G1 X86.075 Y110.943 E0.01351
G1 X85.727 Y110.690 E0.01351
G1 X85.438 Y110.370 E0.01351
G1 X85.223 Y109.996 E0.01351
G1 X85.090 Y109.586 E0.01351
G1 X85.045 Y109.158 E0.01351
G1 X85.090 Y108.730 E0.01351
G1 X85.223 Y108.320 E0.01351
G1 X85.438 Y107.946 E0.01351
G1 X85.727 Y107.626 E0.01351
G1 X86.075 Y107.373 E0.01351
G1 X86.469 Y107.198 E0.01351
G1 X86.891 Y107.108 E0.01351
G1 X87.321 Y107.108 E0.01351
G1 X87.743 Y107.198 E0.01351
G1 X88.137 Y107.373 E0.01351
G1 X88.485 Y107.626 E0.01351
G1 X88.774 Y107.946 E0.01351
G1 X88.959 Y108.268 E0.01163
G1 X89.387 Y108.361 F7200.000
G1 F5760
G1 X89.122 Y108.730 E-0.16965
G1 X89.167 Y109.158 E-0.14923
G1 X89.122 Y109.586 E-0.14923
G1 X88.989 Y109.997 E-0.14952
G1 X88.781 Y110.352 E-0.14237
G1 E-0.04000 F2100.00000
G1 Z0.800 F7200.000
G1 X114.767 Y109.158
G1 Z0.200
G1 E0.80000 F2100.00000
G1 F1800
G1 X114.828 Y108.572 E0.01848
G1 X115.010 Y108.011 E0.01849
G1 X115.305 Y107.501 E0.01848
G1 X115.699 Y107.063 E0.01848
G1 X116.176 Y106.716 E0.01848
G1 X116.715 Y106.477 E0.01848
G1 X117.291 Y106.354 E0.01848
G1 X117.881 Y106.354 E0.01848
G1 X118.457 Y106.477 E0.01848
G1 X118.996 Y106.716 E0.01848
G1 X119.473 Y107.063 E0.01848
G1 X119.867 Y107.501 E0.01848
G1 X120.163 Y108.014 E0.01859
G1 X120.346 Y108.588 E0.01888
G1 X120.405 Y109.158 E0.01797
G1 X120.344 Y109.744 E0.01848
G1 X120.162 Y110.305 E0.01849
G1 X119.867 Y110.815 E0.01848
G1 X119.473 Y111.253 E0.01848
G1 X118.996 Y111.600 E0.01848
G1 X118.457 Y111.839 E0.01848
G1 X117.881 Y111.962 E0.01848
G1 X117.291 Y111.962 E0.01848
G1 X116.715 Y111.839 E0.01848
G1 X116.176 Y111.600 E0.01848
G1 X115.699 Y111.253 E0.01848
G1 X115.305 Y110.815 E0.01848
G1 X115.010 Y110.305 E0.01848
G1 X114.828 Y109.744 E0.01849
G1 X114.773 Y109.218 E0.01660
G1 X115.148 Y109.178 F7200.000
G1 F1800
G1 X115.199 Y108.651 E0.01662
G1 X115.357 Y108.165 E0.01600
G1 X115.612 Y107.724 E0.01600
G1 X115.953 Y107.344 E0.01600
G1 X116.366 Y107.045 E0.01599
G1 X116.832 Y106.837 E0.01600
G1 X117.331 Y106.731 E0.01600
G1 X117.841 Y106.731 E0.01600
G1 X118.340 Y106.837 E0.01600
G1 X118.806 Y107.045 E0.01600
G1 X119.219 Y107.344 E0.01599
G1 X119.560 Y107.724 E0.01600
G1 X119.816 Y108.167 E0.01606
G1 X119.975 Y108.666 E0.01640
G1 X120.026 Y109.158 E0.01553
G1 X119.973 Y109.665 E0.01599
G1 X119.815 Y110.151 E0.01600
G1 X119.560 Y110.592 E0.01600
G1 X119.219 Y110.972 E0.01600
G1 X118.806 Y111.271 E0.01599
G1 X118.340 Y111.479 E0.01600
G1 X117.841 Y111.585 E0.01600
G1 X117.331 Y111.585 E0.01600
G1 X116.832 Y111.479 E0.01600
G1 X116.366 Y111.271 E0.01600
G1 X115.953 Y110.972 E0.01599
G1 X115.612 Y110.592 E0.01600
G1 X115.357 Y110.151 E0.01600
G1 X115.199 Y109.665 E0.01600
G1 X115.154 Y109.238 E0.01347
G1 X115.525 Y109.158 F7200.000
G1 F1800
G1 X115.570 Y108.730 E0.01351
G1 X115.703 Y108.320 E0.01351
G1 X115.918 Y107.946 E0.01351
G1 X116.207 Y107.626 E0.01351
G1 X116.555 Y107.373 E0.01351
G1 X116.949 Y107.198 E0.01351
G1 X117.371 Y107.108 E0.01351
G1 X117.801 Y107.108 E0.01351
G1 X118.223 Y107.198 E0.01351
G1 X118.617 Y107.373 E0.01351
G1 X118.965 Y107.626 E0.01351
G1 X119.254 Y107.946 E0.01351
G1 X119.469 Y108.320 E0.01353
G1 X119.604 Y108.743 E0.01391
G1 X119.647 Y109.158 E0.01308
G1 X119.602 Y109.586 E0.01351
G1 X119.469 Y109.996 E0.01351
G1 X119.254 Y110.370 E0.01351
G1 X118.965 Y110.690 E0.01351
G1 X118.617 Y110.943 E0.01351
G1 X118.223 Y111.118 E0.01351
G1 X117.801 Y111.208 E0.01351
G1 X117.371 Y111.208 E0.01351
G1 X116.949 Y111.118 E0.01351
G1 X116.555 Y110.943 E0.01351
G1 X116.207 Y110.690 E0.01351
G1 X115.918 Y110.370 E0.01351
G1 X115.703 Y109.996 E0.01351
G1 X115.570 Y109.586 E0.01351
G1 X115.531 Y109.218 E0.01163
G1 X115.178 Y108.958 F7200.000
G1 F5760
G1 X115.570 Y108.730 E-0.16961
G1 X115.703 Y108.320 E-0.14927
G1 X115.918 Y107.946 E-0.14924
G1 X116.207 Y107.626 E-0.14924
G1 X116.540 Y107.384 E-0.14264
G1 E-0.04000 F2100.00000
G1 Z0.800 F7200.000
G1 X121.036 Y112.536
G1 Z0.200
G1 E0.80000 F2100.00000
G1 F1800
G1 X83.964 Y112.536 E1.16236
G1 X83.964 Y92.464 E0.62933
G1 X84.708 Y92.464 E0.02331
G1 X84.530 Y92.771 E0.01112
G1 X84.348 Y93.332 E0.01848
G1 X84.287 Y93.918 E0.01848
G1 X84.348 Y94.504 E0.01848
G1 X84.530 Y95.065 E0.01848
G1 X84.825 Y95.575 E0.01848
G1 X85.219 Y96.013 E0.01848
G1 X85.696 Y96.360 E0.01848
G1 X86.235 Y96.599 E0.01848
G1 X86.811 Y96.722 E0.01848
G1 X87.401 Y96.722 E0.01848
G1 X87.977 Y96.599 E0.01848
G1 X88.516 Y96.360 E0.01848
G1 X88.993 Y96.013 E0.01848
G1 X89.387 Y95.575 E0.01848
G1 X89.682 Y95.065 E0.01848
G1 X89.864 Y94.504 E0.01848
G1 X89.925 Y93.918 E0.01848
G1 X89.864 Y93.332 E0.01848
G1 X89.682 Y92.771 E0.01848
G1 X89.504 Y92.464 E0.01112
G1 X115.188 Y92.464 E0.80528
G1 X115.010 Y92.771 E0.01112
G1 X114.828 Y93.332 E0.01848
G1 X114.767 Y93.918 E0.01848
G1 X114.828 Y94.504 E0.01848
G1 X115.010 Y95.065 E0.01848
G1 X115.305 Y95.575 E0.01848
G1 X115.699 Y96.013 E0.01848
G1 X116.176 Y96.360 E0.01848
G1 X116.715 Y96.599 E0.01848
G1 X117.291 Y96.722 E0.01848
G1 X117.881 Y96.722 E0.01848
G1 X118.457 Y96.599 E0.01848
G1 X118.996 Y96.360 E0.01848
G1 X119.473 Y96.013 E0.01848
G1 X119.867 Y95.575 E0.01848
G1 X120.162 Y95.065 E0.01848
G1 X120.344 Y94.504 E0.01848
G1 X120.405 Y93.918 E0.01848
G1 X120.346 Y93.348 E0.01797
G1 X120.163 Y92.774 E0.01888
G1 X119.984 Y92.464 E0.01122
G1 X121.036 Y92.464 E0.03297
G1 X121.036 Y112.476 E0.62745
G1 X121.413 Y112.913 F7200.000
G1 F1800
G1 X83.587 Y112.913 E1.18600
G1 X83.587 Y92.087 E0.65298
G1 X85.497 Y92.087 E0.05989
G1 X85.132 Y92.484 E0.01691
G1 X84.877 Y92.925 E0.01600
G1 X84.719 Y93.411 E0.01600
G1 X84.666 Y93.918 E0.01600
G1 X84.719 Y94.425 E0.01600
G1 X84.877 Y94.911 E0.01600
G1 X85.132 Y95.352 E0.01600
G1 X85.473 Y95.732 E0.01600
G1 X85.886 Y96.031 E0.01600
G1 X86.352 Y96.239 E0.01600
G1 X86.851 Y96.345 E0.01600
G1 X87.361 Y96.345 E0.01600
G1 X87.860 Y96.239 E0.01600
G1 X88.326 Y96.031 E0.01600
G1 X88.739 Y95.732 E0.01600
G1 X89.080 Y95.352 E0.01600
G1 X89.335 Y94.911 E0.01600
G1 X89.493 Y94.425 E0.01600
G1 X89.546 Y93.918 E0.01600
G1 X89.493 Y93.411 E0.01600
G1 X89.335 Y92.925 E0.01600
G1 X89.080 Y92.484 E0.01600
G1 X88.715 Y92.087 E0.01691
G1 X115.977 Y92.087 E0.85479
G1 X115.612 Y92.484 E0.01691
G1 X115.357 Y92.925 E0.01600
G1 X115.199 Y93.411 E0.01600
G1 X115.146 Y93.918 E0.01599
G1 X115.199 Y94.425 E0.01599
G1 X115.357 Y94.911 E0.01600
G1 X115.612 Y95.352 E0.01600
G1 X115.953 Y95.732 E0.01600
G1 X116.366 Y96.031 E0.01600
G1 X116.832 Y96.239 E0.01599
G1 X117.331 Y96.345 E0.01600
G1 X117.841 Y96.345 E0.01600
G1 X118.340 Y96.239 E0.01600
G1 X118.806 Y96.031 E0.01599
G1 X119.219 Y95.732 E0.01600
G1 X119.560 Y95.352 E0.01600
G1 X119.815 Y94.911 E0.01600
G1 X119.973 Y94.425 E0.01600
G1 X120.026 Y93.918 E0.01599
G1 X119.975 Y93.425 E0.01553
G1 X119.816 Y92.927 E0.01639
G1 X119.560 Y92.484 E0.01606
G1 X119.195 Y92.087 E0.01691
G1 X121.413 Y92.087 E0.06954
G1 X121.413 Y112.853 E0.65110
G1 X121.790 Y113.290 F7200.000
G1 F1800
G1 X83.210 Y113.290 E1.20965
G1 X83.210 Y91.710 E0.67663
G1 X121.790 Y91.710 E1.20965
G1 X121.790 Y113.230 E0.67474
G1 X121.396 Y113.222 F7200.000
G1 F5760
G1 X119.596 Y113.233 E-0.76000
G1 E-0.04000 F2100.00000
G1 Z0.800 F7200.000
G1 X120.923 Y110.709
G1 Z0.200
G1 E0.80000 F2100.00000
G1 F1800
G1 X120.474 Y110.260 E0.02018
G1 X120.422 Y110.420 E0.00537
G1 X120.302 Y110.628 E0.00761
G1 X120.753 Y111.079 E0.02028
G1 X120.753 Y111.620 E0.01717
G1 X120.104 Y110.971 E0.02918
G1 X119.850 Y111.257 E0.01217
G1 X120.753 Y112.160 E0.04059
G1 X120.753 Y112.253 E0.00295
G1 X120.305 Y112.253 E0.01423
G1 X119.578 Y111.526 E0.03267
G1 X119.265 Y111.753 E0.01230
G1 X119.765 Y112.253 E0.02245
G1 X119.224 Y112.253 E0.01717
G1 X118.788 Y111.816 E0.01963
G1 X118.481 Y112.189 F7200.000
G1 F1800
G1 X118.201 Y112.218 E0.00670
G1 X117.921 Y112.248 E0.00568
G1 X117.271 Y112.249 E0.01074
G1 X116.691 Y112.189 E0.00965
G1 F5760
G1 X117.271 Y112.249 E-0.20212
G1 X117.921 Y112.248 E-0.22504
G1 E-0.37283 F2100.00000
G1 Z0.800 F7200.000
G1 X120.687 Y109.809
G1 Z0.200
G1 E0.80000 F2100.00000
G1 F1800
G1 X120.704 Y109.490 E0.00807
G1 X120.721 Y109.171 E0.00739
G1 X120.688 Y108.515 E0.01383
G1 X120.923 Y108.380 F7200.000
G1 F1800
G1 X119.801 Y107.259 E0.05018
G1 F5760
G1 X120.923 Y108.380 E-0.54927
G1 E-0.25073 F2100.00000
G1 Z0.800 F7200.000
G1 X120.923 Y102.461
G1 Z0.200
G1 E0.80000 F2100.00000
G1 F1800
G1 X111.209 Y92.747 E0.43465
G1 X110.671 Y92.747 E0.01703
G1 X120.753 Y102.829 E0.45114
G1 X120.753 Y103.367 E0.01703
G1 X110.133 Y92.747 E0.47522
G1 X109.595 Y92.747 E0.01703
G1 X120.753 Y103.905 E0.49930
G1 X120.753 Y104.444 E0.01703
G1 X109.056 Y92.747 E0.52337
G1 X108.518 Y92.747 E0.01703
G1 X120.753 Y104.982 E0.54745
G1 X120.753 Y105.520 E0.01703
G1 X107.980 Y92.747 E0.57153
G1 X107.442 Y92.747 E0.01703
G1 X120.753 Y106.058 E0.59561
G1 X120.753 Y106.596 E0.01703
G1 X106.904 Y92.747 E0.61969
G1 X106.366 Y92.747 E0.01703
G1 X120.753 Y107.134 E0.64377
G1 X120.753 Y107.672 E0.01703
G1 X105.828 Y92.747 E0.66785
G1 X105.290 Y92.747 E0.01703
G1 X118.912 Y106.369 E0.60955
G1 X118.545 Y106.206 E0.01270
G1 X118.120 Y106.116 E0.01375
G1 X104.751 Y92.747 E0.59819
G1 X104.213 Y92.747 E0.01703
G1 X117.537 Y106.071 E0.59620
G1 X117.262 Y106.071 E0.00873
G1 X117.045 Y106.117 E0.00700
G1 X103.675 Y92.747 E0.59826
G1 X103.137 Y92.747 E0.01703
G1 X116.606 Y106.216 E0.60266
G1 X116.233 Y106.381 E0.01289
G1 X102.599 Y92.747 E0.61008
G1 X102.061 Y92.747 E0.01703
G1 X115.889 Y106.575 E0.61876
G1 X115.577 Y106.802 E0.01219
G1 X101.523 Y92.747 E0.62889
G1 X100.984 Y92.747 E0.01703
G1 X115.310 Y107.073 E0.64101
G1 X115.060 Y107.360 E0.01207
G1 X100.446 Y92.747 E0.65388
G1 X99.908 Y92.747 E0.01703
G1 X114.863 Y107.701 E0.66914
G1 X114.750 Y107.896 E0.00709
