; generated by Slic3r Prusa Edition 1.39.2+win64 on 2018-05-31 at 11:36:50

; 

; external perimeters extrusion width = 0.45mm
; perimeters extrusion width = 0.45mm
; infill extrusion width = 0.45mm
; solid infill extrusion width = 0.45mm
; top infill extrusion width = 0.45mm
; first layer extrusion width = 0.42mm

M107
M115 U3.1.0 ; tell printer latest fw version
M83  ; extruder relative mode
M104 S205 ; set extruder temp
M140 S55 ; set bed temp
M190 S55 ; wait for bed temp
M109 S205 ; wait for extruder temp
G28 W ; home all without mesh bed level
G80 ; mesh bed leveling
G1 Y-3.0 F1000.0 ; go outside print area
G92 E0.0
G1 X60.0 E9.0  F1000.0 ; intro line
G1 X100.0 E12.5  F1000.0 ; intro line
G92 E0.0
M900 K30; Filament gcode
G21 ; set units to millimeters
G90 ; use absolute coordinates
M83 ; use relative distances for extrusion
;BEFORE_LAYER_CHANGE
;0.2


G1 E-0.80000 F2100.00000
G1 Z0.600 F7200.000
;AFTER_LAYER_CHANGE
;0.2
G1 X87.043 Y62.901
G1 Z0.200
G1 E0.80000 F2100.00000
M204 S1000
G1 F1800
G1 X87.525 Y62.386 E0.02213
G1 X88.134 Y62.036 E0.02201
G1 X88.822 Y61.880 E0.02213
G1 X109.004 Y61.873 E0.63278
G1 X109.573 Y61.943 E0.01799
G1 X110.113 Y62.149 E0.01811
G1 X110.584 Y62.477 E0.01799
G1 X110.962 Y62.908 E0.01799
G1 X123.018 Y81.994 E0.70779
G1 X123.340 Y82.831 E0.02813
G1 X123.377 Y140.754 E1.81613
G1 X123.265 Y141.470 E0.02272
G1 X122.943 Y142.119 E0.02272
G1 X122.441 Y142.641 E0.02272
G1 X121.804 Y142.987 E0.02272
G1 X121.092 Y143.125 E0.02272
G1 X83.992 Y143.127 E1.16325
G1 X83.280 Y143.015 E0.02260
G1 X82.628 Y142.691 E0.02284
G1 X82.102 Y142.181 E0.02296
G1 X81.757 Y141.536 E0.02296
G1 X81.624 Y140.816 E0.02296
G1 X81.625 Y83.147 E1.80816
G1 X81.700 Y82.651 E0.01574
G1 X86.734 Y63.532 E0.61990
G1 X87.016 Y62.955 E0.02013
G1 F5760
G1 X87.525 Y62.386 E-0.26442
G1 X88.134 Y62.036 E-0.24317
G1 X88.822 Y61.880 E-0.24448
G1 X88.845 Y61.880 E-0.00794
G1 E-0.04000 F2100.00000
G1 Z0.800 F7200.000
G1 X89.036 Y88.286
G1 Z0.200
G1 E0.80000 F2100.00000
G1 F1800
G1 X115.964 Y88.286 E0.84432
G1 X115.964 Y135.714 E1.48708
G1 X89.036 Y135.714 E0.84432
G1 X89.036 Y88.346 E1.48520
G1 X89.413 Y88.663 F7200.000
G1 F1800
G1 X115.587 Y88.663 E0.82067
G1 X115.587 Y135.337 E1.46344
G1 X89.413 Y135.337 E0.82067
G1 X89.413 Y88.723 E1.46155
G1 X89.790 Y89.040 F7200.000
G1 F1800
G1 X115.210 Y89.040 E0.79703
G1 X115.210 Y134.960 E1.43979
G1 X89.790 Y134.960 E0.79703
G1 X89.790 Y89.100 E1.43791
G1 X89.723 Y88.646 F7200.000
G1 F5760
G1 X91.984 Y89.095 E-0.76000
G1 E-0.04000 F2100.00000
G1 Z0.800 F7200.000
G1 X97.507 Y76.102
G1 Z0.200
G1 E0.80000 F2100.00000
G1 F1800
G1 X96.843 Y75.719 E0.02405
G1 X96.273 Y75.205 E0.02405
G1 X95.822 Y74.585 E0.02406
G1 X95.510 Y73.884 E0.02406
G1 X95.351 Y73.133 E0.02405
G1 X95.351 Y72.367 E0.02405
G1 X95.510 Y71.616 E0.02405
G1 X95.822 Y70.915 E0.02406
G1 X96.273 Y70.295 E0.02406
G1 X96.843 Y69.781 E0.02405
G1 X97.510 Y69.397 E0.02413
G1 X98.254 Y69.159 E0.02449
G1 X99.000 Y69.081 E0.02353
G1 X99.763 Y69.161 E0.02405
G1 X100.493 Y69.398 E0.02405
G1 X101.157 Y69.781 E0.02405
G1 X101.727 Y70.295 E0.02405
G1 X102.178 Y70.915 E0.02406
G1 X102.490 Y71.616 E0.02406
G1 X102.649 Y72.367 E0.02405
G1 X102.649 Y73.133 E0.02405
G1 X102.490 Y73.884 E0.02405
G1 X102.178 Y74.585 E0.02406
G1 X101.727 Y75.205 E0.02406
G1 X101.157 Y75.719 E0.02405
G1 X100.493 Y76.102 E0.02405
G1 X99.763 Y76.339 E0.02405
G1 X99.000 Y76.419 E0.02405
G1 X98.237 Y76.339 E0.02405
G1 X97.564 Y76.121 E0.02217
G1 X97.681 Y75.762 F7200.000
G1 F1800
G1 X97.066 Y75.412 E0.02219
G1 X96.555 Y74.952 E0.02156
G1 X96.150 Y74.395 E0.02157
G1 X95.871 Y73.767 E0.02157
G1 X95.728 Y73.094 E0.02157
G1 X95.728 Y72.406 E0.02156
G1 X95.871 Y71.733 E0.02157
G1 X96.150 Y71.105 E0.02157
G1 X96.555 Y70.548 E0.02157
G1 X97.066 Y70.088 E0.02156
G1 X97.663 Y69.743 E0.02161
G1 X98.331 Y69.530 E0.02200
G1 X99.000 Y69.460 E0.02108
G1 X99.684 Y69.532 E0.02157
G1 X100.338 Y69.744 E0.02157
G1 X100.934 Y70.088 E0.02157
G1 X101.445 Y70.548 E0.02156
G1 X101.850 Y71.105 E0.02157
G1 X102.129 Y71.733 E0.02157
G1 X102.272 Y72.406 E0.02157
G1 X102.272 Y73.094 E0.02156
G1 X102.129 Y73.767 E0.02157
G1 X101.850 Y74.395 E0.02157
G1 X101.445 Y74.952 E0.02157
G1 X100.934 Y75.412 E0.02156
G1 X100.338 Y75.756 E0.02157
G1 X99.684 Y75.968 E0.02157
G1 X99.000 Y76.040 E0.02157
G1 X98.316 Y75.968 E0.02157
G1 X97.738 Y75.781 E0.01905
G1 X97.855 Y75.422 F7200.000
G1 F1800
G1 X97.289 Y75.105 E0.02033
G1 X96.837 Y74.698 E0.01908
G1 X96.479 Y74.206 E0.01908
G1 X96.231 Y73.650 E0.01908
G1 X96.105 Y73.054 E0.01908
G1 X96.105 Y72.446 E0.01908
G1 X96.231 Y71.850 E0.01908
G1 X96.479 Y71.294 E0.01908
G1 X96.837 Y70.802 E0.01908
G1 X97.289 Y70.395 E0.01908
G1 X97.816 Y70.090 E0.01910
G1 X98.409 Y69.901 E0.01951
G1 X99.000 Y69.839 E0.01862
G1 X99.605 Y69.902 E0.01908
G1 X100.184 Y70.091 E0.01908
G1 X100.711 Y70.395 E0.01908
G1 X101.163 Y70.802 E0.01908
G1 X101.521 Y71.294 E0.01908
G1 X101.769 Y71.850 E0.01908
G1 X101.895 Y72.446 E0.01908
G1 X101.895 Y73.054 E0.01908
G1 X101.769 Y73.650 E0.01908
G1 X101.521 Y74.206 E0.01908
G1 X101.163 Y74.698 E0.01908
G1 X100.711 Y75.105 E0.01908
G1 X100.184 Y75.409 E0.01908
G1 X99.605 Y75.598 E0.01908
G1 X99.000 Y75.661 E0.01908
G1 X98.395 Y75.598 E0.01908
G1 X97.912 Y75.441 E0.01593
G1 X97.533 Y75.660 F7200.000
G1 F5760
G1 X97.289 Y75.105 E-0.24500
G1 X96.837 Y74.698 E-0.21077
G1 X96.479 Y74.206 E-0.21082
G1 X96.369 Y73.959 E-0.09341
G1 E-0.04000 F2100.00000
G1 Z0.800 F7200.000
G1 X108.036 Y84.214
G1 Z0.200
G1 E0.80000 F2100.00000
G1 F1800
G1 X120.036 Y84.214 E0.37625
G1 X120.036 Y139.786 E1.74241
G1 X84.964 Y139.786 E1.09965
G1 X84.964 Y84.214 E1.74241
G1 X89.964 Y84.214 E0.15677
G1 X89.964 Y65.214 E0.59573
G1 X108.036 Y65.214 E0.56663
G1 X108.036 Y84.154 E0.59385
G1 X108.413 Y83.837 F7200.000
G1 F1800
G1 X120.413 Y83.837 E0.37625
G1 X120.413 Y140.163 E1.76606
G1 X84.587 Y140.163 E1.12329
G1 X84.587 Y83.837 E1.76606
G1 X89.587 Y83.837 E0.15677
G1 X89.587 Y64.837 E0.59573
G1 X108.413 Y64.837 E0.59027
G1 X108.413 Y83.777 E0.59385
G1 X108.790 Y83.460 F7200.000
G1 F1800
G1 X120.790 Y83.460 E0.37625
G1 X120.790 Y140.540 E1.78970
G1 X84.210 Y140.540 E1.14694
G1 X84.210 Y83.460 E1.78970
G1 X89.210 Y83.460 E0.15677
G1 X89.210 Y64.460 E0.59573
G1 X108.790 Y64.460 E0.61392
G1 X108.790 Y83.400 E0.59385
G1 X108.895 Y83.846 F7200.000
G1 F5760
G1 X110.984 Y83.411 E-0.76000
G1 E-0.04000 F2100.00000
G1 Z0.800 F7200.000
G1 X110.765 Y88.173
G1 Z0.200
G1 E0.80000 F2100.00000
G1 F1800
G1 X99.268 Y76.676 E0.51091
G1 X99.000 Y76.704 E0.00846
G1 X98.733 Y76.676 E0.00842
G1 X110.061 Y88.003 E0.50336
G1 X109.526 Y88.003 E0.01679
G1 X98.123 Y76.599 E0.50675
G1 X97.392 Y76.362 E0.02415
G1 X97.295 Y76.306 E0.00353
G1 X108.992 Y88.003 E0.51980
G1 X108.457 Y88.003 E0.01679
G1 X90.247 Y69.793 E0.80923
G1 X90.247 Y70.327 E0.01679
G1 X107.923 Y88.003 E0.78548
G1 X107.388 Y88.003 E0.01679
G1 X90.247 Y70.862 E0.76174
G1 X90.247 Y71.396 E0.01679
G1 X106.854 Y88.003 E0.73799
G1 X106.320 Y88.003 E0.01679
G1 X90.247 Y71.930 E0.71424
G1 X90.247 Y72.465 E0.01679
G1 X105.785 Y88.003 E0.69049
G1 X105.251 Y88.003 E0.01679
G1 X90.247 Y72.999 E0.66674
G1 X90.247 Y73.534 E0.01679
G1 X104.716 Y88.003 E0.64299
G1 X104.182 Y88.003 E0.01679
G1 X90.247 Y74.068 E0.61924
G1 X90.247 Y74.603 E0.01679
G1 X103.647 Y88.003 E0.59549
G1 X103.113 Y88.003 E0.01679
G1 X90.247 Y75.137 E0.57174
G1 X90.247 Y75.671 E0.01679
G1 X102.579 Y88.003 E0.54799
G1 X102.044 Y88.003 E0.01679
G1 X90.247 Y76.206 E0.52425
G1 X90.247 Y76.740 E0.01679
G1 X101.510 Y88.003 E0.50050
G1 X100.975 Y88.003 E0.01679
G1 X90.247 Y77.275 E0.47675
G1 X90.247 Y77.809 E0.01679
G1 X100.441 Y88.003 E0.45300
G1 X99.906 Y88.003 E0.01679
G1 X90.247 Y78.344 E0.42925
G1 X90.247 Y78.878 E0.01679
G1 X99.372 Y88.003 E0.40550
G1 X98.838 Y88.003 E0.01679
G1 X90.247 Y79.412 E0.38175
G1 X90.247 Y79.947 E0.01679
G1 X98.303 Y88.003 E0.35800
G1 X97.769 Y88.003 E0.01679
G1 X90.247 Y80.481 E0.33425
G1 X90.247 Y81.016 E0.01679
G1 X97.234 Y88.003 E0.31050
G1 X96.700 Y88.003 E0.01679
G1 X90.247 Y81.550 E0.28676
G1 X90.247 Y82.085 E0.01679
G1 X96.165 Y88.003 E0.26301
G1 X95.631 Y88.003 E0.01679
G1 X90.247 Y82.619 E0.23926
G1 X90.247 Y83.153 E0.01679
G1 X95.097 Y88.003 E0.21551
G1 X94.562 Y88.003 E0.01679
G1 X90.247 Y83.688 E0.19176
G1 X90.247 Y84.222 E0.01679
G1 X94.028 Y88.003 E0.16801
G1 X93.493 Y88.003 E0.01679
G1 X89.987 Y84.497 E0.15580
G1 X89.453 Y84.497 E0.01679
G1 X92.959 Y88.003 E0.15580
G1 X92.424 Y88.003 E0.01679
G1 X88.918 Y84.497 E0.15580
G1 X88.384 Y84.497 E0.01679
G1 X91.890 Y88.003 E0.15580
G1 X91.356 Y88.003 E0.01679
G1 X87.849 Y84.497 E0.15580
G1 X87.315 Y84.497 E0.01679
G1 X90.821 Y88.003 E0.15580
G1 X90.287 Y88.003 E0.01679
G1 X86.781 Y84.497 E0.15580
G1 X86.246 Y84.497 E0.01679
G1 X89.752 Y88.003 E0.15580
G1 X89.218 Y88.003 E0.01679
G1 X85.712 Y84.497 E0.15580
G1 X85.247 Y84.497 E0.01461
G1 X85.247 Y84.567 E0.00219
G1 X88.753 Y88.073 E0.15580
G1 X88.753 Y88.607 E0.01679
G1 X85.247 Y85.101 E0.15580
G1 X85.247 Y85.635 E0.01679
G1 X88.753 Y89.142 E0.15580
G1 X88.753 Y89.676 E0.01679
G1 X85.247 Y86.170 E0.15580
G1 X85.247 Y86.704 E0.01679
G1 X88.753 Y90.210 E0.15580
G1 X88.753 Y90.745 E0.01679
G1 X85.247 Y87.239 E0.15580
G1 X85.247 Y87.773 E0.01679
G1 X88.753 Y91.279 E0.15580
G1 X88.753 Y91.814 E0.01679
G1 X85.247 Y88.308 E0.15580
G1 X85.247 Y88.842 E0.01679
G1 X88.753 Y92.348 E0.15580
G1 X88.753 Y92.883 E0.01679
G1 X85.247 Y89.376 E0.15580
G1 X85.247 Y89.911 E0.01679
G1 X88.753 Y93.417 E0.15580
G1 X88.753 Y93.951 E0.01679
G1 X85.247 Y90.445 E0.15580
G1 X85.247 Y90.980 E0.01679
G1 X88.753 Y94.486 E0.15580
G1 X88.753 Y95.020 E0.01679
G1 X85.247 Y91.514 E0.15580
G1 X85.247 Y92.049 E0.01679
G1 X88.753 Y95.555 E0.15580
G1 X88.753 Y96.089 E0.01679
G1 X85.247 Y92.583 E0.15580
G1 X85.247 Y93.117 E0.01679
G1 X88.753 Y96.624 E0.15580
G1 X88.753 Y97.158 E0.01679
G1 X85.247 Y93.652 E0.15580
G1 X85.247 Y94.186 E0.01679
G1 X88.753 Y97.692 E0.15580
G1 X88.753 Y98.227 E0.01679
G1 X85.247 Y94.721 E0.15580
G1 X85.247 Y95.255 E0.01679
G1 X88.753 Y98.761 E0.15580
G1 X88.753 Y99.296 E0.01679
G1 X85.247 Y95.790 E0.15580
G1 X85.247 Y96.324 E0.01679
G1 X88.753 Y99.830 E0.15580
G1 X88.753 Y100.365 E0.01679
G1 X85.247 Y96.858 E0.15580
G1 X85.247 Y97.393 E0.01679
G1 X88.753 Y100.899 E0.15580
G1 X88.753 Y101.433 E0.01679
G1 X85.247 Y97.927 E0.15580
G1 X85.247 Y98.462 E0.01679
G1 X88.753 Y101.968 E0.15580
G1 X88.753 Y102.502 E0.01679
G1 X85.247 Y98.996 E0.15580
G1 X85.247 Y99.531 E0.01679
G1 X88.753 Y103.037 E0.15580
G1 X88.753 Y103.571 E0.01679
G1 X85.247 Y100.065 E0.15580
G1 X85.247 Y100.599 E0.01679
G1 X88.753 Y104.106 E0.15580
G1 X88.753 Y104.640 E0.01679
G1 X85.247 Y101.134 E0.15580
G1 X85.247 Y101.668 E0.01679
G1 X88.753 Y105.174 E0.15580
G1 X88.753 Y105.709 E0.01679
G1 X85.247 Y102.203 E0.15580
G1 X85.247 Y102.737 E0.01679
G1 X88.753 Y106.243 E0.15580
G1 X88.753 Y106.778 E0.01679
G1 X85.247 Y103.272 E0.15580
G1 X85.247 Y103.806 E0.01679
G1 X88.753 Y107.312 E0.15580
G1 X88.753 Y107.847 E0.01679
G1 X85.247 Y104.340 E0.15580
G1 X85.247 Y104.875 E0.01679
G1 X88.753 Y108.381 E0.15580
G1 X88.753 Y108.915 E0.01679
G1 X85.247 Y105.409 E0.15580
G1 X85.247 Y105.944 E0.01679
G1 X88.753 Y109.450 E0.15580
G1 X88.753 Y109.984 E0.01679
G1 X85.247 Y106.478 E0.15580
G1 X85.247 Y107.013 E0.01679
G1 X88.753 Y110.519 E0.15580
G1 X88.753 Y111.053 E0.01679
G1 X85.247 Y107.547 E0.15580
G1 X85.247 Y108.081 E0.01679
G1 X88.753 Y111.588 E0.15580
G1 X88.753 Y112.122 E0.01679
G1 X85.247 Y108.616 E0.15580
G1 X85.247 Y109.150 E0.01679
G1 X88.753 Y112.656 E0.15580
G1 X88.753 Y113.191 E0.01679
G1 X85.247 Y109.685 E0.15580
G1 X85.247 Y110.219 E0.01679
G1 X88.753 Y113.725 E0.15580
G1 X88.753 Y114.260 E0.01679
G1 X85.247 Y110.754 E0.15580
G1 X85.247 Y111.288 E0.01679
G1 X88.753 Y114.794 E0.15580
G1 X88.753 Y115.329 E0.01679
G1 X85.247 Y111.822 E0.15580
G1 X85.247 Y112.357 E0.01679
G1 X88.753 Y115.863 E0.15580
G1 X88.753 Y116.397 E0.01679
G1 X85.247 Y112.891 E0.15580
G1 X85.247 Y113.426 E0.01679
G1 X88.753 Y116.932 E0.15580
G1 X88.753 Y117.466 E0.01679
G1 X85.247 Y113.960 E0.15580
G1 X85.247 Y114.495 E0.01679
G1 X88.753 Y118.001 E0.15580
G1 X88.753 Y118.535 E0.01679
G1 X85.247 Y115.029 E0.15580
G1 X85.247 Y115.564 E0.01679
G1 X88.753 Y119.070 E0.15580
G1 X88.753 Y119.604 E0.01679
G1 X85.247 Y116.098 E0.15580
G1 X85.247 Y116.632 E0.01679
G1 X88.753 Y120.138 E0.15580
G1 X88.753 Y120.673 E0.01679
G1 X85.247 Y117.167 E0.15580
G1 X85.247 Y117.701 E0.01679
G1 X88.753 Y121.207 E0.15580
G1 X88.753 Y121.742 E0.01679
G1 X85.247 Y118.236 E0.15580
G1 X85.247 Y118.770 E0.01679
G1 X88.753 Y122.276 E0.15580
G1 X88.753 Y122.811 E0.01679
G1 X85.247 Y119.305 E0.15580
G1 X85.247 Y119.839 E0.01679
G1 X88.753 Y123.345 E0.15580
G1 X88.753 Y123.879 E0.01679
G1 X85.247 Y120.373 E0.15580
G1 X85.247 Y120.908 E0.01679
G1 X88.753 Y124.414 E0.15580
G1 X88.753 Y124.948 E0.01679
G1 X85.247 Y121.442 E0.15580
G1 X85.247 Y121.977 E0.01679
G1 X88.753 Y125.483 E0.15580
G1 X88.753 Y126.017 E0.01679
G1 X85.247 Y122.511 E0.15580
G1 X85.247 Y123.046 E0.01679
G1 X88.753 Y126.552 E0.15580
G1 X88.753 Y127.086 E0.01679
G1 X85.247 Y123.580 E0.15580
G1 X85.247 Y124.114 E0.01679
G1 X88.753 Y127.620 E0.15580
G1 X88.753 Y128.155 E0.01679
G1 X85.247 Y124.649 E0.15580
G1 X85.247 Y125.183 E0.01679
G1 X88.753 Y128.689 E0.15580
G1 X88.753 Y129.224 E0.01679
G1 X85.247 Y125.718 E0.15580
G1 X85.247 Y126.252 E0.01679
G1 X88.753 Y129.758 E0.15580
G1 X88.753 Y130.293 E0.01679
G1 X85.247 Y126.787 E0.15580
G1 X85.247 Y127.321 E0.01679
G1 X88.753 Y130.827 E0.15580
G1 X88.753 Y131.362 E0.01679
G1 X85.247 Y127.855 E0.15580
G1 X85.247 Y128.390 E0.01679
G1 X88.753 Y131.896 E0.15580
G1 X88.753 Y132.430 E0.01679
G1 X85.247 Y128.924 E0.15580
G1 X85.247 Y129.459 E0.01679
G1 X88.753 Y132.965 E0.15580
G1 X88.753 Y133.499 E0.01679
G1 X85.247 Y129.993 E0.15580
G1 X85.247 Y130.528 E0.01679
G1 X88.753 Y134.034 E0.15580
G1 X88.753 Y134.568 E0.01679
G1 X85.247 Y131.062 E0.15580
G1 X85.247 Y131.596 E0.01679
G1 X88.753 Y135.103 E0.15580
G1 X88.753 Y135.637 E0.01679
G1 X85.247 Y132.131 E0.15580
G1 X85.247 Y132.665 E0.01679
G1 X92.085 Y139.503 E0.30386
G1 X92.619 Y139.503 E0.01679
G1 X89.113 Y135.997 E0.15580
G1 X89.647 Y135.997 E0.01679
G1 X93.154 Y139.503 E0.15580
G1 X93.688 Y139.503 E0.01679
G1 X90.182 Y135.997 E0.15580
G1 X90.716 Y135.997 E0.01679
G1 X94.222 Y139.503 E0.15580
G1 X94.757 Y139.503 E0.01679
G1 X91.251 Y135.997 E0.15580
G1 X91.785 Y135.997 E0.01679
G1 X95.291 Y139.503 E0.15580
G1 X95.826 Y139.503 E0.01679
G1 X92.320 Y135.997 E0.15580
G1 X92.854 Y135.997 E0.01679
G1 X96.360 Y139.503 E0.15580
G1 X96.895 Y139.503 E0.01679
G1 X93.388 Y135.997 E0.15580
G1 X93.923 Y135.997 E0.01679
G1 X97.429 Y139.503 E0.15580
G1 X97.963 Y139.503 E0.01679
G1 X94.457 Y135.997 E0.15580
G1 X94.992 Y135.997 E0.01679
G1 X98.498 Y139.503 E0.15580
G1 X99.032 Y139.503 E0.01679
G1 X95.526 Y135.997 E0.15580
G1 X96.061 Y135.997 E0.01679
G1 X99.567 Y139.503 E0.15580
G1 X100.101 Y139.503 E0.01679
G1 X96.595 Y135.997 E0.15580
G1 X97.130 Y135.997 E0.01679
G1 X100.636 Y139.503 E0.15580
G1 X101.170 Y139.503 E0.01679
G1 X97.664 Y135.997 E0.15580
G1 X98.198 Y135.997 E0.01679
G1 X101.704 Y139.503 E0.15580
G1 X102.239 Y139.503 E0.01679
G1 X98.733 Y135.997 E0.15580
G1 X99.267 Y135.997 E0.01679
G1 X102.773 Y139.503 E0.15580
G1 X103.308 Y139.503 E0.01679
G1 X99.802 Y135.997 E0.15580
G1 X100.336 Y135.997 E0.01679
G1 X103.842 Y139.503 E0.15580
G1 X104.377 Y139.503 E0.01679
G1 X100.871 Y135.997 E0.15580
G1 X101.405 Y135.997 E0.01679
G1 X104.911 Y139.503 E0.15580
G1 X105.445 Y139.503 E0.01679
G1 X101.939 Y135.997 E0.15580
G1 X102.474 Y135.997 E0.01679
G1 X105.980 Y139.503 E0.15580
G1 X106.514 Y139.503 E0.01679
G1 X103.008 Y135.997 E0.15580
G1 X103.543 Y135.997 E0.01679
G1 X107.049 Y139.503 E0.15580
G1 X107.583 Y139.503 E0.01679
G1 X104.077 Y135.997 E0.15580
G1 X104.612 Y135.997 E0.01679
G1 X108.118 Y139.503 E0.15580
G1 X108.652 Y139.503 E0.01679
G1 X105.146 Y135.997 E0.15580
G1 X105.680 Y135.997 E0.01679
G1 X109.186 Y139.503 E0.15580
G1 X109.721 Y139.503 E0.01679
G1 X106.215 Y135.997 E0.15580
