; generated by Slic3r Prusa Edition 1.39.2+win64 on 2018-05-31 at 14:58:47

; 

; external perimeters extrusion width = 0.45mm
; perimeters extrusion width = 0.45mm
; infill extrusion width = 0.45mm
; solid infill extrusion width = 0.45mm
; top infill extrusion width = 0.45mm
; first layer extrusion width = 0.42mm

M107
M115 U3.1.0 ; tell printer latest fw version
M83  ; extruder relative mode
M104 S205 ; set extruder temp
M140 S55 ; set bed temp
M190 S55 ; wait for bed temp
M109 S205 ; wait for extruder temp
G28 W ; home all without mesh bed level
G80 ; mesh bed leveling
G1 Y-3.0 F1000.0 ; go outside print area
G92 E0.0
G1 X60.0 E9.0  F1000.0 ; intro line
G1 X100.0 E12.5  F1000.0 ; intro line
G92 E0.0
M900 K30; Filament gcode
G21 ; set units to millimeters
G90 ; use absolute coordinates
M83 ; use relative distances for extrusion
;BEFORE_LAYER_CHANGE
;0.2


G1 E-0.80000 F2100.00000
G1 Z0.600 F7200.000
;AFTER_LAYER_CHANGE
;0.2
G1 X93.035 Y80.871
G1 Z0.200
G1 E0.80000 F2100.00000
M204 S1000
G1 F1800
G1 X93.503 Y80.363 E0.02166
G1 X94.097 Y80.010 E0.02166
G1 X94.771 Y79.843 E0.02178
G1 X110.004 Y79.832 E0.47762
G1 X110.888 Y80.004 E0.02825
G1 X111.642 Y80.490 E0.02813
G1 X112.162 Y81.222 E0.02813
G1 X112.374 Y82.097 E0.02825
G1 X112.377 Y127.213 E1.41456
G1 X112.267 Y127.925 E0.02260
G1 X111.961 Y128.553 E0.02190
G1 X111.486 Y129.065 E0.02190
G1 X110.882 Y129.416 E0.02190
G1 X110.203 Y129.577 E0.02190
G1 X94.985 Y129.586 E0.47715
G1 X94.284 Y129.476 E0.02225
G1 X93.631 Y129.152 E0.02284
G1 X93.107 Y128.646 E0.02284
G1 X92.760 Y128.006 E0.02284
G1 X92.624 Y127.286 E0.02296
G1 X92.623 Y82.205 E1.41348
G1 X92.733 Y81.493 E0.02260
G1 X93.009 Y80.925 E0.01978
G1 F5760
G1 X93.503 Y80.363 E-0.25923
G1 X94.097 Y80.010 E-0.23926
G1 X94.771 Y79.843 E-0.24056
G1 X94.831 Y79.843 E-0.02095
G1 E-0.04000 F2100.00000
G1 Z0.800 F7200.000
G1 X101.320 Y113.576
G1 Z0.200
G1 E0.80000 F2100.00000
G1 F1800
G1 X102.101 Y113.410 E0.02504
G1 X102.899 Y113.410 E0.02504
G1 X103.680 Y113.576 E0.02504
G1 X104.410 Y113.901 E0.02504
G1 X105.056 Y114.370 E0.02504
G1 X105.590 Y114.964 E0.02504
G1 X105.989 Y115.655 E0.02504
G1 X106.236 Y116.415 E0.02504
G1 X106.319 Y117.209 E0.02503
G1 X106.236 Y118.003 E0.02503
G1 X105.989 Y118.762 E0.02504
G1 X105.590 Y119.454 E0.02504
G1 X105.056 Y120.047 E0.02504
G1 X104.410 Y120.517 E0.02504
G1 X103.680 Y120.841 E0.02504
G1 X102.899 Y121.007 E0.02504
G1 X102.101 Y121.007 E0.02504
G1 X101.320 Y120.841 E0.02504
G1 X100.590 Y120.517 E0.02504
G1 X99.944 Y120.047 E0.02504
G1 X99.410 Y119.454 E0.02504
G1 X99.011 Y118.762 E0.02504
G1 X98.764 Y118.003 E0.02504
G1 X98.681 Y117.209 E0.02503
G1 X98.764 Y116.415 E0.02503
G1 X99.011 Y115.655 E0.02504
G1 X99.410 Y114.964 E0.02504
G1 X99.944 Y114.370 E0.02504
G1 X100.590 Y113.901 E0.02504
G1 X101.265 Y113.601 E0.02315
G1 X101.418 Y113.945 F7200.000
G1 F1800
G1 X102.140 Y113.787 E0.02318
G1 X102.860 Y113.787 E0.02255
G1 X103.563 Y113.937 E0.02255
G1 X104.220 Y114.229 E0.02255
G1 X104.802 Y114.652 E0.02255
G1 X105.283 Y115.187 E0.02255
G1 X105.643 Y115.810 E0.02255
G1 X105.865 Y116.494 E0.02255
G1 X105.940 Y117.209 E0.02255
G1 X105.865 Y117.924 E0.02255
G1 X105.643 Y118.608 E0.02255
G1 X105.283 Y119.231 E0.02255
G1 X104.802 Y119.766 E0.02255
G1 X104.220 Y120.188 E0.02255
G1 X103.563 Y120.481 E0.02255
G1 X102.860 Y120.630 E0.02255
G1 X102.140 Y120.630 E0.02255
G1 X101.437 Y120.481 E0.02255
G1 X100.780 Y120.188 E0.02255
G1 X100.198 Y119.766 E0.02255
G1 X99.717 Y119.231 E0.02255
G1 X99.357 Y118.608 E0.02255
G1 X99.135 Y117.924 E0.02255
G1 X99.060 Y117.209 E0.02255
G1 X99.135 Y116.494 E0.02255
G1 X99.357 Y115.810 E0.02255
G1 X99.717 Y115.187 E0.02255
G1 X100.198 Y114.652 E0.02255
G1 X100.780 Y114.229 E0.02255
G1 X101.363 Y113.970 E0.02003
G1 X101.517 Y114.314 F7200.000
G1 F1800
G1 X102.180 Y114.164 E0.02132
G1 X102.820 Y114.164 E0.02007
G1 X103.446 Y114.298 E0.02007
G1 X104.031 Y114.558 E0.02006
G1 X104.548 Y114.934 E0.02006
G1 X104.977 Y115.410 E0.02007
G1 X105.297 Y115.964 E0.02007
G1 X105.494 Y116.572 E0.02007
G1 X105.561 Y117.209 E0.02006
G1 X105.494 Y117.845 E0.02006
G1 X105.297 Y118.454 E0.02007
G1 X104.977 Y119.008 E0.02007
G1 X104.548 Y119.484 E0.02007
G1 X104.031 Y119.860 E0.02006
G1 X103.446 Y120.120 E0.02006
G1 X102.820 Y120.253 E0.02007
G1 X102.180 Y120.253 E0.02007
G1 X101.554 Y120.120 E0.02007
G1 X100.969 Y119.860 E0.02006
G1 X100.452 Y119.484 E0.02006
G1 X100.023 Y119.008 E0.02007
G1 X99.703 Y118.454 E0.02007
G1 X99.506 Y117.845 E0.02007
G1 X99.439 Y117.209 E0.02006
G1 X99.506 Y116.572 E0.02006
G1 X99.703 Y115.964 E0.02007
G1 X100.023 Y115.410 E0.02007
G1 X100.452 Y114.934 E0.02007
G1 X100.969 Y114.558 E0.02006
G1 X101.462 Y114.339 E0.01690
G1 X101.596 Y113.922 F7200.000
G1 F5760
G1 X102.180 Y114.164 E-0.25590
G1 X102.820 Y114.164 E-0.22165
G1 X103.446 Y114.298 E-0.22165
G1 X103.606 Y114.369 E-0.06080
G1 E-0.04000 F2100.00000
G1 Z0.800 F7200.000
G1 X95.964 Y126.245
G1 Z0.200
G1 E0.80000 F2100.00000
G1 F1800
G1 X95.964 Y83.173 E1.35048
G1 X109.036 Y83.173 E0.40985
G1 X109.036 Y126.245 E1.35048
G1 X96.024 Y126.245 E0.40797
G1 X95.587 Y126.622 F7200.000
G1 F1800
G1 X95.587 Y82.796 E1.37413
G1 X109.413 Y82.796 E0.43350
G1 X109.413 Y126.622 E1.37413
G1 X95.647 Y126.622 E0.43162
G1 X95.210 Y126.999 F7200.000
G1 F1800
G1 X95.210 Y82.419 E1.39777
G1 X109.790 Y82.419 E0.45715
G1 X109.790 Y126.999 E1.39777
G1 X95.270 Y126.999 E0.45526
G1 X95.252 Y126.601 F7200.000
G1 F5760
G1 X95.267 Y124.805 E-0.76000
G1 E-0.04000 F2100.00000
G1 Z0.800 F7200.000
G1 X96.077 Y125.365
G1 Z0.200
G1 E0.80000 F2100.00000
G1 F1800
G1 X96.674 Y125.962 E0.02661
G1 X97.210 Y125.962 E0.01691
G1 X96.247 Y124.999 E0.04296
G1 X96.247 Y124.462 E0.01691
G1 X97.747 Y125.962 E0.06686
G1 X98.283 Y125.962 E0.01691
G1 X96.247 Y123.926 E0.09077
G1 X96.247 Y123.390 E0.01691
G1 X98.819 Y125.962 E0.11468
G1 X99.355 Y125.962 E0.01691
G1 X96.247 Y122.854 E0.13859
G1 X96.247 Y122.317 E0.01691
G1 X99.891 Y125.962 E0.16250
G1 X100.428 Y125.962 E0.01691
G1 X96.247 Y121.781 E0.18640
G1 X96.247 Y121.245 E0.01691
G1 X100.964 Y125.962 E0.21031
G1 X101.500 Y125.962 E0.01691
G1 X96.247 Y120.709 E0.23422
G1 X96.247 Y120.173 E0.01691
G1 X102.036 Y125.962 E0.25813
G1 X102.573 Y125.962 E0.01691
G1 X96.247 Y119.636 E0.28204
G1 X96.247 Y119.100 E0.01691
G1 X103.109 Y125.962 E0.30594
G1 X103.645 Y125.962 E0.01691
G1 X96.247 Y118.564 E0.32985
G1 X96.247 Y118.028 E0.01691
G1 X104.181 Y125.962 E0.35376
G1 X104.717 Y125.962 E0.01691
G1 X96.247 Y117.492 E0.37767
G1 X96.247 Y116.955 E0.01691
G1 X105.423 Y126.132 E0.40914
G1 F5760
G1 X103.872 Y124.580 E-0.76000
G1 E-0.04000 F2100.00000
G1 Z0.800 F7200.000
G1 X100.705 Y120.877
G1 Z0.200
G1 E0.80000 F2100.00000
G1 F1800
G1 X105.790 Y125.962 E0.22670
G1 X106.326 Y125.962 E0.01691
G1 X101.542 Y121.178 E0.21331
G1 X102.071 Y121.290 E0.01706
G1 X102.191 Y121.290 E0.00377
G1 X106.862 Y125.962 E0.20830
G1 X107.398 Y125.962 E0.01691
G1 X102.727 Y121.290 E0.20830
G1 X102.929 Y121.290 E0.00638
G1 X103.204 Y121.232 E0.00888
G1 X107.935 Y125.962 E0.21091
G1 X108.471 Y125.962 E0.01691
G1 X103.647 Y121.138 E0.21510
G1 X103.768 Y121.112 E0.00392
G1 X104.037 Y120.992 E0.00929
G1 X108.753 Y125.708 E0.21026
G1 X108.753 Y125.172 E0.01691
G1 X104.408 Y120.827 E0.19372
G1 X104.552 Y120.763 E0.00496
G1 X104.742 Y120.625 E0.00742
G1 X108.753 Y124.635 E0.17883
G1 X108.753 Y124.099 E0.01691
G1 X105.053 Y120.399 E0.16498
G1 X105.246 Y120.259 E0.00753
G1 X105.342 Y120.152 E0.00453
G1 X108.753 Y123.563 E0.15209
G1 X108.753 Y123.027 E0.01691
G1 X105.596 Y119.870 E0.14076
G1 X105.843 Y119.581 E0.01199
G1 X108.753 Y122.491 E0.12974
G1 X108.753 Y121.954 E0.01691
G1 X106.040 Y119.241 E0.12099
G1 X106.236 Y118.901 E0.01238
G1 X108.753 Y121.418 E0.11224
G1 X108.753 Y120.882 E0.01691
G1 X106.372 Y118.501 E0.10618
G1 X106.503 Y118.096 E0.01342
G1 X108.753 Y120.346 E0.10032
G1 X108.753 Y119.810 E0.01691
G1 X106.561 Y117.617 E0.09774
G1 X106.604 Y117.209 E0.01295
G1 X106.594 Y117.114 E0.00300
G1 X108.753 Y119.273 E0.09627
G1 X108.753 Y118.737 E0.01691
G1 X106.531 Y116.515 E0.09908
G1 X106.514 Y116.356 E0.00505
G1 X106.325 Y115.772 E0.01933
G1 X108.753 Y118.201 E0.10827
G1 X108.753 Y117.665 E0.01691
G1 X96.247 Y105.159 E0.55760
G1 X96.247 Y104.622 E0.01691
G1 X108.753 Y117.128 E0.55760
G1 X108.753 Y116.592 E0.01691
G1 X96.247 Y104.086 E0.55760
G1 X96.247 Y103.550 E0.01691
G1 X108.753 Y116.056 E0.55760
G1 X108.753 Y115.520 E0.01691
G1 X96.247 Y103.014 E0.55760
G1 X96.247 Y102.477 E0.01691
G1 X108.753 Y114.984 E0.55760
G1 X108.753 Y114.447 E0.01691
G1 X96.247 Y101.941 E0.55760
G1 X96.247 Y101.405 E0.01691
G1 X108.753 Y113.911 E0.55760
G1 X108.753 Y113.375 E0.01691
G1 X96.247 Y100.869 E0.55760
G1 X96.247 Y100.333 E0.01691
G1 X108.753 Y112.839 E0.55760
G1 X108.753 Y112.303 E0.01691
G1 X96.247 Y99.796 E0.55760
G1 X96.247 Y99.260 E0.01691
G1 X108.753 Y111.766 E0.55760
G1 X108.753 Y111.230 E0.01691
G1 X96.247 Y98.724 E0.55760
G1 X96.247 Y98.188 E0.01691
G1 X108.753 Y110.694 E0.55760
G1 X108.753 Y110.158 E0.01691
G1 X96.247 Y97.652 E0.55760
G1 X96.247 Y97.115 E0.01691
G1 X108.753 Y109.621 E0.55760
G1 X108.753 Y109.085 E0.01691
G1 X96.247 Y96.579 E0.55760
G1 X96.247 Y96.043 E0.01691
G1 X108.753 Y108.549 E0.55760
G1 X108.753 Y108.013 E0.01691
G1 X96.247 Y95.507 E0.55760
G1 X96.247 Y94.970 E0.01691
G1 X108.753 Y107.477 E0.55760
G1 X108.753 Y106.940 E0.01691
G1 X96.247 Y94.434 E0.55760
G1 X96.247 Y93.898 E0.01691
G1 X108.753 Y106.404 E0.55760
G1 X108.753 Y105.868 E0.01691
G1 X96.247 Y93.362 E0.55760
G1 X96.247 Y92.826 E0.01691
G1 X108.753 Y105.332 E0.55760
G1 X108.753 Y104.796 E0.01691
G1 X96.247 Y92.289 E0.55760
G1 X96.247 Y91.753 E0.01691
G1 X108.753 Y104.259 E0.55760
G1 X108.753 Y103.723 E0.01691
G1 X96.247 Y91.217 E0.55760
G1 X96.247 Y90.681 E0.01691
G1 X108.753 Y103.187 E0.55760
G1 X108.753 Y102.651 E0.01691
G1 X96.247 Y90.145 E0.55760
G1 X96.247 Y89.608 E0.01691
G1 X108.753 Y102.114 E0.55760
G1 X108.753 Y101.578 E0.01691
G1 X96.247 Y89.072 E0.55760
G1 X96.247 Y88.536 E0.01691
G1 X108.753 Y101.042 E0.55760
G1 X108.753 Y100.506 E0.01691
G1 X96.247 Y88.000 E0.55760
G1 X96.247 Y87.463 E0.01691
G1 X108.753 Y99.970 E0.55760
G1 X108.753 Y99.433 E0.01691
G1 X96.247 Y86.927 E0.55760
G1 X96.247 Y86.391 E0.01691
G1 X108.753 Y98.897 E0.55760
G1 X108.753 Y98.361 E0.01691
G1 X96.247 Y85.855 E0.55760
G1 X96.247 Y85.319 E0.01691
G1 X108.753 Y97.825 E0.55760
G1 X108.753 Y97.289 E0.01691
G1 X96.247 Y84.782 E0.55760
G1 X96.247 Y84.246 E0.01691
G1 X108.753 Y96.752 E0.55760
G1 X108.753 Y96.216 E0.01691
G1 X96.247 Y83.710 E0.55760
G1 X96.247 Y83.456 E0.00801
G1 X96.529 Y83.456 E0.00889
G1 X108.753 Y95.680 E0.54503
G1 X108.753 Y95.144 E0.01691
G1 X97.065 Y83.456 E0.52112
G1 X97.601 Y83.456 E0.01691
G1 X108.753 Y94.607 E0.49721
G1 X108.753 Y94.071 E0.01691
G1 X98.138 Y83.456 E0.47330
G1 X98.674 Y83.456 E0.01691
G1 X108.753 Y93.535 E0.44939
G1 X108.753 Y92.999 E0.01691
G1 X99.210 Y83.456 E0.42549
G1 X99.746 Y83.456 E0.01691
G1 X108.753 Y92.463 E0.40158
G1 X108.753 Y91.926 E0.01691
G1 X100.283 Y83.456 E0.37767
G1 X100.819 Y83.456 E0.01691
G1 X108.753 Y91.390 E0.35376
G1 X108.753 Y90.854 E0.01691
G1 X101.355 Y83.456 E0.32986
G1 X101.891 Y83.456 E0.01691
G1 X108.753 Y90.318 E0.30595
G1 X108.753 Y89.782 E0.01691
G1 X102.427 Y83.456 E0.28204
G1 X102.964 Y83.456 E0.01691
G1 X108.753 Y89.245 E0.25813
G1 X108.753 Y88.709 E0.01691
G1 X103.500 Y83.456 E0.23422
G1 X104.036 Y83.456 E0.01691
G1 X108.753 Y88.173 E0.21032
G1 X108.753 Y87.637 E0.01691
G1 X104.572 Y83.456 E0.18641
G1 X105.108 Y83.456 E0.01691
G1 X108.753 Y87.100 E0.16250
G1 X108.753 Y86.564 E0.01691
G1 X105.645 Y83.456 E0.13859
G1 X106.181 Y83.456 E0.01691
G1 X108.753 Y86.028 E0.11468
G1 X108.753 Y85.492 E0.01691
G1 X106.717 Y83.456 E0.09078
G1 X107.253 Y83.456 E0.01691
G1 X108.753 Y84.956 E0.06687
G1 X108.753 Y84.419 E0.01691
G1 X107.790 Y83.456 E0.04296
G1 X108.326 Y83.456 E0.01691
G1 X108.923 Y84.053 E0.02662
G1 F5760
G1 X108.326 Y83.456 E-0.29242
G1 X107.790 Y83.456 E-0.18572
G1 X108.365 Y84.031 E-0.28186
G1 E-0.04000 F2100.00000
G1 Z0.800 F7200.000
G1 X96.077 Y105.525
G1 Z0.200
G1 E0.80000 F2100.00000
G1 F1800
G1 X103.930 Y113.378 E0.35014
G1 X103.768 Y113.306 E0.00560
G1 X103.201 Y113.185 E0.01827
G1 X96.247 Y106.231 E0.31007
G1 X96.247 Y106.767 E0.01691
G1 X102.607 Y113.128 E0.28358
G1 X102.071 Y113.128 E0.01691
G1 X96.247 Y107.303 E0.25968
G1 X96.247 Y107.840 E0.01691
G1 X101.629 Y113.222 E0.23996
G1 X101.194 Y113.323 E0.01408
G1 X96.247 Y108.376 E0.22057
G1 X96.247 Y108.912 E0.01691
G1 X100.823 Y113.488 E0.20402
G1 X100.452 Y113.653 E0.01280
G1 X96.247 Y109.448 E0.18748
G1 X96.247 Y109.985 E0.01691
G1 X100.141 Y113.878 E0.17361
G1 X99.830 Y114.104 E0.01210
G1 X96.247 Y110.521 E0.15976
G1 X96.247 Y111.057 E0.01691
G1 X99.562 Y114.372 E0.14782
G1 X99.308 Y114.654 E0.01197
G1 X96.247 Y111.593 E0.13649
G1 X96.247 Y112.129 E0.01691
G1 X99.083 Y114.965 E0.12644
G1 X98.886 Y115.305 E0.01238
G1 X96.247 Y112.666 E0.11769
G1 X96.247 Y113.202 E0.01691
G1 X98.710 Y115.665 E0.10983
G1 X98.579 Y116.070 E0.01342
G1 X96.247 Y113.738 E0.10397
G1 X96.247 Y114.274 E0.01691
G1 X98.471 Y116.498 E0.09916
G1 X98.420 Y116.983 E0.01538
G1 X96.247 Y114.810 E0.09688
G1 X96.247 Y115.347 E0.01691
G1 X98.430 Y117.530 E0.09733
G1 X98.486 Y118.062 E0.01688
G1 X98.515 Y118.151 E0.00293
G1 X96.247 Y115.883 E0.10111
G1 X96.247 Y116.419 E0.01691
G1 X98.813 Y118.985 E0.11439
M106 S242.25
;BEFORE_LAYER_CHANGE
;0.35


G1 F5760
G1 X97.261 Y117.433 E-0.76000
G1 E-0.04000 F2100.00000
G1 Z0.800 F7200.000
;AFTER_LAYER_CHANGE
;0.35
G1 X110.888 Y80.004
G1 Z0.350
G1 E0.80000 F2100.00000
G1 F3000
G1 X111.642 Y80.490 E0.02170
G1 X112.162 Y81.222 E0.02170
G1 X112.374 Y82.097 E0.02179
G1 X112.377 Y127.213 E1.09111
G1 X112.267 Y127.925 E0.01744
G1 X111.961 Y128.553 E0.01689
G1 X111.486 Y129.065 E0.01689
G1 X110.882 Y129.416 E0.01689
G1 X110.203 Y129.577 E0.01689
G1 X94.985 Y129.586 E0.36804
G1 X94.284 Y129.476 E0.01716
G1 X93.631 Y129.152 E0.01762
G1 X93.107 Y128.646 E0.01762
G1 X92.760 Y128.006 E0.01762
G1 X92.624 Y127.286 E0.01771
G1 X92.623 Y82.205 E1.09028
G1 X92.733 Y81.493 E0.01744
G1 X93.035 Y80.871 E0.01671
G1 X93.503 Y80.363 E0.01671
G1 X94.097 Y80.010 E0.01671
G1 X94.771 Y79.843 E0.01680
G1 X110.004 Y79.832 E0.36841
G1 X110.829 Y79.993 E0.02034
G1 F5760
G1 X111.642 Y80.490 E-0.33018
G1 X112.162 Y81.222 E-0.31079
G1 X112.243 Y81.556 E-0.11903
G1 E-0.04000 F2100.00000
G1 Z0.950 F7200.000
G1 X103.709 Y113.484
G1 Z0.350
G1 E0.80000 F2100.00000
M204 S800
G1 F1200
G1 X104.458 Y113.817 E0.02136
G1 X105.121 Y114.298 E0.02133
G1 X105.668 Y114.907 E0.02133
G1 X106.078 Y115.616 E0.02133
G1 X106.331 Y116.395 E0.02133
G1 X106.416 Y117.209 E0.02133
G1 X106.331 Y118.023 E0.02133
G1 X106.078 Y118.802 E0.02133
G1 X105.668 Y119.511 E0.02133
G1 X105.121 Y120.119 E0.02133
G1 X104.458 Y120.601 E0.02133
G1 X103.710 Y120.934 E0.02133
G1 X102.909 Y121.104 E0.02133
G1 X102.091 Y121.104 E0.02133
G1 X101.290 Y120.934 E0.02133
G1 X100.542 Y120.601 E0.02133
G1 X99.879 Y120.119 E0.02133
G1 X99.332 Y119.511 E0.02133
G1 X98.922 Y118.802 E0.02133
G1 X98.669 Y118.023 E0.02133
G1 X98.584 Y117.209 E0.02133
G1 X98.669 Y116.395 E0.02133
G1 X98.922 Y115.616 E0.02133
G1 X99.332 Y114.907 E0.02133
G1 X99.879 Y114.298 E0.02133
G1 X100.542 Y113.817 E0.02133
G1 X101.290 Y113.484 E0.02133
G1 X102.091 Y113.314 E0.02133
G1 X102.909 Y113.314 E0.02133
G1 X103.650 Y113.471 E0.01974
M204 S1000
G1 X103.564 Y113.880 F7200.000
M204 S800
G1 F1200
G1 X104.248 Y114.181 E0.01949
G1 X104.839 Y114.611 E0.01904
G1 X105.329 Y115.154 E0.01905
G1 X105.694 Y115.787 E0.01905
G1 X105.920 Y116.482 E0.01905
G1 X105.996 Y117.209 E0.01904
G1 X105.920 Y117.936 E0.01904
G1 X105.694 Y118.631 E0.01905
G1 X105.329 Y119.264 E0.01905
G1 X104.839 Y119.807 E0.01905
G1 X104.248 Y120.237 E0.01904
G1 X103.580 Y120.534 E0.01904
G1 X102.865 Y120.686 E0.01904
G1 X102.135 Y120.686 E0.01905
G1 X101.420 Y120.534 E0.01904
G1 X100.752 Y120.237 E0.01904
G1 X100.161 Y119.807 E0.01904
G1 X99.671 Y119.264 E0.01905
G1 X99.306 Y118.631 E0.01905
G1 X99.080 Y117.936 E0.01905
G1 X99.004 Y117.209 E0.01904
