; generated by Slic3r Prusa Edition 1.39.2+win64 on 2018-05-24 at 07:52:27

; 

; external perimeters extrusion width = 0.45mm
; perimeters extrusion width = 0.45mm
; infill extrusion width = 0.45mm
; solid infill extrusion width = 0.45mm
; top infill extrusion width = 0.45mm
; first layer extrusion width = 0.42mm

M107
M115 U3.1.0 ; tell printer latest fw version
M83  ; extruder relative mode
M104 S205 ; set extruder temp
M140 S55 ; set bed temp
M190 S55 ; wait for bed temp
M109 S205 ; wait for extruder temp
G28 W ; home all without mesh bed level
G80 ; mesh bed leveling
G1 Y-3.0 F1000.0 ; go outside print area
G92 E0.0
G1 X60.0 E9.0  F1000.0 ; intro line
G1 X100.0 E12.5  F1000.0 ; intro line
G92 E0.0
M900 K30; Filament gcode
G21 ; set units to millimeters
G90 ; use absolute coordinates
M83 ; use relative distances for extrusion
;BEFORE_LAYER_CHANGE
;0.2


G1 E-0.80000 F2100.00000
G1 Z0.600 F7200.000
;AFTER_LAYER_CHANGE
;0.2
G1 X89.872 Y87.176
G1 Z0.200
G1 E0.80000 F2100.00000
M204 S1000
G1 F1800
G1 X90.215 Y86.462 E0.02485
G1 X90.628 Y85.980 E0.01988
G1 X91.139 Y85.606 E0.01988
G1 X91.723 Y85.358 E0.01988
G1 X92.348 Y85.250 E0.01988
G1 X112.504 Y85.246 E0.63199
G1 X113.509 Y85.437 E0.03208
G1 X114.378 Y85.985 E0.03221
G1 X114.984 Y86.810 E0.03208
G1 X115.247 Y87.799 E0.03208
G1 X115.254 Y115.045 E0.85430
G1 X115.128 Y115.824 E0.02473
G1 X114.785 Y116.538 E0.02485
G1 X114.165 Y117.194 E0.02828
G1 X113.367 Y117.614 E0.02828
G1 X105.690 Y119.666 E0.24917
G1 X105.086 Y119.753 E0.01912
G1 X99.527 Y119.713 E0.17432
G1 X91.747 Y117.649 E0.25237
G1 X90.962 Y117.285 E0.02714
G1 X90.466 Y116.857 E0.02052
G1 X90.085 Y116.325 E0.02052
G1 X89.840 Y115.714 E0.02065
G1 X89.747 Y115.066 E0.02052
G1 X89.746 Y87.955 E0.85005
G1 X89.862 Y87.236 E0.02284
G1 X90.232 Y87.295 F7200.000
G1 F1800
G1 X90.535 Y86.662 E0.02201
G1 X90.893 Y86.248 E0.01716
G1 X91.340 Y85.925 E0.01728
G1 X91.845 Y85.715 E0.01716
G1 X92.388 Y85.626 E0.01728
G1 X112.504 Y85.623 E0.63070
G1 X113.374 Y85.789 E0.02778
G1 X114.126 Y86.266 E0.02790
G1 X114.650 Y86.985 E0.02790
G1 X114.872 Y87.847 E0.02790
G1 X114.877 Y115.034 E0.85245
G1 X114.767 Y115.716 E0.02166
G1 X114.465 Y116.338 E0.02166
G1 X113.925 Y116.902 E0.02449
G1 X113.232 Y117.262 E0.02449
G1 X105.598 Y119.301 E0.24775
G1 X105.063 Y119.376 E0.01692
G1 X99.594 Y119.342 E0.17148
G1 X91.854 Y117.288 E0.25109
G1 X91.163 Y116.966 E0.02390
G1 X90.739 Y116.597 E0.01763
G1 X90.411 Y116.135 E0.01775
G1 X90.202 Y115.609 E0.01775
G1 X90.123 Y115.048 E0.01775
G1 X90.123 Y87.966 E0.84915
G1 X90.222 Y87.355 E0.01941
G1 F5760
G1 X90.535 Y86.662 E-0.26313
G1 X90.893 Y86.248 E-0.18955
G1 X91.340 Y85.925 E-0.19086
G1 X91.650 Y85.796 E-0.11646
G1 E-0.04000 F2100.00000
G1 Z0.800 F7200.000
G1 X99.409 Y94.215
G1 Z0.200
G1 E0.80000 F2100.00000
G1 F1800
G1 X99.847 Y93.612 E0.02340
G1 X100.402 Y93.112 E0.02340
G1 X101.050 Y92.738 E0.02346
G1 X101.771 Y92.507 E0.02373
G1 X102.500 Y92.431 E0.02300
G1 X103.242 Y92.509 E0.02340
G1 X103.952 Y92.739 E0.02340
G1 X104.598 Y93.112 E0.02339
G1 X105.153 Y93.612 E0.02340
G1 X105.591 Y94.215 E0.02340
G1 X105.895 Y94.897 E0.02340
G1 X106.050 Y95.627 E0.02339
G1 X106.050 Y96.373 E0.02340
G1 X105.894 Y97.105 E0.02346
G1 X105.584 Y97.795 E0.02373
G1 X105.153 Y98.388 E0.02299
G1 X104.598 Y98.888 E0.02340
G1 X103.952 Y99.261 E0.02339
G1 X103.242 Y99.491 E0.02340
G1 X102.500 Y99.569 E0.02340
G1 X101.758 Y99.491 E0.02340
G1 X101.048 Y99.261 E0.02340
G1 X100.402 Y98.888 E0.02339
G1 X99.847 Y98.388 E0.02340
G1 X99.409 Y97.785 E0.02340
G1 X99.105 Y97.103 E0.02340
G1 X98.950 Y96.373 E0.02339
G1 X98.950 Y95.627 E0.02340
G1 X99.105 Y94.897 E0.02339
G1 X99.384 Y94.270 E0.02151
G1 X99.729 Y94.423 F7200.000
G1 F1800
G1 X100.129 Y93.865 E0.02154
G1 X100.625 Y93.419 E0.02091
G1 X101.203 Y93.085 E0.02095
G1 X101.849 Y92.878 E0.02125
G1 X102.500 Y92.810 E0.02053
G1 X103.163 Y92.879 E0.02091
G1 X103.798 Y93.086 E0.02091
G1 X104.375 Y93.419 E0.02091
G1 X104.871 Y93.865 E0.02091
G1 X105.263 Y94.405 E0.02091
G1 X105.534 Y95.014 E0.02091
G1 X105.673 Y95.666 E0.02091
G1 X105.673 Y96.334 E0.02091
G1 X105.534 Y96.987 E0.02095
G1 X105.256 Y97.605 E0.02125
G1 X104.871 Y98.135 E0.02053
G1 X104.375 Y98.581 E0.02091
G1 X103.798 Y98.914 E0.02091
G1 X103.163 Y99.121 E0.02091
G1 X102.500 Y99.190 E0.02091
G1 X101.837 Y99.121 E0.02091
G1 X101.202 Y98.914 E0.02091
G1 X100.625 Y98.581 E0.02091
G1 X100.129 Y98.135 E0.02091
G1 X99.737 Y97.595 E0.02091
G1 X99.466 Y96.986 E0.02091
G1 X99.327 Y96.334 E0.02091
G1 X99.327 Y95.666 E0.02092
G1 X99.466 Y95.014 E0.02091
G1 X99.704 Y94.478 E0.01839
G1 X100.049 Y94.632 F7200.000
G1 F1800
G1 X100.411 Y94.119 E0.01968
G1 X100.848 Y93.726 E0.01843
G1 X101.357 Y93.432 E0.01844
G1 X101.927 Y93.249 E0.01876
G1 X102.500 Y93.189 E0.01807
G1 X103.085 Y93.250 E0.01843
G1 X103.643 Y93.432 E0.01843
G1 X104.152 Y93.726 E0.01843
G1 X104.589 Y94.119 E0.01843
G1 X104.935 Y94.594 E0.01843
G1 X105.174 Y95.131 E0.01843
G1 X105.296 Y95.706 E0.01842
G1 X105.296 Y96.294 E0.01843
G1 X105.173 Y96.869 E0.01844
G1 X104.928 Y97.415 E0.01876
G1 X104.589 Y97.881 E0.01807
G1 X104.152 Y98.274 E0.01843
G1 X103.643 Y98.568 E0.01843
G1 X103.085 Y98.750 E0.01843
G1 X102.500 Y98.811 E0.01843
G1 X101.915 Y98.750 E0.01843
G1 X101.357 Y98.568 E0.01843
G1 X100.848 Y98.274 E0.01843
G1 X100.411 Y97.881 E0.01843
G1 X100.065 Y97.406 E0.01843
G1 X99.826 Y96.869 E0.01843
G1 X99.704 Y96.294 E0.01842
G1 X99.704 Y95.706 E0.01843
G1 X99.826 Y95.131 E0.01842
G1 X100.025 Y94.686 E0.01527
G1 X99.845 Y94.287 F7200.000
G1 F5760
G1 X100.411 Y94.119 E-0.23776
G1 X100.848 Y93.726 E-0.20356
G1 X101.357 Y93.432 E-0.20369
G1 X101.673 Y93.330 E-0.11499
G1 E-0.04000 F2100.00000
G1 Z0.800 F7200.000
G1 X104.036 Y114.036
G1 Z0.200
G1 E0.80000 F2100.00000
G1 F1800
G1 X104.036 Y116.036 E0.06271
G1 X100.964 Y116.036 E0.09631
G1 X100.964 Y114.036 E0.06271
G1 X93.464 Y114.036 E0.23516
G1 X93.464 Y88.964 E0.78611
G1 X111.536 Y88.964 E0.56663
G1 X111.536 Y114.036 E0.78611
G1 X104.096 Y114.036 E0.23328
G1 X104.413 Y114.413 F7200.000
G1 F1800
G1 X104.413 Y116.413 E0.06271
G1 X100.587 Y116.413 E0.11996
G1 X100.587 Y114.413 E0.06271
G1 X93.087 Y114.413 E0.23516
G1 X93.087 Y88.587 E0.80975
G1 X111.913 Y88.587 E0.59027
G1 X111.913 Y114.413 E0.80975
G1 X104.473 Y114.413 E0.23328
G1 X104.790 Y114.790 F7200.000
G1 F1800
G1 X104.790 Y116.790 E0.06271
G1 X100.210 Y116.790 E0.14360
G1 X100.210 Y114.790 E0.06271
G1 X92.710 Y114.790 E0.23516
G1 X92.710 Y88.210 E0.83340
G1 X112.290 Y88.210 E0.61392
G1 X112.290 Y114.790 E0.83340
G1 X104.850 Y114.790 E0.23328
G1 X104.427 Y114.957 F7200.000
G1 F5760
G1 X104.790 Y116.790 E-0.69302
G1 X104.597 Y116.790 E-0.06698
G1 E-0.04000 F2100.00000
G1 Z0.800 F7200.000
G1 X102.756 Y115.923
G1 Z0.200
G1 E0.80000 F2100.00000
G1 F1800
G1 X101.247 Y114.413 E0.06710
G1 X101.247 Y114.948 E0.01680
G1 X102.052 Y115.753 E0.03579
G1 X101.518 Y115.753 E0.01680
G1 X101.077 Y115.313 E0.01957
G1 F5760
G1 X101.518 Y115.753 E-0.21566
G1 X102.052 Y115.753 E-0.18515
G1 X101.319 Y115.020 E-0.35918
G1 E-0.04000 F2100.00000
G1 Z0.800 F7200.000
G1 X94.341 Y113.923
G1 Z0.200
G1 E0.80000 F2100.00000
G1 F1800
G1 X93.747 Y113.328 E0.02643
G1 X93.747 Y112.794 E0.01680
G1 X94.706 Y113.753 E0.04265
G1 X95.241 Y113.753 E0.01680
G1 X93.747 Y112.259 E0.06641
G1 X93.747 Y111.724 E0.01680
G1 X95.776 Y113.753 E0.09017
G1 X96.310 Y113.753 E0.01680
G1 X93.747 Y111.190 E0.11393
G1 X93.747 Y110.655 E0.01680
G1 X96.845 Y113.753 E0.13769
G1 X97.379 Y113.753 E0.01680
G1 X93.747 Y110.121 E0.16146
G1 X93.747 Y109.586 E0.01680
G1 X97.914 Y113.753 E0.18522
G1 X98.448 Y113.753 E0.01680
G1 X93.747 Y109.052 E0.20898
G1 X93.747 Y108.517 E0.01680
G1 X98.983 Y113.753 E0.23274
G1 X99.518 Y113.753 E0.01680
G1 X93.747 Y107.982 E0.25651
G1 X93.747 Y107.448 E0.01680
G1 X100.052 Y113.753 E0.28027
G1 X100.587 Y113.753 E0.01680
G1 X93.747 Y106.913 E0.30403
G1 X93.747 Y106.379 E0.01680
G1 X103.121 Y115.753 E0.41669
G1 X103.656 Y115.753 E0.01680
G1 X93.747 Y105.844 E0.44046
G1 X93.747 Y105.310 E0.01680
G1 X103.753 Y115.316 E0.44478
G1 X103.753 Y114.781 E0.01680
G1 X93.747 Y104.775 E0.44478
G1 X93.747 Y104.240 E0.01680
G1 X103.753 Y114.247 E0.44478
G1 X103.753 Y113.753 E0.01551
G1 X103.794 Y113.753 E0.00129
G1 X93.747 Y103.706 E0.44660
G1 X93.747 Y103.171 E0.01680
G1 X104.329 Y113.753 E0.47037
G1 X104.863 Y113.753 E0.01680
G1 X93.747 Y102.637 E0.49413
G1 X93.747 Y102.102 E0.01680
G1 X105.398 Y113.753 E0.51789
G1 X105.932 Y113.753 E0.01680
G1 X93.747 Y101.568 E0.54165
G1 X93.747 Y101.033 E0.01680
G1 X106.467 Y113.753 E0.56541
G1 X107.002 Y113.753 E0.01680
G1 X93.747 Y100.498 E0.58918
G1 X93.747 Y99.964 E0.01680
G1 X107.536 Y113.753 E0.61294
G1 X108.071 Y113.753 E0.01680
G1 X93.747 Y99.429 E0.63670
G1 X93.747 Y98.895 E0.01680
G1 X108.605 Y113.753 E0.66046
G1 X109.140 Y113.753 E0.01680
G1 X93.747 Y98.360 E0.68423
G1 X93.747 Y97.825 E0.01680
G1 X109.675 Y113.753 E0.70799
G1 X110.209 Y113.753 E0.01680
G1 X93.747 Y97.291 E0.73175
G1 X93.747 Y96.756 E0.01680
G1 X110.744 Y113.753 E0.75551
G1 X111.253 Y113.753 E0.01601
G1 X111.253 Y113.728 E0.00079
G1 X93.747 Y96.222 E0.77815
G1 X93.747 Y95.687 E0.01680
G1 X111.253 Y113.193 E0.77815
G1 X111.253 Y112.659 E0.01680
G1 X93.747 Y95.153 E0.77815
G1 X93.747 Y94.618 E0.01680
G1 X111.253 Y112.124 E0.77815
G1 X111.253 Y111.590 E0.01680
G1 X93.747 Y94.083 E0.77815
G1 X93.747 Y93.549 E0.01680
G1 X111.253 Y111.055 E0.77815
G1 X111.253 Y110.520 E0.01680
G1 X93.747 Y93.014 E0.77815
G1 X93.747 Y92.480 E0.01680
G1 X111.423 Y110.155 E0.78570
G1 F5760
G1 X109.871 Y108.604 E-0.76000
G1 E-0.04000 F2100.00000
G1 Z0.800 F7200.000
G1 X111.423 Y99.998
G1 Z0.200
G1 E0.80000 F2100.00000
G1 F1800
G1 X106.110 Y94.686 E0.23613
G1 X106.165 Y94.809 E0.00423
G1 X106.291 Y95.401 E0.01903
G1 X111.253 Y100.363 E0.22056
G1 X111.253 Y100.898 E0.01680
G1 X106.333 Y95.978 E0.21871
G1 X106.333 Y96.403 E0.01337
G1 X106.314 Y96.493 E0.00290
G1 X111.253 Y101.433 E0.21956
G1 X111.253 Y101.967 E0.01680
G1 X106.220 Y96.934 E0.22373
G1 X106.165 Y97.193 E0.00834
G1 X106.096 Y97.345 E0.00523
G1 X111.253 Y102.502 E0.22922
G1 X111.253 Y103.036 E0.01680
G1 X105.930 Y97.714 E0.23659
G1 X105.830 Y97.938 E0.00772
G1 X105.741 Y98.059 E0.00472
G1 X111.253 Y103.571 E0.24500
G1 X111.253 Y104.105 E0.01680
G1 X105.516 Y98.369 E0.25499
G1 X105.364 Y98.579 E0.00816
G1 X105.273 Y98.660 E0.00383
G1 X111.253 Y104.640 E0.26580
G1 X111.253 Y105.175 E0.01680
G1 X104.992 Y98.914 E0.27831
G1 X104.765 Y99.118 E0.00959
G1 X104.700 Y99.156 E0.00238
G1 X111.253 Y105.709 E0.29131
G1 X111.253 Y106.244 E0.01680
G1 X104.361 Y99.351 E0.30637
G1 X104.013 Y99.538 E0.01241
G1 X111.253 Y106.778 E0.32182
G1 X111.253 Y107.313 E0.01680
G1 X103.610 Y99.669 E0.33976
G1 X103.301 Y99.770 E0.01019
G1 X103.187 Y99.782 E0.00361
G1 X111.253 Y107.847 E0.35853
G1 X111.253 Y108.382 E0.01680
G1 X102.703 Y99.832 E0.38003
G1 X102.500 Y99.854 E0.00643
G1 X102.154 Y99.817 E0.01094
G1 X111.253 Y108.917 E0.40446
G1 X111.253 Y109.451 E0.01680
G1 X101.246 Y99.444 E0.44482
G1 F5760
G1 X102.797 Y100.996 E-0.76000
G1 E-0.04000 F2100.00000
G1 Z0.800 F7200.000
G1 X99.043 Y97.241
G1 Z0.200
G1 E0.80000 F2100.00000
G1 F1800
G1 X93.747 Y91.945 E0.23541
G1 X93.747 Y91.411 E0.01680
G1 X98.667 Y96.331 E0.21871
G1 X98.667 Y95.796 E0.01680
G1 X93.747 Y90.876 E0.21871
G1 X93.747 Y90.341 E0.01680
G1 X98.726 Y95.320 E0.22132
G1 X98.820 Y94.880 E0.01416
G1 X93.747 Y89.807 E0.22549
G1 X93.747 Y89.272 E0.01680
G1 X98.973 Y94.498 E0.23231
G1 X99.138 Y94.128 E0.01273
G1 X94.256 Y89.247 E0.21699
G1 X94.791 Y89.247 E0.01680
G1 X99.354 Y93.810 E0.20282
G1 X99.579 Y93.500 E0.01203
G1 X95.325 Y89.247 E0.18906
G1 X95.860 Y89.247 E0.01680
G1 X99.846 Y93.233 E0.17716
G1 X100.127 Y92.979 E0.01190
G1 X96.395 Y89.247 E0.16591
G1 X96.929 Y89.247 E0.01680
G1 X100.444 Y92.762 E0.15623
G1 X100.783 Y92.566 E0.01230
G1 X97.464 Y89.247 E0.14753
G1 X97.998 Y89.247 E0.01680
G1 X101.158 Y92.407 E0.14045
G1 X101.563 Y92.277 E0.01336
G1 X98.533 Y89.247 E0.13468
G1 X99.067 Y89.247 E0.01680
G1 X102.017 Y92.197 E0.13113
G1 X102.501 Y92.146 E0.01530
G1 X99.602 Y89.247 E0.12888
G1 X100.137 Y89.247 E0.01680
G1 X103.099 Y92.209 E0.13167
G1 X103.301 Y92.230 E0.00640
G1 X103.825 Y92.401 E0.01730
G1 X100.671 Y89.247 E0.14018
G1 X101.206 Y89.247 E0.01680
G1 X111.253 Y99.294 E0.44661
G1 X111.253 Y98.760 E0.01680
G1 X101.740 Y89.247 E0.42284
G1 X102.275 Y89.247 E0.01680
G1 X111.253 Y98.225 E0.39908
G1 X111.253 Y97.690 E0.01680
G1 X102.810 Y89.247 E0.37532
G1 X103.344 Y89.247 E0.01680
G1 X111.253 Y97.156 E0.35156
G1 X111.253 Y96.621 E0.01680
G1 X103.879 Y89.247 E0.32779
G1 X104.413 Y89.247 E0.01680
G1 X111.253 Y96.087 E0.30403
G1 X111.253 Y95.552 E0.01680
G1 X104.948 Y89.247 E0.28027
G1 X105.482 Y89.247 E0.01680
G1 X111.253 Y95.018 E0.25651
G1 X111.253 Y94.483 E0.01680
G1 X106.017 Y89.247 E0.23275
G1 X106.552 Y89.247 E0.01680
G1 X111.253 Y93.948 E0.20898
G1 X111.253 Y93.414 E0.01680
G1 X107.086 Y89.247 E0.18522
G1 X107.621 Y89.247 E0.01680
G1 X111.253 Y92.879 E0.16146
G1 X111.253 Y92.345 E0.01680
G1 X108.155 Y89.247 E0.13770
G1 X108.690 Y89.247 E0.01680
G1 X111.253 Y91.810 E0.11393
G1 X111.253 Y91.276 E0.01680
G1 X109.224 Y89.247 E0.09017
G1 X109.759 Y89.247 E0.01680
G1 X111.253 Y90.741 E0.06641
G1 X111.253 Y90.206 E0.01680
G1 X110.294 Y89.247 E0.04265
G1 X110.828 Y89.247 E0.01680
G1 X111.423 Y89.841 E0.02643
M106 S244.8
;BEFORE_LAYER_CHANGE
;0.35


G1 F5760
G1 X110.828 Y89.247 E-0.29122
G1 X110.294 Y89.247 E-0.18515
G1 X110.873 Y89.826 E-0.28363
G1 E-0.04000 F2100.00000
G1 Z0.800 F7200.000
;AFTER_LAYER_CHANGE
;0.35
G1 X114.984 Y86.810
G1 Z0.350
G1 E0.80000 F2100.00000
G1 F3000
G1 X115.247 Y87.799 E0.02474
G1 X115.254 Y115.045 E0.65895
G1 X115.128 Y115.824 E0.01907
G1 X114.785 Y116.538 E0.01917
G1 X114.165 Y117.194 E0.02182
G1 X113.367 Y117.614 E0.02182
G1 X105.690 Y119.666 E0.19220
G1 X105.086 Y119.753 E0.01474
G1 X99.527 Y119.713 E0.13446
G1 X91.747 Y117.649 E0.19466
G1 X90.962 Y117.285 E0.02093
G1 X90.466 Y116.857 E0.01583
G1 X90.085 Y116.325 E0.01583
G1 X89.840 Y115.714 E0.01593
G1 X89.747 Y115.066 E0.01583
G1 X89.746 Y87.955 E0.65568
G1 X89.872 Y87.176 E0.01907
G1 X90.215 Y86.462 E0.01917
G1 X90.628 Y85.980 E0.01534
G1 X91.139 Y85.606 E0.01534
G1 X91.723 Y85.358 E0.01534
G1 X92.348 Y85.250 E0.01534
G1 X112.504 Y85.246 E0.48748
G1 X113.509 Y85.437 E0.02474
G1 X114.378 Y85.985 E0.02484
G1 X114.948 Y86.761 E0.02329
G1 F5760
G1 X115.247 Y87.799 E-0.37379
G1 X115.247 Y88.914 E-0.38621
G1 E-0.04000 F2100.00000
G1 Z0.950 F7200.000
G1 X105.225 Y93.547
G1 Z0.350
G1 E0.80000 F2100.00000
M204 S800
G1 F1200
G1 X105.675 Y94.167 E0.01997
G1 X105.987 Y94.867 E0.01997
G1 X106.146 Y95.617 E0.01997
G1 X106.146 Y96.383 E0.01997
G1 X105.986 Y97.139 E0.02012
G1 X105.654 Y97.862 E0.02074
G1 X105.225 Y98.453 E0.01904
G1 X104.655 Y98.966 E0.01997
G1 X103.991 Y99.349 E0.01997
G1 X103.262 Y99.586 E0.01997
G1 X102.500 Y99.666 E0.01997
G1 X101.738 Y99.586 E0.01997
G1 X101.009 Y99.349 E0.01997
G1 X100.345 Y98.966 E0.01997
G1 X99.775 Y98.453 E0.01997
G1 X99.325 Y97.833 E0.01997
G1 X99.013 Y97.133 E0.01997
G1 X98.854 Y96.383 E0.01997
G1 X98.854 Y95.617 E0.01998
G1 X99.013 Y94.867 E0.01997
G1 X99.325 Y94.167 E0.01997
G1 X99.775 Y93.547 E0.01997
G1 X100.345 Y93.034 E0.01997
G1 X101.014 Y92.648 E0.02012
G1 X101.773 Y92.410 E0.02074
G1 X102.500 Y92.334 E0.01904
G1 X103.262 Y92.414 E0.01997
G1 X103.991 Y92.651 E0.01997
G1 X104.655 Y93.034 E0.01997
G1 X105.180 Y93.507 E0.01841
M204 S1000
G1 X104.901 Y93.817 F7200.000
M204 S800
G1 F1200
G1 X105.311 Y94.377 E0.01809
G1 X105.587 Y94.997 E0.01768
G1 X105.729 Y95.661 E0.01768
G1 X105.729 Y96.339 E0.01769
G1 X105.587 Y97.007 E0.01777
G1 X105.292 Y97.650 E0.01845
G1 X104.913 Y98.172 E0.01681
G1 X104.408 Y98.626 E0.01768
G1 X103.820 Y98.966 E0.01768
G1 X103.175 Y99.175 E0.01768
G1 X102.500 Y99.246 E0.01768
G1 X101.825 Y99.175 E0.01768
G1 X101.180 Y98.966 E0.01768
G1 X100.592 Y98.626 E0.01768
G1 X100.087 Y98.172 E0.01768
G1 X99.689 Y97.623 E0.01768
G1 X99.413 Y97.003 E0.01768
G1 X99.271 Y96.339 E0.01768
G1 X99.271 Y95.661 E0.01769
G1 X99.413 Y94.997 E0.01768
G1 X99.689 Y94.377 E0.01768
