; generated by Slic3r Prusa Edition 1.39.2+win64 on 2018-05-24 at 07:46:34

; 

; external perimeters extrusion width = 0.45mm
; perimeters extrusion width = 0.45mm
; infill extrusion width = 0.45mm
; solid infill extrusion width = 0.45mm
; top infill extrusion width = 0.45mm
; first layer extrusion width = 0.42mm

M107
M115 U3.1.0 ; tell printer latest fw version
M83  ; extruder relative mode
M104 S205 ; set extruder temp
M140 S55 ; set bed temp
M190 S55 ; wait for bed temp
M109 S205 ; wait for extruder temp
G28 W ; home all without mesh bed level
G80 ; mesh bed leveling
G1 Y-3.0 F1000.0 ; go outside print area
G92 E0.0
G1 X60.0 E9.0  F1000.0 ; intro line
G1 X100.0 E12.5  F1000.0 ; intro line
G92 E0.0
M900 K30; Filament gcode
G21 ; set units to millimeters
G90 ; use absolute coordinates
M83 ; use relative distances for extrusion
;BEFORE_LAYER_CHANGE
;0.2


G1 E-0.80000 F2100.00000
G1 Z0.600 F7200.000
;AFTER_LAYER_CHANGE
;0.2
G1 X90.325 Y79.042
G1 Z0.200
G1 E0.80000 F2100.00000
M204 S1000
G1 F1800
G1 X90.663 Y78.492 E0.02024
G1 X91.136 Y78.053 E0.02024
G1 X91.711 Y77.758 E0.02024
G1 X92.347 Y77.628 E0.02036
G1 X112.504 Y77.623 E0.63201
G1 X113.388 Y77.795 E0.02825
G1 X114.142 Y78.281 E0.02813
G1 X114.662 Y79.013 E0.02813
G1 X114.874 Y79.888 E0.02825
G1 X114.877 Y123.011 E1.35209
G1 X114.675 Y123.958 E0.03036
G1 X114.118 Y124.741 E0.03013
G1 X113.300 Y125.238 E0.03001
G1 X105.124 Y127.374 E0.26495
G1 X99.621 Y127.347 E0.17256
G1 X91.543 Y125.176 E0.26226
G1 X90.972 Y124.821 E0.02107
G1 X90.526 Y124.324 E0.02095
G1 X90.235 Y123.722 E0.02095
G1 X90.124 Y123.063 E0.02095
G1 X90.123 Y79.989 E1.35058
G1 X90.312 Y79.100 E0.02848
G1 F5760
G1 X90.663 Y78.492 E-0.24326
G1 X91.136 Y78.053 E-0.22358
G1 X91.711 Y77.758 E-0.22358
G1 X91.907 Y77.718 E-0.06957
G1 E-0.04000 F2100.00000
G1 Z0.800 F7200.000
G1 X99.612 Y85.902
G1 Z0.200
G1 E0.80000 F2100.00000
G1 F1800
G1 X100.112 Y85.347 E0.02340
G1 X100.715 Y84.909 E0.02340
G1 X101.397 Y84.605 E0.02340
G1 X102.127 Y84.450 E0.02339
G1 X102.873 Y84.450 E0.02340
G1 X103.603 Y84.605 E0.02339
G1 X104.285 Y84.909 E0.02340
G1 X104.888 Y85.347 E0.02340
G1 X105.388 Y85.902 E0.02340
G1 X105.761 Y86.548 E0.02339
G1 X105.991 Y87.258 E0.02340
G1 X106.069 Y88.000 E0.02340
G1 X105.991 Y88.742 E0.02340
G1 X105.761 Y89.452 E0.02340
G1 X105.388 Y90.098 E0.02339
G1 X104.888 Y90.653 E0.02340
G1 X104.285 Y91.091 E0.02340
G1 X103.603 Y91.395 E0.02340
G1 X102.873 Y91.550 E0.02339
G1 X102.127 Y91.550 E0.02340
G1 X101.397 Y91.395 E0.02339
G1 X100.715 Y91.091 E0.02340
G1 X100.112 Y90.653 E0.02340
G1 X99.612 Y90.098 E0.02340
G1 X99.238 Y89.450 E0.02346
G1 X99.007 Y88.729 E0.02373
G1 X98.931 Y88.000 E0.02300
G1 X99.009 Y87.258 E0.02340
G1 X99.239 Y86.548 E0.02340
G1 X99.582 Y85.954 E0.02151
G1 X99.909 Y86.142 F7200.000
G1 F1800
G1 X100.365 Y85.629 E0.02154
G1 X100.905 Y85.237 E0.02091
G1 X101.514 Y84.966 E0.02091
G1 X102.166 Y84.827 E0.02091
G1 X102.834 Y84.827 E0.02092
G1 X103.486 Y84.966 E0.02091
G1 X104.095 Y85.237 E0.02091
G1 X104.635 Y85.629 E0.02091
G1 X105.081 Y86.125 E0.02091
G1 X105.414 Y86.702 E0.02091
G1 X105.621 Y87.337 E0.02091
G1 X105.690 Y88.000 E0.02091
G1 X105.621 Y88.663 E0.02091
G1 X105.414 Y89.298 E0.02091
G1 X105.081 Y89.875 E0.02091
G1 X104.635 Y90.371 E0.02091
G1 X104.095 Y90.763 E0.02091
G1 X103.486 Y91.034 E0.02091
G1 X102.834 Y91.173 E0.02091
G1 X102.166 Y91.173 E0.02092
G1 X101.514 Y91.034 E0.02091
G1 X100.905 Y90.763 E0.02091
G1 X100.365 Y90.371 E0.02091
G1 X99.919 Y89.875 E0.02091
G1 X99.585 Y89.297 E0.02095
G1 X99.378 Y88.651 E0.02125
G1 X99.310 Y88.000 E0.02053
G1 X99.379 Y87.337 E0.02091
G1 X99.586 Y86.702 E0.02091
G1 X99.879 Y86.194 E0.01839
G1 X100.205 Y86.383 F7200.000
G1 F1800
G1 X100.619 Y85.911 E0.01968
G1 X101.094 Y85.565 E0.01843
G1 X101.631 Y85.326 E0.01843
G1 X102.206 Y85.204 E0.01842
G1 X102.794 Y85.204 E0.01843
G1 X103.369 Y85.326 E0.01842
G1 X103.906 Y85.565 E0.01843
G1 X104.381 Y85.911 E0.01843
G1 X104.774 Y86.348 E0.01843
G1 X105.068 Y86.857 E0.01843
G1 X105.250 Y87.415 E0.01843
G1 X105.311 Y88.000 E0.01843
G1 X105.250 Y88.585 E0.01843
G1 X105.068 Y89.143 E0.01843
G1 X104.774 Y89.652 E0.01843
G1 X104.381 Y90.089 E0.01843
G1 X103.906 Y90.435 E0.01843
G1 X103.369 Y90.674 E0.01843
G1 X102.794 Y90.796 E0.01842
G1 X102.206 Y90.796 E0.01843
G1 X101.631 Y90.674 E0.01842
G1 X101.094 Y90.435 E0.01843
G1 X100.619 Y90.089 E0.01843
G1 X100.226 Y89.652 E0.01843
G1 X99.932 Y89.143 E0.01844
G1 X99.749 Y88.573 E0.01876
G1 X99.689 Y88.000 E0.01807
G1 X99.750 Y87.415 E0.01843
G1 X99.932 Y86.857 E0.01843
G1 X100.175 Y86.435 E0.01527
G1 X100.039 Y86.019 F7200.000
G1 F5760
G1 X100.619 Y85.911 E-0.23782
G1 X101.094 Y85.565 E-0.20355
G1 X101.631 Y85.326 E-0.20355
G1 X101.956 Y85.257 E-0.11508
G1 E-0.04000 F2100.00000
G1 Z0.800 F7200.000
G1 X104.036 Y122.036
G1 Z0.200
G1 E0.80000 F2100.00000
G1 F1800
G1 X104.036 Y124.036 E0.06271
G1 X100.964 Y124.036 E0.09631
G1 X100.964 Y122.036 E0.06271
G1 X93.464 Y122.036 E0.23516
G1 X93.464 Y80.964 E1.28777
G1 X111.536 Y80.964 E0.56663
G1 X111.536 Y122.036 E1.28777
G1 X104.096 Y122.036 E0.23328
G1 X104.413 Y122.413 F7200.000
G1 F1800
G1 X104.413 Y124.413 E0.06271
G1 X100.587 Y124.413 E0.11996
G1 X100.587 Y122.413 E0.06271
G1 X93.087 Y122.413 E0.23516
G1 X93.087 Y80.587 E1.31142
G1 X111.913 Y80.587 E0.59027
G1 X111.913 Y122.413 E1.31142
G1 X104.473 Y122.413 E0.23328
G1 X104.790 Y122.790 F7200.000
G1 F1800
G1 X104.790 Y124.790 E0.06271
G1 X100.210 Y124.790 E0.14360
G1 X100.210 Y122.790 E0.06271
G1 X92.710 Y122.790 E0.23516
G1 X92.710 Y80.210 E1.33507
G1 X112.290 Y80.210 E0.61392
G1 X112.290 Y122.790 E1.33507
G1 X104.850 Y122.790 E0.23328
G1 X104.433 Y122.970 F7200.000
G1 F5760
G1 X104.790 Y124.790 E-0.69302
G1 X104.597 Y124.790 E-0.06698
G1 E-0.04000 F2100.00000
G1 Z0.800 F7200.000
G1 X102.752 Y123.923
G1 Z0.200
G1 E0.80000 F2100.00000
G1 F1800
G1 X101.247 Y122.418 E0.06685
G1 X101.247 Y122.952 E0.01678
G1 X102.048 Y123.753 E0.03558
G1 X101.514 Y123.753 E0.01678
G1 X101.077 Y123.317 E0.01938
G1 F5760
G1 X101.514 Y123.753 E-0.21374
G1 X102.048 Y123.753 E-0.18504
G1 X101.310 Y123.016 E-0.36122
G1 E-0.04000 F2100.00000
G1 Z0.800 F7200.000
G1 X94.341 Y121.923
G1 Z0.200
G1 E0.80000 F2100.00000
G1 F1800
G1 X93.747 Y121.329 E0.02639
G1 X93.747 Y120.795 E0.01678
G1 X94.705 Y121.753 E0.04258
G1 X95.240 Y121.753 E0.01678
G1 X93.747 Y120.260 E0.06631
G1 X93.747 Y119.726 E0.01678
G1 X95.774 Y121.753 E0.09004
G1 X96.308 Y121.753 E0.01678
G1 X93.747 Y119.192 E0.11378
G1 X93.747 Y118.658 E0.01678
G1 X96.842 Y121.753 E0.13751
G1 X97.377 Y121.753 E0.01678
G1 X93.747 Y118.123 E0.16124
G1 X93.747 Y117.589 E0.01678
G1 X97.911 Y121.753 E0.18497
G1 X98.445 Y121.753 E0.01678
G1 X93.747 Y117.055 E0.20870
G1 X93.747 Y116.521 E0.01678
G1 X98.979 Y121.753 E0.23244
G1 X99.514 Y121.753 E0.01678
G1 X93.747 Y115.986 E0.25617
G1 X93.747 Y115.452 E0.01678
G1 X100.048 Y121.753 E0.27990
G1 X100.582 Y121.753 E0.01678
G1 X93.747 Y114.918 E0.30363
G1 X93.747 Y114.384 E0.01678
G1 X103.116 Y123.753 E0.41621
G1 X103.651 Y123.753 E0.01678
G1 X93.747 Y113.849 E0.43994
G1 X93.747 Y113.315 E0.01678
G1 X103.753 Y123.321 E0.44449
G1 X103.753 Y122.787 E0.01678
G1 X93.747 Y112.781 E0.44449
G1 X93.747 Y112.247 E0.01678
G1 X103.753 Y122.253 E0.44449
G1 X103.753 Y121.753 E0.01570
G1 X103.788 Y121.753 E0.00108
G1 X93.747 Y111.712 E0.44603
G1 X93.747 Y111.178 E0.01678
G1 X104.322 Y121.753 E0.46976
G1 X104.856 Y121.753 E0.01678
G1 X93.747 Y110.644 E0.49349
G1 X93.747 Y110.110 E0.01678
G1 X105.390 Y121.753 E0.51722
G1 X105.925 Y121.753 E0.01678
G1 X93.747 Y109.575 E0.54095
G1 X93.747 Y109.041 E0.01678
G1 X106.459 Y121.753 E0.56469
G1 X106.993 Y121.753 E0.01678
G1 X93.747 Y108.507 E0.58842
G1 X93.747 Y107.973 E0.01678
G1 X107.527 Y121.753 E0.61215
G1 X108.061 Y121.753 E0.01678
G1 X93.747 Y107.439 E0.63588
G1 X93.747 Y106.904 E0.01678
G1 X108.596 Y121.753 E0.65961
G1 X109.130 Y121.753 E0.01678
G1 X93.747 Y106.370 E0.68335
G1 X93.747 Y105.836 E0.01678
G1 X109.664 Y121.753 E0.70708
G1 X110.198 Y121.753 E0.01678
G1 X93.747 Y105.302 E0.73081
G1 X93.747 Y104.767 E0.01678
G1 X110.733 Y121.753 E0.75454
G1 X111.253 Y121.753 E0.01635
G1 X111.253 Y121.739 E0.00043
G1 X93.747 Y104.233 E0.77766
G1 X93.747 Y103.699 E0.01678
G1 X111.253 Y121.205 E0.77766
G1 X111.253 Y120.671 E0.01678
G1 X93.747 Y103.165 E0.77766
G1 X93.747 Y102.630 E0.01678
G1 X111.253 Y120.137 E0.77766
G1 X111.253 Y119.602 E0.01678
G1 X93.747 Y102.096 E0.77766
G1 X93.747 Y101.562 E0.01678
G1 X111.253 Y119.068 E0.77766
G1 X111.253 Y118.534 E0.01678
G1 X93.747 Y101.028 E0.77766
G1 X93.747 Y100.493 E0.01678
G1 X111.253 Y118.000 E0.77766
G1 X111.253 Y117.465 E0.01678
G1 X93.747 Y99.959 E0.77766
G1 X93.747 Y99.425 E0.01678
G1 X111.253 Y116.931 E0.77766
G1 X111.253 Y116.397 E0.01678
G1 X93.747 Y98.891 E0.77766
G1 X93.747 Y98.356 E0.01678
G1 X111.253 Y115.863 E0.77766
G1 X111.253 Y115.328 E0.01678
G1 X93.747 Y97.822 E0.77766
G1 X93.747 Y97.288 E0.01678
G1 X111.253 Y114.794 E0.77766
G1 X111.253 Y114.260 E0.01678
G1 X93.747 Y96.754 E0.77766
G1 X93.747 Y96.220 E0.01678
G1 X111.253 Y113.726 E0.77766
G1 X111.253 Y113.191 E0.01678
G1 X93.747 Y95.685 E0.77766
G1 X93.747 Y95.151 E0.01678
G1 X111.253 Y112.657 E0.77766
G1 X111.253 Y112.123 E0.01678
G1 X93.747 Y94.617 E0.77766
G1 X93.747 Y94.083 E0.01678
G1 X111.253 Y111.589 E0.77766
G1 X111.253 Y111.054 E0.01678
G1 X93.747 Y93.548 E0.77766
G1 X93.747 Y93.014 E0.01678
G1 X111.253 Y110.520 E0.77766
G1 X111.253 Y109.986 E0.01678
G1 X93.747 Y92.480 E0.77766
G1 X93.747 Y91.946 E0.01678
G1 X111.253 Y109.452 E0.77766
G1 X111.253 Y108.917 E0.01678
G1 X93.747 Y91.411 E0.77766
G1 X93.747 Y90.877 E0.01678
G1 X111.253 Y108.383 E0.77766
G1 X111.253 Y107.849 E0.01678
G1 X93.747 Y90.343 E0.77766
G1 X93.747 Y89.809 E0.01678
G1 X111.253 Y107.315 E0.77766
G1 X111.253 Y106.781 E0.01678
G1 X93.747 Y89.274 E0.77766
G1 X93.747 Y88.740 E0.01678
G1 X111.253 Y106.246 E0.77766
G1 X111.253 Y105.712 E0.01678
G1 X93.747 Y88.206 E0.77766
G1 X93.747 Y87.672 E0.01678
G1 X111.253 Y105.178 E0.77766
G1 X111.253 Y104.644 E0.01678
G1 X93.747 Y87.137 E0.77766
G1 X93.747 Y86.603 E0.01678
G1 X111.253 Y104.109 E0.77766
G1 X111.253 Y103.575 E0.01678
G1 X93.747 Y86.069 E0.77766
G1 X93.747 Y85.535 E0.01678
G1 X111.253 Y103.041 E0.77766
G1 X111.253 Y102.507 E0.01678
G1 X93.747 Y85.001 E0.77766
G1 X93.747 Y84.466 E0.01678
G1 X111.423 Y102.142 E0.78520
G1 F5760
G1 X109.871 Y100.590 E-0.76000
G1 E-0.04000 F2100.00000
G1 Z0.800 F7200.000
G1 X111.423 Y91.992
G1 Z0.200
G1 E0.80000 F2100.00000
G1 F1800
G1 X106.096 Y86.665 E0.23662
G1 X106.270 Y87.199 E0.01763
G1 X106.290 Y87.393 E0.00614
G1 X111.253 Y92.356 E0.22047
G1 X111.253 Y92.890 E0.01678
G1 X106.353 Y87.990 E0.21768
G1 X106.304 Y88.475 E0.01532
G1 X111.253 Y93.425 E0.21985
G1 X111.253 Y93.959 E0.01678
G1 X106.227 Y88.933 E0.22327
G1 X106.096 Y89.336 E0.01332
G1 X111.253 Y94.493 E0.22909
G1 X111.253 Y95.027 E0.01678
G1 X105.937 Y89.712 E0.23613
G1 X105.742 Y90.050 E0.01228
G1 X111.253 Y95.562 E0.24482
G1 X111.253 Y96.096 E0.01678
G1 X105.525 Y90.368 E0.25444
G1 X105.272 Y90.649 E0.01188
G1 X111.253 Y96.630 E0.26569
G1 X111.253 Y97.164 E0.01678
G1 X105.006 Y90.917 E0.27752
G1 X104.696 Y91.142 E0.01201
G1 X111.253 Y97.698 E0.29126
G1 X111.253 Y98.233 E0.01678
G1 X104.379 Y91.359 E0.30535
G1 X104.009 Y91.523 E0.01271
G1 X111.253 Y98.767 E0.32178
G1 X111.253 Y99.301 E0.01678
G1 X103.630 Y91.678 E0.33863
G1 X103.189 Y91.772 E0.01415
G1 X111.253 Y99.835 E0.35820
G1 X111.253 Y100.370 E0.01678
G1 X102.716 Y91.833 E0.37923
G1 X102.182 Y91.833 E0.01678
G1 X111.253 Y100.904 E0.40296
G1 X111.253 Y101.438 E0.01678
G1 X101.282 Y91.467 E0.44292
G1 F5760
G1 X102.834 Y93.019 E-0.76000
G1 E-0.04000 F2100.00000
G1 Z0.800 F7200.000
G1 X99.051 Y89.236
G1 Z0.200
G1 E0.80000 F2100.00000
G1 F1800
G1 X93.747 Y83.932 E0.23560
G1 X93.747 Y83.398 E0.01678
G1 X98.681 Y88.332 E0.21918
G1 X98.646 Y88.000 E0.01048
G1 X98.669 Y87.785 E0.00678
G1 X93.747 Y82.864 E0.21864
G1 X93.747 Y82.329 E0.01678
G1 X98.720 Y87.302 E0.22089
G1 X98.730 Y87.199 E0.00326
G1 X98.833 Y86.882 E0.01047
G1 X93.747 Y81.795 E0.22595
G1 X93.747 Y81.261 E0.01678
G1 X98.964 Y86.478 E0.23177
G1 X99.153 Y86.132 E0.01237
G1 X94.267 Y81.247 E0.21702
G1 X94.802 Y81.247 E0.01678
G1 X99.348 Y85.794 E0.20198
G1 X99.591 Y85.503 E0.01191
G1 X95.336 Y81.247 E0.18904
G1 X95.870 Y81.247 E0.01678
G1 X99.844 Y85.221 E0.17655
G1 X99.921 Y85.136 E0.00361
G1 X100.137 Y84.979 E0.00837
G1 X96.404 Y81.247 E0.16581
G1 X96.938 Y81.247 E0.01678
G1 X100.446 Y84.755 E0.15582
G1 X100.573 Y84.662 E0.00493
G1 X100.791 Y84.565 E0.00750
G1 X97.473 Y81.247 E0.14741
G1 X98.007 Y81.247 E0.01678
G1 X101.161 Y84.401 E0.14010
G1 X101.309 Y84.335 E0.00510
G1 X101.573 Y84.279 E0.00847
G1 X98.541 Y81.247 E0.13468
G1 X99.075 Y81.247 E0.01678
G1 X102.014 Y84.185 E0.13052
G1 X102.097 Y84.167 E0.00268
G1 X102.530 Y84.167 E0.01360
G1 X99.610 Y81.247 E0.12973
G1 X100.144 Y81.247 E0.01678
G1 X103.108 Y84.211 E0.13166
G1 X103.691 Y84.335 E0.01872
G1 X103.826 Y84.395 E0.00466
G1 X100.678 Y81.247 E0.13985
G1 X101.212 Y81.247 E0.01678
G1 X111.253 Y91.288 E0.44603
G1 X111.253 Y90.753 E0.01678
G1 X101.747 Y81.247 E0.42230
G1 X102.281 Y81.247 E0.01678
G1 X111.253 Y90.219 E0.39856
G1 X111.253 Y89.685 E0.01678
G1 X102.815 Y81.247 E0.37483
G1 X103.349 Y81.247 E0.01678
G1 X111.253 Y89.151 E0.35110
G1 X111.253 Y88.616 E0.01678
G1 X103.884 Y81.247 E0.32737
G1 X104.418 Y81.247 E0.01678
G1 X111.253 Y88.082 E0.30364
G1 X111.253 Y87.548 E0.01678
G1 X104.952 Y81.247 E0.27990
G1 X105.486 Y81.247 E0.01678
G1 X111.253 Y87.014 E0.25617
G1 X111.253 Y86.479 E0.01678
G1 X106.021 Y81.247 E0.23244
G1 X106.555 Y81.247 E0.01678
G1 X111.253 Y85.945 E0.20871
G1 X111.253 Y85.411 E0.01678
G1 X107.089 Y81.247 E0.18497
G1 X107.623 Y81.247 E0.01678
G1 X111.253 Y84.877 E0.16124
G1 X111.253 Y84.342 E0.01678
G1 X108.158 Y81.247 E0.13751
G1 X108.692 Y81.247 E0.01678
G1 X111.253 Y83.808 E0.11378
G1 X111.253 Y83.274 E0.01678
G1 X109.226 Y81.247 E0.09005
G1 X109.760 Y81.247 E0.01678
G1 X111.253 Y82.740 E0.06631
G1 X111.253 Y82.206 E0.01678
G1 X110.294 Y81.247 E0.04258
G1 X110.829 Y81.247 E0.01678
G1 X111.423 Y81.841 E0.02639
M106 S237.15
;BEFORE_LAYER_CHANGE
;0.35


G1 F5760
G1 X110.829 Y81.247 E-0.29097
G1 X110.294 Y81.247 E-0.18504
G1 X110.874 Y81.827 E-0.28399
G1 E-0.04000 F2100.00000
G1 Z0.800 F7200.000
;AFTER_LAYER_CHANGE
;0.35
G1 X114.662 Y79.013
G1 Z0.350
G1 E0.80000 F2100.00000
G1 F3000
G1 X114.874 Y79.888 E0.02179
G1 X114.877 Y123.011 E1.04292
G1 X114.675 Y123.958 E0.02342
G1 X114.118 Y124.741 E0.02324
G1 X113.300 Y125.238 E0.02315
G1 X105.124 Y127.374 E0.20437
G1 X99.621 Y127.347 E0.13310
G1 X91.543 Y125.176 E0.20229
G1 X90.972 Y124.821 E0.01625
G1 X90.526 Y124.324 E0.01616
G1 X90.235 Y123.722 E0.01616
G1 X90.124 Y123.063 E0.01616
G1 X90.123 Y79.989 E1.04176
G1 X90.325 Y79.042 E0.02342
G1 X90.663 Y78.492 E0.01561
G1 X91.136 Y78.053 E0.01561
G1 X91.711 Y77.758 E0.01561
G1 X92.347 Y77.628 E0.01570
G1 X112.504 Y77.623 E0.48750
G1 X113.388 Y77.795 E0.02179
G1 X114.142 Y78.281 E0.02170
G1 X114.628 Y78.964 E0.02025
G1 F5760
G1 X114.874 Y79.888 E-0.33147
G1 X114.875 Y81.126 E-0.42853
G1 E-0.04000 F2100.00000
G1 Z0.950 F7200.000
G1 X105.466 Y85.845
G1 Z0.350
G1 E0.80000 F2100.00000
M204 S800
G1 F1200
G1 X105.849 Y86.509 E0.01997
G1 X106.086 Y87.238 E0.01997
G1 X106.166 Y88.000 E0.01997
G1 X106.086 Y88.762 E0.01997
G1 X105.849 Y89.491 E0.01997
G1 X105.466 Y90.155 E0.01997
G1 X104.953 Y90.725 E0.01997
G1 X104.333 Y91.175 E0.01997
G1 X103.633 Y91.487 E0.01997
G1 X102.883 Y91.646 E0.01997
G1 X102.117 Y91.646 E0.01998
G1 X101.367 Y91.487 E0.01997
G1 X100.667 Y91.175 E0.01997
G1 X100.047 Y90.725 E0.01997
G1 X99.534 Y90.155 E0.01997
G1 X99.151 Y89.491 E0.01997
G1 X98.914 Y88.762 E0.01997
G1 X98.834 Y88.000 E0.01997
G1 X98.914 Y87.238 E0.01997
G1 X99.151 Y86.509 E0.01997
G1 X99.534 Y85.845 E0.01997
G1 X100.047 Y85.275 E0.01997
G1 X100.667 Y84.825 E0.01997
G1 X101.367 Y84.513 E0.01997
G1 X102.117 Y84.354 E0.01997
G1 X102.883 Y84.354 E0.01998
G1 X103.633 Y84.513 E0.01997
G1 X104.333 Y84.825 E0.01997
G1 X104.953 Y85.275 E0.01997
