; generated by Slic3r Prusa Edition 1.39.2+win64 on 2018-05-30 at 13:40:21

; 

; external perimeters extrusion width = 0.45mm
; perimeters extrusion width = 0.45mm
; infill extrusion width = 0.45mm
; solid infill extrusion width = 0.45mm
; top infill extrusion width = 0.45mm
; first layer extrusion width = 0.42mm

M107
M115 U3.1.0 ; tell printer latest fw version
M83  ; extruder relative mode
M104 S205 ; set extruder temp
M140 S55 ; set bed temp
M190 S55 ; wait for bed temp
M109 S205 ; wait for extruder temp
G28 W ; home all without mesh bed level
G80 ; mesh bed leveling
G1 Y-3.0 F1000.0 ; go outside print area
G92 E0.0
G1 X60.0 E9.0  F1000.0 ; intro line
G1 X100.0 E12.5  F1000.0 ; intro line
G92 E0.0
M900 K30; Filament gcode
G21 ; set units to millimeters
G90 ; use absolute coordinates
M83 ; use relative distances for extrusion
;BEFORE_LAYER_CHANGE
;0.2


G1 E-0.80000 F2100.00000
G1 Z0.600 F7200.000
;AFTER_LAYER_CHANGE
;0.2
G1 X42.453 Y75.195
G1 Z0.200
G1 E0.80000 F2100.00000
M204 S1000
G1 F1800
G1 X43.013 Y74.838 E0.02083
G1 X43.492 Y74.678 E0.01585
G1 X43.995 Y74.623 E0.01585
G1 X161.004 Y74.623 E3.66873
G1 X161.902 Y74.801 E0.02872
G1 X162.667 Y75.305 E0.02872
G1 X163.184 Y76.062 E0.02872
G1 X163.377 Y76.957 E0.02872
G1 X163.376 Y128.061 E1.60233
G1 X163.268 Y128.713 E0.02071
G1 X162.982 Y129.312 E0.02083
G1 X162.544 Y129.807 E0.02071
G1 X161.987 Y130.162 E0.02071
G1 X161.508 Y130.322 E0.01585
G1 X161.005 Y130.377 E0.01585
G1 X43.977 Y130.377 E3.66932
G1 X43.317 Y130.277 E0.02095
G1 X42.707 Y129.994 E0.02107
G1 X42.200 Y129.553 E0.02107
G1 X41.838 Y128.987 E0.02107
G1 X41.678 Y128.508 E0.01585
G1 X41.623 Y128.009 E0.01574
G1 X41.624 Y76.947 E1.60101
G1 X41.731 Y76.291 E0.02083
G1 X42.014 Y75.694 E0.02071
G1 X42.413 Y75.240 E0.01895
G1 F5760
G1 X43.013 Y74.838 E-0.25015
G1 X43.492 Y74.678 E-0.17513
G1 X43.995 Y74.623 E-0.17513
G1 X44.456 Y74.623 E-0.15959
G1 E-0.04000 F2100.00000
G1 Z0.800 F7200.000
G1 X52.129 Y119.318
G1 Z0.200
G1 E0.80000 F2100.00000
G1 F1800
G1 X52.705 Y119.196 E0.01848
G1 X53.295 Y119.196 E0.01848
G1 X53.871 Y119.318 E0.01848
G1 X54.410 Y119.558 E0.01848
G1 X54.887 Y119.905 E0.01848
G1 X55.281 Y120.343 E0.01848
G1 X55.577 Y120.856 E0.01859
G1 X55.760 Y121.430 E0.01888
G1 X55.819 Y122.000 E0.01797
G1 X55.758 Y122.586 E0.01848
G1 X55.576 Y123.147 E0.01849
G1 X55.281 Y123.657 E0.01848
G1 X54.887 Y124.095 E0.01848
G1 X54.410 Y124.442 E0.01848
G1 X53.871 Y124.682 E0.01848
G1 X53.295 Y124.804 E0.01848
G1 X52.705 Y124.804 E0.01848
G1 X52.129 Y124.682 E0.01848
G1 X51.590 Y124.442 E0.01848
G1 X51.113 Y124.095 E0.01848
G1 X50.719 Y123.657 E0.01848
G1 X50.423 Y123.144 E0.01859
G1 X50.240 Y122.570 E0.01888
G1 X50.181 Y122.000 E0.01797
G1 X50.242 Y121.414 E0.01848
G1 X50.424 Y120.853 E0.01849
G1 X50.719 Y120.343 E0.01848
G1 X51.113 Y119.905 E0.01848
G1 X51.590 Y119.558 E0.01848
G1 X52.074 Y119.343 E0.01660
G1 X52.227 Y119.687 F7200.000
G1 F1800
G1 X52.745 Y119.573 E0.01662
G1 X53.255 Y119.573 E0.01600
G1 X53.754 Y119.679 E0.01600
G1 X54.220 Y119.887 E0.01600
G1 X54.633 Y120.186 E0.01599
G1 X54.974 Y120.566 E0.01600
G1 X55.230 Y121.009 E0.01606
G1 X55.389 Y121.508 E0.01640
G1 X55.440 Y122.000 E0.01553
G1 X55.387 Y122.507 E0.01599
G1 X55.229 Y122.993 E0.01600
G1 X54.974 Y123.434 E0.01600
G1 X54.633 Y123.814 E0.01600
G1 X54.220 Y124.113 E0.01599
G1 X53.754 Y124.321 E0.01600
G1 X53.255 Y124.427 E0.01600
G1 X52.745 Y124.427 E0.01600
G1 X52.246 Y124.321 E0.01600
G1 X51.780 Y124.113 E0.01600
G1 X51.367 Y123.814 E0.01599
G1 X51.026 Y123.434 E0.01600
G1 X50.770 Y122.991 E0.01606
G1 X50.611 Y122.492 E0.01640
G1 X50.560 Y122.000 E0.01553
G1 X50.613 Y121.493 E0.01599
G1 X50.771 Y121.007 E0.01600
G1 X51.026 Y120.566 E0.01600
G1 X51.367 Y120.186 E0.01600
G1 X51.780 Y119.887 E0.01599
G1 X52.172 Y119.712 E0.01348
G1 X52.363 Y120.040 F7200.000
G1 F1800
G1 X52.785 Y119.950 E0.01351
G1 X53.215 Y119.950 E0.01351
G1 X53.637 Y120.040 E0.01351
G1 X54.031 Y120.215 E0.01351
G1 X54.379 Y120.468 E0.01351
G1 X54.668 Y120.788 E0.01351
G1 X54.883 Y121.162 E0.01353
G1 X55.018 Y121.585 E0.01391
G1 X55.061 Y122.000 E0.01308
G1 X55.016 Y122.428 E0.01351
G1 X54.883 Y122.838 E0.01351
G1 X54.668 Y123.212 E0.01351
G1 X54.379 Y123.532 E0.01351
G1 X54.031 Y123.785 E0.01351
G1 X53.637 Y123.960 E0.01351
G1 X53.215 Y124.050 E0.01351
G1 X52.785 Y124.050 E0.01351
G1 X52.363 Y123.960 E0.01351
G1 X51.969 Y123.785 E0.01351
G1 X51.621 Y123.532 E0.01351
G1 X51.332 Y123.212 E0.01351
G1 X51.117 Y122.838 E0.01353
G1 X50.982 Y122.415 E0.01391
G1 X50.939 Y122.000 E0.01308
G1 X50.984 Y121.572 E0.01351
G1 X51.117 Y121.162 E0.01351
G1 X51.332 Y120.788 E0.01351
G1 X51.621 Y120.468 E0.01351
G1 X51.969 Y120.215 E0.01351
G1 X52.308 Y120.064 E0.01163
G1 X52.446 Y119.648 F7200.000
G1 F5760
G1 X52.785 Y119.950 E-0.16963
G1 X53.215 Y119.950 E-0.14926
G1 X53.637 Y120.040 E-0.14925
G1 X54.031 Y120.215 E-0.14925
G1 X54.364 Y120.457 E-0.14261
G1 E-0.04000 F2100.00000
G1 Z0.800 F7200.000
G1 X70.242 Y117.186
G1 Z0.200
G1 E0.80000 F2100.00000
G1 F1800
G1 X70.181 Y116.600 E0.01848
G1 X70.242 Y116.014 E0.01848
G1 X70.424 Y115.453 E0.01849
G1 X70.719 Y114.943 E0.01846
G1 X71.114 Y114.505 E0.01850
G1 X71.590 Y114.158 E0.01847
G1 X72.128 Y113.918 E0.01848
G1 X72.706 Y113.796 E0.01851
G1 X73.294 Y113.796 E0.01845
G1 X73.872 Y113.918 E0.01851
G1 X74.410 Y114.158 E0.01848
G1 X74.886 Y114.505 E0.01847
G1 X75.281 Y114.943 E0.01850
G1 X75.576 Y115.453 E0.01846
G1 X75.758 Y116.014 E0.01849
G1 X75.819 Y116.600 E0.01848
G1 X75.758 Y117.186 E0.01848
G1 X75.576 Y117.747 E0.01849
G1 X75.281 Y118.257 E0.01846
G1 X74.886 Y118.695 E0.01850
G1 X74.410 Y119.042 E0.01847
G1 X73.872 Y119.282 E0.01848
G1 X73.294 Y119.404 E0.01851
G1 X72.706 Y119.404 E0.01845
G1 X72.128 Y119.282 E0.01851
G1 X71.590 Y119.042 E0.01848
G1 X71.114 Y118.695 E0.01847
G1 X70.719 Y118.257 E0.01850
G1 X70.424 Y117.747 E0.01846
G1 X70.260 Y117.243 E0.01661
G1 X70.619 Y117.126 F7200.000
G1 F1800
G1 X70.560 Y116.600 E0.01661
G1 X70.613 Y116.093 E0.01599
G1 X70.771 Y115.607 E0.01601
G1 X71.025 Y115.166 E0.01598
G1 X71.367 Y114.786 E0.01601
G1 X71.780 Y114.487 E0.01599
G1 X72.246 Y114.279 E0.01599
G1 X72.745 Y114.173 E0.01602
G1 X73.255 Y114.173 E0.01596
G1 X73.754 Y114.279 E0.01602
G1 X74.220 Y114.487 E0.01599
G1 X74.633 Y114.786 E0.01599
G1 X74.975 Y115.166 E0.01601
G1 X75.229 Y115.607 E0.01598
G1 X75.387 Y116.093 E0.01601
G1 X75.440 Y116.600 E0.01599
G1 X75.387 Y117.107 E0.01599
G1 X75.229 Y117.593 E0.01601
G1 X74.975 Y118.034 E0.01598
G1 X74.633 Y118.414 E0.01601
G1 X74.220 Y118.713 E0.01599
G1 X73.754 Y118.921 E0.01599
G1 X73.255 Y119.027 E0.01602
G1 X72.745 Y119.027 E0.01596
G1 X72.246 Y118.921 E0.01602
G1 X71.780 Y118.713 E0.01599
G1 X71.367 Y118.414 E0.01599
G1 X71.025 Y118.034 E0.01601
G1 X70.771 Y117.593 E0.01598
G1 X70.637 Y117.183 E0.01350
G1 X70.983 Y117.029 F7200.000
G1 F1800
G1 X70.939 Y116.600 E0.01351
G1 X70.983 Y116.171 E0.01351
G1 X71.117 Y115.762 E0.01352
G1 X71.332 Y115.389 E0.01350
G1 X71.621 Y115.068 E0.01352
G1 X71.969 Y114.815 E0.01351
G1 X72.363 Y114.640 E0.01350
G1 X72.785 Y114.550 E0.01353
G1 X73.215 Y114.550 E0.01348
G1 X73.637 Y114.640 E0.01353
G1 X74.031 Y114.815 E0.01350
G1 X74.379 Y115.068 E0.01351
G1 X74.668 Y115.389 E0.01352
G1 X74.883 Y115.762 E0.01350
G1 X75.017 Y116.171 E0.01352
G1 X75.061 Y116.600 E0.01351
G1 X75.017 Y117.029 E0.01351
G1 X74.883 Y117.438 E0.01352
G1 X74.668 Y117.811 E0.01350
G1 X74.379 Y118.132 E0.01352
G1 X74.031 Y118.385 E0.01351
G1 X73.637 Y118.560 E0.01350
G1 X73.215 Y118.650 E0.01353
G1 X72.785 Y118.650 E0.01348
G1 X72.363 Y118.560 E0.01353
G1 X71.969 Y118.385 E0.01350
G1 X71.621 Y118.132 E0.01351
G1 X71.332 Y117.811 E0.01352
G1 X71.117 Y117.438 E0.01350
G1 X71.002 Y117.086 E0.01164
G1 X70.603 Y116.905 F7200.000
G1 F5760
G1 X70.939 Y116.600 E-0.16959
G1 X70.983 Y116.171 E-0.14922
G1 X71.117 Y115.762 E-0.14933
G1 X71.332 Y115.389 E-0.14914
G1 X71.608 Y115.082 E-0.14272
G1 E-0.04000 F2100.00000
G1 Z0.800 F7200.000
G1 X87.181 Y116.600
G1 Z0.200
G1 E0.80000 F2100.00000
G1 F1800
G1 X87.242 Y116.014 E0.01848
G1 X87.424 Y115.453 E0.01849
G1 X87.719 Y114.943 E0.01846
G1 X88.114 Y114.505 E0.01850
G1 X88.590 Y114.158 E0.01847
G1 X89.128 Y113.918 E0.01848
G1 X89.706 Y113.796 E0.01851
G1 X90.294 Y113.796 E0.01844
G1 X90.872 Y113.918 E0.01851
G1 X91.410 Y114.158 E0.01848
G1 X91.886 Y114.505 E0.01847
G1 X92.281 Y114.943 E0.01850
G1 X92.576 Y115.453 E0.01846
G1 X92.758 Y116.014 E0.01849
G1 X92.819 Y116.600 E0.01848
G1 X92.758 Y117.186 E0.01848
G1 X92.576 Y117.747 E0.01849
G1 X92.281 Y118.257 E0.01846
G1 X91.886 Y118.695 E0.01850
G1 X91.410 Y119.042 E0.01847
G1 X90.872 Y119.282 E0.01848
G1 X90.294 Y119.404 E0.01851
G1 X89.706 Y119.404 E0.01844
G1 X89.128 Y119.282 E0.01851
G1 X88.590 Y119.042 E0.01848
G1 X88.114 Y118.695 E0.01847
G1 X87.719 Y118.257 E0.01850
G1 X87.424 Y117.747 E0.01846
G1 X87.242 Y117.186 E0.01849
G1 X87.187 Y116.660 E0.01660
G1 X87.562 Y116.621 F7200.000
G1 F1800
G1 X87.613 Y116.093 E0.01663
G1 X87.771 Y115.607 E0.01601
G1 X88.025 Y115.166 E0.01598
G1 X88.367 Y114.786 E0.01601
G1 X88.780 Y114.487 E0.01599
G1 X89.246 Y114.279 E0.01599
G1 X89.745 Y114.173 E0.01602
G1 X90.255 Y114.173 E0.01596
G1 X90.754 Y114.279 E0.01602
G1 X91.220 Y114.487 E0.01599
G1 X91.633 Y114.786 E0.01599
G1 X91.975 Y115.166 E0.01601
G1 X92.229 Y115.607 E0.01598
G1 X92.387 Y116.093 E0.01601
G1 X92.440 Y116.600 E0.01599
G1 X92.387 Y117.107 E0.01599
G1 X92.229 Y117.593 E0.01601
G1 X91.975 Y118.034 E0.01598
G1 X91.633 Y118.414 E0.01601
G1 X91.220 Y118.713 E0.01599
G1 X90.754 Y118.921 E0.01599
G1 X90.255 Y119.027 E0.01602
G1 X89.745 Y119.027 E0.01596
G1 X89.246 Y118.921 E0.01602
G1 X88.780 Y118.713 E0.01599
G1 X88.367 Y118.414 E0.01599
G1 X88.025 Y118.034 E0.01601
G1 X87.771 Y117.593 E0.01598
G1 X87.613 Y117.107 E0.01601
G1 X87.568 Y116.680 E0.01346
G1 X87.939 Y116.600 F7200.000
G1 F1800
G1 X87.983 Y116.171 E0.01351
G1 X88.117 Y115.762 E0.01352
G1 X88.332 Y115.389 E0.01350
G1 X88.621 Y115.068 E0.01352
G1 X88.969 Y114.815 E0.01351
G1 X89.363 Y114.640 E0.01350
G1 X89.785 Y114.550 E0.01353
G1 X90.215 Y114.550 E0.01348
G1 X90.637 Y114.640 E0.01353
G1 X91.031 Y114.815 E0.01350
G1 X91.379 Y115.068 E0.01351
G1 X91.668 Y115.389 E0.01352
G1 X91.883 Y115.762 E0.01350
G1 X92.017 Y116.171 E0.01352
G1 X92.061 Y116.600 E0.01351
G1 X92.017 Y117.029 E0.01351
G1 X91.883 Y117.438 E0.01352
G1 X91.668 Y117.811 E0.01350
G1 X91.379 Y118.132 E0.01352
G1 X91.031 Y118.385 E0.01351
G1 X90.637 Y118.560 E0.01350
G1 X90.215 Y118.650 E0.01353
G1 X89.785 Y118.650 E0.01348
G1 X89.363 Y118.560 E0.01353
G1 X88.969 Y118.385 E0.01350
G1 X88.621 Y118.132 E0.01351
G1 X88.332 Y117.811 E0.01352
G1 X88.117 Y117.438 E0.01350
G1 X87.983 Y117.029 E0.01352
G1 X87.945 Y116.660 E0.01163
G1 X87.592 Y116.400 F7200.000
G1 F5760
G1 X87.983 Y116.171 E-0.16961
G1 X88.117 Y115.762 E-0.14933
G1 X88.332 Y115.389 E-0.14914
G1 X88.621 Y115.068 E-0.14933
G1 X88.954 Y114.826 E-0.14260
G1 E-0.04000 F2100.00000
G1 Z0.800 F7200.000
G1 X104.181 Y116.600
G1 Z0.200
G1 E0.80000 F2100.00000
G1 F1800
G1 X104.242 Y116.014 E0.01848
G1 X104.424 Y115.453 E0.01849
G1 X104.719 Y114.943 E0.01846
G1 X105.114 Y114.505 E0.01850
G1 X105.590 Y114.158 E0.01847
G1 X106.128 Y113.918 E0.01848
G1 X106.706 Y113.796 E0.01851
G1 X107.294 Y113.796 E0.01844
G1 X107.872 Y113.918 E0.01851
G1 X108.410 Y114.158 E0.01848
G1 X108.886 Y114.505 E0.01847
G1 X109.281 Y114.943 E0.01850
G1 X109.576 Y115.453 E0.01846
G1 X109.758 Y116.014 E0.01849
G1 X109.819 Y116.600 E0.01848
G1 X109.758 Y117.186 E0.01848
G1 X109.576 Y117.747 E0.01849
G1 X109.281 Y118.257 E0.01846
G1 X108.886 Y118.695 E0.01850
G1 X108.410 Y119.042 E0.01847
G1 X107.872 Y119.282 E0.01848
G1 X107.294 Y119.404 E0.01851
G1 X106.706 Y119.404 E0.01844
G1 X106.128 Y119.282 E0.01851
G1 X105.590 Y119.042 E0.01848
G1 X105.114 Y118.695 E0.01847
G1 X104.719 Y118.257 E0.01850
G1 X104.424 Y117.747 E0.01846
G1 X104.242 Y117.186 E0.01849
G1 X104.187 Y116.660 E0.01660
G1 X104.562 Y116.621 F7200.000
G1 F1800
G1 X104.613 Y116.093 E0.01663
G1 X104.771 Y115.607 E0.01601
G1 X105.025 Y115.166 E0.01598
G1 X105.367 Y114.786 E0.01601
G1 X105.780 Y114.487 E0.01599
G1 X106.246 Y114.279 E0.01599
G1 X106.745 Y114.173 E0.01602
G1 X107.255 Y114.173 E0.01596
G1 X107.754 Y114.279 E0.01602
G1 X108.220 Y114.487 E0.01599
G1 X108.633 Y114.786 E0.01599
G1 X108.975 Y115.166 E0.01601
G1 X109.229 Y115.607 E0.01598
G1 X109.387 Y116.093 E0.01601
G1 X109.440 Y116.600 E0.01599
G1 X109.387 Y117.107 E0.01599
G1 X109.229 Y117.593 E0.01601
G1 X108.975 Y118.034 E0.01598
G1 X108.633 Y118.414 E0.01601
G1 X108.220 Y118.713 E0.01599
G1 X107.754 Y118.921 E0.01599
G1 X107.255 Y119.027 E0.01602
G1 X106.745 Y119.027 E0.01596
G1 X106.246 Y118.921 E0.01602
G1 X105.780 Y118.713 E0.01599
G1 X105.367 Y118.414 E0.01599
G1 X105.025 Y118.034 E0.01601
G1 X104.771 Y117.593 E0.01598
G1 X104.613 Y117.107 E0.01601
G1 X104.568 Y116.680 E0.01346
G1 X104.939 Y116.600 F7200.000
G1 F1800
G1 X104.983 Y116.171 E0.01351
G1 X105.117 Y115.762 E0.01352
G1 X105.332 Y115.389 E0.01350
G1 X105.621 Y115.068 E0.01352
G1 X105.969 Y114.815 E0.01351
G1 X106.363 Y114.640 E0.01350
G1 X106.785 Y114.550 E0.01353
G1 X107.215 Y114.550 E0.01348
G1 X107.637 Y114.640 E0.01353
G1 X108.031 Y114.815 E0.01350
G1 X108.379 Y115.068 E0.01351
G1 X108.668 Y115.389 E0.01352
G1 X108.883 Y115.762 E0.01350
G1 X109.017 Y116.171 E0.01352
G1 X109.061 Y116.600 E0.01351
G1 X109.017 Y117.029 E0.01351
G1 X108.883 Y117.438 E0.01352
G1 X108.668 Y117.811 E0.01350
G1 X108.379 Y118.132 E0.01352
G1 X108.031 Y118.385 E0.01351
G1 X107.637 Y118.560 E0.01350
G1 X107.215 Y118.650 E0.01353
G1 X106.785 Y118.650 E0.01348
G1 X106.363 Y118.560 E0.01353
G1 X105.969 Y118.385 E0.01350
G1 X105.621 Y118.132 E0.01351
G1 X105.332 Y117.811 E0.01352
G1 X105.117 Y117.438 E0.01350
G1 X104.983 Y117.029 E0.01352
G1 X104.945 Y116.660 E0.01163
G1 X104.592 Y116.400 F7200.000
G1 F5760
G1 X104.983 Y116.171 E-0.16961
G1 X105.117 Y115.762 E-0.14933
G1 X105.332 Y115.389 E-0.14914
G1 X105.621 Y115.068 E-0.14932
G1 X105.954 Y114.826 E-0.14260
G1 E-0.04000 F2100.00000
G1 Z0.800 F7200.000
G1 X121.181 Y116.600
G1 Z0.200
G1 E0.80000 F2100.00000
G1 F1800
G1 X121.242 Y116.014 E0.01848
G1 X121.425 Y115.453 E0.01849
G1 X121.719 Y114.943 E0.01846
G1 X122.114 Y114.505 E0.01850
G1 X122.590 Y114.158 E0.01847
G1 X123.128 Y113.918 E0.01848
G1 X123.706 Y113.796 E0.01851
G1 X124.294 Y113.796 E0.01844
G1 X124.872 Y113.918 E0.01851
G1 X125.410 Y114.158 E0.01848
G1 X125.886 Y114.505 E0.01847
G1 X126.281 Y114.943 E0.01850
G1 X126.575 Y115.453 E0.01846
G1 X126.758 Y116.014 E0.01849
G1 X126.819 Y116.600 E0.01848
G1 X126.758 Y117.186 E0.01848
G1 X126.575 Y117.747 E0.01849
G1 X126.281 Y118.257 E0.01846
G1 X125.886 Y118.695 E0.01850
G1 X125.410 Y119.042 E0.01847
G1 X124.872 Y119.282 E0.01848
G1 X124.294 Y119.404 E0.01851
G1 X123.706 Y119.404 E0.01844
G1 X123.128 Y119.282 E0.01851
G1 X122.590 Y119.042 E0.01848
G1 X122.114 Y118.695 E0.01847
G1 X121.719 Y118.257 E0.01850
G1 X121.425 Y117.747 E0.01846
G1 X121.242 Y117.186 E0.01849
G1 X121.187 Y116.660 E0.01660
G1 X121.562 Y116.621 F7200.000
G1 F1800
G1 X121.613 Y116.093 E0.01663
G1 X121.771 Y115.607 E0.01601
G1 X122.025 Y115.166 E0.01598
G1 X122.367 Y114.786 E0.01601
G1 X122.780 Y114.487 E0.01599
G1 X123.246 Y114.279 E0.01599
G1 X123.745 Y114.173 E0.01602
G1 X124.255 Y114.173 E0.01596
G1 X124.754 Y114.279 E0.01602
G1 X125.220 Y114.487 E0.01599
G1 X125.633 Y114.786 E0.01599
G1 X125.975 Y115.166 E0.01601
G1 X126.229 Y115.607 E0.01598
G1 X126.387 Y116.093 E0.01601
G1 X126.440 Y116.600 E0.01599
G1 X126.387 Y117.107 E0.01599
G1 X126.229 Y117.593 E0.01601
G1 X125.975 Y118.034 E0.01598
G1 X125.633 Y118.414 E0.01601
G1 X125.220 Y118.713 E0.01599
G1 X124.754 Y118.921 E0.01599
G1 X124.255 Y119.027 E0.01602
G1 X123.745 Y119.027 E0.01596
G1 X123.246 Y118.921 E0.01602
G1 X122.780 Y118.713 E0.01599
G1 X122.367 Y118.414 E0.01599
G1 X122.025 Y118.034 E0.01601
G1 X121.771 Y117.593 E0.01598
G1 X121.613 Y117.107 E0.01601
G1 X121.568 Y116.680 E0.01346
G1 X121.939 Y116.600 F7200.000
G1 F1800
G1 X121.983 Y116.171 E0.01351
G1 X122.117 Y115.762 E0.01352
