; generated by Slic3r Prusa Edition 1.39.2+win64 on 2018-05-30 at 13:23:47

; 

; external perimeters extrusion width = 0.45mm
; perimeters extrusion width = 0.45mm
; infill extrusion width = 0.45mm
; solid infill extrusion width = 0.45mm
; top infill extrusion width = 0.45mm
; first layer extrusion width = 0.42mm

M107
M115 U3.1.0 ; tell printer latest fw version
M83  ; extruder relative mode
M104 S205 ; set extruder temp
M140 S55 ; set bed temp
M190 S55 ; wait for bed temp
M109 S205 ; wait for extruder temp
G28 W ; home all without mesh bed level
G80 ; mesh bed leveling
G1 Y-3.0 F1000.0 ; go outside print area
G92 E0.0
G1 X60.0 E9.0  F1000.0 ; intro line
G1 X100.0 E12.5  F1000.0 ; intro line
G92 E0.0
M900 K30; Filament gcode
G21 ; set units to millimeters
G90 ; use absolute coordinates
M83 ; use relative distances for extrusion
;BEFORE_LAYER_CHANGE
;0.2


G1 E-0.80000 F2100.00000
G1 Z0.600 F7200.000
;AFTER_LAYER_CHANGE
;0.2
G1 X42.453 Y75.195
G1 Z0.200
G1 E0.80000 F2100.00000
M204 S1000
G1 F1800
G1 X43.013 Y74.838 E0.02083
G1 X43.492 Y74.678 E0.01585
G1 X43.995 Y74.623 E0.01585
G1 X161.004 Y74.623 E3.66873
G1 X161.902 Y74.801 E0.02872
G1 X162.667 Y75.305 E0.02872
G1 X163.184 Y76.062 E0.02872
G1 X163.377 Y76.957 E0.02872
G1 X163.376 Y128.061 E1.60233
G1 X163.268 Y128.713 E0.02071
G1 X162.982 Y129.312 E0.02083
G1 X162.544 Y129.807 E0.02071
G1 X161.987 Y130.162 E0.02071
G1 X161.508 Y130.322 E0.01585
G1 X161.005 Y130.377 E0.01585
G1 X43.977 Y130.377 E3.66932
G1 X43.317 Y130.277 E0.02095
G1 X42.707 Y129.994 E0.02107
G1 X42.200 Y129.553 E0.02107
G1 X41.838 Y128.987 E0.02107
G1 X41.678 Y128.508 E0.01585
G1 X41.623 Y128.009 E0.01574
G1 X41.624 Y76.947 E1.60101
G1 X41.731 Y76.291 E0.02083
G1 X42.014 Y75.694 E0.02071
G1 X42.413 Y75.240 E0.01895
G1 F5760
G1 X43.013 Y74.838 E-0.25015
G1 X43.492 Y74.678 E-0.17513
G1 X43.995 Y74.623 E-0.17513
G1 X44.456 Y74.623 E-0.15959
G1 E-0.04000 F2100.00000
G1 Z0.800 F7200.000
G1 X52.129 Y119.318
G1 Z0.200
G1 E0.80000 F2100.00000
G1 F1800
G1 X52.705 Y119.196 E0.01848
G1 X53.295 Y119.196 E0.01848
G1 X53.871 Y119.318 E0.01848
G1 X54.410 Y119.558 E0.01848
G1 X54.887 Y119.905 E0.01848
G1 X55.281 Y120.343 E0.01848
G1 X55.577 Y120.856 E0.01859
G1 X55.760 Y121.430 E0.01888
G1 X55.819 Y122.000 E0.01797
G1 X55.758 Y122.586 E0.01848
G1 X55.576 Y123.147 E0.01849
G1 X55.281 Y123.657 E0.01848
G1 X54.887 Y124.095 E0.01848
G1 X54.410 Y124.442 E0.01848
G1 X53.871 Y124.682 E0.01848
G1 X53.295 Y124.804 E0.01848
G1 X52.705 Y124.804 E0.01848
G1 X52.129 Y124.682 E0.01848
G1 X51.590 Y124.442 E0.01848
G1 X51.113 Y124.095 E0.01848
G1 X50.719 Y123.657 E0.01848
G1 X50.423 Y123.144 E0.01859
G1 X50.240 Y122.570 E0.01888
G1 X50.181 Y122.000 E0.01797
G1 X50.242 Y121.414 E0.01848
G1 X50.424 Y120.853 E0.01849
G1 X50.719 Y120.343 E0.01848
G1 X51.113 Y119.905 E0.01848
G1 X51.590 Y119.558 E0.01848
G1 X52.074 Y119.343 E0.01660
G1 X52.227 Y119.687 F7200.000
G1 F1800
G1 X52.745 Y119.573 E0.01662
G1 X53.255 Y119.573 E0.01600
G1 X53.754 Y119.679 E0.01600
G1 X54.220 Y119.887 E0.01600
G1 X54.633 Y120.186 E0.01599
G1 X54.974 Y120.566 E0.01600
G1 X55.230 Y121.009 E0.01606
G1 X55.389 Y121.508 E0.01640
G1 X55.440 Y122.000 E0.01553
G1 X55.387 Y122.507 E0.01599
G1 X55.229 Y122.993 E0.01600
G1 X54.974 Y123.434 E0.01600
G1 X54.633 Y123.814 E0.01600
G1 X54.220 Y124.113 E0.01599
G1 X53.754 Y124.321 E0.01600
G1 X53.255 Y124.427 E0.01600
G1 X52.745 Y124.427 E0.01600
G1 X52.246 Y124.321 E0.01600
G1 X51.780 Y124.113 E0.01600
G1 X51.367 Y123.814 E0.01599
G1 X51.026 Y123.434 E0.01600
G1 X50.770 Y122.991 E0.01606
G1 X50.611 Y122.492 E0.01640
G1 X50.560 Y122.000 E0.01553
G1 X50.613 Y121.493 E0.01599
G1 X50.771 Y121.007 E0.01600
G1 X51.026 Y120.566 E0.01600
G1 X51.367 Y120.186 E0.01600
G1 X51.780 Y119.887 E0.01599
G1 X52.172 Y119.712 E0.01348
G1 X52.363 Y120.040 F7200.000
G1 F1800
G1 X52.785 Y119.950 E0.01351
G1 X53.215 Y119.950 E0.01351
G1 X53.637 Y120.040 E0.01351
G1 X54.031 Y120.215 E0.01351
G1 X54.379 Y120.468 E0.01351
G1 X54.668 Y120.788 E0.01351
G1 X54.883 Y121.162 E0.01353
G1 X55.018 Y121.585 E0.01391
G1 X55.061 Y122.000 E0.01308
G1 X55.016 Y122.428 E0.01351
G1 X54.883 Y122.838 E0.01351
G1 X54.668 Y123.212 E0.01351
G1 X54.379 Y123.532 E0.01351
G1 X54.031 Y123.785 E0.01351
G1 X53.637 Y123.960 E0.01351
G1 X53.215 Y124.050 E0.01351
G1 X52.785 Y124.050 E0.01351
G1 X52.363 Y123.960 E0.01351
G1 X51.969 Y123.785 E0.01351
G1 X51.621 Y123.532 E0.01351
G1 X51.332 Y123.212 E0.01351
G1 X51.117 Y122.838 E0.01353
G1 X50.982 Y122.415 E0.01391
G1 X50.939 Y122.000 E0.01308
G1 X50.984 Y121.572 E0.01351
G1 X51.117 Y121.162 E0.01351
G1 X51.332 Y120.788 E0.01351
G1 X51.621 Y120.468 E0.01351
G1 X51.969 Y120.215 E0.01351
G1 X52.308 Y120.064 E0.01163
G1 X52.446 Y119.648 F7200.000
G1 F5760
G1 X52.785 Y119.950 E-0.16963
G1 X53.215 Y119.950 E-0.14926
G1 X53.637 Y120.040 E-0.14925
G1 X54.031 Y120.215 E-0.14925
G1 X54.364 Y120.457 E-0.14261
G1 E-0.04000 F2100.00000
G1 Z0.800 F7200.000
G1 X52.705 Y89.804
G1 Z0.200
G1 E0.80000 F2100.00000
G1 F1800
G1 X52.129 Y89.681 E0.01848
G1 X51.590 Y89.442 E0.01848
G1 X51.113 Y89.095 E0.01848
G1 X50.719 Y88.657 E0.01848
G1 X50.423 Y88.144 E0.01858
G1 X50.240 Y87.570 E0.01888
G1 X50.181 Y87.000 E0.01797
G1 X50.242 Y86.414 E0.01848
G1 X50.424 Y85.853 E0.01849
G1 X50.719 Y85.343 E0.01848
G1 X51.113 Y84.905 E0.01848
G1 X51.590 Y84.558 E0.01848
G1 X52.129 Y84.319 E0.01848
G1 X52.705 Y84.196 E0.01848
G1 X53.295 Y84.196 E0.01848
G1 X53.871 Y84.319 E0.01848
G1 X54.410 Y84.558 E0.01848
G1 X54.887 Y84.905 E0.01848
G1 X55.281 Y85.343 E0.01848
G1 X55.577 Y85.856 E0.01858
G1 X55.760 Y86.430 E0.01888
G1 X55.819 Y87.000 E0.01797
G1 X55.758 Y87.586 E0.01848
G1 X55.576 Y88.147 E0.01849
G1 X55.281 Y88.657 E0.01848
G1 X54.887 Y89.095 E0.01848
G1 X54.410 Y89.442 E0.01848
G1 X53.871 Y89.681 E0.01848
G1 X53.295 Y89.804 E0.01848
G1 X52.765 Y89.804 E0.01660
G1 X52.765 Y89.427 F7200.000
G1 F1800
G1 X52.246 Y89.321 E0.01662
G1 X51.780 Y89.113 E0.01600
G1 X51.367 Y88.814 E0.01599
G1 X51.026 Y88.434 E0.01600
G1 X50.770 Y87.991 E0.01606
G1 X50.611 Y87.492 E0.01640
G1 X50.560 Y87.000 E0.01553
G1 X50.613 Y86.493 E0.01599
G1 X50.771 Y86.007 E0.01600
G1 X51.026 Y85.566 E0.01600
G1 X51.367 Y85.186 E0.01600
G1 X51.780 Y84.887 E0.01599
G1 X52.246 Y84.679 E0.01600
G1 X52.745 Y84.573 E0.01600
G1 X53.255 Y84.573 E0.01600
G1 X53.754 Y84.679 E0.01600
G1 X54.220 Y84.887 E0.01600
G1 X54.633 Y85.186 E0.01599
G1 X54.974 Y85.566 E0.01600
G1 X55.230 Y86.009 E0.01606
G1 X55.389 Y86.508 E0.01640
G1 X55.440 Y87.000 E0.01553
G1 X55.387 Y87.507 E0.01599
G1 X55.229 Y87.993 E0.01600
G1 X54.974 Y88.434 E0.01600
G1 X54.633 Y88.814 E0.01600
G1 X54.220 Y89.113 E0.01599
G1 X53.754 Y89.321 E0.01600
G1 X53.255 Y89.427 E0.01600
G1 X52.825 Y89.427 E0.01348
G1 X52.785 Y89.050 F7200.000
G1 F1800
G1 X52.363 Y88.960 E0.01351
G1 X51.969 Y88.785 E0.01351
G1 X51.621 Y88.532 E0.01351
G1 X51.332 Y88.212 E0.01351
G1 X51.117 Y87.838 E0.01353
G1 X50.982 Y87.415 E0.01391
G1 X50.939 Y87.000 E0.01308
G1 X50.984 Y86.572 E0.01351
G1 X51.117 Y86.162 E0.01351
G1 X51.332 Y85.788 E0.01351
G1 X51.621 Y85.468 E0.01351
G1 X51.969 Y85.215 E0.01351
G1 X52.363 Y85.040 E0.01351
G1 X52.785 Y84.950 E0.01351
G1 X53.215 Y84.950 E0.01351
G1 X53.637 Y85.040 E0.01351
G1 X54.031 Y85.215 E0.01351
G1 X54.379 Y85.468 E0.01351
G1 X54.668 Y85.788 E0.01351
G1 X54.883 Y86.162 E0.01353
G1 X55.018 Y86.585 E0.01391
G1 X55.061 Y87.000 E0.01308
G1 X55.016 Y87.428 E0.01351
G1 X54.883 Y87.838 E0.01351
G1 X54.668 Y88.212 E0.01351
G1 X54.379 Y88.532 E0.01351
G1 X54.031 Y88.785 E0.01351
G1 X53.637 Y88.960 E0.01351
G1 X53.215 Y89.050 E0.01351
G1 X52.845 Y89.050 E0.01163
G1 X52.549 Y89.374 F7200.000
G1 F5760
G1 X52.363 Y88.960 E-0.16963
G1 X51.969 Y88.785 E-0.14925
G1 X51.621 Y88.532 E-0.14923
G1 X51.332 Y88.212 E-0.14924
G1 X51.127 Y87.855 E-0.14265
G1 E-0.04000 F2100.00000
G1 Z0.800 F7200.000
G1 X150.181 Y87.000
G1 Z0.200
G1 E0.80000 F2100.00000
G1 F1800
G1 X150.242 Y86.414 E0.01848
G1 X150.425 Y85.853 E0.01849
G1 X150.719 Y85.343 E0.01846
G1 X151.114 Y84.905 E0.01850
G1 X151.590 Y84.558 E0.01847
G1 X152.128 Y84.318 E0.01848
G1 X152.706 Y84.196 E0.01851
G1 X153.294 Y84.196 E0.01844
G1 X153.872 Y84.318 E0.01851
G1 X154.410 Y84.558 E0.01848
G1 X154.886 Y84.905 E0.01847
G1 X155.281 Y85.343 E0.01850
G1 X155.575 Y85.853 E0.01846
G1 X155.758 Y86.414 E0.01849
G1 X155.819 Y87.000 E0.01848
G1 X155.758 Y87.586 E0.01848
G1 X155.575 Y88.147 E0.01849
G1 X155.281 Y88.657 E0.01846
G1 X154.886 Y89.095 E0.01850
G1 X154.410 Y89.442 E0.01847
G1 X153.872 Y89.682 E0.01848
G1 X153.294 Y89.804 E0.01851
G1 X152.706 Y89.804 E0.01844
G1 X152.128 Y89.682 E0.01851
G1 X151.590 Y89.442 E0.01848
G1 X151.114 Y89.095 E0.01847
G1 X150.719 Y88.657 E0.01850
G1 X150.425 Y88.147 E0.01846
G1 X150.242 Y87.586 E0.01849
G1 X150.187 Y87.060 E0.01660
G1 X150.562 Y87.021 F7200.000
G1 F1800
G1 X150.613 Y86.493 E0.01663
G1 X150.771 Y86.007 E0.01601
G1 X151.025 Y85.566 E0.01598
G1 X151.367 Y85.186 E0.01601
G1 X151.780 Y84.887 E0.01599
G1 X152.246 Y84.679 E0.01599
G1 X152.745 Y84.573 E0.01602
G1 X153.255 Y84.573 E0.01596
G1 X153.754 Y84.679 E0.01602
G1 X154.220 Y84.887 E0.01599
G1 X154.633 Y85.186 E0.01599
G1 X154.975 Y85.566 E0.01601
G1 X155.229 Y86.007 E0.01598
G1 X155.387 Y86.493 E0.01601
G1 X155.440 Y87.000 E0.01599
G1 X155.387 Y87.507 E0.01599
G1 X155.229 Y87.993 E0.01601
G1 X154.975 Y88.434 E0.01598
G1 X154.633 Y88.814 E0.01601
G1 X154.220 Y89.113 E0.01599
G1 X153.754 Y89.321 E0.01599
G1 X153.255 Y89.427 E0.01602
G1 X152.745 Y89.427 E0.01596
G1 X152.246 Y89.321 E0.01602
G1 X151.780 Y89.113 E0.01599
G1 X151.367 Y88.814 E0.01599
G1 X151.025 Y88.434 E0.01601
G1 X150.771 Y87.993 E0.01598
G1 X150.613 Y87.507 E0.01601
G1 X150.568 Y87.080 E0.01346
G1 X150.939 Y87.000 F7200.000
G1 F1800
G1 X150.983 Y86.571 E0.01351
G1 X151.117 Y86.162 E0.01352
G1 X151.332 Y85.789 E0.01350
G1 X151.621 Y85.468 E0.01352
G1 X151.969 Y85.215 E0.01351
G1 X152.363 Y85.040 E0.01350
G1 X152.785 Y84.950 E0.01353
G1 X153.215 Y84.950 E0.01348
G1 X153.637 Y85.040 E0.01353
G1 X154.031 Y85.215 E0.01350
G1 X154.379 Y85.468 E0.01351
G1 X154.668 Y85.789 E0.01352
G1 X154.883 Y86.162 E0.01350
G1 X155.017 Y86.571 E0.01352
G1 X155.061 Y87.000 E0.01351
G1 X155.017 Y87.429 E0.01351
G1 X154.883 Y87.838 E0.01352
G1 X154.668 Y88.211 E0.01350
G1 X154.379 Y88.532 E0.01352
G1 X154.031 Y88.785 E0.01351
G1 X153.637 Y88.960 E0.01350
G1 X153.215 Y89.050 E0.01353
G1 X152.785 Y89.050 E0.01348
G1 X152.363 Y88.960 E0.01353
G1 X151.969 Y88.785 E0.01350
G1 X151.621 Y88.532 E0.01351
G1 X151.332 Y88.211 E0.01352
G1 X151.117 Y87.838 E0.01350
G1 X150.983 Y87.429 E0.01352
G1 X150.945 Y87.060 E0.01163
G1 X150.592 Y86.800 F7200.000
G1 F5760
G1 X150.983 Y86.571 E-0.16961
G1 X151.117 Y86.162 E-0.14933
G1 X151.332 Y85.789 E-0.14914
G1 X151.621 Y85.468 E-0.14932
G1 X151.954 Y85.226 E-0.14260
G1 E-0.04000 F2100.00000
G1 Z0.800 F7200.000
G1 X152.706 Y119.196
G1 Z0.200
G1 E0.80000 F2100.00000
G1 F1800
G1 X153.294 Y119.196 E0.01844
G1 X153.872 Y119.318 E0.01851
G1 X154.410 Y119.558 E0.01848
G1 X154.886 Y119.905 E0.01847
G1 X155.281 Y120.343 E0.01850
G1 X155.575 Y120.853 E0.01846
G1 X155.758 Y121.414 E0.01849
G1 X155.819 Y122.000 E0.01848
G1 X155.758 Y122.586 E0.01848
G1 X155.575 Y123.147 E0.01849
G1 X155.281 Y123.657 E0.01846
G1 X154.886 Y124.095 E0.01850
G1 X154.410 Y124.442 E0.01847
G1 X153.872 Y124.682 E0.01848
G1 X153.294 Y124.804 E0.01851
G1 X152.706 Y124.804 E0.01844
G1 X152.128 Y124.682 E0.01851
G1 X151.590 Y124.442 E0.01848
G1 X151.114 Y124.095 E0.01847
G1 X150.719 Y123.657 E0.01850
G1 X150.425 Y123.147 E0.01846
G1 X150.242 Y122.586 E0.01849
G1 X150.181 Y122.000 E0.01848
G1 X150.242 Y121.414 E0.01848
G1 X150.425 Y120.853 E0.01849
G1 X150.719 Y120.343 E0.01846
G1 X151.114 Y119.905 E0.01850
G1 X151.590 Y119.558 E0.01847
G1 X152.128 Y119.318 E0.01848
G1 X152.647 Y119.208 E0.01663
G1 X152.725 Y119.577 F7200.000
G1 F1800
G1 X153.255 Y119.573 E0.01659
G1 X153.754 Y119.679 E0.01602
G1 X154.220 Y119.887 E0.01599
G1 X154.633 Y120.186 E0.01599
G1 X154.975 Y120.566 E0.01601
G1 X155.229 Y121.007 E0.01598
G1 X155.387 Y121.493 E0.01601
G1 X155.440 Y122.000 E0.01599
G1 X155.387 Y122.507 E0.01599
G1 X155.229 Y122.993 E0.01601
G1 X154.975 Y123.434 E0.01598
G1 X154.633 Y123.814 E0.01601
G1 X154.220 Y124.113 E0.01599
G1 X153.754 Y124.321 E0.01599
G1 X153.255 Y124.427 E0.01602
G1 X152.745 Y124.427 E0.01596
G1 X152.246 Y124.321 E0.01602
G1 X151.780 Y124.113 E0.01599
G1 X151.367 Y123.814 E0.01599
G1 X151.025 Y123.434 E0.01601
G1 X150.771 Y122.993 E0.01598
G1 X150.613 Y122.507 E0.01601
G1 X150.560 Y122.000 E0.01599
G1 X150.613 Y121.493 E0.01599
G1 X150.771 Y121.007 E0.01601
G1 X151.025 Y120.566 E0.01598
G1 X151.367 Y120.186 E0.01601
G1 X151.780 Y119.887 E0.01599
G1 X152.246 Y119.679 E0.01599
G1 X152.667 Y119.590 E0.01350
G1 X152.785 Y119.950 F7200.000
G1 F1800
G1 X153.215 Y119.950 E0.01348
G1 X153.637 Y120.040 E0.01353
G1 X154.031 Y120.215 E0.01350
G1 X154.379 Y120.468 E0.01351
G1 X154.668 Y120.789 E0.01352
G1 X154.883 Y121.162 E0.01350
G1 X155.017 Y121.571 E0.01352
G1 X155.061 Y122.000 E0.01351
G1 X155.017 Y122.429 E0.01351
G1 X154.883 Y122.838 E0.01352
G1 X154.668 Y123.211 E0.01350
G1 X154.379 Y123.532 E0.01352
G1 X154.031 Y123.785 E0.01351
G1 X153.637 Y123.960 E0.01350
G1 X153.215 Y124.050 E0.01353
G1 X152.785 Y124.050 E0.01348
G1 X152.363 Y123.960 E0.01353
G1 X151.969 Y123.785 E0.01350
G1 X151.621 Y123.532 E0.01351
G1 X151.332 Y123.211 E0.01352
G1 X151.117 Y122.838 E0.01350
G1 X150.983 Y122.429 E0.01352
G1 X150.939 Y122.000 E0.01351
G1 X150.983 Y121.571 E0.01351
G1 X151.117 Y121.162 E0.01352
G1 X151.332 Y120.789 E0.01350
G1 X151.621 Y120.468 E0.01352
G1 X151.969 Y120.215 E0.01351
G1 X152.363 Y120.040 E0.01350
G1 X152.726 Y119.963 E0.01165
G1 X152.948 Y119.585 F7200.000
G1 F5760
G1 X153.215 Y119.950 E-0.16933
G1 X153.637 Y120.040 E-0.14950
G1 X154.031 Y120.215 E-0.14916
G1 X154.379 Y120.468 E-0.14923
G1 X154.655 Y120.774 E-0.14277
G1 E-0.04000 F2100.00000
G1 Z0.800 F7200.000
G1 X160.036 Y127.036
G1 Z0.200
G1 E0.80000 F2100.00000
G1 F1800
G1 X44.964 Y127.036 E3.60799
G1 X44.964 Y77.964 E1.53861
G1 X160.036 Y77.964 E3.60799
G1 X160.036 Y126.976 E1.53673
G1 X160.413 Y127.413 F7200.000
G1 F1800
G1 X44.587 Y127.413 E3.63164
G1 X44.587 Y77.587 E1.56225
G1 X160.413 Y77.587 E3.63164
G1 X160.413 Y127.353 E1.56037
G1 X160.790 Y127.790 F7200.000
G1 F1800
G1 X44.210 Y127.790 E3.65528
G1 X44.210 Y77.210 E1.58590
G1 X160.790 Y77.210 E3.65528
G1 X160.790 Y127.730 E1.58402
G1 X160.394 Y127.736 F7200.000
G1 F5760
G1 X158.596 Y127.731 E-0.76000
G1 E-0.04000 F2100.00000
G1 Z0.800 F7200.000
G1 X159.923 Y125.249
G1 Z0.200
G1 E0.80000 F2100.00000
G1 F1800
G1 X156.038 Y121.364 E0.17233
G1 X156.099 Y121.959 E0.01877
G1 X159.753 Y125.613 E0.16206
G1 X159.753 Y126.146 E0.01673
G1 X156.057 Y122.450 E0.16395
G1 X156.037 Y122.645 E0.00616
G1 X155.958 Y122.885 E0.00791
G1 X159.753 Y126.680 E0.16832
G1 X159.753 Y126.753 E0.00230
G1 X159.293 Y126.753 E0.01443
G1 X155.823 Y123.283 E0.15390
G1 X155.628 Y123.622 E0.01225
G1 X158.760 Y126.753 E0.13889
G1 X158.226 Y126.753 E0.01673
G1 X155.410 Y123.937 E0.12491
G1 X155.157 Y124.218 E0.01185
G1 X157.693 Y126.753 E0.11247
G1 X157.159 Y126.753 E0.01673
G1 X154.866 Y124.460 E0.10172
G1 X154.557 Y124.684 E0.01198
G1 X156.626 Y126.753 E0.09176
G1 X156.092 Y126.753 E0.01673
G1 X154.189 Y124.850 E0.08443
G1 X153.960 Y124.952 E0.00788
G1 X153.793 Y124.987 E0.00534
G1 X155.559 Y126.753 E0.07832
G1 X155.025 Y126.753 E0.01673
G1 X153.353 Y125.081 E0.07418
G1 X152.826 Y125.087 E0.01654
G1 X154.492 Y126.753 E0.07391
G1 X153.959 Y126.753 E0.01673
G1 X151.916 Y124.711 E0.09058
G1 F5760
G1 X153.468 Y126.262 E-0.76000
G1 E-0.04000 F2100.00000
G1 Z0.800 F7200.000
G1 X150.283 Y123.077
G1 Z0.200
G1 E0.80000 F2100.00000
G1 F1800
G1 X105.452 Y78.247 E1.98848
G1 X105.986 Y78.247 E0.01673
G1 X149.915 Y122.176 E1.94849
G1 X149.896 Y122.000 E0.00554
G1 X149.932 Y121.659 E0.01074
G1 X106.519 Y78.247 E1.92559
G1 X107.053 Y78.247 E0.01673
G1 X150.012 Y121.206 E1.90548
G1 X150.143 Y120.804 E0.01327
G1 X107.586 Y78.247 E1.88764
G1 X108.120 Y78.247 E0.01673
