; generated by Slic3r Prusa Edition 1.39.2+win64 on 2018-06-07 at 15:36:05

; 

; external perimeters extrusion width = 0.45mm
; perimeters extrusion width = 0.45mm
; infill extrusion width = 0.45mm
; solid infill extrusion width = 0.45mm
; top infill extrusion width = 0.45mm
; first layer extrusion width = 0.42mm

M107
M115 U3.1.0 ; tell printer latest fw version
M83  ; extruder relative mode
M104 S205 ; set extruder temp
M140 S55 ; set bed temp
M190 S55 ; wait for bed temp
M109 S205 ; wait for extruder temp
G28 W ; home all without mesh bed level
G80 ; mesh bed leveling
G1 Y-3.0 F1000.0 ; go outside print area
G92 E0.0
G1 X60.0 E9.0  F1000.0 ; intro line
G1 X100.0 E12.5  F1000.0 ; intro line
G92 E0.0
M900 K30; Filament gcode
G21 ; set units to millimeters
G90 ; use absolute coordinates
M83 ; use relative distances for extrusion
;BEFORE_LAYER_CHANGE
;0.2


G1 E-0.80000 F2100.00000
G1 Z0.600 F7200.000
;AFTER_LAYER_CHANGE
;0.2
G1 X89.493 Y90.432
G1 Z0.200
G1 E0.80000 F2100.00000
M204 S1000
G1 F1800
G1 X92.080 Y88.125 E0.10868
G1 X95.296 Y86.273 E0.11637
G1 X98.811 Y85.133 E0.11587
G1 X102.503 Y84.746 E0.11638
G1 X106.186 Y85.133 E0.11613
G1 X109.720 Y86.280 E0.11649
G1 X112.934 Y88.136 E0.11638
G1 X115.679 Y90.604 E0.11574
G1 X117.873 Y93.618 E0.11689
G1 X119.378 Y96.993 E0.11586
G1 X120.155 Y100.626 E0.11650
G1 X120.172 Y104.068 E0.10790
G1 X120.112 Y104.638 E0.01796
G1 X119.450 Y107.752 E0.09983
G1 X119.283 Y108.253 E0.01656
G1 X117.853 Y111.415 E0.10880
G1 X115.507 Y114.568 E0.12323
G1 X112.920 Y116.875 E0.10868
G1 X109.704 Y118.727 E0.11638
G1 X106.189 Y119.867 E0.11586
G1 X102.501 Y120.254 E0.11625
G1 X98.810 Y119.866 E0.11638
G1 X95.280 Y118.720 E0.11637
G1 X92.066 Y116.864 E0.11638
G1 X89.321 Y114.396 E0.11574
G1 X87.127 Y111.382 E0.11689
G1 X85.622 Y108.007 E0.11586
G1 X84.845 Y104.373 E0.11651
G1 X84.828 Y100.932 E0.10790
G1 X84.888 Y100.359 E0.01805
G1 X85.550 Y97.248 E0.09974
G1 X85.717 Y96.747 E0.01656
G1 X87.147 Y93.585 E0.10880
G1 X89.457 Y90.480 E0.12135
G1 X89.749 Y90.709 F7200.000
G1 F1800
G1 X92.297 Y88.433 E0.10711
G1 X95.445 Y86.620 E0.11390
G1 X98.890 Y85.502 E0.11355
G1 X102.503 Y85.123 E0.11391
G1 X106.108 Y85.502 E0.11367
G1 X109.567 Y86.625 E0.11401
G1 X112.713 Y88.441 E0.11390
G1 X115.403 Y90.860 E0.11343
G1 X117.548 Y93.810 E0.11438
G1 X119.021 Y97.114 E0.11343
G1 X119.780 Y100.671 E0.11402
G1 X119.795 Y104.068 E0.10651
G1 X119.743 Y104.562 E0.01558
G1 X118.938 Y108.100 E0.11375
G1 X117.532 Y111.217 E0.10722
G1 X115.251 Y114.291 E0.12004
G1 X112.703 Y116.567 E0.10711
G1 X109.555 Y118.380 E0.11391
G1 X106.110 Y119.498 E0.11354
G1 X102.501 Y119.877 E0.11379
G1 X98.888 Y119.498 E0.11391
G1 X95.433 Y118.375 E0.11390
G1 X92.287 Y116.559 E0.11390
G1 X89.597 Y114.140 E0.11343
G1 X87.452 Y111.190 E0.11438
G1 X85.979 Y107.886 E0.11343
G1 X85.220 Y104.333 E0.11391
G1 X85.205 Y100.932 E0.10663
G1 X85.257 Y100.438 E0.01558
G1 X86.062 Y96.900 E0.11375
G1 X87.468 Y93.783 E0.10722
G1 X89.713 Y90.757 E0.11816
G1 F5760
G1 X91.345 Y89.290 E-0.76000
G1 E-0.04000 F2100.00000
G1 Z0.800 F7200.000
G1 X96.588 Y106.893
G1 Z0.200
G1 E0.80000 F2100.00000
G1 F1800
G1 X96.987 Y106.793 E0.01290
G1 X97.399 Y106.779 E0.01291
G1 X97.804 Y106.850 E0.01291
G1 X98.186 Y107.004 E0.01291
G1 X98.527 Y107.235 E0.01291
G1 X98.813 Y107.531 E0.01291
G1 X99.031 Y107.880 E0.01291
G1 X99.172 Y108.267 E0.01291
G1 X99.230 Y108.675 E0.01292
G1 X99.201 Y109.085 E0.01290
G1 X99.087 Y109.481 E0.01291
G1 X98.894 Y109.845 E0.01292
G1 X98.629 Y110.160 E0.01290
G1 X98.305 Y110.413 E0.01290
G1 X97.935 Y110.594 E0.01292
G1 X97.535 Y110.694 E0.01291
G1 X97.124 Y110.708 E0.01291
G1 X96.718 Y110.636 E0.01291
G1 X96.337 Y110.482 E0.01291
G1 X95.995 Y110.252 E0.01291
G1 X95.709 Y109.956 E0.01291
G1 X95.491 Y109.607 E0.01291
G1 X95.350 Y109.220 E0.01291
G1 X95.293 Y108.812 E0.01291
G1 X95.322 Y108.401 E0.01291
G1 X95.435 Y108.006 E0.01290
G1 X95.628 Y107.642 E0.01291
G1 X95.893 Y107.326 E0.01292
G1 X96.218 Y107.073 E0.01292
G1 X96.534 Y106.919 E0.01102
G1 X96.699 Y107.258 F7200.000
G1 F1800
G1 X97.040 Y107.168 E0.01105
G1 X97.372 Y107.157 E0.01042
G1 X97.700 Y107.215 E0.01042
G1 X98.008 Y107.339 E0.01043
G1 X98.284 Y107.525 E0.01043
G1 X98.514 Y107.764 E0.01042
G1 X98.691 Y108.046 E0.01042
G1 X98.804 Y108.358 E0.01042
G1 X98.851 Y108.688 E0.01043
G1 X98.827 Y109.019 E0.01042
G1 X98.736 Y109.339 E0.01043
G1 X98.580 Y109.633 E0.01043
G1 X98.366 Y109.887 E0.01042
G1 X98.104 Y110.092 E0.01042
G1 X97.805 Y110.238 E0.01043
G1 X97.483 Y110.318 E0.01042
G1 X97.150 Y110.330 E0.01042
G1 X96.823 Y110.272 E0.01042
G1 X96.515 Y110.147 E0.01042
G1 X96.239 Y109.961 E0.01043
G1 X96.008 Y109.722 E0.01042
G1 X95.832 Y109.440 E0.01042
G1 X95.718 Y109.128 E0.01042
G1 X95.672 Y108.799 E0.01042
G1 X95.695 Y108.467 E0.01043
G1 X95.787 Y108.148 E0.01042
G1 X95.943 Y107.854 E0.01042
G1 X96.157 Y107.599 E0.01043
G1 X96.419 Y107.395 E0.01043
G1 X96.645 Y107.284 E0.00790
G1 X96.847 Y107.605 F7200.000
G1 F1800
G1 X97.093 Y107.544 E0.00794
G1 X97.346 Y107.535 E0.00794
G1 X97.595 Y107.579 E0.00794
G1 X97.830 Y107.674 E0.00794
G1 X98.040 Y107.815 E0.00794
G1 X98.216 Y107.998 E0.00794
G1 X98.350 Y108.212 E0.00794
G1 X98.436 Y108.450 E0.00794
G1 X98.472 Y108.701 E0.00794
G1 X98.454 Y108.954 E0.00794
G1 X98.384 Y109.197 E0.00794
G1 X98.265 Y109.421 E0.00794
G1 X98.103 Y109.615 E0.00794
G1 X97.903 Y109.770 E0.00794
G1 X97.676 Y109.881 E0.00794
G1 X97.430 Y109.943 E0.00794
G1 X97.177 Y109.951 E0.00794
G1 X96.927 Y109.907 E0.00794
G1 X96.693 Y109.813 E0.00794
G1 X96.483 Y109.671 E0.00794
G1 X96.307 Y109.489 E0.00794
G1 X96.173 Y109.274 E0.00794
G1 X96.086 Y109.036 E0.00794
G1 X96.051 Y108.786 E0.00794
G1 X96.069 Y108.533 E0.00794
G1 X96.138 Y108.290 E0.00794
G1 X96.257 Y108.066 E0.00794
G1 X96.420 Y107.872 E0.00794
G1 X96.620 Y107.716 E0.00794
G1 X96.793 Y107.631 E0.00606
G1 X96.891 Y107.356 F7200.000
G1 F5760
G1 X97.093 Y107.544 E-0.10809
G1 X97.346 Y107.535 E-0.08769
G1 X97.595 Y107.579 E-0.08770
G1 X97.830 Y107.674 E-0.08772
G1 X98.040 Y107.815 E-0.08770
G1 X98.216 Y107.998 E-0.08770
G1 X98.350 Y108.212 E-0.08769
G1 X98.436 Y108.450 E-0.08768
G1 X98.452 Y108.559 E-0.03803
G1 E-0.04000 F2100.00000
G1 Z0.800 F7200.000
G1 X98.250 Y106.327
G1 Z0.200
G1 E0.80000 F2100.00000
G1 F1800
G1 X97.547 Y105.360 E0.03749
G1 X97.060 Y104.267 E0.03749
G1 X96.812 Y103.098 E0.03749
G1 X96.812 Y101.902 E0.03749
G1 X97.060 Y100.733 E0.03749
G1 X97.547 Y99.640 E0.03749
G1 X98.250 Y98.673 E0.03749
G1 X99.138 Y97.873 E0.03749
G1 X100.174 Y97.275 E0.03749
G1 X101.311 Y96.906 E0.03749
G1 X102.475 Y96.783 E0.03671
G1 X103.687 Y96.905 E0.03818
G1 X104.826 Y97.275 E0.03756
G1 X105.862 Y97.873 E0.03749
G1 X106.750 Y98.673 E0.03749
G1 X107.453 Y99.640 E0.03749
G1 X107.940 Y100.733 E0.03749
G1 X108.188 Y101.902 E0.03749
G1 X108.188 Y103.098 E0.03749
G1 X107.940 Y104.267 E0.03749
G1 X107.453 Y105.360 E0.03749
G1 X106.750 Y106.327 E0.03749
G1 X105.862 Y107.127 E0.03749
G1 X104.826 Y107.725 E0.03749
G1 X103.689 Y108.094 E0.03749
G1 X102.500 Y108.219 E0.03749
G1 X101.311 Y108.094 E0.03749
G1 X100.174 Y107.725 E0.03749
G1 X99.138 Y107.127 E0.03749
G1 X98.294 Y106.367 E0.03561
G1 X98.547 Y106.087 F7200.000
G1 F1800
G1 X97.875 Y105.170 E0.03563
G1 X97.421 Y104.150 E0.03501
G1 X97.189 Y103.058 E0.03500
G1 X97.189 Y101.942 E0.03501
G1 X97.421 Y100.850 E0.03500
G1 X97.875 Y99.830 E0.03501
G1 X98.531 Y98.927 E0.03501
G1 X99.361 Y98.180 E0.03500
G1 X100.328 Y97.621 E0.03500
G1 X101.390 Y97.276 E0.03500
G1 X102.476 Y97.162 E0.03426
G1 X103.609 Y97.276 E0.03570
G1 X104.672 Y97.621 E0.03505
G1 X105.639 Y98.180 E0.03500
G1 X106.469 Y98.927 E0.03500
G1 X107.125 Y99.830 E0.03501
G1 X107.579 Y100.850 E0.03501
G1 X107.811 Y101.942 E0.03500
G1 X107.811 Y103.058 E0.03501
G1 X107.579 Y104.150 E0.03500
G1 X107.125 Y105.170 E0.03501
G1 X106.469 Y106.073 E0.03501
G1 X105.639 Y106.820 E0.03500
G1 X104.672 Y107.379 E0.03500
G1 X103.610 Y107.724 E0.03500
G1 X102.500 Y107.840 E0.03501
G1 X101.390 Y107.724 E0.03501
G1 X100.328 Y107.379 E0.03500
G1 X99.361 Y106.820 E0.03500
G1 X98.591 Y106.127 E0.03248
G1 X98.843 Y105.847 F7200.000
G1 F1800
G1 X98.204 Y104.981 E0.03377
G1 X97.782 Y104.033 E0.03252
G1 X97.566 Y103.019 E0.03252
G1 X97.566 Y101.981 E0.03252
G1 X97.782 Y100.967 E0.03252
G1 X98.204 Y100.019 E0.03252
G1 X98.813 Y99.180 E0.03252
G1 X99.584 Y98.486 E0.03252
G1 X100.482 Y97.968 E0.03252
G1 X101.468 Y97.647 E0.03252
G1 X102.477 Y97.541 E0.03180
G1 X103.531 Y97.647 E0.03321
G1 X104.518 Y97.968 E0.03253
G1 X105.416 Y98.486 E0.03252
G1 X106.187 Y99.180 E0.03252
G1 X106.796 Y100.019 E0.03252
G1 X107.218 Y100.967 E0.03252
G1 X107.434 Y101.981 E0.03252
G1 X107.434 Y103.019 E0.03252
G1 X107.218 Y104.033 E0.03252
G1 X106.796 Y104.981 E0.03252
G1 X106.187 Y105.820 E0.03252
G1 X105.416 Y106.514 E0.03252
G1 X104.518 Y107.032 E0.03252
G1 X103.532 Y107.353 E0.03252
G1 X102.500 Y107.461 E0.03252
G1 X101.468 Y107.353 E0.03252
G1 X100.482 Y107.032 E0.03252
G1 X99.584 Y106.514 E0.03252
G1 X98.888 Y105.887 E0.02936
G1 X98.453 Y105.932 F7200.000
G1 F5760
G1 X98.204 Y104.981 E-0.39343
G1 X97.782 Y104.033 E-0.35923
G1 X97.777 Y104.012 E-0.00734
G1 E-0.04000 F2100.00000
G1 Z0.800 F7200.000
G1 X96.930 Y99.112
G1 Z0.200
G1 E0.80000 F2100.00000
G1 F1800
G1 X96.531 Y99.212 E0.01291
G1 X96.119 Y99.226 E0.01290
G1 X95.714 Y99.154 E0.01291
G1 X95.332 Y99.000 E0.01291
G1 X94.991 Y98.770 E0.01290
G1 X94.705 Y98.474 E0.01291
G1 X94.487 Y98.125 E0.01291
G1 X94.346 Y97.738 E0.01291
G1 X94.288 Y97.330 E0.01291
G1 X94.317 Y96.919 E0.01292
G1 X94.431 Y96.523 E0.01290
G1 X94.624 Y96.160 E0.01290
G1 X94.889 Y95.845 E0.01291
G1 X95.213 Y95.591 E0.01291
G1 X95.583 Y95.411 E0.01291
G1 X95.983 Y95.311 E0.01291
G1 X96.394 Y95.297 E0.01291
G1 X96.800 Y95.368 E0.01291
G1 X97.181 Y95.522 E0.01291
G1 X97.523 Y95.753 E0.01291
G1 X97.809 Y96.049 E0.01292
G1 X98.027 Y96.398 E0.01291
G1 X98.168 Y96.785 E0.01291
G1 X98.225 Y97.193 E0.01291
G1 X98.196 Y97.603 E0.01291
G1 X98.083 Y97.999 E0.01291
G1 X97.890 Y98.363 E0.01291
G1 X97.625 Y98.678 E0.01291
G1 X97.301 Y98.931 E0.01290
G1 X96.984 Y99.086 E0.01104
G1 X96.819 Y98.747 F7200.000
G1 F1800
G1 X96.478 Y98.836 E0.01105
G1 X96.146 Y98.848 E0.01042
G1 X95.818 Y98.790 E0.01043
G1 X95.510 Y98.665 E0.01042
G1 X95.235 Y98.480 E0.01042
G1 X95.004 Y98.240 E0.01042
G1 X94.827 Y97.959 E0.01043
G1 X94.714 Y97.646 E0.01043
G1 X94.667 Y97.317 E0.01042
G1 X94.691 Y96.985 E0.01043
G1 X94.782 Y96.666 E0.01042
G1 X94.938 Y96.372 E0.01042
G1 X95.152 Y96.117 E0.01043
G1 X95.414 Y95.913 E0.01043
G1 X95.713 Y95.767 E0.01042
G1 X96.035 Y95.686 E0.01042
G1 X96.368 Y95.675 E0.01042
G1 X96.695 Y95.733 E0.01042
G1 X97.003 Y95.857 E0.01042
G1 X97.279 Y96.043 E0.01042
G1 X97.510 Y96.282 E0.01043
G1 X97.686 Y96.564 E0.01043
G1 X97.800 Y96.877 E0.01042
G1 X97.846 Y97.206 E0.01042
G1 X97.823 Y97.537 E0.01042
G1 X97.731 Y97.857 E0.01042
G1 X97.575 Y98.151 E0.01043
G1 X97.361 Y98.405 E0.01043
G1 X97.100 Y98.610 E0.01042
G1 X96.873 Y98.721 E0.00791
G1 X96.671 Y98.399 F7200.000
G1 F1800
G1 X96.425 Y98.461 E0.00794
G1 X96.172 Y98.469 E0.00794
G1 X95.923 Y98.425 E0.00794
G1 X95.688 Y98.331 E0.00794
G1 X95.478 Y98.189 E0.00794
G1 X95.302 Y98.007 E0.00794
G1 X95.168 Y97.792 E0.00794
G1 X95.082 Y97.554 E0.00794
G1 X95.046 Y97.304 E0.00794
G1 X95.064 Y97.051 E0.00794
G1 X95.134 Y96.808 E0.00794
G1 X95.253 Y96.584 E0.00794
G1 X95.415 Y96.390 E0.00794
G1 X95.615 Y96.234 E0.00794
G1 X95.842 Y96.123 E0.00794
G1 X96.088 Y96.062 E0.00794
G1 X96.341 Y96.053 E0.00794
G1 X96.591 Y96.097 E0.00794
G1 X96.825 Y96.192 E0.00794
G1 X97.035 Y96.333 E0.00794
G1 X97.211 Y96.516 E0.00794
G1 X97.345 Y96.730 E0.00794
G1 X97.432 Y96.968 E0.00794
G1 X97.467 Y97.219 E0.00794
G1 X97.449 Y97.472 E0.00794
G1 X97.380 Y97.715 E0.00794
G1 X97.261 Y97.939 E0.00794
G1 X97.098 Y98.133 E0.00794
G1 X96.899 Y98.288 E0.00794
G1 X96.725 Y98.373 E0.00606
G1 X96.627 Y98.649 F7200.000
G1 F5760
G1 X96.425 Y98.461 E-0.10813
G1 X96.172 Y98.469 E-0.08767
G1 X95.923 Y98.425 E-0.08771
G1 X95.688 Y98.331 E-0.08769
G1 X95.478 Y98.189 E-0.08768
G1 X95.302 Y98.007 E-0.08771
G1 X95.168 Y97.792 E-0.08769
G1 X95.082 Y97.554 E-0.08772
G1 X95.066 Y97.446 E-0.03801
G1 E-0.04000 F2100.00000
G1 Z0.800 F7200.000
G1 X105.828 Y96.733
G1 Z0.200
G1 E0.80000 F2100.00000
G1 F1800
G1 X105.770 Y96.325 E0.01292
G1 X105.799 Y95.915 E0.01290
G1 X105.913 Y95.519 E0.01291
G1 X106.106 Y95.155 E0.01292
G1 X106.371 Y94.840 E0.01291
G1 X106.695 Y94.587 E0.01290
G1 X107.065 Y94.406 E0.01292
G1 X107.465 Y94.306 E0.01291
G1 X107.876 Y94.292 E0.01291
G1 X108.282 Y94.364 E0.01291
G1 X108.663 Y94.518 E0.01291
G1 X109.005 Y94.748 E0.01291
G1 X109.291 Y95.044 E0.01291
G1 X109.509 Y95.393 E0.01291
G1 X109.650 Y95.780 E0.01291
G1 X109.707 Y96.188 E0.01291
G1 X109.678 Y96.599 E0.01291
G1 X109.565 Y96.994 E0.01290
G1 X109.372 Y97.358 E0.01291
G1 X109.107 Y97.674 E0.01292
G1 X108.782 Y97.927 E0.01292
G1 X108.412 Y98.107 E0.01290
G1 X108.013 Y98.207 E0.01290
G1 X107.601 Y98.221 E0.01291
G1 X107.196 Y98.150 E0.01291
G1 X106.814 Y97.996 E0.01291
G1 X106.473 Y97.765 E0.01291
G1 X106.187 Y97.469 E0.01291
G1 X105.969 Y97.120 E0.01291
G1 X105.848 Y96.790 E0.01103
G1 X106.203 Y96.661 F7200.000
G1 F1800
G1 X106.149 Y96.312 E0.01105
G1 X106.173 Y95.981 E0.01042
G1 X106.264 Y95.661 E0.01043
G1 X106.420 Y95.367 E0.01043
G1 X106.634 Y95.113 E0.01042
G1 X106.896 Y94.908 E0.01042
G1 X107.195 Y94.762 E0.01043
G1 X107.517 Y94.682 E0.01042
G1 X107.850 Y94.670 E0.01042
G1 X108.177 Y94.728 E0.01042
G1 X108.485 Y94.853 E0.01042
G1 X108.761 Y95.039 E0.01043
G1 X108.992 Y95.278 E0.01042
G1 X109.168 Y95.560 E0.01042
G1 X109.282 Y95.872 E0.01042
G1 X109.328 Y96.201 E0.01042
G1 X109.305 Y96.533 E0.01043
G1 X109.213 Y96.852 E0.01042
G1 X109.057 Y97.146 E0.01042
G1 X108.843 Y97.401 E0.01043
G1 X108.581 Y97.605 E0.01043
G1 X108.283 Y97.751 E0.01042
G1 X107.960 Y97.832 E0.01042
G1 X107.628 Y97.843 E0.01042
G1 X107.300 Y97.785 E0.01042
G1 X106.992 Y97.661 E0.01043
G1 X106.716 Y97.475 E0.01043
G1 X106.486 Y97.236 E0.01042
G1 X106.309 Y96.954 E0.01042
G1 X106.223 Y96.717 E0.00790
G1 X106.564 Y96.550 F7200.000
G1 F1800
G1 X106.528 Y96.299 E0.00794
G1 X106.546 Y96.046 E0.00794
G1 X106.616 Y95.803 E0.00794
G1 X106.735 Y95.579 E0.00794
G1 X106.897 Y95.385 E0.00794
G1 X107.097 Y95.230 E0.00794
G1 X107.324 Y95.119 E0.00794
G1 X107.570 Y95.057 E0.00794
G1 X107.823 Y95.049 E0.00794
G1 X108.073 Y95.093 E0.00794
G1 X108.307 Y95.187 E0.00794
G1 X108.517 Y95.329 E0.00794
G1 X108.693 Y95.511 E0.00794
G1 X108.827 Y95.726 E0.00794
G1 X108.914 Y95.964 E0.00794
G1 X108.949 Y96.214 E0.00794
G1 X108.931 Y96.467 E0.00794
G1 X108.862 Y96.710 E0.00794
G1 X108.743 Y96.934 E0.00794
G1 X108.580 Y97.128 E0.00794
G1 X108.380 Y97.284 E0.00794
G1 X108.153 Y97.395 E0.00794
G1 X107.907 Y97.456 E0.00794
G1 X107.654 Y97.465 E0.00794
G1 X107.405 Y97.421 E0.00794
G1 X107.170 Y97.326 E0.00794
G1 X106.960 Y97.185 E0.00794
G1 X106.784 Y97.002 E0.00794
G1 X106.650 Y96.788 E0.00794
G1 X106.584 Y96.606 E0.00606
G1 X106.320 Y96.480 F7200.000
G1 F5760
G1 X106.528 Y96.299 E-0.10815
G1 X106.546 Y96.046 E-0.08767
G1 X106.616 Y95.803 E-0.08771
G1 X106.735 Y95.579 E-0.08772
G1 X106.897 Y95.385 E-0.08768
G1 X107.097 Y95.230 E-0.08766
G1 X107.324 Y95.119 E-0.08772
G1 X107.570 Y95.057 E-0.08768
G1 X107.680 Y95.054 E-0.03800
G1 E-0.04000 F2100.00000
G1 Z0.800 F7200.000
G1 X108.469 Y105.788
G1 Z0.200
G1 E0.80000 F2100.00000
G1 F1800
G1 X108.881 Y105.774 E0.01290
G1 X109.286 Y105.846 E0.01291
G1 X109.668 Y106.000 E0.01291
G1 X110.009 Y106.230 E0.01290
G1 X110.295 Y106.526 E0.01291
G1 X110.513 Y106.875 E0.01291
G1 X110.654 Y107.262 E0.01291
G1 X110.712 Y107.670 E0.01291
G1 X110.683 Y108.081 E0.01292
G1 X110.569 Y108.477 E0.01290
G1 X110.376 Y108.840 E0.01290
G1 X110.111 Y109.155 E0.01291
G1 X109.787 Y109.409 E0.01291
G1 X109.417 Y109.589 E0.01291
G1 X109.017 Y109.689 E0.01291
G1 X108.606 Y109.703 E0.01291
G1 X108.200 Y109.632 E0.01291
G1 X107.819 Y109.478 E0.01291
G1 X107.477 Y109.248 E0.01291
G1 X107.191 Y108.951 E0.01292
G1 X106.973 Y108.602 E0.01291
G1 X106.832 Y108.215 E0.01291
G1 X106.775 Y107.807 E0.01291
