; generated by Slic3r Prusa Edition 1.39.2+win64 on 2018-06-07 at 15:33:22

; 

; external perimeters extrusion width = 0.45mm
; perimeters extrusion width = 0.45mm
; infill extrusion width = 0.45mm
; solid infill extrusion width = 0.45mm
; top infill extrusion width = 0.45mm
; first layer extrusion width = 0.42mm

M107
M115 U3.1.0 ; tell printer latest fw version
M83  ; extruder relative mode
M104 S205 ; set extruder temp
M140 S55 ; set bed temp
M190 S55 ; wait for bed temp
M109 S205 ; wait for extruder temp
G28 W ; home all without mesh bed level
G80 ; mesh bed leveling
G1 Y-3.0 F1000.0 ; go outside print area
G92 E0.0
G1 X60.0 E9.0  F1000.0 ; intro line
G1 X100.0 E12.5  F1000.0 ; intro line
G92 E0.0
M900 K30; Filament gcode
G21 ; set units to millimeters
G90 ; use absolute coordinates
M83 ; use relative distances for extrusion
;BEFORE_LAYER_CHANGE
;0.2


G1 E-0.80000 F2100.00000
G1 Z0.600 F7200.000
;AFTER_LAYER_CHANGE
;0.2
G1 X82.266 Y80.336
G1 Z0.200
G1 E0.80000 F2100.00000
M204 S1000
G1 F1800
G1 X83.203 Y80.123 E0.03013
G1 X121.754 Y80.123 E1.20873
G1 X122.642 Y80.297 E0.02837
G1 X123.398 Y80.787 E0.02825
G1 X123.917 Y81.523 E0.02825
G1 X124.125 Y82.404 E0.02837
G1 X124.127 Y122.534 E1.25827
G1 X123.962 Y123.371 E0.02673
G1 X123.510 Y124.098 E0.02684
G1 X123.145 Y124.425 E0.01538
G1 X122.716 Y124.672 E0.01550
G1 X122.250 Y124.824 E0.01538
G1 X121.759 Y124.877 E0.01550
G1 X83.216 Y124.877 E1.20849
G1 X82.379 Y124.712 E0.02673
G1 X81.652 Y124.260 E0.02684
G1 X81.325 Y123.895 E0.01538
G1 X81.078 Y123.466 E0.01550
G1 X80.926 Y123.000 E0.01538
G1 X80.873 Y122.509 E0.01550
G1 X80.873 Y82.466 E1.25552
G1 X81.038 Y81.629 E0.02673
G1 X81.490 Y80.902 E0.02684
G1 X82.218 Y80.371 E0.02824
G1 F5760
G1 X83.203 Y80.123 E-0.35197
G1 X84.381 Y80.123 E-0.40803
G1 E-0.04000 F2100.00000
G1 Z0.800 F7200.000
G1 X84.214 Y83.464
G1 Z0.200
G1 E0.80000 F2100.00000
G1 F1800
G1 X93.786 Y83.464 E0.30011
G1 X93.786 Y93.464 E0.31354
G1 X114.214 Y93.464 E0.64052
G1 X114.214 Y83.464 E0.31354
G1 X120.786 Y83.464 E0.20605
G1 X120.786 Y121.536 E1.19371
G1 X114.214 Y121.536 E0.20605
G1 X114.214 Y111.536 E0.31354
G1 X93.786 Y111.536 E0.64052
G1 X93.786 Y121.536 E0.31354
G1 X84.214 Y121.536 E0.30011
G1 X84.214 Y83.524 E1.19183
G1 F5760
G1 X86.408 Y83.510 E-0.76000
G1 E-0.04000 F2100.00000
G1 Z0.800 F7200.000
G1 X94.163 Y93.087
G1 Z0.200
G1 E0.80000 F2100.00000
G1 F1800
G1 X113.837 Y93.087 E0.61687
G1 X113.837 Y83.087 E0.31354
G1 X121.163 Y83.087 E0.22970
G1 X121.163 Y121.913 E1.21736
G1 X113.837 Y121.913 E0.22970
G1 X113.837 Y111.913 E0.31354
G1 X94.163 Y111.913 E0.61687
G1 X94.163 Y121.913 E0.31354
G1 X83.837 Y121.913 E0.32376
G1 X83.837 Y83.087 E1.21736
G1 X94.163 Y83.087 E0.32376
G1 X94.163 Y93.027 E0.31166
G1 X94.540 Y92.710 F7200.000
G1 F1800
G1 X113.460 Y92.710 E0.59322
G1 X113.460 Y82.710 E0.31354
G1 X121.540 Y82.710 E0.25334
G1 X121.540 Y122.290 E1.24100
G1 X113.460 Y122.290 E0.25334
G1 X113.460 Y112.290 E0.31354
G1 X94.540 Y112.290 E0.59322
G1 X94.540 Y122.290 E0.31354
G1 X83.460 Y122.290 E0.34741
G1 X83.460 Y82.710 E1.24100
G1 X94.540 Y82.710 E0.34741
G1 X94.540 Y92.650 E0.31166
G1 X94.650 Y93.095 F7200.000
G1 F5760
G1 X96.734 Y92.657 E-0.76000
G1 E-0.04000 F2100.00000
G1 Z0.800 F7200.000
G1 X93.194 Y83.577
G1 Z0.200
G1 E0.80000 F2100.00000
G1 F1800
G1 X93.503 Y83.886 E0.01371
G1 X93.503 Y84.420 E0.01678
G1 X92.830 Y83.747 E0.02991
G1 X92.296 Y83.747 E0.01678
G1 X93.503 Y84.954 E0.05364
G1 X93.503 Y85.489 E0.01678
G1 X91.761 Y83.747 E0.07738
G1 X91.227 Y83.747 E0.01678
G1 X93.503 Y86.023 E0.10112
G1 X93.503 Y86.557 E0.01678
G1 X90.693 Y83.747 E0.12485
G1 X90.158 Y83.747 E0.01678
G1 X93.503 Y87.092 E0.14859
G1 X93.503 Y87.626 E0.01678
G1 X89.624 Y83.747 E0.17233
G1 X89.090 Y83.747 E0.01678
G1 X93.503 Y88.160 E0.19606
G1 X93.503 Y88.694 E0.01678
G1 X88.556 Y83.747 E0.21980
G1 X88.021 Y83.747 E0.01678
G1 X93.503 Y89.229 E0.24354
G1 X93.503 Y89.763 E0.01678
G1 X87.487 Y83.747 E0.26727
G1 X86.953 Y83.747 E0.01678
G1 X93.503 Y90.297 E0.29101
G1 X93.503 Y90.832 E0.01678
G1 X86.418 Y83.747 E0.31475
G1 X85.884 Y83.747 E0.01678
G1 X93.503 Y91.366 E0.33848
G1 X93.503 Y91.900 E0.01678
G1 X85.350 Y83.747 E0.36222
G1 X84.815 Y83.747 E0.01678
G1 X93.503 Y92.435 E0.38596
G1 X93.503 Y92.969 E0.01678
G1 X84.497 Y83.963 E0.40011
G1 X84.497 Y84.497 E0.01678
G1 X111.253 Y111.253 E1.18868
G1 X111.787 Y111.253 E0.01678
G1 X94.281 Y93.747 E0.77773
G1 X94.815 Y93.747 E0.01678
G1 X112.322 Y111.253 E0.77773
G1 X112.856 Y111.253 E0.01678
G1 X95.350 Y93.747 E0.77773
G1 X95.884 Y93.747 E0.01678
G1 X113.390 Y111.253 E0.77773
G1 X113.924 Y111.253 E0.01678
G1 X96.418 Y93.747 E0.77773
G1 X96.953 Y93.747 E0.01678
G1 X120.503 Y117.297 E1.04626
G1 X120.503 Y116.763 E0.01678
G1 X97.487 Y93.747 E1.02252
G1 X98.021 Y93.747 E0.01678
G1 X120.503 Y116.229 E0.99879
G1 X120.503 Y115.694 E0.01678
G1 X98.556 Y93.747 E0.97505
G1 X99.090 Y93.747 E0.01678
G1 X120.503 Y115.160 E0.95131
G1 X120.503 Y114.626 E0.01678
G1 X99.624 Y93.747 E0.92758
G1 X100.158 Y93.747 E0.01678
G1 X120.503 Y114.092 E0.90384
G1 X120.503 Y113.557 E0.01678
G1 X100.693 Y93.747 E0.88010
G1 X101.227 Y93.747 E0.01678
G1 X120.503 Y113.023 E0.85637
G1 X120.503 Y112.489 E0.01678
G1 X101.761 Y93.747 E0.83263
G1 X102.296 Y93.747 E0.01678
G1 X120.503 Y111.954 E0.80889
G1 X120.503 Y111.420 E0.01678
G1 X102.830 Y93.747 E0.78516
G1 X103.364 Y93.747 E0.01678
G1 X120.503 Y110.886 E0.76142
G1 X120.503 Y110.352 E0.01678
G1 X103.898 Y93.747 E0.73768
G1 X104.433 Y93.747 E0.01678
G1 X120.503 Y109.817 E0.71395
G1 X120.503 Y109.283 E0.01678
G1 X104.967 Y93.747 E0.69021
G1 X105.501 Y93.747 E0.01678
G1 X120.503 Y108.749 E0.66647
G1 X120.503 Y108.214 E0.01678
G1 X106.036 Y93.747 E0.64274
G1 X106.570 Y93.747 E0.01678
G1 X120.503 Y107.680 E0.61900
G1 X120.503 Y107.146 E0.01678
G1 X107.104 Y93.747 E0.59526
G1 X107.638 Y93.747 E0.01678
G1 X120.503 Y106.612 E0.57153
G1 X120.503 Y106.077 E0.01678
G1 X108.173 Y93.747 E0.54779
G1 X108.707 Y93.747 E0.01678
G1 X120.503 Y105.543 E0.52405
G1 X120.503 Y105.009 E0.01678
G1 X109.241 Y93.747 E0.50032
G1 X109.776 Y93.747 E0.01678
G1 X120.503 Y104.474 E0.47658
G1 X120.503 Y103.940 E0.01678
G1 X110.310 Y93.747 E0.45285
G1 X110.844 Y93.747 E0.01678
G1 X120.503 Y103.406 E0.42911
G1 X120.503 Y102.872 E0.01678
G1 X111.378 Y93.747 E0.40537
G1 X111.913 Y93.747 E0.01678
G1 X120.503 Y102.337 E0.38164
G1 X120.503 Y101.803 E0.01678
G1 X112.447 Y93.747 E0.35790
G1 X112.981 Y93.747 E0.01678
G1 X120.503 Y101.269 E0.33416
G1 X120.503 Y100.734 E0.01678
G1 X113.516 Y93.747 E0.31043
G1 X114.050 Y93.747 E0.01678
G1 X120.503 Y100.200 E0.28669
G1 X120.503 Y99.666 E0.01678
G1 X114.497 Y93.660 E0.26683
G1 X114.497 Y93.125 E0.01678
G1 X120.503 Y99.131 E0.26683
G1 X120.503 Y98.597 E0.01678
G1 X114.497 Y92.591 E0.26683
G1 X114.497 Y92.057 E0.01678
G1 X120.503 Y98.063 E0.26683
G1 X120.503 Y97.529 E0.01678
G1 X114.497 Y91.523 E0.26683
G1 X114.497 Y90.988 E0.01678
G1 X120.503 Y96.994 E0.26683
G1 X120.503 Y96.460 E0.01678
G1 X114.497 Y90.454 E0.26683
G1 X114.497 Y89.920 E0.01678
G1 X120.503 Y95.926 E0.26683
G1 X120.503 Y95.391 E0.01678
G1 X114.497 Y89.385 E0.26683
G1 X114.497 Y88.851 E0.01678
G1 X120.503 Y94.857 E0.26683
G1 X120.503 Y94.323 E0.01678
G1 X114.497 Y88.317 E0.26683
G1 X114.497 Y87.782 E0.01678
G1 X120.503 Y93.789 E0.26683
G1 X120.503 Y93.254 E0.01678
G1 X114.497 Y87.248 E0.26683
G1 X114.497 Y86.714 E0.01678
G1 X120.503 Y92.720 E0.26683
G1 X120.503 Y92.186 E0.01678
G1 X114.497 Y86.180 E0.26683
G1 X114.497 Y85.645 E0.01678
G1 X120.503 Y91.651 E0.26683
G1 X120.503 Y91.117 E0.01678
G1 X114.497 Y85.111 E0.26683
G1 X114.497 Y84.577 E0.01678
G1 X120.503 Y90.583 E0.26683
G1 X120.503 Y90.049 E0.01678
G1 X114.497 Y84.042 E0.26683
G1 X114.497 Y83.747 E0.00928
G1 X114.736 Y83.747 E0.00750
G1 X120.503 Y89.514 E0.25622
G1 X120.503 Y88.980 E0.01678
G1 X115.270 Y83.747 E0.23248
G1 X115.804 Y83.747 E0.01678
G1 X120.503 Y88.446 E0.20875
G1 X120.503 Y87.911 E0.01678
G1 X116.339 Y83.747 E0.18501
G1 X116.873 Y83.747 E0.01678
G1 X120.503 Y87.377 E0.16128
G1 X120.503 Y86.843 E0.01678
G1 X117.407 Y83.747 E0.13754
G1 X117.941 Y83.747 E0.01678
G1 X120.503 Y86.309 E0.11380
G1 X120.503 Y85.774 E0.01678
G1 X118.476 Y83.747 E0.09007
G1 X119.010 Y83.747 E0.01678
G1 X120.503 Y85.240 E0.06633
G1 X120.503 Y84.706 E0.01678
G1 X119.544 Y83.747 E0.04259
G1 X120.079 Y83.747 E0.01678
G1 X120.673 Y84.341 E0.02639
G1 F5760
G1 X120.079 Y83.747 E-0.29101
G1 X119.544 Y83.747 E-0.18505
G1 X120.124 Y84.327 E-0.28394
G1 E-0.04000 F2100.00000
G1 Z0.800 F7200.000
G1 X110.888 Y111.423
G1 Z0.200
G1 E0.80000 F2100.00000
G1 F1800
G1 X84.497 Y85.031 E1.17248
G1 X84.497 Y85.566 E0.01678
G1 X110.184 Y111.253 E1.14120
G1 X109.650 Y111.253 E0.01678
G1 X84.497 Y86.100 E1.11747
G1 X84.497 Y86.634 E0.01678
G1 X109.116 Y111.253 E1.09373
G1 X108.582 Y111.253 E0.01678
G1 X84.497 Y87.168 E1.06999
G1 X84.497 Y87.703 E0.01678
G1 X108.047 Y111.253 E1.04626
G1 X107.513 Y111.253 E0.01678
G1 X84.497 Y88.237 E1.02252
G1 X84.497 Y88.771 E0.01678
G1 X106.979 Y111.253 E0.99878
G1 X106.444 Y111.253 E0.01678
G1 X84.497 Y89.306 E0.97505
G1 X84.497 Y89.840 E0.01678
G1 X105.910 Y111.253 E0.95131
G1 X105.376 Y111.253 E0.01678
G1 X84.497 Y90.374 E0.92757
G1 X84.497 Y90.908 E0.01678
G1 X104.842 Y111.253 E0.90384
G1 X104.307 Y111.253 E0.01678
G1 X84.497 Y91.443 E0.88010
G1 X84.497 Y91.977 E0.01678
G1 X103.773 Y111.253 E0.85636
G1 X103.239 Y111.253 E0.01678
G1 X84.497 Y92.511 E0.83263
G1 X84.497 Y93.046 E0.01678
G1 X102.704 Y111.253 E0.80889
G1 X102.170 Y111.253 E0.01678
G1 X84.497 Y93.580 E0.78515
G1 X84.497 Y94.114 E0.01678
G1 X101.636 Y111.253 E0.76142
G1 X101.102 Y111.253 E0.01678
G1 X84.497 Y94.648 E0.73768
G1 X84.497 Y95.183 E0.01678
G1 X100.567 Y111.253 E0.71394
G1 X100.033 Y111.253 E0.01678
G1 X84.497 Y95.717 E0.69021
G1 X84.497 Y96.251 E0.01678
G1 X99.499 Y111.253 E0.66647
G1 X98.964 Y111.253 E0.01678
G1 X84.497 Y96.786 E0.64274
G1 X84.497 Y97.320 E0.01678
G1 X98.430 Y111.253 E0.61900
G1 X97.896 Y111.253 E0.01678
G1 X84.497 Y97.854 E0.59526
G1 X84.497 Y98.389 E0.01678
G1 X97.361 Y111.253 E0.57153
G1 X96.827 Y111.253 E0.01678
G1 X84.497 Y98.923 E0.54779
G1 X84.497 Y99.457 E0.01678
G1 X96.293 Y111.253 E0.52405
G1 X95.759 Y111.253 E0.01678
G1 X84.497 Y99.991 E0.50032
G1 X84.497 Y100.526 E0.01678
G1 X95.224 Y111.253 E0.47658
G1 X94.690 Y111.253 E0.01678
G1 X84.497 Y101.060 E0.45284
G1 X84.497 Y101.594 E0.01678
G1 X94.156 Y111.253 E0.42911
G1 X93.621 Y111.253 E0.01678
G1 X84.497 Y102.129 E0.40537
G1 X84.497 Y102.663 E0.01678
G1 X93.503 Y111.669 E0.40011
G1 X93.503 Y112.203 E0.01678
G1 X84.497 Y103.197 E0.40011
G1 X84.497 Y103.731 E0.01678
G1 X93.503 Y112.738 E0.40011
G1 X93.503 Y113.272 E0.01678
G1 X84.497 Y104.266 E0.40011
G1 X84.497 Y104.800 E0.01678
G1 X93.503 Y113.806 E0.40011
G1 X93.503 Y114.340 E0.01678
G1 X84.497 Y105.334 E0.40011
G1 X84.497 Y105.869 E0.01678
G1 X93.503 Y114.875 E0.40011
G1 X93.503 Y115.409 E0.01678
G1 X84.497 Y106.403 E0.40011
G1 X84.497 Y106.937 E0.01678
G1 X93.503 Y115.943 E0.40011
G1 X93.503 Y116.478 E0.01678
G1 X84.497 Y107.471 E0.40011
G1 X84.497 Y108.006 E0.01678
G1 X93.503 Y117.012 E0.40011
G1 X93.503 Y117.546 E0.01678
G1 X84.497 Y108.540 E0.40011
G1 X84.497 Y109.074 E0.01678
G1 X93.503 Y118.080 E0.40011
G1 X93.503 Y118.615 E0.01678
G1 X84.497 Y109.609 E0.40011
G1 X84.497 Y110.143 E0.01678
G1 X93.503 Y119.149 E0.40011
G1 X93.503 Y119.683 E0.01678
G1 X84.497 Y110.677 E0.40011
G1 X84.497 Y111.211 E0.01678
G1 X93.503 Y120.218 E0.40011
G1 X93.503 Y120.752 E0.01678
G1 X84.497 Y111.746 E0.40011
G1 X84.497 Y112.280 E0.01678
G1 X93.470 Y121.253 E0.39864
G1 X92.936 Y121.253 E0.01678
G1 X84.497 Y112.814 E0.37490
G1 X84.497 Y113.349 E0.01678
G1 X92.401 Y121.253 E0.35117
G1 X91.867 Y121.253 E0.01678
G1 X84.497 Y113.883 E0.32743
G1 X84.497 Y114.417 E0.01678
G1 X91.333 Y121.253 E0.30369
G1 X90.799 Y121.253 E0.01678
G1 X84.497 Y114.951 E0.27996
G1 X84.497 Y115.486 E0.01678
G1 X90.264 Y121.253 E0.25622
G1 X89.730 Y121.253 E0.01678
G1 X84.497 Y116.020 E0.23248
G1 X84.497 Y116.554 E0.01678
G1 X89.196 Y121.253 E0.20875
G1 X88.661 Y121.253 E0.01678
G1 X84.497 Y117.089 E0.18501
G1 X84.497 Y117.623 E0.01678
G1 X88.127 Y121.253 E0.16127
G1 X87.593 Y121.253 E0.01678
G1 X84.497 Y118.157 E0.13754
G1 X84.497 Y118.692 E0.01678
G1 X87.058 Y121.253 E0.11380
G1 X86.524 Y121.253 E0.01678
G1 X84.497 Y119.226 E0.09006
G1 X84.497 Y119.760 E0.01678
G1 X85.990 Y121.253 E0.06633
G1 X85.456 Y121.253 E0.01678
G1 X84.497 Y120.294 E0.04259
G1 X84.497 Y120.829 E0.01678
G1 X85.091 Y121.423 E0.02639
G1 F5760
G1 X84.497 Y120.829 E-0.29098
G1 X84.497 Y120.294 E-0.18505
G1 X85.077 Y120.874 E-0.28397
G1 E-0.04000 F2100.00000
G1 Z0.800 F7200.000
G1 X115.011 Y121.423
G1 Z0.200
G1 E0.80000 F2100.00000
G1 F1800
G1 X114.497 Y120.908 E0.02285
G1 X114.497 Y120.374 E0.01678
G1 X115.376 Y121.253 E0.03905
G1 X115.910 Y121.253 E0.01678
G1 X114.497 Y119.840 E0.06278
G1 X114.497 Y119.306 E0.01678
G1 X116.444 Y121.253 E0.08652
G1 X116.979 Y121.253 E0.01678
G1 X114.497 Y118.771 E0.11026
G1 X114.497 Y118.237 E0.01678
G1 X117.513 Y121.253 E0.13399
G1 X118.047 Y121.253 E0.01678
G1 X114.497 Y117.703 E0.15773
G1 X114.497 Y117.168 E0.01678
G1 X118.582 Y121.253 E0.18147
G1 X119.116 Y121.253 E0.01678
G1 X114.497 Y116.634 E0.20520
G1 X114.497 Y116.100 E0.01678
G1 X119.650 Y121.253 E0.22894
G1 X120.184 Y121.253 E0.01678
G1 X114.497 Y115.566 E0.25268
G1 X114.497 Y115.031 E0.01678
G1 X120.503 Y121.037 E0.26683
G1 X120.503 Y120.503 E0.01678
G1 X114.497 Y114.497 E0.26683
G1 X114.497 Y113.963 E0.01678
G1 X120.503 Y119.969 E0.26683
G1 X120.503 Y119.435 E0.01678
G1 X114.497 Y113.428 E0.26683
G1 X114.497 Y112.894 E0.01678
G1 X120.503 Y118.900 E0.26683
G1 X120.503 Y118.366 E0.01678
G1 X114.497 Y112.360 E0.26683
G1 X114.497 Y111.826 E0.01678
G1 X120.673 Y118.001 E0.27437
M106 S232.05
;BEFORE_LAYER_CHANGE
;0.35


G1 F5760
G1 X119.121 Y116.450 E-0.76000
G1 E-0.04000 F2100.00000
G1 Z0.800 F7200.000
;AFTER_LAYER_CHANGE
;0.35
G1 X123.962 Y123.371
G1 Z0.350
G1 E0.80000 F2100.00000
G1 F3000
G1 X123.510 Y124.098 E0.02071
G1 X123.145 Y124.425 E0.01186
G1 X122.716 Y124.672 E0.01195
G1 X122.250 Y124.824 E0.01186
G1 X121.759 Y124.877 E0.01195
G1 X83.216 Y124.877 E0.93216
G1 X82.379 Y124.712 E0.02062
G1 X81.652 Y124.260 E0.02071
G1 X81.325 Y123.895 E0.01186
G1 X81.078 Y123.466 E0.01195
G1 X80.926 Y123.000 E0.01186
G1 X80.873 Y122.509 E0.01195
G1 X80.873 Y82.466 E0.96843
G1 X81.038 Y81.629 E0.02062
G1 X81.490 Y80.902 E0.02071
G1 X82.266 Y80.336 E0.02324
G1 X83.203 Y80.123 E0.02324
G1 X121.754 Y80.123 E0.93234
G1 X122.642 Y80.297 E0.02188
G1 X123.398 Y80.787 E0.02179
G1 X123.917 Y81.523 E0.02179
G1 X124.125 Y82.404 E0.02188
G1 X124.127 Y122.534 E0.97055
G1 X123.974 Y123.312 E0.01916
G1 F5760
G1 X123.510 Y124.098 E-0.31605
G1 X123.145 Y124.425 E-0.16988
G1 X122.716 Y124.672 E-0.17119
G1 X122.434 Y124.764 E-0.10287
G1 E-0.04000 F2100.00000
G1 Z0.950 F7200.000
G1 X120.689 Y121.439
G1 Z0.350
G1 E0.80000 F2100.00000
M204 S800
G1 F3000
G1 X114.311 Y121.439 E0.16620
G1 X114.311 Y111.439 E0.26056
G1 X93.689 Y111.439 E0.53730
G1 X93.689 Y121.439 E0.26056
G1 X84.311 Y121.439 E0.24437
G1 X84.311 Y83.561 E0.98696
G1 X93.689 Y83.561 E0.24437
G1 X93.689 Y93.561 E0.26056
G1 X114.311 Y93.561 E0.53730
G1 X114.311 Y83.561 E0.26056
G1 X120.689 Y83.561 E0.16620
G1 X120.689 Y121.379 E0.98540
M204 S1000
G1 F5760
G1 X118.495 Y121.400 E-0.76000
G1 E-0.04000 F2100.00000
G1 Z0.950 F7200.000
G1 X94.107 Y93.143
G1 Z0.350
G1 E0.80000 F2100.00000
M204 S800
G1 F3000
G1 X113.893 Y93.143 E0.51553
G1 X113.893 Y83.143 E0.26056
G1 X121.107 Y83.143 E0.18798
G1 X121.107 Y121.857 E1.00873
G1 X113.893 Y121.857 E0.18798
G1 X113.893 Y111.857 E0.26056
G1 X94.107 Y111.857 E0.51553
G1 X94.107 Y121.857 E0.26056
G1 X83.893 Y121.857 E0.26614
G1 X83.893 Y83.143 E1.00873
G1 X94.107 Y83.143 E0.26614
G1 X94.107 Y93.083 E0.25899
M204 S1000
G1 X94.525 Y92.725 F7200.000
M204 S800
G1 F2400
G1 X113.475 Y92.725 E0.49376
G1 X113.475 Y82.725 E0.26056
G1 X121.525 Y82.725 E0.20975
G1 X121.525 Y122.275 E1.03051
G1 X113.475 Y122.275 E0.20975
G1 X113.475 Y112.275 E0.26056
G1 X94.525 Y112.275 E0.49376
