; generated by Slic3r Prusa Edition 1.39.2+win64 on 2018-06-07 at 15:29:03

; 

; external perimeters extrusion width = 0.45mm
; perimeters extrusion width = 0.45mm
; infill extrusion width = 0.45mm
; solid infill extrusion width = 0.45mm
; top infill extrusion width = 0.45mm
; first layer extrusion width = 0.42mm

M107
M115 U3.1.0 ; tell printer latest fw version
M83  ; extruder relative mode
M104 S205 ; set extruder temp
M140 S55 ; set bed temp
M190 S55 ; wait for bed temp
M109 S205 ; wait for extruder temp
G28 W ; home all without mesh bed level
G80 ; mesh bed leveling
G1 Y-3.0 F1000.0 ; go outside print area
G92 E0.0
G1 X60.0 E9.0  F1000.0 ; intro line
G1 X100.0 E12.5  F1000.0 ; intro line
G92 E0.0
M900 K30; Filament gcode
G21 ; set units to millimeters
G90 ; use absolute coordinates
M83 ; use relative distances for extrusion
;BEFORE_LAYER_CHANGE
;0.2


G1 E-0.80000 F2100.00000
G1 Z0.600 F7200.000
;AFTER_LAYER_CHANGE
;0.2
G1 X80.294 Y98.660
G1 Z0.200
G1 E0.80000 F2100.00000
M204 S1000
G1 F1800
G1 X80.123 Y97.802 E0.02743
G1 X80.123 Y83.252 E0.45620
G1 X80.210 Y82.639 E0.01941
G1 X80.453 Y82.066 E0.01953
G1 X80.819 Y81.595 E0.01870
G1 X81.293 Y81.227 E0.01882
G1 X81.841 Y80.991 E0.01870
G1 X82.434 Y80.899 E0.01882
G1 X122.504 Y80.898 E1.25636
G1 X123.339 Y81.051 E0.02661
G1 X124.066 Y81.487 E0.02661
G1 X124.595 Y82.151 E0.02661
G1 X124.856 Y82.959 E0.02661
G1 X124.835 Y98.222 E0.47856
G1 X124.692 Y98.695 E0.01550
G1 X114.467 Y122.933 E0.82481
G1 X114.110 Y123.396 E0.01835
G1 X113.651 Y123.759 E0.01835
G1 X113.117 Y123.998 E0.01835
G1 X112.537 Y124.099 E0.01846
G1 X98.370 Y124.102 E0.44417
G1 X97.769 Y124.011 E0.01906
G1 X97.211 Y123.772 E0.01906
G1 X96.791 Y123.457 E0.01645
G1 X96.449 Y123.054 E0.01657
G1 X80.327 Y98.710 E0.91550
G1 F5760
G1 X80.123 Y97.802 E-0.32234
G1 X80.123 Y96.538 E-0.43766
G1 E-0.04000 F2100.00000
G1 Z0.800 F7200.000
G1 X114.718 Y91.147
G1 Z0.200
G1 E0.80000 F2100.00000
G1 F1800
G1 X114.596 Y90.569 E0.01851
G1 X114.596 Y89.981 E0.01844
G1 X114.718 Y89.403 E0.01851
G1 X114.958 Y88.865 E0.01848
G1 X115.305 Y88.389 E0.01847
G1 X115.743 Y87.994 E0.01850
G1 X116.253 Y87.700 E0.01846
G1 X116.814 Y87.517 E0.01849
G1 X117.400 Y87.456 E0.01848
G1 X117.986 Y87.517 E0.01848
G1 X118.547 Y87.700 E0.01849
G1 X119.057 Y87.994 E0.01846
G1 X119.495 Y88.389 E0.01850
G1 X119.842 Y88.865 E0.01847
G1 X120.082 Y89.403 E0.01848
G1 X120.204 Y89.981 E0.01851
G1 X120.204 Y90.569 E0.01844
G1 X120.082 Y91.147 E0.01851
G1 X119.842 Y91.685 E0.01848
G1 X119.495 Y92.161 E0.01847
G1 X119.057 Y92.556 E0.01850
G1 X118.547 Y92.850 E0.01846
G1 X117.986 Y93.033 E0.01849
G1 X117.400 Y93.094 E0.01848
G1 X116.814 Y93.033 E0.01848
G1 X116.253 Y92.851 E0.01849
G1 X115.743 Y92.556 E0.01846
G1 X115.305 Y92.161 E0.01850
G1 X114.958 Y91.685 E0.01847
G1 X114.743 Y91.201 E0.01659
G1 X115.087 Y91.048 F7200.000
G1 F1800
G1 X114.973 Y90.530 E0.01664
G1 X114.973 Y90.020 E0.01596
G1 X115.079 Y89.521 E0.01602
G1 X115.287 Y89.055 E0.01599
G1 X115.586 Y88.642 E0.01599
G1 X115.966 Y88.300 E0.01601
G1 X116.407 Y88.046 E0.01598
G1 X116.893 Y87.888 E0.01601
G1 X117.400 Y87.835 E0.01599
G1 X117.907 Y87.888 E0.01599
G1 X118.393 Y88.046 E0.01601
G1 X118.834 Y88.300 E0.01598
G1 X119.214 Y88.642 E0.01601
G1 X119.513 Y89.055 E0.01599
G1 X119.721 Y89.521 E0.01599
G1 X119.827 Y90.020 E0.01602
G1 X119.827 Y90.530 E0.01596
G1 X119.721 Y91.029 E0.01602
G1 X119.513 Y91.495 E0.01599
G1 X119.214 Y91.908 E0.01599
G1 X118.834 Y92.250 E0.01601
G1 X118.393 Y92.504 E0.01598
G1 X117.907 Y92.662 E0.01601
G1 X117.400 Y92.715 E0.01599
G1 X116.893 Y92.662 E0.01599
G1 X116.407 Y92.504 E0.01601
G1 X115.966 Y92.250 E0.01598
G1 X115.586 Y91.908 E0.01601
G1 X115.287 Y91.495 E0.01599
G1 X115.112 Y91.103 E0.01348
G1 X115.440 Y90.912 F7200.000
G1 F1800
G1 X115.350 Y90.490 E0.01353
G1 X115.350 Y90.060 E0.01348
G1 X115.440 Y89.638 E0.01353
G1 X115.615 Y89.244 E0.01350
G1 X115.868 Y88.896 E0.01351
G1 X116.189 Y88.607 E0.01352
G1 X116.562 Y88.392 E0.01350
G1 X116.971 Y88.258 E0.01352
G1 X117.400 Y88.214 E0.01351
G1 X117.829 Y88.258 E0.01351
G1 X118.238 Y88.392 E0.01352
G1 X118.611 Y88.607 E0.01350
G1 X118.932 Y88.896 E0.01352
G1 X119.185 Y89.244 E0.01351
G1 X119.360 Y89.638 E0.01350
G1 X119.450 Y90.060 E0.01353
G1 X119.450 Y90.490 E0.01348
G1 X119.360 Y90.912 E0.01353
G1 X119.185 Y91.306 E0.01350
G1 X118.932 Y91.654 E0.01351
G1 X118.611 Y91.943 E0.01352
G1 X118.238 Y92.158 E0.01350
G1 X117.829 Y92.292 E0.01352
G1 X117.400 Y92.336 E0.01351
G1 X116.971 Y92.292 E0.01351
G1 X116.562 Y92.158 E0.01352
G1 X116.189 Y91.943 E0.01350
G1 X115.868 Y91.654 E0.01352
G1 X115.615 Y91.306 E0.01351
G1 X115.464 Y90.967 E0.01162
G1 X115.048 Y90.829 F7200.000
G1 F5760
G1 X115.350 Y90.490 E-0.16988
G1 X115.350 Y90.060 E-0.14895
G1 X115.440 Y89.638 E-0.14950
G1 X115.615 Y89.244 E-0.14916
G1 X115.857 Y88.911 E-0.14250
G1 E-0.04000 F2100.00000
G1 Z0.800 F7200.000
G1 X90.204 Y90.569
G1 Z0.200
G1 E0.80000 F2100.00000
G1 F1800
G1 X90.082 Y91.147 E0.01851
G1 X89.842 Y91.685 E0.01848
G1 X89.495 Y92.161 E0.01847
G1 X89.057 Y92.556 E0.01850
G1 X88.547 Y92.850 E0.01846
G1 X87.986 Y93.033 E0.01849
G1 X87.400 Y93.094 E0.01848
G1 X86.814 Y93.033 E0.01848
G1 X86.253 Y92.850 E0.01849
G1 X85.743 Y92.556 E0.01846
G1 X85.305 Y92.161 E0.01850
G1 X84.958 Y91.685 E0.01847
G1 X84.718 Y91.147 E0.01848
G1 X84.596 Y90.569 E0.01851
G1 X84.596 Y89.981 E0.01844
G1 X84.718 Y89.403 E0.01851
G1 X84.958 Y88.865 E0.01848
G1 X85.305 Y88.389 E0.01847
G1 X85.743 Y87.994 E0.01850
G1 X86.253 Y87.700 E0.01846
G1 X86.814 Y87.517 E0.01849
G1 X87.400 Y87.456 E0.01848
G1 X87.986 Y87.517 E0.01848
G1 X88.547 Y87.700 E0.01849
G1 X89.057 Y87.994 E0.01846
G1 X89.495 Y88.389 E0.01850
G1 X89.842 Y88.865 E0.01847
G1 X90.082 Y89.403 E0.01848
G1 X90.204 Y89.981 E0.01851
G1 X90.204 Y90.509 E0.01656
G1 X89.827 Y90.509 F7200.000
G1 F1800
G1 X89.721 Y91.029 E0.01665
G1 X89.513 Y91.495 E0.01599
G1 X89.214 Y91.908 E0.01599
G1 X88.834 Y92.250 E0.01601
G1 X88.393 Y92.504 E0.01598
G1 X87.907 Y92.662 E0.01601
G1 X87.400 Y92.715 E0.01599
G1 X86.893 Y92.662 E0.01599
G1 X86.407 Y92.504 E0.01601
G1 X85.966 Y92.250 E0.01598
G1 X85.586 Y91.908 E0.01601
G1 X85.287 Y91.495 E0.01599
G1 X85.079 Y91.029 E0.01599
G1 X84.973 Y90.530 E0.01602
G1 X84.973 Y90.020 E0.01596
G1 X85.079 Y89.521 E0.01602
G1 X85.287 Y89.055 E0.01599
G1 X85.586 Y88.642 E0.01599
G1 X85.966 Y88.300 E0.01601
G1 X86.407 Y88.046 E0.01598
G1 X86.893 Y87.888 E0.01601
G1 X87.400 Y87.835 E0.01599
G1 X87.907 Y87.888 E0.01599
G1 X88.393 Y88.046 E0.01601
G1 X88.834 Y88.300 E0.01598
G1 X89.214 Y88.642 E0.01601
G1 X89.513 Y89.055 E0.01599
G1 X89.721 Y89.521 E0.01599
G1 X89.827 Y90.020 E0.01602
G1 X89.827 Y90.449 E0.01344
G1 X89.450 Y90.490 F7200.000
G1 F1800
G1 X89.360 Y90.912 E0.01353
G1 X89.185 Y91.306 E0.01350
G1 X88.932 Y91.654 E0.01351
G1 X88.611 Y91.943 E0.01352
G1 X88.238 Y92.158 E0.01350
G1 X87.829 Y92.292 E0.01352
G1 X87.400 Y92.336 E0.01351
G1 X86.971 Y92.292 E0.01351
G1 X86.562 Y92.158 E0.01352
G1 X86.189 Y91.943 E0.01350
G1 X85.868 Y91.654 E0.01352
G1 X85.615 Y91.306 E0.01351
G1 X85.440 Y90.912 E0.01350
G1 X85.350 Y90.490 E0.01353
G1 X85.350 Y90.060 E0.01348
G1 X85.440 Y89.638 E0.01353
G1 X85.615 Y89.244 E0.01350
G1 X85.868 Y88.896 E0.01351
G1 X86.189 Y88.607 E0.01352
G1 X86.562 Y88.392 E0.01350
G1 X86.971 Y88.258 E0.01352
G1 X87.400 Y88.214 E0.01351
G1 X87.829 Y88.258 E0.01351
G1 X88.238 Y88.392 E0.01352
G1 X88.611 Y88.607 E0.01350
G1 X88.932 Y88.896 E0.01352
G1 X89.185 Y89.244 E0.01351
G1 X89.360 Y89.638 E0.01350
G1 X89.450 Y90.060 E0.01353
G1 X89.450 Y90.430 E0.01160
G1 X89.774 Y90.725 F7200.000
G1 F5760
G1 X89.360 Y90.912 E-0.16989
G1 X89.185 Y91.306 E-0.14916
G1 X88.932 Y91.654 E-0.14923
G1 X88.611 Y91.943 E-0.14932
G1 X88.255 Y92.148 E-0.14240
G1 E-0.04000 F2100.00000
G1 Z0.800 F7200.000
G1 X111.536 Y96.811
G1 Z0.200
G1 E0.80000 F2100.00000
G1 F1800
G1 X111.536 Y101.811 E0.15677
G1 X111.456 Y101.811 E0.00251
G1 X111.456 Y120.761 E0.59416
G1 X99.384 Y120.761 E0.37850
G1 X99.384 Y101.811 E0.59416
G1 X97.464 Y101.811 E0.06020
G1 X97.464 Y96.811 E0.15677
G1 X83.464 Y96.811 E0.43896
G1 X83.464 Y84.239 E0.39418
G1 X121.536 Y84.239 E1.19371
G1 X121.536 Y96.811 E0.39418
G1 X111.596 Y96.811 E0.31166
G1 X111.913 Y97.188 F7200.000
G1 F1800
G1 X111.913 Y102.188 E0.15677
G1 X111.833 Y102.188 E0.00251
G1 X111.833 Y121.138 E0.59416
G1 X99.007 Y121.138 E0.40215
G1 X99.007 Y102.188 E0.59416
G1 X97.087 Y102.188 E0.06020
G1 X97.087 Y97.188 E0.15677
G1 X83.087 Y97.188 E0.43896
G1 X83.087 Y83.862 E0.41782
G1 X121.913 Y83.862 E1.21736
G1 X121.913 Y97.188 E0.41782
G1 X111.973 Y97.188 E0.31166
G1 X112.290 Y97.565 F7200.000
G1 F1800
G1 X112.290 Y102.565 E0.15677
G1 X112.210 Y102.565 E0.00251
G1 X112.210 Y121.515 E0.59416
G1 X98.630 Y121.515 E0.42579
G1 X98.630 Y102.565 E0.59416
G1 X96.710 Y102.565 E0.06020
G1 X96.710 Y97.565 E0.15677
G1 X82.710 Y97.565 E0.43896
G1 X82.710 Y83.485 E0.44147
G1 X122.290 Y83.485 E1.24100
G1 X122.290 Y97.565 E0.44147
G1 X112.350 Y97.565 E0.31166
G1 X111.910 Y97.690 F7200.000
G1 F5760
G1 X112.324 Y99.759 E-0.76000
G1 E-0.04000 F2100.00000
G1 Z0.800 F7200.000
G1 X116.530 Y93.060
G1 Z0.200
G1 E0.80000 F2100.00000
G1 F1800
G1 X119.998 Y96.528 E0.15424
G1 X120.533 Y96.528 E0.01682
G1 X117.382 Y93.377 E0.14014
G1 X117.869 Y93.330 E0.01541
G1 X121.068 Y96.528 E0.14223
G1 X121.253 Y96.528 E0.00583
G1 X121.253 Y96.179 E0.01099
G1 X118.302 Y93.228 E0.13123
G1 X118.699 Y93.089 E0.01320
G1 X121.253 Y95.644 E0.11359
G1 X121.253 Y95.109 E0.01682
G1 X119.038 Y92.894 E0.09851
G1 X119.224 Y92.787 E0.00676
G1 X119.351 Y92.672 E0.00537
G1 X121.253 Y94.574 E0.08458
G1 X121.253 Y94.039 E0.01682
G1 X119.632 Y92.419 E0.07207
G1 X119.707 Y92.352 E0.00315
G1 X119.872 Y92.124 E0.00886
G1 X121.253 Y93.504 E0.06140
G1 X121.253 Y92.970 E0.01682
G1 X120.095 Y91.811 E0.05151
G1 X120.260 Y91.441 E0.01274
G1 X121.253 Y92.435 E0.04417
G1 X121.253 Y91.900 E0.01682
G1 X120.393 Y91.040 E0.03824
G1 X120.487 Y90.599 E0.01418
G1 X121.253 Y91.365 E0.03408
G1 X121.253 Y90.830 E0.01682
G1 X120.487 Y90.064 E0.03407
G1 X120.487 Y89.951 E0.00355
G1 X120.373 Y89.416 E0.01722
G1 X121.253 Y90.295 E0.03913
G1 X121.253 Y89.761 E0.01682
G1 X116.014 Y84.522 E0.23297
G1 X116.549 Y84.522 E0.01682
G1 X121.253 Y89.226 E0.20919
G1 X121.253 Y88.691 E0.01682
G1 X117.084 Y84.522 E0.18540
G1 X117.619 Y84.522 E0.01682
G1 X121.253 Y88.156 E0.16162
G1 X121.253 Y87.621 E0.01682
G1 X118.154 Y84.522 E0.13783
G1 X118.689 Y84.522 E0.01682
G1 X121.253 Y87.086 E0.11405
G1 X121.253 Y86.552 E0.01682
G1 X119.223 Y84.522 E0.09026
G1 X119.758 Y84.522 E0.01682
G1 X121.253 Y86.017 E0.06648
G1 X121.253 Y85.482 E0.01682
G1 X120.293 Y84.522 E0.04270
G1 X120.828 Y84.522 E0.01682
G1 X121.423 Y85.117 E0.02646
G1 F5760
G1 X120.828 Y84.522 E-0.29140
G1 X120.293 Y84.522 E-0.18524
G1 X120.871 Y85.100 E-0.28336
G1 E-0.04000 F2100.00000
G1 Z0.800 F7200.000
G1 X118.534 Y87.576
G1 Z0.200
G1 E0.80000 F2100.00000
G1 F1800
G1 X115.480 Y84.522 E0.13583
G1 X114.945 Y84.522 E0.01682
G1 X117.617 Y87.194 E0.11882
G1 X117.400 Y87.171 E0.00685
G1 X117.091 Y87.203 E0.00976
G1 X114.410 Y84.522 E0.11925
G1 X113.875 Y84.522 E0.01682
G1 X116.632 Y87.279 E0.12259
G1 X116.228 Y87.410 E0.01334
G1 X113.340 Y84.522 E0.12844
G1 X112.805 Y84.522 E0.01682
G1 X115.875 Y87.591 E0.13649
G1 X115.542 Y87.794 E0.01224
G1 X112.271 Y84.522 E0.14550
G1 X111.736 Y84.522 E0.01682
G1 X115.261 Y88.047 E0.15677
G1 X115.093 Y88.198 E0.00710
G1 X115.002 Y88.323 E0.00486
G1 X111.201 Y84.522 E0.16906
G1 X110.666 Y84.522 E0.01682
G1 X114.777 Y88.633 E0.18283
G1 X114.712 Y88.723 E0.00349
G1 X114.595 Y88.986 E0.00905
G1 X110.131 Y84.522 E0.19851
G1 X109.596 Y84.522 E0.01682
G1 X114.438 Y89.363 E0.21530
G1 X114.344 Y89.805 E0.01418
G1 X109.062 Y84.522 E0.23493
G1 X108.527 Y84.522 E0.01682
G1 X114.313 Y90.308 E0.25733
G1 X114.313 Y90.599 E0.00913
G1 X114.379 Y90.909 E0.00997
G1 X107.992 Y84.522 E0.28404
G1 X107.457 Y84.522 E0.01682
G1 X119.463 Y96.528 E0.53393
G1 X118.928 Y96.528 E0.01682
G1 X106.922 Y84.522 E0.53393
G1 X106.387 Y84.522 E0.01682
G1 X118.394 Y96.528 E0.53393
G1 X117.859 Y96.528 E0.01682
G1 X105.853 Y84.522 E0.53393
G1 X105.318 Y84.522 E0.01682
G1 X117.324 Y96.528 E0.53393
G1 X116.789 Y96.528 E0.01682
G1 X104.783 Y84.522 E0.53393
G1 X104.248 Y84.522 E0.01682
G1 X116.254 Y96.528 E0.53393
G1 X115.719 Y96.528 E0.01682
G1 X103.713 Y84.522 E0.53393
G1 X103.178 Y84.522 E0.01682
G1 X115.185 Y96.528 E0.53393
G1 X114.650 Y96.528 E0.01682
G1 X102.644 Y84.522 E0.53393
G1 X102.109 Y84.522 E0.01682
G1 X114.115 Y96.528 E0.53393
G1 X113.580 Y96.528 E0.01682
G1 X101.574 Y84.522 E0.53393
G1 X101.039 Y84.522 E0.01682
G1 X113.045 Y96.528 E0.53393
G1 X112.510 Y96.528 E0.01682
G1 X100.504 Y84.522 E0.53393
G1 X99.969 Y84.522 E0.01682
G1 X111.976 Y96.528 E0.53393
G1 X111.441 Y96.528 E0.01682
G1 X99.435 Y84.522 E0.53393
G1 X98.900 Y84.522 E0.01682
G1 X111.253 Y96.875 E0.54936
G1 X111.253 Y97.410 E0.01682
G1 X98.365 Y84.522 E0.57315
G1 X97.830 Y84.522 E0.01682
G1 X111.253 Y97.945 E0.59693
G1 X111.253 Y98.480 E0.01682
G1 X97.295 Y84.522 E0.62072
G1 X96.761 Y84.522 E0.01682
G1 X111.253 Y99.014 E0.64450
G1 X111.253 Y99.549 E0.01682
G1 X96.226 Y84.522 E0.66828
G1 X95.691 Y84.522 E0.01682
G1 X111.253 Y100.084 E0.69207
G1 X111.253 Y100.619 E0.01682
G1 X95.156 Y84.522 E0.71585
G1 X94.621 Y84.522 E0.01682
G1 X111.253 Y101.154 E0.73964
G1 X111.253 Y101.528 E0.01177
G1 X111.173 Y101.528 E0.00252
G1 X111.173 Y101.609 E0.00253
G1 X94.086 Y84.522 E0.75986
G1 X93.552 Y84.522 E0.01682
G1 X111.173 Y102.143 E0.78365
G1 X111.173 Y102.678 E0.01682
G1 X93.017 Y84.522 E0.80743
G1 X92.482 Y84.522 E0.01682
G1 X111.173 Y103.213 E0.83122
G1 X111.173 Y103.748 E0.01682
G1 X91.947 Y84.522 E0.85500
G1 X91.412 Y84.522 E0.01682
G1 X111.173 Y104.283 E0.87879
G1 X111.173 Y104.818 E0.01682
G1 X90.877 Y84.522 E0.90257
G1 X90.343 Y84.522 E0.01682
G1 X111.173 Y105.352 E0.92636
G1 X111.173 Y105.887 E0.01682
G1 X89.808 Y84.522 E0.95014
G1 X89.273 Y84.522 E0.01682
G1 X111.173 Y106.422 E0.97392
G1 X111.173 Y106.957 E0.01682
G1 X88.738 Y84.522 E0.99771
G1 X88.203 Y84.522 E0.01682
G1 X111.173 Y107.492 E1.02149
G1 X111.173 Y108.027 E0.01682
G1 X87.668 Y84.522 E1.04528
G1 X87.134 Y84.522 E0.01682
G1 X111.173 Y108.561 E1.06906
G1 X111.173 Y109.096 E0.01682
G1 X86.599 Y84.522 E1.09285
G1 X86.064 Y84.522 E0.01682
G1 X111.173 Y109.631 E1.11663
G1 X111.173 Y110.166 E0.01682
G1 X90.360 Y89.353 E0.92559
G1 X90.487 Y90.014 E0.02119
G1 X97.000 Y96.528 E0.28967
G1 X96.466 Y96.528 E0.01682
G1 X90.487 Y90.549 E0.26588
G1 X90.402 Y90.999 E0.01440
G1 X95.931 Y96.528 E0.24587
G1 X95.396 Y96.528 E0.01682
G1 X90.275 Y91.407 E0.22773
G1 X90.110 Y91.777 E0.01274
G1 X94.861 Y96.528 E0.21128
G1 X94.326 Y96.528 E0.01682
G1 X89.893 Y92.095 E0.19714
G1 X89.659 Y92.395 E0.01198
G1 X93.791 Y96.528 E0.18379
G1 X93.257 Y96.528 E0.01682
G1 X89.377 Y92.649 E0.17252
G1 X89.224 Y92.787 E0.00648
G1 X89.069 Y92.876 E0.00562
G1 X92.722 Y96.528 E0.16242
G1 X92.187 Y96.528 E0.01682
G1 X88.730 Y93.071 E0.15373
G1 X88.663 Y93.110 E0.00245
G1 X88.340 Y93.216 E0.01068
G1 X91.652 Y96.528 E0.14731
G1 X91.117 Y96.528 E0.01682
G1 X87.914 Y93.325 E0.14244
G1 X87.430 Y93.376 E0.01532
G1 X90.582 Y96.528 E0.14020
G1 X90.048 Y96.528 E0.01682
G1 X86.840 Y93.320 E0.14265
G1 X86.755 Y93.312 E0.00270
G1 X86.137 Y93.110 E0.02042
G1 X86.037 Y93.053 E0.00363
G1 X89.513 Y96.528 E0.15456
G1 X88.978 Y96.528 E0.01682
G1 X83.747 Y91.297 E0.23263
G1 X83.747 Y90.762 E0.01682
G1 X84.632 Y91.647 E0.03936
G1 X84.448 Y91.235 E0.01421
G1 X84.366 Y90.846 E0.01249
G1 X83.747 Y90.227 E0.02751
G1 X83.747 Y89.693 E0.01682
G1 X84.313 Y90.259 E0.02518
G1 X84.313 Y89.951 E0.00967
G1 X84.353 Y89.764 E0.00603
G1 X83.747 Y89.158 E0.02695
G1 X83.747 Y88.623 E0.01682
G1 X84.447 Y89.322 E0.03111
G1 X84.610 Y88.951 E0.01275
G1 X83.747 Y88.088 E0.03840
G1 X83.747 Y87.553 E0.01682
G1 X84.798 Y88.605 E0.04675
G1 X85.023 Y88.295 E0.01204
G1 X83.747 Y87.018 E0.05676
G1 X83.747 Y86.484 E0.01682
G1 X85.287 Y88.024 E0.06849
G1 X85.568 Y87.770 E0.01191
G1 X83.747 Y85.949 E0.08100
G1 X83.747 Y85.414 E0.01682
G1 X85.906 Y87.573 E0.09602
