; generated by Slic3r Prusa Edition 1.39.2+win64 on 2018-05-29 at 08:32:46

; 

; external perimeters extrusion width = 0.45mm
; perimeters extrusion width = 0.45mm
; infill extrusion width = 0.45mm
; solid infill extrusion width = 0.45mm
; top infill extrusion width = 0.45mm
; first layer extrusion width = 0.42mm

M107
M115 U3.1.0 ; tell printer latest fw version
M83  ; extruder relative mode
M104 S205 ; set extruder temp
M140 S55 ; set bed temp
M190 S55 ; wait for bed temp
M109 S205 ; wait for extruder temp
G28 W ; home all without mesh bed level
G80 ; mesh bed leveling
G1 Y-3.0 F1000.0 ; go outside print area
G92 E0.0
G1 X60.0 E9.0  F1000.0 ; intro line
G1 X100.0 E12.5  F1000.0 ; intro line
G92 E0.0
M900 K30; Filament gcode
G21 ; set units to millimeters
G90 ; use absolute coordinates
M83 ; use relative distances for extrusion
;BEFORE_LAYER_CHANGE
;0.2


G1 E-0.80000 F2100.00000
G1 Z0.600 F7200.000
;AFTER_LAYER_CHANGE
;0.2
G1 X62.350 Y72.986
G1 Z0.200
G1 E0.80000 F2100.00000
M204 S1000
G1 F1800
G1 X62.697 Y72.451 E0.02000
G1 X63.177 Y72.025 E0.02012
G1 X63.754 Y71.743 E0.02012
G1 X64.381 Y71.626 E0.02000
G1 X89.504 Y71.623 E0.78772
G1 X90.136 Y71.710 E0.02000
G1 X90.722 Y71.961 E0.02000
G1 X143.732 Y103.967 E1.94154
G1 X144.275 Y104.418 E0.02213
G1 X144.712 Y105.128 E0.02614
G1 X144.876 Y105.946 E0.02614
G1 X144.877 Y131.015 E0.78604
G1 X144.822 Y131.506 E0.01550
G1 X144.668 Y131.976 E0.01550
G1 X144.419 Y132.403 E0.01550
G1 X144.084 Y132.772 E0.01562
G1 X143.357 Y133.217 E0.02673
G1 X142.520 Y133.377 E0.02673
G1 X62.496 Y133.377 E2.50909
G1 X62.001 Y133.324 E0.01562
G1 X61.528 Y133.169 E0.01562
G1 X61.097 Y132.919 E0.01562
G1 X60.728 Y132.584 E0.01562
G1 X60.290 Y131.875 E0.02614
G1 X60.124 Y131.054 E0.02626
G1 X60.124 Y105.935 E0.78759
G1 X62.128 Y73.840 E1.00827
G1 X62.335 Y73.044 E0.02578
G1 F5760
G1 X62.697 Y72.451 E-0.24078
G1 X63.177 Y72.025 E-0.22228
G1 X63.754 Y71.743 E-0.22228
G1 X63.966 Y71.704 E-0.07467
G1 E-0.04000 F2100.00000
G1 Z0.800 F7200.000
G1 X67.921 Y124.241
G1 Z0.200
G1 E0.80000 F2100.00000
G1 F1800
G1 X68.500 Y124.181 E0.01825
G1 X69.086 Y124.242 E0.01848
G1 X69.647 Y124.424 E0.01849
G1 X70.157 Y124.719 E0.01846
G1 X70.595 Y125.114 E0.01850
G1 X70.942 Y125.590 E0.01847
G1 X71.182 Y126.128 E0.01848
G1 X71.304 Y126.706 E0.01851
G1 X71.304 Y127.294 E0.01844
G1 X71.182 Y127.872 E0.01851
G1 X70.942 Y128.410 E0.01848
G1 X70.595 Y128.886 E0.01847
G1 X70.157 Y129.281 E0.01850
G1 X69.647 Y129.576 E0.01846
G1 X69.086 Y129.758 E0.01849
G1 X68.500 Y129.819 E0.01848
G1 X67.914 Y129.758 E0.01848
G1 X67.353 Y129.576 E0.01849
G1 X66.843 Y129.281 E0.01846
G1 X66.405 Y128.886 E0.01850
G1 X66.058 Y128.410 E0.01847
G1 X65.818 Y127.872 E0.01848
G1 X65.696 Y127.294 E0.01851
G1 X65.696 Y126.706 E0.01844
G1 X65.818 Y126.128 E0.01851
G1 X66.058 Y125.590 E0.01848
G1 X66.405 Y125.114 E0.01847
G1 X66.843 Y124.719 E0.01850
G1 X67.354 Y124.424 E0.01851
G1 X67.864 Y124.259 E0.01679
G1 X67.980 Y124.618 F7200.000
G1 F1800
G1 X68.500 Y124.560 E0.01641
G1 X69.007 Y124.613 E0.01599
G1 X69.493 Y124.771 E0.01601
G1 X69.934 Y125.025 E0.01598
G1 X70.314 Y125.367 E0.01601
G1 X70.613 Y125.780 E0.01599
G1 X70.821 Y126.246 E0.01599
G1 X70.927 Y126.745 E0.01602
G1 X70.927 Y127.255 E0.01596
G1 X70.821 Y127.754 E0.01602
G1 X70.613 Y128.220 E0.01599
G1 X70.314 Y128.633 E0.01599
G1 X69.934 Y128.975 E0.01601
G1 X69.493 Y129.229 E0.01598
G1 X69.007 Y129.387 E0.01601
G1 X68.500 Y129.440 E0.01599
G1 X67.993 Y129.387 E0.01599
G1 X67.507 Y129.229 E0.01601
G1 X67.066 Y128.975 E0.01598
G1 X66.686 Y128.633 E0.01601
G1 X66.387 Y128.220 E0.01599
G1 X66.179 Y127.754 E0.01599
G1 X66.073 Y127.255 E0.01602
G1 X66.073 Y126.745 E0.01596
G1 X66.179 Y126.246 E0.01602
G1 X66.387 Y125.780 E0.01599
G1 X66.686 Y125.367 E0.01599
G1 X67.066 Y125.025 E0.01601
G1 X67.508 Y124.770 E0.01601
G1 X67.923 Y124.637 E0.01366
G1 X68.078 Y124.983 F7200.000
G1 F1800
G1 X68.500 Y124.939 E0.01331
G1 X68.929 Y124.983 E0.01351
G1 X69.338 Y125.117 E0.01352
G1 X69.711 Y125.332 E0.01350
G1 X70.032 Y125.621 E0.01352
G1 X70.285 Y125.969 E0.01351
G1 X70.460 Y126.363 E0.01350
G1 X70.550 Y126.785 E0.01353
G1 X70.550 Y127.215 E0.01348
G1 X70.460 Y127.637 E0.01353
G1 X70.285 Y128.031 E0.01350
G1 X70.032 Y128.379 E0.01351
G1 X69.711 Y128.668 E0.01352
G1 X69.338 Y128.883 E0.01350
G1 X68.929 Y129.017 E0.01352
G1 X68.500 Y129.061 E0.01351
G1 X68.071 Y129.017 E0.01351
G1 X67.662 Y128.883 E0.01352
G1 X67.289 Y128.668 E0.01350
G1 X66.968 Y128.379 E0.01352
G1 X66.715 Y128.031 E0.01351
G1 X66.540 Y127.637 E0.01350
G1 X66.450 Y127.215 E0.01353
G1 X66.450 Y126.785 E0.01348
G1 X66.540 Y126.363 E0.01353
G1 X66.715 Y125.969 E0.01350
G1 X66.968 Y125.621 E0.01351
G1 X67.289 Y125.332 E0.01352
G1 X67.662 Y125.117 E0.01351
G1 X68.021 Y125.001 E0.01182
G1 X68.202 Y124.603 F7200.000
G1 F5760
G1 X68.500 Y124.939 E-0.16746
G1 X68.929 Y124.983 E-0.14922
G1 X69.338 Y125.117 E-0.14933
G1 X69.711 Y125.332 E-0.14914
G1 X70.022 Y125.612 E-0.14485
G1 E-0.04000 F2100.00000
G1 Z0.800 F7200.000
G1 X73.536 Y124.964
G1 Z0.200
G1 E0.80000 F2100.00000
G1 F1800
G1 X73.536 Y113.036 E0.37400
G1 X101.464 Y113.036 E0.87567
G1 X101.464 Y124.964 E0.37400
G1 X73.596 Y124.964 E0.87379
G1 X73.913 Y124.587 F7200.000
G1 F1800
G1 X73.913 Y113.413 E0.35036
G1 X101.087 Y113.413 E0.85203
G1 X101.087 Y124.587 E0.35036
G1 X73.973 Y124.587 E0.85015
G1 X74.290 Y124.210 F7200.000
G1 F1800
G1 X74.290 Y113.790 E0.32671
G1 X100.710 Y113.790 E0.82838
G1 X100.710 Y124.210 E0.32671
G1 X74.350 Y124.210 E0.82650
G1 X73.893 Y124.260 F7200.000
G1 F5760
G1 X74.337 Y122.016 E-0.76000
G1 E-0.04000 F2100.00000
G1 Z0.800 F7200.000
G1 X69.647 Y112.576
G1 Z0.200
G1 E0.80000 F2100.00000
G1 F1800
G1 X69.086 Y112.758 E0.01849
G1 X68.500 Y112.819 E0.01848
G1 X67.914 Y112.758 E0.01848
G1 X67.353 Y112.576 E0.01849
G1 X66.843 Y112.281 E0.01846
G1 X66.405 Y111.886 E0.01850
G1 X66.058 Y111.410 E0.01847
G1 X65.818 Y110.872 E0.01848
G1 X65.696 Y110.294 E0.01851
G1 X65.696 Y109.706 E0.01845
G1 X65.818 Y109.128 E0.01851
G1 X66.058 Y108.590 E0.01848
G1 X66.405 Y108.114 E0.01847
G1 X66.843 Y107.719 E0.01850
G1 X67.354 Y107.424 E0.01851
G1 X67.921 Y107.241 E0.01867
G1 X68.500 Y107.181 E0.01825
G1 X69.086 Y107.242 E0.01848
G1 X69.647 Y107.424 E0.01849
G1 X70.157 Y107.719 E0.01846
G1 X70.595 Y108.114 E0.01850
G1 X70.942 Y108.590 E0.01847
G1 X71.182 Y109.128 E0.01848
G1 X71.304 Y109.706 E0.01851
G1 X71.304 Y110.294 E0.01845
G1 X71.182 Y110.872 E0.01851
G1 X70.942 Y111.410 E0.01848
G1 X70.595 Y111.886 E0.01847
G1 X70.157 Y112.281 E0.01850
G1 X69.699 Y112.546 E0.01658
G1 X69.511 Y112.219 F7200.000
G1 F1800
G1 X69.007 Y112.387 E0.01664
G1 X68.500 Y112.440 E0.01599
G1 X67.993 Y112.387 E0.01599
G1 X67.507 Y112.229 E0.01601
G1 X67.066 Y111.975 E0.01598
G1 X66.686 Y111.633 E0.01601
G1 X66.387 Y111.220 E0.01599
G1 X66.179 Y110.754 E0.01599
G1 X66.073 Y110.255 E0.01602
G1 X66.073 Y109.745 E0.01596
G1 X66.179 Y109.246 E0.01602
G1 X66.387 Y108.780 E0.01599
G1 X66.686 Y108.367 E0.01599
G1 X67.066 Y108.025 E0.01601
G1 X67.508 Y107.770 E0.01601
G1 X67.999 Y107.612 E0.01619
G1 X68.500 Y107.560 E0.01578
G1 X69.007 Y107.613 E0.01599
G1 X69.493 Y107.771 E0.01601
G1 X69.934 Y108.025 E0.01598
G1 X70.314 Y108.367 E0.01601
G1 X70.613 Y108.780 E0.01599
G1 X70.821 Y109.246 E0.01599
G1 X70.927 Y109.745 E0.01602
G1 X70.927 Y110.255 E0.01596
G1 X70.821 Y110.754 E0.01602
G1 X70.613 Y111.220 E0.01599
G1 X70.314 Y111.633 E0.01599
G1 X69.934 Y111.975 E0.01601
G1 X69.563 Y112.189 E0.01345
G1 X69.338 Y111.883 F7200.000
G1 F1800
G1 X68.929 Y112.017 E0.01352
G1 X68.500 Y112.061 E0.01351
G1 X68.071 Y112.017 E0.01351
G1 X67.662 Y111.883 E0.01352
G1 X67.289 Y111.668 E0.01350
G1 X66.968 Y111.379 E0.01352
G1 X66.715 Y111.031 E0.01351
G1 X66.540 Y110.637 E0.01350
G1 X66.450 Y110.215 E0.01353
G1 X66.450 Y109.785 E0.01348
G1 X66.540 Y109.363 E0.01353
G1 X66.715 Y108.969 E0.01350
G1 X66.968 Y108.621 E0.01351
G1 X67.289 Y108.332 E0.01352
G1 X67.662 Y108.117 E0.01351
G1 X68.078 Y107.983 E0.01370
G1 X68.500 Y107.939 E0.01331
G1 X68.929 Y107.983 E0.01351
G1 X69.338 Y108.117 E0.01352
G1 X69.711 Y108.332 E0.01350
G1 X70.032 Y108.621 E0.01352
G1 X70.285 Y108.969 E0.01351
G1 X70.460 Y109.363 E0.01350
G1 X70.550 Y109.785 E0.01353
G1 X70.550 Y110.215 E0.01348
G1 X70.460 Y110.637 E0.01353
G1 X70.285 Y111.031 E0.01350
G1 X70.032 Y111.379 E0.01351
G1 X69.711 Y111.668 E0.01352
G1 X69.390 Y111.853 E0.01162
G1 X69.297 Y112.281 F7200.000
G1 F5760
G1 X68.929 Y112.017 E-0.16972
G1 X68.500 Y112.061 E-0.14922
G1 X68.071 Y112.017 E-0.14922
G1 X67.662 Y111.883 E-0.14933
G1 X67.305 Y111.677 E-0.14251
G1 E-0.04000 F2100.00000
G1 Z0.800 F7200.000
G1 X70.153 Y99.301
G1 Z0.200
G1 E0.80000 F2100.00000
G1 F1800
G1 X69.474 Y99.157 E0.02176
G1 X68.840 Y98.874 E0.02177
G1 X68.279 Y98.466 E0.02176
G1 X67.815 Y97.951 E0.02174
G1 X67.468 Y97.351 E0.02174
G1 X67.253 Y96.691 E0.02176
G1 X67.180 Y95.998 E0.02185
G1 X67.235 Y95.500 E0.01570
G1 X67.180 Y95.000 E0.01577
G1 X67.235 Y94.500 E0.01577
G1 X67.180 Y94.000 E0.01577
G1 X67.235 Y93.500 E0.01577
G1 X67.180 Y93.000 E0.01577
G1 X67.235 Y92.500 E0.01577
G1 X67.180 Y92.000 E0.01577
G1 X67.235 Y91.500 E0.01577
G1 X67.180 Y91.000 E0.01577
G1 X67.235 Y90.500 E0.01577
G1 X67.180 Y90.000 E0.01577
G1 X67.235 Y89.500 E0.01577
G1 X67.180 Y89.000 E0.01577
G1 X67.235 Y88.500 E0.01577
G1 X67.180 Y88.000 E0.01577
G1 X67.235 Y87.500 E0.01577
G1 X67.180 Y87.000 E0.01577
G1 X67.235 Y86.500 E0.01577
G1 X67.180 Y86.000 E0.01577
G1 X67.235 Y85.500 E0.01577
G1 X67.180 Y85.000 E0.01577
G1 X67.235 Y84.500 E0.01577
G1 X67.180 Y84.000 E0.01577
G1 X67.235 Y83.500 E0.01577
G1 X67.180 Y83.000 E0.01577
G1 X67.235 Y82.500 E0.01577
G1 X67.180 Y82.000 E0.01577
G1 X67.235 Y81.500 E0.01577
G1 X67.180 Y81.002 E0.01570
G1 X67.253 Y80.310 E0.02184
G1 X67.468 Y79.650 E0.02175
G1 X67.814 Y79.049 E0.02176
G1 X68.279 Y78.533 E0.02176
G1 X68.840 Y78.125 E0.02176
G1 X69.474 Y77.843 E0.02176
G1 X70.153 Y77.699 E0.02176
G1 X70.847 Y77.699 E0.02175
G1 X71.526 Y77.843 E0.02176
G1 X72.160 Y78.125 E0.02176
G1 X72.721 Y78.533 E0.02176
G1 X73.186 Y79.049 E0.02176
G1 X73.532 Y79.650 E0.02176
G1 X73.747 Y80.310 E0.02175
G1 X73.820 Y81.002 E0.02184
G1 X73.765 Y81.500 E0.01570
G1 X73.820 Y82.000 E0.01577
G1 X73.765 Y82.500 E0.01577
G1 X73.820 Y83.000 E0.01577
G1 X73.765 Y83.500 E0.01577
G1 X73.820 Y84.000 E0.01577
G1 X73.765 Y84.500 E0.01577
G1 X73.820 Y85.000 E0.01577
G1 X73.765 Y85.500 E0.01577
G1 X73.820 Y86.000 E0.01577
G1 X73.765 Y86.500 E0.01577
G1 X73.820 Y87.000 E0.01577
G1 X73.765 Y87.500 E0.01577
G1 X73.820 Y88.000 E0.01577
G1 X73.765 Y88.500 E0.01577
G1 X73.820 Y89.000 E0.01577
G1 X73.765 Y89.500 E0.01577
G1 X73.820 Y90.000 E0.01577
G1 X73.765 Y90.500 E0.01577
G1 X73.820 Y91.000 E0.01577
G1 X73.765 Y91.500 E0.01577
G1 X73.820 Y92.000 E0.01577
G1 X73.765 Y92.500 E0.01577
G1 X73.820 Y93.000 E0.01577
G1 X73.765 Y93.500 E0.01577
G1 X73.820 Y94.000 E0.01577
G1 X73.765 Y94.500 E0.01577
G1 X73.820 Y95.000 E0.01577
G1 X73.765 Y95.500 E0.01577
G1 X73.820 Y95.998 E0.01570
G1 X73.747 Y96.691 E0.02185
G1 X73.532 Y97.351 E0.02176
G1 X73.185 Y97.951 E0.02174
G1 X72.721 Y98.466 E0.02174
G1 X72.160 Y98.874 E0.02176
G1 X71.526 Y99.157 E0.02177
G1 X70.847 Y99.301 E0.02176
G1 X70.213 Y99.301 E0.01987
G1 X70.213 Y98.924 F7200.000
G1 F1800
G1 X69.591 Y98.796 E0.01990
G1 X69.030 Y98.546 E0.01928
G1 X68.532 Y98.185 E0.01927
G1 X68.121 Y97.728 E0.01926
G1 X67.814 Y97.196 E0.01926
G1 X67.624 Y96.612 E0.01927
G1 X67.560 Y95.999 E0.01933
G1 X67.614 Y95.500 E0.01573
G1 X67.559 Y95.000 E0.01577
G1 X67.614 Y94.500 E0.01577
G1 X67.559 Y94.000 E0.01577
G1 X67.614 Y93.500 E0.01577
G1 X67.559 Y93.000 E0.01577
G1 X67.614 Y92.500 E0.01577
G1 X67.559 Y92.000 E0.01577
G1 X67.614 Y91.500 E0.01577
G1 X67.559 Y91.000 E0.01577
G1 X67.614 Y90.500 E0.01577
G1 X67.559 Y90.000 E0.01577
G1 X67.614 Y89.500 E0.01577
G1 X67.559 Y89.000 E0.01577
G1 X67.614 Y88.500 E0.01577
G1 X67.559 Y88.000 E0.01577
G1 X67.614 Y87.500 E0.01577
G1 X67.559 Y87.000 E0.01577
G1 X67.614 Y86.500 E0.01577
G1 X67.559 Y86.000 E0.01577
G1 X67.614 Y85.500 E0.01577
G1 X67.559 Y85.000 E0.01577
G1 X67.614 Y84.500 E0.01577
G1 X67.559 Y84.000 E0.01577
G1 X67.614 Y83.500 E0.01577
G1 X67.559 Y83.000 E0.01577
G1 X67.614 Y82.500 E0.01577
G1 X67.559 Y82.000 E0.01577
G1 X67.614 Y81.500 E0.01577
G1 X67.560 Y81.001 E0.01573
G1 X67.624 Y80.389 E0.01932
G1 X67.814 Y79.804 E0.01927
G1 X68.121 Y79.272 E0.01927
G1 X68.532 Y78.815 E0.01927
G1 X69.030 Y78.454 E0.01928
G1 X69.591 Y78.204 E0.01927
G1 X70.193 Y78.076 E0.01927
G1 X70.807 Y78.076 E0.01927
G1 X71.409 Y78.204 E0.01927
G1 X71.970 Y78.454 E0.01927
G1 X72.468 Y78.815 E0.01928
G1 X72.879 Y79.272 E0.01927
G1 X73.186 Y79.804 E0.01927
G1 X73.376 Y80.389 E0.01927
G1 X73.440 Y81.001 E0.01932
G1 X73.386 Y81.500 E0.01573
G1 X73.441 Y82.000 E0.01577
G1 X73.386 Y82.500 E0.01577
G1 X73.441 Y83.000 E0.01577
G1 X73.386 Y83.500 E0.01577
G1 X73.441 Y84.000 E0.01577
G1 X73.386 Y84.500 E0.01577
G1 X73.441 Y85.000 E0.01577
G1 X73.386 Y85.500 E0.01577
G1 X73.441 Y86.000 E0.01577
G1 X73.386 Y86.500 E0.01577
G1 X73.441 Y87.000 E0.01577
G1 X73.386 Y87.500 E0.01577
G1 X73.441 Y88.000 E0.01577
G1 X73.386 Y88.500 E0.01577
G1 X73.441 Y89.000 E0.01577
G1 X73.386 Y89.500 E0.01577
G1 X73.441 Y90.000 E0.01577
G1 X73.386 Y90.500 E0.01577
G1 X73.441 Y91.000 E0.01577
G1 X73.386 Y91.500 E0.01577
G1 X73.441 Y92.000 E0.01577
G1 X73.386 Y92.500 E0.01577
G1 X73.441 Y93.000 E0.01577
G1 X73.386 Y93.500 E0.01577
G1 X73.441 Y94.000 E0.01577
G1 X73.386 Y94.500 E0.01577
G1 X73.441 Y95.000 E0.01577
G1 X73.386 Y95.500 E0.01577
G1 X73.440 Y95.999 E0.01573
G1 X73.376 Y96.612 E0.01933
G1 X73.186 Y97.196 E0.01927
G1 X72.879 Y97.728 E0.01926
G1 X72.468 Y98.185 E0.01926
G1 X71.970 Y98.546 E0.01927
G1 X71.409 Y98.796 E0.01928
G1 X70.807 Y98.924 E0.01928
G1 X70.273 Y98.924 E0.01674
G1 X70.273 Y98.547 F7200.000
G1 F1800
G1 X69.709 Y98.436 E0.01804
G1 X69.219 Y98.218 E0.01679
G1 X68.786 Y97.903 E0.01679
G1 X68.428 Y97.505 E0.01678
G1 X68.160 Y97.042 E0.01677
G1 X67.995 Y96.533 E0.01678
G1 X67.939 Y95.999 E0.01682
G1 X67.994 Y95.500 E0.01576
G1 X67.939 Y95.000 E0.01577
G1 X67.994 Y94.500 E0.01577
G1 X67.939 Y94.000 E0.01577
G1 X67.994 Y93.500 E0.01577
G1 X67.939 Y93.000 E0.01577
G1 X67.994 Y92.500 E0.01577
G1 X67.939 Y92.000 E0.01577
G1 X67.994 Y91.500 E0.01577
G1 X67.939 Y91.000 E0.01577
G1 X67.994 Y90.500 E0.01577
G1 X67.939 Y90.000 E0.01577
G1 X67.994 Y89.500 E0.01577
G1 X67.939 Y89.000 E0.01577
G1 X67.994 Y88.500 E0.01577
G1 X67.939 Y88.000 E0.01577
G1 X67.994 Y87.500 E0.01577
G1 X67.939 Y87.000 E0.01577
G1 X67.994 Y86.500 E0.01577
G1 X67.939 Y86.000 E0.01577
G1 X67.994 Y85.500 E0.01577
G1 X67.939 Y85.000 E0.01577
G1 X67.994 Y84.500 E0.01577
G1 X67.939 Y84.000 E0.01577
G1 X67.994 Y83.500 E0.01577
G1 X67.939 Y83.000 E0.01577
G1 X67.994 Y82.500 E0.01577
G1 X67.939 Y82.000 E0.01577
G1 X67.994 Y81.500 E0.01577
G1 X67.939 Y81.001 E0.01576
G1 X67.995 Y80.467 E0.01681
G1 X68.160 Y79.958 E0.01679
G1 X68.428 Y79.495 E0.01679
G1 X68.786 Y79.097 E0.01679
G1 X69.219 Y78.782 E0.01679
G1 X69.709 Y78.564 E0.01679
G1 X70.232 Y78.453 E0.01679
G1 X70.768 Y78.453 E0.01678
G1 X71.291 Y78.564 E0.01679
G1 X71.781 Y78.782 E0.01679
G1 X72.214 Y79.097 E0.01679
G1 X72.572 Y79.495 E0.01679
G1 X72.840 Y79.958 E0.01679
G1 X73.005 Y80.467 E0.01679
G1 X73.061 Y81.001 E0.01681
G1 X73.006 Y81.500 E0.01576
G1 X73.061 Y82.000 E0.01577
G1 X73.006 Y82.500 E0.01577
G1 X73.061 Y83.000 E0.01577
G1 X73.006 Y83.500 E0.01577
G1 X73.061 Y84.000 E0.01577
G1 X73.006 Y84.500 E0.01577
G1 X73.061 Y85.000 E0.01577
G1 X73.006 Y85.500 E0.01577
G1 X73.061 Y86.000 E0.01577
G1 X73.006 Y86.500 E0.01577
G1 X73.061 Y87.000 E0.01577
G1 X73.006 Y87.500 E0.01577
G1 X73.061 Y88.000 E0.01577
G1 X73.006 Y88.500 E0.01577
G1 X73.061 Y89.000 E0.01577
G1 X73.006 Y89.500 E0.01577
G1 X73.061 Y90.000 E0.01577
G1 X73.006 Y90.500 E0.01577
G1 X73.061 Y91.000 E0.01577
G1 X73.006 Y91.500 E0.01577
G1 X73.061 Y92.000 E0.01577
G1 X73.006 Y92.500 E0.01577
G1 X73.061 Y93.000 E0.01577
G1 X73.006 Y93.500 E0.01577
G1 X73.061 Y94.000 E0.01577
G1 X73.006 Y94.500 E0.01577
G1 X73.061 Y95.000 E0.01577
