; generated by Slic3r Prusa Edition 1.39.2+win64 on 2018-05-24 at 14:14:12

; 

; external perimeters extrusion width = 0.45mm
; perimeters extrusion width = 0.45mm
; infill extrusion width = 0.45mm
; solid infill extrusion width = 0.45mm
; top infill extrusion width = 0.45mm
; first layer extrusion width = 0.42mm

M107
M115 U3.1.0 ; tell printer latest fw version
M83  ; extruder relative mode
M104 S205 ; set extruder temp
M140 S55 ; set bed temp
M190 S55 ; wait for bed temp
M109 S205 ; wait for extruder temp
G28 W ; home all without mesh bed level
G80 ; mesh bed leveling
G1 Y-3.0 F1000.0 ; go outside print area
G92 E0.0
G1 X60.0 E9.0  F1000.0 ; intro line
G1 X100.0 E12.5  F1000.0 ; intro line
G92 E0.0
M900 K30; Filament gcode
G21 ; set units to millimeters
G90 ; use absolute coordinates
M83 ; use relative distances for extrusion
;BEFORE_LAYER_CHANGE
;0.2


G1 E-0.80000 F2100.00000
G1 Z0.600 F7200.000
;AFTER_LAYER_CHANGE
;0.2
G1 X71.440 Y93.017
G1 Z0.200
G1 E0.80000 F2100.00000
M204 S1000
G1 F1800
G1 X72.084 Y92.718 E0.02225
G1 X72.745 Y92.623 E0.02095
G1 X132.254 Y92.623 E1.86585
G1 X133.142 Y92.797 E0.02837
G1 X133.903 Y93.292 E0.02849
G1 X134.422 Y94.034 E0.02837
G1 X134.626 Y94.919 E0.02849
G1 X134.616 Y110.232 E0.48013
G1 X134.445 Y110.913 E0.02201
G1 X134.080 Y111.517 E0.02213
G1 X133.554 Y111.988 E0.02213
G1 X132.916 Y112.282 E0.02201
G1 X132.255 Y112.377 E0.02095
G1 X72.689 Y112.376 E1.86764
G1 X71.958 Y112.241 E0.02331
G1 X71.301 Y111.885 E0.02343
G1 X70.788 Y111.342 E0.02343
G1 X70.468 Y110.666 E0.02343
G1 X70.373 Y110.013 E0.02071
G1 X70.382 Y94.787 E0.47739
G1 X70.549 Y94.101 E0.02213
G1 X70.913 Y93.492 E0.02225
G1 X71.395 Y93.057 E0.02037
G1 F5760
G1 X72.084 Y92.718 E-0.26571
G1 X72.745 Y92.623 E-0.23142
G1 X73.504 Y92.623 E-0.26287
G1 E-0.04000 F2100.00000
G1 Z0.800 F7200.000
G1 X101.617 Y101.320
G1 Z0.200
G1 E0.80000 F2100.00000
G1 F1800
G1 X101.942 Y100.590 E0.02504
G1 X102.412 Y99.944 E0.02504
G1 X103.005 Y99.410 E0.02504
G1 X103.698 Y99.010 E0.02509
G1 X104.467 Y98.763 E0.02534
G1 X105.250 Y98.681 E0.02467
G1 X106.044 Y98.764 E0.02504
G1 X106.804 Y99.011 E0.02504
G1 X107.495 Y99.410 E0.02504
G1 X108.088 Y99.944 E0.02504
G1 X108.558 Y100.590 E0.02504
G1 X108.883 Y101.320 E0.02504
G1 X109.049 Y102.101 E0.02504
G1 X109.049 Y102.899 E0.02504
G1 X108.883 Y103.680 E0.02504
G1 X108.558 Y104.410 E0.02504
G1 X108.088 Y105.056 E0.02503
G1 X107.495 Y105.590 E0.02504
G1 X106.804 Y105.989 E0.02504
G1 X106.044 Y106.236 E0.02504
G1 X105.250 Y106.319 E0.02504
G1 X104.456 Y106.236 E0.02504
G1 X103.696 Y105.989 E0.02504
G1 X103.005 Y105.590 E0.02504
G1 X102.412 Y105.056 E0.02504
G1 X101.942 Y104.410 E0.02503
G1 X101.617 Y103.680 E0.02504
G1 X101.451 Y102.899 E0.02504
G1 X101.451 Y102.101 E0.02504
G1 X101.605 Y101.378 E0.02315
G1 X101.974 Y101.457 F7200.000
G1 F1800
G1 X102.271 Y100.780 E0.02318
G1 X102.693 Y100.198 E0.02255
G1 X103.228 Y99.717 E0.02255
G1 X103.852 Y99.357 E0.02258
G1 X104.546 Y99.134 E0.02285
G1 X105.250 Y99.060 E0.02221
G1 X105.965 Y99.135 E0.02255
G1 X106.649 Y99.357 E0.02255
G1 X107.272 Y99.717 E0.02255
G1 X107.807 Y100.198 E0.02255
G1 X108.229 Y100.780 E0.02255
G1 X108.522 Y101.437 E0.02255
G1 X108.671 Y102.140 E0.02255
G1 X108.671 Y102.860 E0.02255
G1 X108.522 Y103.563 E0.02255
G1 X108.229 Y104.220 E0.02255
G1 X107.807 Y104.802 E0.02255
G1 X107.272 Y105.283 E0.02255
G1 X106.649 Y105.643 E0.02255
G1 X105.965 Y105.865 E0.02255
G1 X105.250 Y105.940 E0.02255
G1 X104.535 Y105.865 E0.02255
G1 X103.851 Y105.643 E0.02255
G1 X103.228 Y105.283 E0.02255
G1 X102.693 Y104.802 E0.02255
G1 X102.271 Y104.220 E0.02255
G1 X101.978 Y103.563 E0.02255
G1 X101.829 Y102.860 E0.02255
G1 X101.829 Y102.140 E0.02255
G1 X101.961 Y101.516 E0.02003
G1 X102.330 Y101.594 F7200.000
G1 F1800
G1 X102.599 Y100.969 E0.02132
G1 X102.975 Y100.452 E0.02006
G1 X103.451 Y100.023 E0.02007
G1 X104.005 Y99.703 E0.02008
G1 X104.624 Y99.505 E0.02037
G1 X105.250 Y99.439 E0.01974
G1 X105.886 Y99.506 E0.02007
G1 X106.495 Y99.704 E0.02007
G1 X107.049 Y100.023 E0.02007
G1 X107.525 Y100.452 E0.02007
G1 X107.901 Y100.969 E0.02006
G1 X108.161 Y101.554 E0.02007
G1 X108.294 Y102.180 E0.02007
G1 X108.294 Y102.820 E0.02007
G1 X108.161 Y103.446 E0.02007
G1 X107.901 Y104.031 E0.02007
G1 X107.525 Y104.548 E0.02006
G1 X107.049 Y104.977 E0.02007
G1 X106.495 Y105.297 E0.02007
G1 X105.886 Y105.494 E0.02007
G1 X105.250 Y105.561 E0.02007
G1 X104.614 Y105.494 E0.02007
G1 X104.005 Y105.297 E0.02007
G1 X103.451 Y104.977 E0.02007
G1 X102.975 Y104.548 E0.02007
G1 X102.599 Y104.031 E0.02006
G1 X102.339 Y103.446 E0.02007
G1 X102.206 Y102.820 E0.02007
G1 X102.206 Y102.180 E0.02007
G1 X102.318 Y101.653 E0.01691
G1 X102.060 Y101.299 F7200.000
G1 F5760
G1 X102.599 Y100.969 E-0.25588
G1 X102.975 Y100.452 E-0.22165
G1 X103.451 Y100.023 E-0.22165
G1 X103.603 Y99.936 E-0.06082
G1 E-0.04000 F2100.00000
G1 Z0.800 F7200.000
G1 X85.499 Y102.106
G1 Z0.200
G1 E0.80000 F2100.00000
G1 F1800
G1 X85.499 Y102.894 E0.02471
G1 X85.335 Y103.665 E0.02471
G1 X85.014 Y104.385 E0.02471
G1 X84.551 Y105.022 E0.02471
G1 X83.966 Y105.550 E0.02471
G1 X83.283 Y105.944 E0.02471
G1 X82.534 Y106.187 E0.02471
G1 X81.750 Y106.269 E0.02471
G1 X80.966 Y106.187 E0.02471
G1 X80.217 Y105.944 E0.02471
G1 X79.534 Y105.550 E0.02471
G1 X78.949 Y105.022 E0.02471
G1 X78.486 Y104.385 E0.02471
G1 X78.165 Y103.665 E0.02471
G1 X78.001 Y102.894 E0.02471
G1 X78.001 Y102.106 E0.02471
G1 X78.165 Y101.335 E0.02471
G1 X78.486 Y100.615 E0.02471
G1 X78.949 Y99.978 E0.02471
G1 X79.534 Y99.450 E0.02471
G1 X80.217 Y99.056 E0.02471
G1 X80.966 Y98.813 E0.02471
G1 X81.750 Y98.731 E0.02471
G1 X82.534 Y98.813 E0.02471
G1 X83.283 Y99.056 E0.02471
G1 X83.966 Y99.450 E0.02471
G1 X84.551 Y99.978 E0.02471
G1 X85.014 Y100.615 E0.02471
G1 X85.335 Y101.335 E0.02471
G1 X85.486 Y102.047 E0.02282
G1 X85.118 Y102.126 F7200.000
G1 F1800
G1 X85.122 Y102.854 E0.02285
G1 X84.974 Y103.548 E0.02222
G1 X84.686 Y104.195 E0.02222
G1 X84.269 Y104.769 E0.02223
G1 X83.743 Y105.243 E0.02222
G1 X83.129 Y105.597 E0.02222
G1 X82.455 Y105.816 E0.02222
G1 X81.750 Y105.890 E0.02222
G1 X81.045 Y105.816 E0.02222
G1 X80.371 Y105.597 E0.02222
G1 X79.757 Y105.243 E0.02222
G1 X79.231 Y104.769 E0.02222
G1 X78.814 Y104.195 E0.02223
G1 X78.526 Y103.548 E0.02222
G1 X78.378 Y102.854 E0.02222
G1 X78.378 Y102.146 E0.02222
G1 X78.526 Y101.452 E0.02222
G1 X78.814 Y100.805 E0.02222
G1 X79.231 Y100.231 E0.02223
G1 X79.757 Y99.757 E0.02222
G1 X80.371 Y99.403 E0.02222
G1 X81.045 Y99.184 E0.02222
G1 X81.750 Y99.110 E0.02222
G1 X82.455 Y99.184 E0.02222
G1 X83.129 Y99.403 E0.02222
G1 X83.743 Y99.757 E0.02222
G1 X84.269 Y100.231 E0.02222
G1 X84.686 Y100.805 E0.02223
G1 X84.974 Y101.452 E0.02222
G1 X85.105 Y102.067 E0.01970
G1 X84.736 Y102.145 F7200.000
G1 F1800
G1 X84.745 Y102.815 E0.02099
G1 X84.614 Y103.430 E0.01974
G1 X84.358 Y104.006 E0.01974
G1 X83.988 Y104.515 E0.01974
G1 X83.520 Y104.936 E0.01974
G1 X82.975 Y105.251 E0.01974
G1 X82.376 Y105.445 E0.01974
G1 X81.750 Y105.511 E0.01974
G1 X81.124 Y105.445 E0.01974
G1 X80.525 Y105.251 E0.01974
G1 X79.980 Y104.936 E0.01974
G1 X79.512 Y104.515 E0.01974
G1 X79.142 Y104.006 E0.01974
G1 X78.886 Y103.430 E0.01974
G1 X78.755 Y102.815 E0.01974
G1 X78.755 Y102.185 E0.01974
G1 X78.886 Y101.570 E0.01974
G1 X79.142 Y100.994 E0.01974
G1 X79.512 Y100.485 E0.01974
G1 X79.980 Y100.064 E0.01974
G1 X80.525 Y99.749 E0.01974
G1 X81.124 Y99.555 E0.01974
G1 X81.750 Y99.489 E0.01974
G1 X82.376 Y99.555 E0.01974
G1 X82.975 Y99.749 E0.01974
G1 X83.520 Y100.064 E0.01974
G1 X83.988 Y100.485 E0.01974
G1 X84.358 Y100.994 E0.01974
G1 X84.614 Y101.570 E0.01974
G1 X84.724 Y102.087 E0.01658
G1 X85.103 Y102.305 F7200.000
G1 F5760
G1 X84.745 Y102.815 E-0.25228
G1 X84.614 Y103.430 E-0.21801
G1 X84.358 Y104.006 E-0.21805
G1 X84.236 Y104.173 E-0.07167
G1 E-0.04000 F2100.00000
G1 Z0.800 F7200.000
G1 X73.714 Y95.964
G1 Z0.200
G1 E0.80000 F2100.00000
G1 F1800
G1 X131.286 Y95.964 E1.80512
G1 X131.286 Y109.036 E0.40985
G1 X73.714 Y109.036 E1.80512
G1 X73.714 Y96.024 E0.40797
G1 X73.337 Y95.587 F7200.000
G1 F1800
G1 X131.663 Y95.587 E1.82877
G1 X131.663 Y109.413 E0.43350
G1 X73.337 Y109.413 E1.82877
G1 X73.337 Y95.647 E0.43162
G1 X72.960 Y95.210 F7200.000
G1 F1800
G1 X132.040 Y95.210 E1.85241
G1 X132.040 Y109.790 E0.45715
G1 X72.960 Y109.790 E1.85241
G1 X72.960 Y95.270 E0.45526
G1 X73.359 Y95.242 F7200.000
G1 F5760
G1 X75.154 Y95.268 E-0.76000
G1 E-0.04000 F2100.00000
G1 Z0.800 F7200.000
G1 X73.827 Y108.156
G1 Z0.200
G1 E0.80000 F2100.00000
G1 F1800
G1 X74.424 Y108.753 E0.02663
G1 X74.961 Y108.753 E0.01692
G1 X73.997 Y107.789 E0.04299
G1 X73.997 Y107.253 E0.01692
G1 X75.497 Y108.753 E0.06691
G1 X76.034 Y108.753 E0.01692
G1 X73.997 Y106.716 E0.09083
G1 X73.997 Y106.180 E0.01692
G1 X76.570 Y108.753 E0.11476
G1 X77.106 Y108.753 E0.01692
G1 X73.997 Y105.644 E0.13868
G1 X73.997 Y105.107 E0.01692
G1 X77.643 Y108.753 E0.16260
G1 X78.179 Y108.753 E0.01692
G1 X73.997 Y104.571 E0.18653
G1 X73.997 Y104.035 E0.01692
G1 X78.715 Y108.753 E0.21045
G1 X79.252 Y108.753 E0.01692
G1 X73.997 Y103.498 E0.23437
G1 X73.997 Y102.962 E0.01692
G1 X79.788 Y108.753 E0.25830
G1 X80.325 Y108.753 E0.01692
G1 X73.997 Y102.425 E0.28222
G1 X73.997 Y101.889 E0.01692
G1 X80.861 Y108.753 E0.30614
G1 X81.397 Y108.753 E0.01692
G1 X73.997 Y101.353 E0.33006
G1 X73.997 Y100.816 E0.01692
G1 X82.103 Y108.923 E0.36156
G1 F5760
G1 X80.552 Y107.371 E-0.76000
G1 E-0.04000 F2100.00000
G1 Z0.800 F7200.000
G1 X93.368 Y108.923
G1 Z0.200
G1 E0.80000 F2100.00000
G1 F1800
G1 X85.536 Y101.091 E0.34930
G1 X85.605 Y101.247 E0.00540
G1 X85.727 Y101.818 E0.01841
G1 X92.661 Y108.753 E0.30929
G1 X92.125 Y108.753 E0.01692
G1 X85.782 Y102.410 E0.28292
G1 X85.778 Y102.942 E0.01679
G1 X91.589 Y108.753 E0.25917
G1 X91.052 Y108.753 E0.01692
G1 X85.684 Y103.384 E0.23944
G1 X85.578 Y103.815 E0.01398
G1 X90.516 Y108.753 E0.22025
G1 X89.980 Y108.753 E0.01692
G1 X85.413 Y104.186 E0.20369
G1 X85.242 Y104.552 E0.01274
G1 X89.443 Y108.753 E0.18736
G1 X88.907 Y108.753 E0.01692
G1 X85.017 Y104.863 E0.17350
G1 X84.791 Y105.174 E0.01211
G1 X88.370 Y108.753 E0.15965
G1 X87.834 Y108.753 E0.01692
G1 X84.516 Y105.435 E0.14800
G1 X84.233 Y105.689 E0.01198
G1 X87.298 Y108.753 E0.13666
G1 X86.761 Y108.753 E0.01692
G1 X83.914 Y105.906 E0.12699
G1 X83.574 Y106.102 E0.01238
G1 X86.225 Y108.753 E0.11823
G1 X85.688 Y108.753 E0.01692
G1 X83.203 Y106.267 E0.11087
G1 X82.798 Y106.399 E0.01342
G1 X85.152 Y108.753 E0.10501
G1 X84.616 Y108.753 E0.01692
G1 X82.353 Y106.490 E0.10091
G1 X81.868 Y106.541 E0.01539
G1 X84.079 Y108.753 E0.09864
G1 X83.543 Y108.753 E0.01692
G1 X81.296 Y106.506 E0.10022
G1 X80.907 Y106.465 E0.01233
G1 X80.628 Y106.375 E0.00925
G1 X83.007 Y108.753 E0.10608
G1 X82.470 Y108.753 E0.01692
G1 X73.997 Y100.280 E0.37791
G1 X73.997 Y99.743 E0.01692
G1 X77.864 Y103.611 E0.17249
G1 X77.720 Y102.930 E0.02196
G1 X73.997 Y99.207 E0.16603
G1 X73.997 Y98.671 E0.01692
G1 X77.718 Y102.392 E0.16598
G1 X77.718 Y102.076 E0.00996
G1 X77.757 Y101.894 E0.00586
G1 X73.997 Y98.134 E0.16770
G1 X73.997 Y97.598 E0.01692
G1 X77.851 Y101.452 E0.17190
G1 X77.895 Y101.247 E0.00660
G1 X77.983 Y101.048 E0.00688
G1 X73.997 Y97.062 E0.17780
G1 X73.997 Y96.525 E0.01692
G1 X78.149 Y100.677 E0.18517
G1 X78.239 Y100.473 E0.00703
G1 X78.341 Y100.333 E0.00546
G1 X74.255 Y96.247 E0.18224
G1 X74.792 Y96.247 E0.01692
G1 X78.567 Y100.022 E0.16838
G1 X78.737 Y99.787 E0.00916
G1 X78.806 Y99.725 E0.00292
G1 X75.328 Y96.247 E0.15514
G1 X75.864 Y96.247 E0.01692
G1 X79.089 Y99.471 E0.14381
G1 X79.372 Y99.218 E0.01198
G1 X76.401 Y96.247 E0.13251
G1 X76.937 Y96.247 E0.01692
G1 X79.712 Y99.022 E0.12375
G1 X80.052 Y98.825 E0.01238
G1 X77.473 Y96.247 E0.11499
G1 X78.010 Y96.247 E0.01692
G1 X80.447 Y98.684 E0.10871
G1 X80.852 Y98.553 E0.01342
G1 X78.546 Y96.247 E0.10284
G1 X79.083 Y96.247 E0.01692
G1 X81.326 Y98.491 E0.10007
G1 X81.750 Y98.446 E0.01343
G1 X81.826 Y98.454 E0.00242
G1 X79.619 Y96.247 E0.09844
G1 X80.155 Y96.247 E0.01692
G1 X82.426 Y98.517 E0.10125
G1 X82.593 Y98.535 E0.00531
G1 X83.166 Y98.721 E0.01900
G1 X80.692 Y96.247 E0.11034
G1 X81.228 Y96.247 E0.01692
G1 X93.734 Y108.753 E0.55778
G1 X94.271 Y108.753 E0.01692
G1 X81.765 Y96.247 E0.55778
G1 X82.301 Y96.247 E0.01692
G1 X94.807 Y108.753 E0.55778
G1 X95.343 Y108.753 E0.01692
G1 X82.837 Y96.247 E0.55778
G1 X83.374 Y96.247 E0.01692
G1 X95.880 Y108.753 E0.55778
G1 X96.416 Y108.753 E0.01692
G1 X83.910 Y96.247 E0.55778
G1 X84.446 Y96.247 E0.01692
G1 X96.953 Y108.753 E0.55778
G1 X97.489 Y108.753 E0.01692
G1 X84.983 Y96.247 E0.55778
G1 X85.519 Y96.247 E0.01692
G1 X98.025 Y108.753 E0.55778
G1 X98.562 Y108.753 E0.01692
G1 X86.056 Y96.247 E0.55778
G1 X86.592 Y96.247 E0.01692
G1 X99.098 Y108.753 E0.55778
G1 X99.634 Y108.753 E0.01692
G1 X87.128 Y96.247 E0.55778
G1 X87.665 Y96.247 E0.01692
G1 X100.171 Y108.753 E0.55778
G1 X100.707 Y108.753 E0.01692
G1 X88.201 Y96.247 E0.55778
G1 X88.738 Y96.247 E0.01692
G1 X101.244 Y108.753 E0.55778
G1 X101.780 Y108.753 E0.01692
G1 X89.274 Y96.247 E0.55778
G1 X89.810 Y96.247 E0.01692
G1 X102.316 Y108.753 E0.55778
G1 X102.853 Y108.753 E0.01692
G1 X90.347 Y96.247 E0.55778
G1 X90.883 Y96.247 E0.01692
G1 X103.389 Y108.753 E0.55778
G1 X103.926 Y108.753 E0.01692
G1 X91.419 Y96.247 E0.55778
G1 X91.956 Y96.247 E0.01692
G1 X104.462 Y108.753 E0.55778
G1 X104.998 Y108.753 E0.01692
G1 X92.492 Y96.247 E0.55778
G1 X93.029 Y96.247 E0.01692
G1 X105.704 Y108.923 E0.56535
G1 F5760
G1 X104.153 Y107.371 E-0.76000
G1 E-0.04000 F2100.00000
G1 Z0.800 F7200.000
G1 X103.548 Y106.230
G1 Z0.200
G1 E0.80000 F2100.00000
G1 F1800
G1 X106.071 Y108.753 E0.11252
G1 X106.607 Y108.753 E0.01692
G1 X104.355 Y106.501 E0.10046
G1 X104.965 Y106.574 E0.01937
G1 X107.144 Y108.753 E0.09720
G1 X107.680 Y108.753 E0.01692
G1 X105.504 Y106.577 E0.09705
G1 X105.990 Y106.526 E0.01539
G1 X108.217 Y108.753 E0.09933
G1 X108.753 Y108.753 E0.01692
G1 X106.413 Y106.413 E0.10435
G1 X106.818 Y106.282 E0.01342
G1 X109.289 Y108.753 E0.11022
G1 X109.826 Y108.753 E0.01692
G1 X107.174 Y106.102 E0.11825
G1 X107.514 Y105.905 E0.01238
G1 X110.362 Y108.753 E0.12701
G1 X110.899 Y108.753 E0.01692
G1 X107.822 Y105.676 E0.13722
G1 X108.104 Y105.422 E0.01198
G1 X111.435 Y108.753 E0.14856
G1 X111.971 Y108.753 E0.01692
G1 X108.369 Y105.151 E0.16067
G1 X108.595 Y104.840 E0.01211
G1 X112.508 Y108.753 E0.17452
G1 X113.044 Y108.753 E0.01692
G1 X108.816 Y104.525 E0.18857
G1 X108.981 Y104.154 E0.01281
G1 X113.580 Y108.753 E0.20513
G1 X114.117 Y108.753 E0.01692
G1 X109.146 Y103.783 E0.22168
G1 X109.243 Y103.343 E0.01420
G1 X114.653 Y108.753 E0.24129
G1 X115.190 Y108.753 E0.01692
G1 X109.331 Y102.895 E0.26128
G1 X109.331 Y102.358 E0.01692
G1 X115.726 Y108.753 E0.28521
G1 X116.262 Y108.753 E0.01692
G1 X109.264 Y101.755 E0.31213
G1 X109.153 Y101.232 E0.01686
G1 X109.053 Y101.007 E0.00775
G1 X116.968 Y108.923 E0.35304
G1 F5760
G1 X115.417 Y107.371 E-0.76000
G1 E-0.04000 F2100.00000
G1 Z0.800 F7200.000
G1 X101.556 Y104.238
G1 Z0.200
G1 E0.80000 F2100.00000
G1 F1800
G1 X93.565 Y96.247 E0.35642
G1 X94.101 Y96.247 E0.01692
G1 X101.273 Y103.418 E0.31984
G1 X101.169 Y102.929 E0.01578
G1 X101.169 Y102.778 E0.00476
G1 X94.638 Y96.247 E0.29128
G1 X95.174 Y96.247 E0.01692
G1 X101.169 Y102.241 E0.26736
G1 X101.169 Y102.071 E0.00538
G1 X101.233 Y101.769 E0.00973
G1 X95.711 Y96.247 E0.24630
G1 X96.247 Y96.247 E0.01692
G1 X101.327 Y101.327 E0.22657
G1 X101.347 Y101.232 E0.00306
G1 X101.477 Y100.940 E0.01006
G1 X96.783 Y96.247 E0.20933
G1 X97.320 Y96.247 E0.01692
G1 X101.642 Y100.569 E0.19278
G1 X101.696 Y100.448 E0.00419
G1 X101.848 Y100.239 E0.00815
G1 X97.856 Y96.247 E0.17804
G1 X98.392 Y96.247 E0.01692
G1 X102.074 Y99.928 E0.16419
G1 X102.200 Y99.754 E0.00679
G1 X102.324 Y99.642 E0.00526
G1 X98.929 Y96.247 E0.15144
G1 X99.465 Y96.247 E0.01692
G1 X102.607 Y99.388 E0.14010
G1 X102.899 Y99.145 E0.01201
G1 X100.002 Y96.247 E0.12923
G1 X100.538 Y96.247 E0.01692
G1 X103.239 Y98.948 E0.12048
G1 X103.579 Y98.752 E0.01238
G1 X101.074 Y96.247 E0.11172
G1 X101.611 Y96.247 E0.01692
G1 X103.985 Y98.621 E0.10588
G1 X104.391 Y98.490 E0.01345
G1 X102.147 Y96.247 E0.10006
G1 X102.684 Y96.247 E0.01692
