; generated by Slic3r Prusa Edition 1.39.2+win64 on 2018-08-22 at 14:33:24

; 

; external perimeters extrusion width = 0.45mm
; perimeters extrusion width = 0.45mm
; infill extrusion width = 0.45mm
; solid infill extrusion width = 0.45mm
; top infill extrusion width = 0.45mm
; first layer extrusion width = 0.42mm

M107
M115 U3.1.0 ; tell printer latest fw version
M83  ; extruder relative mode
M104 S205 ; set extruder temp
M140 S55 ; set bed temp
M190 S55 ; wait for bed temp
M109 S205 ; wait for extruder temp
G28 W ; home all without mesh bed level
G80 ; mesh bed leveling
G1 Y-3.0 F1000.0 ; go outside print area
G92 E0.0
G1 X60.0 E9.0  F1000.0 ; intro line
G1 X100.0 E12.5  F1000.0 ; intro line
G92 E0.0
M900 K30; Filament gcode
G21 ; set units to millimeters
G90 ; use absolute coordinates
M83 ; use relative distances for extrusion
;BEFORE_LAYER_CHANGE
;0.2


G1 E-0.80000 F2100.00000
G1 Z0.600 F7200.000
;AFTER_LAYER_CHANGE
;0.2
G1 X74.841 Y148.211
G1 Z0.200
G1 E0.80000 F2100.00000
M204 S1000
G1 F1800
G1 X74.610 Y147.282 E0.03001
G1 X74.610 Y129.106 E0.56990
G1 X75.631 Y102.307 E0.84086
G1 X75.784 Y100.974 E0.04206
G1 X76.190 Y99.678 E0.04260
G1 X77.166 Y97.995 E0.06100
G1 X78.091 Y96.993 E0.04275
G1 X79.353 Y96.088 E0.04871
G1 X80.745 Y95.476 E0.04764
G1 X82.330 Y95.155 E0.05072
G1 X122.526 Y95.150 E1.26033
G1 X124.039 Y95.420 E0.04818
G1 X124.509 Y95.572 E0.01550
G1 X125.756 Y96.152 E0.04310
G1 X127.103 Y97.183 E0.05319
G1 X127.989 Y98.194 E0.04215
G1 X128.758 Y99.546 E0.04877
G1 X129.219 Y100.990 E0.04752
G1 X129.371 Y102.660 E0.05260
G1 X129.210 Y104.059 E0.04414
G1 X119.302 Y147.719 E1.40374
G1 X119.103 Y148.265 E0.01823
G1 X118.775 Y148.750 E0.01835
G1 X118.407 Y149.091 E0.01574
G1 X117.975 Y149.347 E0.01574
G1 X117.499 Y149.506 E0.01574
G1 X116.997 Y149.563 E0.01585
G1 X76.951 Y149.562 E1.25561
G1 X76.133 Y149.404 E0.02614
G1 X75.419 Y148.973 E0.02614
G1 X74.877 Y148.259 E0.02813
G1 F5760
G1 X74.610 Y147.282 E-0.35069
G1 X74.610 Y146.100 E-0.40931
G1 E-0.04000 F2100.00000
G1 Z0.800 F7200.000
G1 X82.611 Y106.199
G1 Z0.200
G1 E0.80000 F2100.00000
G1 F1800
G1 X81.851 Y106.037 E0.02438
G1 X81.140 Y105.721 E0.02438
G1 X80.511 Y105.264 E0.02438
G1 X79.991 Y104.686 E0.02438
G1 X79.601 Y104.012 E0.02442
G1 X79.361 Y103.265 E0.02460
G1 X79.281 Y102.500 E0.02412
G1 X79.362 Y101.727 E0.02438
G1 X79.602 Y100.987 E0.02438
G1 X79.991 Y100.314 E0.02438
G1 X80.511 Y99.736 E0.02438
G1 X81.140 Y99.279 E0.02438
G1 X81.851 Y98.963 E0.02438
G1 X82.611 Y98.801 E0.02438
G1 X83.389 Y98.801 E0.02438
G1 X84.149 Y98.963 E0.02438
G1 X84.860 Y99.279 E0.02438
G1 X85.489 Y99.736 E0.02438
G1 X86.009 Y100.314 E0.02438
G1 X86.399 Y100.988 E0.02442
G1 X86.639 Y101.735 E0.02460
G1 X86.719 Y102.500 E0.02412
G1 X86.638 Y103.273 E0.02438
G1 X86.398 Y104.013 E0.02438
G1 X86.009 Y104.686 E0.02438
G1 X85.489 Y105.264 E0.02438
G1 X84.860 Y105.721 E0.02438
G1 X84.149 Y106.037 E0.02438
G1 X83.389 Y106.199 E0.02438
G1 X82.671 Y106.199 E0.02250
G1 X82.671 Y105.822 F7200.000
G1 F1800
G1 X81.968 Y105.677 E0.02252
G1 X81.330 Y105.393 E0.02190
G1 X80.765 Y104.982 E0.02190
G1 X80.298 Y104.463 E0.02190
G1 X79.948 Y103.858 E0.02192
G1 X79.732 Y103.187 E0.02212
G1 X79.660 Y102.500 E0.02165
G1 X79.733 Y101.806 E0.02190
G1 X79.948 Y101.141 E0.02190
G1 X80.298 Y100.537 E0.02189
G1 X80.765 Y100.018 E0.02190
G1 X81.330 Y99.607 E0.02190
G1 X81.968 Y99.323 E0.02190
G1 X82.651 Y99.178 E0.02190
G1 X83.349 Y99.178 E0.02189
G1 X84.032 Y99.323 E0.02190
G1 X84.670 Y99.607 E0.02190
G1 X85.235 Y100.018 E0.02190
G1 X85.702 Y100.537 E0.02190
G1 X86.052 Y101.142 E0.02192
G1 X86.268 Y101.813 E0.02212
G1 X86.340 Y102.500 E0.02165
G1 X86.267 Y103.194 E0.02190
G1 X86.052 Y103.859 E0.02190
G1 X85.702 Y104.463 E0.02189
G1 X85.235 Y104.982 E0.02190
G1 X84.670 Y105.393 E0.02190
G1 X84.032 Y105.677 E0.02190
G1 X83.349 Y105.822 E0.02190
G1 X82.731 Y105.822 E0.01937
G1 X82.731 Y105.445 F7200.000
G1 F1800
G1 X82.085 Y105.316 E0.02066
G1 X81.519 Y105.064 E0.01941
G1 X81.019 Y104.701 E0.01941
G1 X80.604 Y104.241 E0.01941
G1 X80.295 Y103.704 E0.01942
G1 X80.103 Y103.108 E0.01963
G1 X80.039 Y102.500 E0.01918
G1 X80.104 Y101.884 E0.01941
G1 X80.295 Y101.296 E0.01941
G1 X80.604 Y100.759 E0.01941
G1 X81.019 Y100.299 E0.01941
G1 X81.519 Y99.936 E0.01941
G1 X82.085 Y99.684 E0.01941
G1 X82.690 Y99.555 E0.01941
G1 X83.310 Y99.555 E0.01941
G1 X83.915 Y99.684 E0.01941
G1 X84.481 Y99.936 E0.01941
G1 X84.981 Y100.299 E0.01941
G1 X85.396 Y100.759 E0.01941
G1 X85.705 Y101.296 E0.01942
G1 X85.897 Y101.892 E0.01963
G1 X85.961 Y102.500 E0.01918
G1 X85.896 Y103.116 E0.01941
G1 X85.705 Y103.704 E0.01941
G1 X85.396 Y104.241 E0.01941
G1 X84.981 Y104.701 E0.01941
G1 X84.481 Y105.064 E0.01941
G1 X83.915 Y105.316 E0.01941
G1 X83.310 Y105.445 E0.01941
G1 X82.791 Y105.445 E0.01625
G1 X82.499 Y105.771 F7200.000
G1 F5760
G1 X82.085 Y105.316 E-0.24865
G1 X81.519 Y105.064 E-0.21441
G1 X81.019 Y104.701 E-0.21441
G1 X80.859 Y104.523 E-0.08253
G1 E-0.04000 F2100.00000
G1 Z0.800 F7200.000
G1 X82.579 Y106.508
G1 Z0.200
G1 E0.80000 F2100.00000
G1 F1800
G1 X81.754 Y106.333 E0.02642
G1 X80.985 Y105.991 E0.02642
G1 X80.303 Y105.495 E0.02642
G1 X79.739 Y104.869 E0.02642
G1 X79.318 Y104.139 E0.02642
G1 X79.058 Y103.338 E0.02642
G1 X78.969 Y102.500 E0.02642
G1 X79.058 Y101.662 E0.02642
G1 X79.318 Y100.861 E0.02642
G1 X79.739 Y100.131 E0.02642
G1 X80.303 Y99.505 E0.02642
G1 X80.985 Y99.009 E0.02642
G1 X81.754 Y98.667 E0.02642
G1 X82.578 Y98.492 E0.02639
G1 X83.431 Y98.494 E0.02674
G1 X84.245 Y98.667 E0.02612
G1 X85.015 Y99.009 E0.02642
G1 X85.697 Y99.505 E0.02642
G1 X86.261 Y100.131 E0.02642
G1 X86.682 Y100.861 E0.02642
G1 X86.942 Y101.662 E0.02642
G1 X87.031 Y102.500 E0.02642
G1 X86.942 Y103.338 E0.02642
G1 X86.682 Y104.139 E0.02642
G1 X86.261 Y104.869 E0.02642
G1 X85.697 Y105.495 E0.02642
G1 X85.015 Y105.991 E0.02642
G1 X84.245 Y106.333 E0.02642
G1 X83.421 Y106.508 E0.02642
G1 X82.639 Y106.508 E0.02454
G1 X82.639 Y106.886 F7200.000
G1 F1800
G1 X82.539 Y106.886 E0.00312
G1 X81.637 Y106.694 E0.02890
G1 X80.795 Y106.319 E0.02890
G1 X80.049 Y105.777 E0.02890
G1 X79.432 Y105.092 E0.02890
G1 X78.972 Y104.294 E0.02891
G1 X78.687 Y103.417 E0.02890
G1 X78.590 Y102.500 E0.02890
G1 X78.687 Y101.583 E0.02890
G1 X78.972 Y100.706 E0.02890
G1 X79.432 Y99.908 E0.02891
G1 X80.049 Y99.223 E0.02890
G1 X80.795 Y98.681 E0.02890
G1 X81.637 Y98.306 E0.02890
G1 X82.538 Y98.115 E0.02889
G1 X83.471 Y98.117 E0.02923
G1 X84.363 Y98.306 E0.02860
G1 X85.205 Y98.681 E0.02890
G1 X85.951 Y99.223 E0.02890
G1 X86.568 Y99.908 E0.02890
G1 X87.028 Y100.706 E0.02891
G1 X87.313 Y101.583 E0.02890
G1 X87.410 Y102.500 E0.02890
G1 X87.313 Y103.417 E0.02890
G1 X87.028 Y104.294 E0.02890
G1 X86.568 Y105.092 E0.02891
G1 X85.951 Y105.777 E0.02890
G1 X85.205 Y106.319 E0.02890
G1 X84.363 Y106.694 E0.02890
G1 X83.461 Y106.886 E0.02890
G1 X82.699 Y106.886 E0.02390
G1 X82.499 Y107.263 F7200.000
G1 F1800
G1 X81.520 Y107.054 E0.03139
G1 X80.606 Y106.647 E0.03139
G1 X79.796 Y106.059 E0.03139
G1 X79.126 Y105.315 E0.03139
G1 X78.625 Y104.448 E0.03139
G1 X78.316 Y103.496 E0.03139
G1 X78.211 Y102.500 E0.03139
G1 X78.316 Y101.504 E0.03139
G1 X78.625 Y100.552 E0.03139
G1 X79.126 Y99.685 E0.03139
G1 X79.796 Y98.941 E0.03139
G1 X80.606 Y98.353 E0.03139
G1 X81.520 Y97.946 E0.03139
G1 X82.499 Y97.737 E0.03138
G1 X83.511 Y97.740 E0.03171
G1 X84.480 Y97.946 E0.03107
G1 X85.394 Y98.353 E0.03139
G1 X86.204 Y98.941 E0.03139
G1 X86.874 Y99.685 E0.03139
G1 X87.375 Y100.552 E0.03139
G1 X87.684 Y101.504 E0.03139
G1 X87.789 Y102.500 E0.03139
G1 X87.684 Y103.496 E0.03139
G1 X87.375 Y104.448 E0.03139
G1 X86.874 Y105.315 E0.03139
G1 X86.204 Y106.059 E0.03139
G1 X85.394 Y106.647 E0.03139
G1 X84.480 Y107.054 E0.03139
G1 X83.501 Y107.263 E0.03139
G1 X82.559 Y107.263 E0.02951
G1 X82.337 Y106.897 F7200.000
G1 F5760
G1 X81.520 Y107.054 E-0.36710
G1 X80.606 Y106.647 E-0.34675
G1 X80.498 Y106.569 E-0.04615
G1 E-0.04000 F2100.00000
G1 Z0.800 F7200.000
G1 X92.602 Y104.012
G1 Z0.200
G1 E0.80000 F2100.00000
G1 F1800
G1 X92.361 Y103.265 E0.02460
G1 X92.281 Y102.500 E0.02412
G1 X92.362 Y101.727 E0.02438
G1 X92.602 Y100.987 E0.02438
G1 X92.991 Y100.314 E0.02438
G1 X93.511 Y99.736 E0.02438
G1 X94.140 Y99.279 E0.02438
G1 X94.851 Y98.963 E0.02438
G1 X95.611 Y98.801 E0.02438
G1 X96.389 Y98.801 E0.02438
G1 X97.149 Y98.963 E0.02438
G1 X97.860 Y99.279 E0.02438
G1 X98.489 Y99.736 E0.02438
G1 X99.009 Y100.314 E0.02438
G1 X99.398 Y100.988 E0.02442
G1 X99.639 Y101.735 E0.02460
G1 X99.719 Y102.500 E0.02412
G1 X99.638 Y103.273 E0.02438
G1 X99.398 Y104.013 E0.02438
G1 X99.009 Y104.686 E0.02438
G1 X98.489 Y105.264 E0.02438
G1 X97.860 Y105.721 E0.02438
G1 X97.149 Y106.037 E0.02438
G1 X96.389 Y106.199 E0.02438
G1 X95.611 Y106.199 E0.02438
G1 X94.851 Y106.037 E0.02438
G1 X94.140 Y105.721 E0.02438
G1 X93.511 Y105.264 E0.02438
G1 X92.991 Y104.686 E0.02438
G1 X92.632 Y104.064 E0.02254
G1 X92.958 Y103.875 F7200.000
G1 F1800
G1 X92.732 Y103.187 E0.02273
G1 X92.660 Y102.500 E0.02165
G1 X92.733 Y101.805 E0.02190
G1 X92.949 Y101.141 E0.02189
G1 X93.298 Y100.537 E0.02189
G1 X93.765 Y100.018 E0.02190
G1 X94.330 Y99.607 E0.02189
G1 X94.968 Y99.323 E0.02190
G1 X95.651 Y99.178 E0.02189
G1 X96.349 Y99.178 E0.02190
G1 X97.032 Y99.323 E0.02189
G1 X97.670 Y99.607 E0.02190
G1 X98.235 Y100.018 E0.02189
G1 X98.702 Y100.537 E0.02190
G1 X99.052 Y101.142 E0.02192
G1 X99.268 Y101.813 E0.02212
G1 X99.340 Y102.500 E0.02165
G1 X99.267 Y103.195 E0.02190
G1 X99.051 Y103.859 E0.02189
G1 X98.702 Y104.463 E0.02189
G1 X98.235 Y104.982 E0.02190
G1 X97.670 Y105.393 E0.02189
G1 X97.032 Y105.677 E0.02190
G1 X96.349 Y105.822 E0.02189
G1 X95.651 Y105.822 E0.02190
G1 X94.968 Y105.677 E0.02189
G1 X94.330 Y105.393 E0.02190
G1 X93.765 Y104.982 E0.02189
G1 X93.298 Y104.463 E0.02190
G1 X92.988 Y103.927 E0.01941
G1 X93.315 Y103.739 F7200.000
G1 F1800
G1 X93.103 Y103.108 E0.02085
G1 X93.039 Y102.500 E0.01918
G1 X93.104 Y101.884 E0.01941
G1 X93.295 Y101.296 E0.01941
G1 X93.604 Y100.759 E0.01941
G1 X94.019 Y100.299 E0.01941
G1 X94.519 Y99.936 E0.01941
G1 X95.085 Y99.684 E0.01941
G1 X95.690 Y99.555 E0.01941
G1 X96.310 Y99.555 E0.01941
G1 X96.915 Y99.684 E0.01941
G1 X97.481 Y99.936 E0.01941
G1 X97.981 Y100.299 E0.01941
G1 X98.396 Y100.759 E0.01941
G1 X98.705 Y101.296 E0.01942
G1 X98.897 Y101.892 E0.01963
G1 X98.961 Y102.500 E0.01918
G1 X98.896 Y103.116 E0.01941
G1 X98.705 Y103.704 E0.01941
G1 X98.396 Y104.241 E0.01941
G1 X97.981 Y104.701 E0.01941
G1 X97.481 Y105.064 E0.01941
G1 X96.915 Y105.316 E0.01941
G1 X96.310 Y105.445 E0.01941
G1 X95.690 Y105.445 E0.01941
G1 X95.085 Y105.316 E0.01941
G1 X94.519 Y105.064 E0.01941
G1 X94.019 Y104.701 E0.01941
G1 X93.604 Y104.241 E0.01941
G1 X93.345 Y103.791 E0.01629
G1 X92.917 Y103.700 F7200.000
G1 F5760
G1 X93.103 Y103.108 E-0.25075
G1 X93.039 Y102.500 E-0.21183
G1 X93.104 Y101.884 E-0.21441
G1 X93.178 Y101.656 E-0.08301
G1 E-0.04000 F2100.00000
G1 Z0.800 F7200.000
G1 X92.318 Y104.139
G1 Z0.200
G1 E0.80000 F2100.00000
G1 F1800
G1 X92.058 Y103.338 E0.02642
G1 X91.969 Y102.500 E0.02642
G1 X92.058 Y101.662 E0.02642
G1 X92.318 Y100.861 E0.02642
G1 X92.739 Y100.131 E0.02642
G1 X93.303 Y99.505 E0.02642
G1 X93.985 Y99.009 E0.02642
G1 X94.754 Y98.667 E0.02642
G1 X95.578 Y98.492 E0.02639
G1 X96.431 Y98.494 E0.02674
G1 X97.246 Y98.667 E0.02613
G1 X98.015 Y99.009 E0.02642
G1 X98.697 Y99.505 E0.02642
G1 X99.261 Y100.131 E0.02642
G1 X99.682 Y100.861 E0.02642
G1 X99.942 Y101.662 E0.02642
G1 X100.031 Y102.500 E0.02642
G1 X99.942 Y103.338 E0.02642
G1 X99.682 Y104.139 E0.02642
G1 X99.261 Y104.868 E0.02639
G1 X98.689 Y105.501 E0.02674
G1 X98.015 Y105.991 E0.02612
G1 X97.246 Y106.333 E0.02642
G1 X96.421 Y106.508 E0.02642
G1 X95.579 Y106.508 E0.02642
G1 X94.754 Y106.333 E0.02642
G1 X93.985 Y105.991 E0.02642
G1 X93.303 Y105.495 E0.02642
G1 X92.739 Y104.869 E0.02642
G1 X92.348 Y104.191 E0.02454
G1 X92.021 Y104.380 F7200.000
G1 F1800
G1 X91.972 Y104.294 E0.00312
G1 X91.687 Y103.417 E0.02890
G1 X91.590 Y102.500 E0.02890
G1 X91.687 Y101.583 E0.02890
G1 X91.972 Y100.706 E0.02890
G1 X92.432 Y99.908 E0.02891
G1 X93.049 Y99.223 E0.02890
G1 X93.795 Y98.681 E0.02890
G1 X94.637 Y98.306 E0.02890
G1 X95.539 Y98.115 E0.02889
G1 X96.471 Y98.117 E0.02922
G1 X97.363 Y98.306 E0.02860
G1 X98.205 Y98.681 E0.02890
G1 X98.951 Y99.223 E0.02891
G1 X99.568 Y99.908 E0.02890
G1 X100.028 Y100.706 E0.02890
G1 X100.313 Y101.583 E0.02891
G1 X100.410 Y102.500 E0.02890
G1 X100.313 Y103.417 E0.02890
G1 X100.028 Y104.294 E0.02891
G1 X99.568 Y105.091 E0.02889
G1 X98.943 Y105.783 E0.02922
G1 X98.205 Y106.319 E0.02860
G1 X97.363 Y106.694 E0.02890
G1 X96.461 Y106.886 E0.02891
G1 X95.539 Y106.886 E0.02890
G1 X94.637 Y106.694 E0.02891
G1 X93.795 Y106.319 E0.02890
G1 X93.049 Y105.777 E0.02890
G1 X92.432 Y105.092 E0.02890
G1 X92.051 Y104.432 E0.02390
G1 X91.625 Y104.448 F7200.000
G1 F1800
G1 X91.316 Y103.496 E0.03139
G1 X91.211 Y102.500 E0.03139
G1 X91.316 Y101.504 E0.03139
G1 X91.625 Y100.552 E0.03139
G1 X92.126 Y99.685 E0.03139
G1 X92.796 Y98.941 E0.03139
G1 X93.606 Y98.353 E0.03139
G1 X94.520 Y97.946 E0.03139
G1 X95.499 Y97.737 E0.03139
G1 X96.511 Y97.740 E0.03171
G1 X97.480 Y97.946 E0.03107
G1 X98.394 Y98.353 E0.03139
G1 X99.204 Y98.941 E0.03139
G1 X99.874 Y99.685 E0.03139
G1 X100.375 Y100.552 E0.03139
G1 X100.684 Y101.504 E0.03139
G1 X100.789 Y102.500 E0.03139
G1 X100.684 Y103.496 E0.03139
G1 X100.375 Y104.448 E0.03139
G1 X99.874 Y105.315 E0.03138
G1 X99.196 Y106.065 E0.03171
G1 X98.394 Y106.647 E0.03107
G1 X97.480 Y107.054 E0.03139
G1 X96.501 Y107.263 E0.03139
G1 X95.499 Y107.263 E0.03139
G1 X94.520 Y107.054 E0.03139
G1 X93.606 Y106.647 E0.03139
G1 X92.796 Y106.059 E0.03139
G1 X92.126 Y105.315 E0.03139
G1 X91.655 Y104.500 E0.02951
G1 X91.860 Y104.124 F7200.000
G1 F5760
G1 X91.316 Y103.496 E-0.36710
G1 X91.211 Y102.500 E-0.34675
G1 X91.225 Y102.367 E-0.04615
G1 E-0.04000 F2100.00000
G1 Z0.800 F7200.000
G1 X105.362 Y103.273
G1 Z0.200
G1 E0.80000 F2100.00000
G1 F1800
G1 X105.281 Y102.500 E0.02438
G1 X105.362 Y101.727 E0.02438
G1 X105.602 Y100.987 E0.02438
G1 X105.991 Y100.314 E0.02438
G1 X106.511 Y99.736 E0.02438
G1 X107.140 Y99.279 E0.02438
G1 X107.851 Y98.963 E0.02438
G1 X108.611 Y98.801 E0.02438
G1 X109.389 Y98.801 E0.02438
G1 X110.149 Y98.963 E0.02438
G1 X110.860 Y99.279 E0.02438
G1 X111.489 Y99.736 E0.02438
G1 X112.009 Y100.314 E0.02438
G1 X112.399 Y100.989 E0.02446
G1 X112.640 Y101.743 E0.02482
G1 X112.719 Y102.500 E0.02385
G1 X112.638 Y103.273 E0.02438
G1 X112.398 Y104.013 E0.02438
G1 X112.009 Y104.686 E0.02438
G1 X111.489 Y105.264 E0.02438
G1 X110.860 Y105.721 E0.02438
G1 X110.149 Y106.037 E0.02438
G1 X109.389 Y106.199 E0.02438
G1 X108.611 Y106.199 E0.02438
G1 X107.851 Y106.037 E0.02438
G1 X107.140 Y105.721 E0.02438
G1 X106.511 Y105.264 E0.02438
G1 X105.991 Y104.686 E0.02438
G1 X105.602 Y104.013 E0.02438
G1 X105.380 Y103.330 E0.02250
G1 X105.739 Y103.214 F7200.000
G1 F1800
G1 X105.660 Y102.500 E0.02252
G1 X105.733 Y101.805 E0.02190
G1 X105.949 Y101.141 E0.02189
G1 X106.298 Y100.537 E0.02189
G1 X106.765 Y100.018 E0.02190
G1 X107.330 Y99.607 E0.02189
G1 X107.968 Y99.323 E0.02190
G1 X108.651 Y99.178 E0.02189
G1 X109.349 Y99.178 E0.02190
G1 X110.032 Y99.323 E0.02189
G1 X110.670 Y99.607 E0.02190
G1 X111.235 Y100.018 E0.02189
G1 X111.702 Y100.537 E0.02190
G1 X112.052 Y101.143 E0.02194
G1 X112.269 Y101.821 E0.02234
G1 X112.340 Y102.500 E0.02140
G1 X112.267 Y103.195 E0.02190
G1 X112.051 Y103.859 E0.02189
G1 X111.702 Y104.463 E0.02189
G1 X111.235 Y104.982 E0.02190
G1 X110.670 Y105.393 E0.02189
G1 X110.032 Y105.677 E0.02190
G1 X109.349 Y105.822 E0.02189
G1 X108.651 Y105.822 E0.02190
G1 X107.968 Y105.677 E0.02189
G1 X107.330 Y105.393 E0.02190
G1 X106.765 Y104.982 E0.02189
G1 X106.298 Y104.463 E0.02190
G1 X105.949 Y103.859 E0.02189
G1 X105.758 Y103.271 E0.01938
G1 X106.116 Y103.154 F7200.000
G1 F1800
G1 X106.039 Y102.500 E0.02066
G1 X106.104 Y101.884 E0.01941
G1 X106.295 Y101.296 E0.01941
G1 X106.604 Y100.759 E0.01941
G1 X107.019 Y100.299 E0.01941
G1 X107.519 Y99.936 E0.01941
G1 X108.085 Y99.684 E0.01941
G1 X108.690 Y99.555 E0.01941
G1 X109.310 Y99.555 E0.01941
G1 X109.915 Y99.684 E0.01941
