; generated by Slic3r Prusa Edition 1.39.2+win64 on 2018-05-24 at 14:12:34

; 

; external perimeters extrusion width = 0.45mm
; perimeters extrusion width = 0.45mm
; infill extrusion width = 0.45mm
; solid infill extrusion width = 0.45mm
; top infill extrusion width = 0.45mm
; first layer extrusion width = 0.42mm

M107
M115 U3.1.0 ; tell printer latest fw version
M83  ; extruder relative mode
M104 S205 ; set extruder temp
M140 S55 ; set bed temp
M190 S55 ; wait for bed temp
M109 S205 ; wait for extruder temp
G28 W ; home all without mesh bed level
G80 ; mesh bed leveling
G1 Y-3.0 F1000.0 ; go outside print area
G92 E0.0
G1 X60.0 E9.0  F1000.0 ; intro line
G1 X100.0 E12.5  F1000.0 ; intro line
G92 E0.0
M900 K30; Filament gcode
G21 ; set units to millimeters
G90 ; use absolute coordinates
M83 ; use relative distances for extrusion
;BEFORE_LAYER_CHANGE
;0.2


G1 E-0.80000 F2100.00000
G1 Z0.600 F7200.000
;AFTER_LAYER_CHANGE
;0.2
G1 X88.463 Y71.525
G1 Z0.200
G1 E0.80000 F2100.00000
M204 S1000
G1 F1800
G1 X88.950 Y70.948 E0.02367
G1 X89.593 Y70.553 E0.02367
G1 X90.331 Y70.379 E0.02378
G1 X114.504 Y70.373 E0.75791
G1 X115.392 Y70.547 E0.02837
G1 X116.151 Y71.039 E0.02837
G1 X116.670 Y71.780 E0.02837
G1 X116.875 Y72.661 E0.02837
G1 X116.877 Y132.254 E1.86848
G1 X116.818 Y132.775 E0.01645
G1 X116.549 Y133.456 E0.02296
G1 X116.082 Y134.025 E0.02308
G1 X115.463 Y134.423 E0.02308
G1 X114.752 Y134.614 E0.02308
G1 X100.492 Y134.627 E0.44710
G1 X99.975 Y134.568 E0.01633
G1 X99.381 Y134.347 E0.01989
G1 X98.866 Y133.976 E0.01989
G1 X98.468 Y133.483 E0.01989
G1 X98.214 Y132.902 E0.01989
G1 X88.164 Y93.192 E1.28432
G1 X88.123 Y72.750 E0.64095
G1 X88.182 Y72.225 E0.01657
G1 X88.441 Y71.580 E0.02178
G1 F5760
G1 X88.950 Y70.948 E-0.28123
G1 X89.593 Y70.553 E-0.26142
G1 X90.204 Y70.409 E-0.21734
G1 E-0.04000 F2100.00000
G1 Z0.800 F7200.000
G1 X105.851 Y121.213
G1 Z0.200
G1 E0.80000 F2100.00000
G1 F1800
G1 X106.611 Y121.051 E0.02438
G1 X107.389 Y121.051 E0.02438
G1 X108.149 Y121.213 E0.02438
G1 X108.860 Y121.529 E0.02438
G1 X109.489 Y121.986 E0.02438
G1 X110.009 Y122.564 E0.02438
G1 X110.398 Y123.237 E0.02438
G1 X110.638 Y123.977 E0.02438
G1 X110.719 Y124.750 E0.02438
G1 X110.638 Y125.523 E0.02438
G1 X110.398 Y126.263 E0.02438
G1 X110.009 Y126.936 E0.02438
G1 X109.489 Y127.514 E0.02438
G1 X108.860 Y127.971 E0.02438
G1 X108.149 Y128.287 E0.02438
G1 X107.389 Y128.449 E0.02438
G1 X106.611 Y128.449 E0.02438
G1 X105.851 Y128.287 E0.02438
G1 X105.140 Y127.971 E0.02438
G1 X104.511 Y127.514 E0.02438
G1 X103.991 Y126.936 E0.02438
G1 X103.602 Y126.263 E0.02438
G1 X103.362 Y125.523 E0.02438
G1 X103.281 Y124.750 E0.02438
G1 X103.362 Y123.977 E0.02438
G1 X103.602 Y123.237 E0.02438
G1 X103.991 Y122.564 E0.02438
G1 X104.511 Y121.986 E0.02438
G1 X105.140 Y121.529 E0.02438
G1 X105.796 Y121.237 E0.02250
G1 X105.949 Y121.581 F7200.000
G1 F1800
G1 X106.651 Y121.428 E0.02252
G1 X107.349 Y121.428 E0.02190
G1 X108.032 Y121.573 E0.02189
G1 X108.670 Y121.857 E0.02190
G1 X109.235 Y122.268 E0.02190
G1 X109.702 Y122.787 E0.02189
G1 X110.052 Y123.391 E0.02190
G1 X110.267 Y124.055 E0.02189
G1 X110.340 Y124.750 E0.02190
G1 X110.267 Y125.445 E0.02190
G1 X110.052 Y126.109 E0.02189
G1 X109.702 Y126.713 E0.02190
G1 X109.235 Y127.232 E0.02189
G1 X108.670 Y127.643 E0.02190
G1 X108.032 Y127.927 E0.02190
G1 X107.349 Y128.072 E0.02189
G1 X106.651 Y128.072 E0.02190
G1 X105.968 Y127.927 E0.02189
G1 X105.330 Y127.643 E0.02190
G1 X104.765 Y127.232 E0.02190
G1 X104.298 Y126.713 E0.02189
G1 X103.949 Y126.109 E0.02189
G1 X103.733 Y125.445 E0.02189
G1 X103.660 Y124.750 E0.02190
G1 X103.733 Y124.055 E0.02190
G1 X103.949 Y123.391 E0.02189
G1 X104.298 Y122.787 E0.02189
G1 X104.765 Y122.268 E0.02189
G1 X105.330 Y121.857 E0.02190
G1 X105.894 Y121.606 E0.01938
G1 X106.048 Y121.950 F7200.000
G1 F1800
G1 X106.690 Y121.805 E0.02066
G1 X107.310 Y121.805 E0.01941
G1 X107.915 Y121.934 E0.01941
G1 X108.481 Y122.186 E0.01941
G1 X108.981 Y122.549 E0.01941
G1 X109.396 Y123.009 E0.01941
G1 X109.705 Y123.546 E0.01941
G1 X109.896 Y124.134 E0.01941
G1 X109.961 Y124.750 E0.01941
G1 X109.896 Y125.366 E0.01941
G1 X109.705 Y125.954 E0.01941
G1 X109.396 Y126.491 E0.01941
G1 X108.981 Y126.951 E0.01941
G1 X108.481 Y127.314 E0.01941
G1 X107.915 Y127.566 E0.01941
G1 X107.310 Y127.695 E0.01941
G1 X106.690 Y127.695 E0.01941
G1 X106.085 Y127.566 E0.01941
G1 X105.519 Y127.314 E0.01941
G1 X105.019 Y126.951 E0.01941
G1 X104.604 Y126.491 E0.01941
G1 X104.295 Y125.954 E0.01941
G1 X104.104 Y125.366 E0.01941
G1 X104.039 Y124.750 E0.01941
G1 X104.104 Y124.134 E0.01941
G1 X104.295 Y123.546 E0.01941
G1 X104.604 Y123.009 E0.01941
G1 X105.019 Y122.549 E0.01941
G1 X105.519 Y122.186 E0.01941
G1 X105.993 Y121.975 E0.01625
G1 X106.127 Y121.558 F7200.000
G1 F5760
G1 X106.690 Y121.805 E-0.24862
G1 X107.310 Y121.805 E-0.21444
G1 X107.915 Y121.934 E-0.21439
G1 X108.133 Y122.031 E-0.08254
G1 E-0.04000 F2100.00000
G1 Z0.800 F7200.000
G1 X106.653 Y86.051
G1 Z0.200
G1 E0.80000 F2100.00000
G1 F1800
G1 X105.974 Y85.907 E0.02176
G1 X105.340 Y85.625 E0.02176
G1 X104.779 Y85.217 E0.02176
G1 X104.314 Y84.701 E0.02176
G1 X103.968 Y84.100 E0.02176
G1 X103.753 Y83.440 E0.02175
G1 X103.681 Y82.750 E0.02176
G1 X103.753 Y82.060 E0.02176
G1 X103.968 Y81.400 E0.02176
G1 X104.314 Y80.799 E0.02176
G1 X104.779 Y80.283 E0.02176
G1 X105.340 Y79.875 E0.02176
G1 X105.974 Y79.593 E0.02176
G1 X106.653 Y79.449 E0.02176
G1 X107.347 Y79.449 E0.02176
G1 X108.026 Y79.593 E0.02176
G1 X108.660 Y79.875 E0.02176
G1 X109.221 Y80.283 E0.02176
G1 X109.686 Y80.799 E0.02176
G1 X110.032 Y81.400 E0.02176
G1 X110.247 Y82.060 E0.02176
G1 X110.319 Y82.750 E0.02176
G1 X110.247 Y83.440 E0.02176
G1 X110.032 Y84.100 E0.02175
G1 X109.686 Y84.701 E0.02176
G1 X109.221 Y85.217 E0.02176
G1 X108.660 Y85.625 E0.02176
G1 X108.026 Y85.907 E0.02176
G1 X107.347 Y86.051 E0.02176
G1 X106.713 Y86.051 E0.01987
G1 X106.713 Y85.674 F7200.000
G1 F1800
G1 X106.091 Y85.546 E0.01990
G1 X105.530 Y85.296 E0.01927
G1 X105.032 Y84.935 E0.01928
G1 X104.621 Y84.478 E0.01927
G1 X104.314 Y83.946 E0.01927
G1 X104.124 Y83.361 E0.01927
G1 X104.060 Y82.750 E0.01927
G1 X104.124 Y82.139 E0.01927
G1 X104.314 Y81.554 E0.01927
G1 X104.621 Y81.022 E0.01927
G1 X105.033 Y80.565 E0.01927
G1 X105.530 Y80.204 E0.01927
G1 X106.091 Y79.954 E0.01927
G1 X106.693 Y79.826 E0.01927
G1 X107.307 Y79.826 E0.01927
G1 X107.909 Y79.954 E0.01927
G1 X108.470 Y80.204 E0.01927
G1 X108.967 Y80.565 E0.01927
G1 X109.379 Y81.022 E0.01927
G1 X109.686 Y81.554 E0.01927
G1 X109.876 Y82.139 E0.01927
G1 X109.940 Y82.750 E0.01927
G1 X109.876 Y83.361 E0.01927
G1 X109.686 Y83.946 E0.01927
G1 X109.379 Y84.478 E0.01927
G1 X108.968 Y84.935 E0.01927
G1 X108.470 Y85.296 E0.01928
G1 X107.909 Y85.546 E0.01927
G1 X107.307 Y85.674 E0.01927
G1 X106.773 Y85.674 E0.01675
G1 X106.773 Y85.297 F7200.000
G1 F1800
G1 X106.209 Y85.186 E0.01804
G1 X105.719 Y84.968 E0.01679
G1 X105.286 Y84.653 E0.01679
G1 X104.928 Y84.255 E0.01679
G1 X104.660 Y83.792 E0.01679
G1 X104.495 Y83.283 E0.01679
G1 X104.439 Y82.750 E0.01679
G1 X104.495 Y82.218 E0.01679
G1 X104.660 Y81.708 E0.01679
G1 X104.928 Y81.245 E0.01679
G1 X105.286 Y80.847 E0.01679
G1 X105.719 Y80.532 E0.01679
G1 X106.209 Y80.314 E0.01679
G1 X106.732 Y80.203 E0.01679
G1 X107.268 Y80.203 E0.01679
G1 X107.791 Y80.314 E0.01679
G1 X108.281 Y80.532 E0.01679
G1 X108.714 Y80.847 E0.01679
G1 X109.072 Y81.245 E0.01679
G1 X109.340 Y81.708 E0.01679
G1 X109.505 Y82.218 E0.01679
G1 X109.561 Y82.750 E0.01679
G1 X109.505 Y83.283 E0.01679
G1 X109.340 Y83.792 E0.01679
G1 X109.072 Y84.255 E0.01679
G1 X108.714 Y84.653 E0.01679
G1 X108.281 Y84.968 E0.01679
G1 X107.791 Y85.186 E0.01679
G1 X107.268 Y85.297 E0.01679
G1 X106.833 Y85.297 E0.01363
G1 X106.542 Y85.623 F7200.000
G1 F5760
G1 X106.209 Y85.186 E-0.21972
G1 X105.719 Y84.968 E-0.18545
G1 X105.286 Y84.653 E-0.18547
G1 X104.959 Y84.290 E-0.16937
G1 E-0.04000 F2100.00000
G1 Z0.800 F7200.000
G1 X101.464 Y91.786
G1 Z0.200
G1 E0.80000 F2100.00000
G1 F1800
G1 X91.464 Y91.786 E0.31354
G1 X91.464 Y73.714 E0.56663
G1 X113.536 Y73.714 E0.69204
G1 X113.536 Y131.286 E1.80512
G1 X101.464 Y131.286 E0.37850
G1 X101.464 Y91.846 E1.23661
G1 X101.087 Y92.163 F7200.000
G1 F1800
G1 X91.087 Y92.163 E0.31354
G1 X91.087 Y73.337 E0.59027
G1 X113.913 Y73.337 E0.71569
G1 X113.913 Y131.663 E1.82877
G1 X101.087 Y131.663 E0.40215
G1 X101.087 Y92.223 E1.23661
G1 X100.710 Y92.540 F7200.000
G1 F1800
G1 X90.710 Y92.540 E0.31354
G1 X90.710 Y72.960 E0.61392
G1 X114.290 Y72.960 E0.73933
G1 X114.290 Y132.040 E1.85241
G1 X100.710 Y132.040 E0.42579
G1 X100.710 Y92.600 E1.23661
G1 X100.666 Y92.142 F7200.000
G1 F5760
G1 X98.516 Y92.587 E-0.76000
G1 E-0.04000 F2100.00000
G1 Z0.800 F7200.000
G1 X101.505 Y91.673
G1 Z0.200
G1 E0.80000 F2100.00000
G1 F1800
G1 X91.747 Y81.914 E0.43568
G1 X91.747 Y82.451 E0.01695
G1 X100.799 Y91.503 E0.40413
G1 X100.262 Y91.503 E0.01695
G1 X91.747 Y82.988 E0.38016
G1 X91.747 Y83.525 E0.01695
G1 X99.725 Y91.503 E0.35619
G1 X99.188 Y91.503 E0.01695
G1 X91.747 Y84.062 E0.33221
G1 X91.747 Y84.599 E0.01695
G1 X98.651 Y91.503 E0.30824
G1 X98.114 Y91.503 E0.01695
G1 X91.747 Y85.136 E0.28427
G1 X91.747 Y85.673 E0.01695
G1 X97.577 Y91.503 E0.26029
G1 X97.040 Y91.503 E0.01695
G1 X91.747 Y86.210 E0.23632
G1 X91.747 Y86.747 E0.01695
G1 X96.503 Y91.503 E0.21235
G1 X95.966 Y91.503 E0.01695
G1 X91.747 Y87.284 E0.18837
G1 X91.747 Y87.821 E0.01695
G1 X95.429 Y91.503 E0.16440
G1 X94.892 Y91.503 E0.01695
G1 X91.747 Y88.358 E0.14043
G1 X91.747 Y88.895 E0.01695
G1 X94.355 Y91.503 E0.11645
G1 X93.818 Y91.503 E0.01695
G1 X91.747 Y89.432 E0.09248
G1 X91.747 Y89.969 E0.01695
G1 X93.281 Y91.503 E0.06850
G1 X92.744 Y91.503 E0.01695
G1 X91.747 Y90.506 E0.04453
G1 X91.747 Y91.043 E0.01695
G1 X92.377 Y91.673 E0.02813
G1 F5760
G1 X91.747 Y91.043 E-0.30865
G1 X91.747 Y90.506 E-0.18597
G1 X92.289 Y91.047 E-0.26537
G1 E-0.04000 F2100.00000
G1 Z0.800 F7200.000
G1 X113.423 Y94.999
G1 Z0.200
G1 E0.80000 F2100.00000
G1 F1800
G1 X92.421 Y73.997 E0.93769
G1 X91.884 Y73.997 E0.01695
G1 X113.253 Y95.366 E0.95409
G1 X113.253 Y95.903 E0.01695
G1 X91.747 Y74.397 E0.96019
G1 X91.747 Y74.934 E0.01695
G1 X113.253 Y96.440 E0.96019
G1 X113.253 Y96.977 E0.01695
G1 X91.747 Y75.471 E0.96019
G1 X91.747 Y76.008 E0.01695
G1 X113.253 Y97.514 E0.96019
G1 X113.253 Y98.051 E0.01695
G1 X91.747 Y76.545 E0.96019
G1 X91.747 Y77.082 E0.01695
G1 X113.253 Y98.588 E0.96019
G1 X113.253 Y99.125 E0.01695
G1 X91.747 Y77.619 E0.96019
G1 X91.747 Y78.156 E0.01695
G1 X113.253 Y99.662 E0.96019
G1 X113.253 Y100.199 E0.01695
G1 X91.747 Y78.693 E0.96019
G1 X91.747 Y79.230 E0.01695
G1 X113.253 Y100.736 E0.96019
G1 X113.253 Y101.273 E0.01695
G1 X91.747 Y79.767 E0.96019
G1 X91.747 Y80.304 E0.01695
G1 X113.253 Y101.810 E0.96019
G1 X113.253 Y102.347 E0.01695
G1 X91.747 Y80.841 E0.96019
G1 X91.747 Y81.378 E0.01695
G1 X113.253 Y102.884 E0.96019
G1 X113.253 Y103.421 E0.01695
G1 X101.747 Y91.914 E0.51372
G1 X101.747 Y92.451 E0.01695
G1 X113.253 Y103.958 E0.51372
G1 X113.253 Y104.494 E0.01695
G1 X101.747 Y92.988 E0.51372
G1 X101.747 Y93.525 E0.01695
G1 X113.253 Y105.031 E0.51372
G1 X113.253 Y105.568 E0.01695
G1 X101.747 Y94.062 E0.51372
G1 X101.747 Y94.599 E0.01695
G1 X113.253 Y106.105 E0.51372
G1 X113.253 Y106.642 E0.01695
G1 X101.747 Y95.136 E0.51372
G1 X101.747 Y95.673 E0.01695
G1 X113.253 Y107.179 E0.51372
G1 X113.253 Y107.716 E0.01695
G1 X101.747 Y96.210 E0.51372
G1 X101.747 Y96.747 E0.01695
G1 X113.253 Y108.253 E0.51372
G1 X113.253 Y108.790 E0.01695
G1 X101.747 Y97.284 E0.51372
G1 X101.747 Y97.821 E0.01695
G1 X113.253 Y109.327 E0.51372
G1 X113.253 Y109.864 E0.01695
G1 X101.747 Y98.358 E0.51372
G1 X101.747 Y98.895 E0.01695
G1 X113.253 Y110.401 E0.51372
G1 X113.253 Y110.938 E0.01695
G1 X101.747 Y99.432 E0.51372
G1 X101.747 Y99.969 E0.01695
G1 X113.253 Y111.475 E0.51372
G1 X113.253 Y112.012 E0.01695
G1 X101.747 Y100.506 E0.51372
G1 X101.747 Y101.043 E0.01695
G1 X113.253 Y112.549 E0.51372
G1 X113.253 Y113.086 E0.01695
G1 X101.747 Y101.580 E0.51372
G1 X101.747 Y102.116 E0.01695
G1 X113.253 Y113.623 E0.51372
G1 X113.253 Y114.160 E0.01695
G1 X101.747 Y102.653 E0.51372
G1 X101.747 Y103.190 E0.01695
G1 X113.253 Y114.697 E0.51372
G1 X113.253 Y115.233 E0.01695
G1 X101.747 Y103.727 E0.51372
G1 X101.747 Y104.264 E0.01695
G1 X113.253 Y115.770 E0.51372
G1 X113.253 Y116.307 E0.01695
G1 X101.747 Y104.801 E0.51372
G1 X101.747 Y105.338 E0.01695
G1 X113.253 Y116.844 E0.51372
G1 X113.253 Y117.381 E0.01695
G1 X101.747 Y105.875 E0.51372
G1 X101.747 Y106.412 E0.01695
G1 X113.253 Y117.918 E0.51372
G1 X113.253 Y118.455 E0.01695
G1 X101.747 Y106.949 E0.51372
G1 X101.747 Y107.486 E0.01695
G1 X113.253 Y118.992 E0.51372
G1 X113.253 Y119.529 E0.01695
G1 X101.747 Y108.023 E0.51372
G1 X101.747 Y108.560 E0.01695
G1 X113.253 Y120.066 E0.51372
G1 X113.253 Y120.603 E0.01695
G1 X101.747 Y109.097 E0.51372
G1 X101.747 Y109.634 E0.01695
G1 X113.253 Y121.140 E0.51372
G1 X113.253 Y121.677 E0.01695
G1 X101.747 Y110.171 E0.51372
G1 X101.747 Y110.708 E0.01695
G1 X113.253 Y122.214 E0.51372
G1 X113.253 Y122.751 E0.01695
G1 X101.747 Y111.245 E0.51372
G1 X101.747 Y111.782 E0.01695
G1 X113.253 Y123.288 E0.51372
G1 X113.253 Y123.825 E0.01695
G1 X101.747 Y112.319 E0.51372
G1 X101.747 Y112.855 E0.01695
G1 X113.253 Y124.362 E0.51372
G1 X113.253 Y124.899 E0.01695
G1 X101.747 Y113.392 E0.51372
G1 X101.747 Y113.929 E0.01695
G1 X113.253 Y125.435 E0.51372
G1 X113.253 Y125.972 E0.01695
G1 X110.781 Y123.500 E0.11038
G1 X110.916 Y123.918 E0.01386
G1 X110.946 Y124.203 E0.00905
G1 X113.253 Y126.509 E0.10299
G1 X113.253 Y127.046 E0.01695
G1 X110.999 Y124.793 E0.10062
G1 X110.948 Y125.278 E0.01542
G1 X113.253 Y127.583 E0.10290
G1 X113.253 Y128.120 E0.01695
G1 X110.867 Y125.734 E0.10653
G1 X110.735 Y126.139 E0.01345
G1 X113.253 Y128.657 E0.11241
G1 X113.253 Y129.194 E0.01695
G1 X110.577 Y126.518 E0.11948
G1 X110.381 Y126.859 E0.01241
G1 X113.253 Y129.731 E0.12825
G1 X113.253 Y130.268 E0.01695
G1 X110.168 Y127.183 E0.13775
G1 X109.913 Y127.465 E0.01200
G1 X113.253 Y130.805 E0.14911
G1 X113.253 Y131.003 E0.00625
G1 X112.914 Y131.003 E0.01070
G1 X109.654 Y127.743 E0.14554
G1 X109.343 Y127.969 E0.01214
G1 X112.377 Y131.003 E0.13545
G1 X111.840 Y131.003 E0.01695
G1 X109.032 Y128.195 E0.12536
G1 X108.667 Y128.367 E0.01275
G1 X111.303 Y131.003 E0.11771
G1 X110.766 Y131.003 E0.01695
G1 X108.295 Y128.532 E0.11033
G1 X107.864 Y128.637 E0.01403
G1 X110.229 Y131.003 E0.10563
G1 X109.693 Y131.003 E0.01695
G1 X107.421 Y128.731 E0.10143
G1 X106.884 Y128.732 E0.01694
G1 X109.156 Y131.003 E0.10140
G1 X108.619 Y131.003 E0.01695
G1 X106.284 Y128.669 E0.10422
G1 X105.763 Y128.558 E0.01683
G1 X105.535 Y128.457 E0.00787
G1 X108.082 Y131.003 E0.11370
G1 X107.545 Y131.003 E0.01695
G1 X101.747 Y125.205 E0.25886
G1 X101.747 Y124.668 E0.01695
G1 X103.287 Y126.209 E0.06877
G1 X103.084 Y125.583 E0.02078
G1 X103.070 Y125.455 E0.00406
G1 X101.747 Y124.131 E0.05908
G1 X101.747 Y123.594 E0.01695
G1 X103.007 Y124.855 E0.05627
G1 X102.996 Y124.750 E0.00332
G1 X103.038 Y124.349 E0.01273
G1 X101.747 Y123.057 E0.05766
G1 X101.747 Y122.521 E0.01695
G1 X103.098 Y123.872 E0.06034
G1 X103.230 Y123.467 E0.01345
G1 X101.747 Y121.984 E0.06622
G1 X101.747 Y121.447 E0.01695
G1 X103.371 Y123.071 E0.07253
G1 X103.568 Y122.731 E0.01241
G1 X101.747 Y120.910 E0.08130
G1 X101.747 Y120.373 E0.01695
G1 X103.766 Y122.391 E0.09013
G1 X104.020 Y122.109 E0.01200
G1 X101.747 Y119.836 E0.10149
G1 X101.747 Y119.299 E0.01695
G1 X104.274 Y121.826 E0.11284
G1 X104.575 Y121.590 E0.01207
G1 X101.747 Y118.762 E0.12627
G1 X101.747 Y118.225 E0.01695
G1 X104.886 Y121.364 E0.14015
G1 X104.998 Y121.283 E0.00437
G1 X105.236 Y121.177 E0.00821
G1 X101.747 Y117.688 E0.15576
G1 X101.747 Y117.151 E0.01695
G1 X105.607 Y121.011 E0.17235
G1 X105.763 Y120.942 E0.00537
G1 X106.020 Y120.887 E0.00831
G1 X101.747 Y116.614 E0.19079
G1 X101.747 Y116.077 E0.01695
G1 X106.463 Y120.793 E0.21056
G1 X106.581 Y120.768 E0.00382
G1 X106.975 Y120.768 E0.01242
G1 X101.747 Y115.540 E0.23341
G1 X101.747 Y115.003 E0.01695
G1 X107.537 Y120.793 E0.25851
G1 X108.219 Y120.938 E0.02201
G1 X101.577 Y114.297 E0.29653
G1 F5760
