; generated by Slic3r Prusa Edition 1.39.2+win64 on 2018-08-04 at 14:39:37

; 

; external perimeters extrusion width = 0.45mm
; perimeters extrusion width = 0.45mm
; infill extrusion width = 0.45mm
; solid infill extrusion width = 0.45mm
; top infill extrusion width = 0.45mm
; first layer extrusion width = 0.42mm

M107
M115 U3.1.0 ; tell printer latest fw version
M83  ; extruder relative mode
M104 S205 ; set extruder temp
M140 S55 ; set bed temp
M190 S55 ; wait for bed temp
M109 S205 ; wait for extruder temp
G28 W ; home all without mesh bed level
G80 ; mesh bed leveling
G1 Y-3.0 F1000.0 ; go outside print area
G92 E0.0
G1 X60.0 E9.0  F1000.0 ; intro line
G1 X100.0 E12.5  F1000.0 ; intro line
G92 E0.0
M900 K30; Filament gcode
G21 ; set units to millimeters
G90 ; use absolute coordinates
M83 ; use relative distances for extrusion
;BEFORE_LAYER_CHANGE
;0.2


G1 E-0.80000 F2100.00000
G1 Z0.600 F7200.000
;AFTER_LAYER_CHANGE
;0.2
G1 X95.231 Y67.753
G1 Z0.200
G1 E0.80000 F2100.00000
M204 S1000
G1 F1800
G1 X96.684 Y66.122 E0.06848
G1 X97.974 Y65.203 E0.04967
G1 X99.551 Y64.503 E0.05408
G1 X101.241 Y64.141 E0.05420
G1 X102.775 Y64.124 E0.04811
G1 X122.189 Y64.245 E0.60872
G1 X123.932 Y64.574 E0.05560
G1 X125.707 Y65.338 E0.06059
G1 X127.264 Y66.507 E0.06106
G1 X128.287 Y67.661 E0.04836
G1 X129.057 Y68.967 E0.04752
G1 X129.678 Y70.728 E0.05855
G1 X129.890 Y72.592 E0.05882
G1 X129.614 Y118.349 E1.43472
G1 X129.065 Y132.842 E0.45474
G1 X128.892 Y134.367 E0.04814
G1 X128.429 Y135.831 E0.04812
G1 X127.447 Y137.586 E0.06307
G1 X126.319 Y138.835 E0.05277
G1 X125.074 Y139.758 E0.04859
G1 X123.164 Y140.627 E0.06578
G1 X121.575 Y140.954 E0.05086
G1 X119.957 Y140.965 E0.05074
G1 X100.928 Y139.806 E0.59774
G1 X99.303 Y139.483 E0.05193
G1 X97.532 Y138.720 E0.06047
G1 X95.975 Y137.551 E0.06106
G1 X94.950 Y136.393 E0.04848
G1 X94.182 Y135.091 E0.04740
G1 X93.561 Y133.330 E0.05855
G1 X93.349 Y131.454 E0.05918
G1 X93.767 Y72.448 E1.85015
G1 X93.919 Y70.908 E0.04851
G1 X94.468 Y69.115 E0.05881
G1 X95.202 Y67.806 E0.04706
G1 F5760
G1 X96.652 Y66.159 E-0.76000
G1 E-0.04000 F2100.00000
G1 Z0.800 F7200.000
G1 X102.085 Y98.552
G1 Z0.200
G1 E0.80000 F2100.00000
G1 F1800
G1 X102.915 Y98.552 E0.02602
G1 X103.727 Y98.725 E0.02602
G1 X104.485 Y99.062 E0.02602
G1 X105.156 Y99.550 E0.02602
G1 X105.711 Y100.167 E0.02602
G1 X106.126 Y100.885 E0.02602
G1 X106.383 Y101.675 E0.02602
G1 X106.469 Y102.500 E0.02602
G1 X106.383 Y103.325 E0.02602
G1 X106.126 Y104.116 E0.02607
G1 X105.703 Y104.842 E0.02634
G1 X105.156 Y105.450 E0.02564
G1 X104.485 Y105.938 E0.02602
G1 X103.727 Y106.275 E0.02602
G1 X102.915 Y106.448 E0.02602
G1 X102.085 Y106.448 E0.02602
G1 X101.273 Y106.275 E0.02602
G1 X100.515 Y105.938 E0.02602
G1 X99.844 Y105.450 E0.02602
G1 X99.289 Y104.833 E0.02602
G1 X98.874 Y104.115 E0.02602
G1 X98.617 Y103.325 E0.02602
G1 X98.531 Y102.500 E0.02602
G1 X98.617 Y101.675 E0.02602
G1 X98.874 Y100.884 E0.02607
G1 X99.297 Y100.158 E0.02634
G1 X99.844 Y99.550 E0.02564
G1 X100.515 Y99.062 E0.02602
G1 X101.273 Y98.725 E0.02602
G1 X102.026 Y98.565 E0.02414
G1 X102.105 Y98.934 F7200.000
G1 F1800
G1 X102.875 Y98.929 E0.02416
G1 X103.609 Y99.085 E0.02353
G1 X104.295 Y99.391 E0.02353
G1 X104.902 Y99.832 E0.02353
G1 X105.405 Y100.390 E0.02353
G1 X105.780 Y101.040 E0.02353
G1 X106.012 Y101.754 E0.02353
G1 X106.090 Y102.500 E0.02353
G1 X106.012 Y103.246 E0.02353
G1 X105.780 Y103.961 E0.02357
G1 X105.397 Y104.619 E0.02385
G1 X104.902 Y105.168 E0.02317
G1 X104.295 Y105.609 E0.02353
G1 X103.609 Y105.915 E0.02353
G1 X102.875 Y106.071 E0.02353
G1 X102.125 Y106.071 E0.02353
G1 X101.391 Y105.915 E0.02353
G1 X100.705 Y105.609 E0.02353
G1 X100.098 Y105.168 E0.02353
G1 X99.595 Y104.610 E0.02353
G1 X99.220 Y103.960 E0.02353
G1 X98.988 Y103.246 E0.02353
G1 X98.910 Y102.500 E0.02353
G1 X98.988 Y101.754 E0.02353
G1 X99.220 Y101.039 E0.02357
G1 X99.603 Y100.381 E0.02385
G1 X100.098 Y99.832 E0.02317
G1 X100.705 Y99.391 E0.02353
G1 X101.391 Y99.085 E0.02353
G1 X102.046 Y98.946 E0.02101
G1 X102.124 Y99.315 F7200.000
G1 F1800
G1 X102.836 Y99.306 E0.02230
G1 X103.492 Y99.446 E0.02105
G1 X104.106 Y99.719 E0.02105
G1 X104.649 Y100.114 E0.02105
G1 X105.098 Y100.613 E0.02105
G1 X105.434 Y101.194 E0.02105
G1 X105.641 Y101.832 E0.02105
G1 X105.711 Y102.500 E0.02105
G1 X105.641 Y103.168 E0.02105
G1 X105.433 Y103.806 E0.02106
G1 X105.091 Y104.396 E0.02137
G1 X104.649 Y104.886 E0.02071
G1 X104.106 Y105.281 E0.02105
G1 X103.492 Y105.554 E0.02105
G1 X102.836 Y105.694 E0.02105
G1 X102.164 Y105.694 E0.02105
G1 X101.508 Y105.554 E0.02105
G1 X100.894 Y105.281 E0.02105
G1 X100.351 Y104.886 E0.02105
G1 X99.902 Y104.387 E0.02105
G1 X99.566 Y103.806 E0.02105
G1 X99.359 Y103.168 E0.02105
G1 X99.289 Y102.500 E0.02105
G1 X99.359 Y101.832 E0.02105
G1 X99.567 Y101.194 E0.02106
G1 X99.909 Y100.604 E0.02137
G1 X100.351 Y100.114 E0.02071
G1 X100.894 Y99.719 E0.02105
G1 X101.508 Y99.446 E0.02105
G1 X102.066 Y99.327 E0.01789
G1 X102.284 Y98.948 F7200.000
G1 F5760
G1 X102.836 Y99.306 E-0.26674
G1 X103.492 Y99.446 E-0.23251
G1 X104.106 Y99.719 E-0.23251
G1 X104.172 Y99.767 E-0.02824
G1 E-0.04000 F2100.00000
G1 Z0.800 F7200.000
G1 X101.973 Y97.497
G1 Z0.200
G1 E0.80000 F2100.00000
G1 F1800
G1 X103.045 Y97.501 E0.03362
G1 X104.055 Y97.716 E0.03237
G1 X105.015 Y98.143 E0.03297
G1 X105.866 Y98.762 E0.03297
G1 X106.570 Y99.543 E0.03297
G1 X107.096 Y100.454 E0.03297
G1 X107.421 Y101.454 E0.03297
G1 X107.531 Y102.500 E0.03297
G1 X107.421 Y103.546 E0.03297
G1 X107.096 Y104.546 E0.03297
G1 X106.579 Y105.440 E0.03237
G1 X105.865 Y106.239 E0.03362
G1 X105.015 Y106.857 E0.03292
G1 X104.055 Y107.284 E0.03297
G1 X103.026 Y107.503 E0.03297
G1 X101.974 Y107.503 E0.03297
G1 X100.945 Y107.284 E0.03297
G1 X99.985 Y106.857 E0.03297
G1 X99.134 Y106.238 E0.03297
G1 X98.430 Y105.457 E0.03297
G1 X97.904 Y104.546 E0.03297
G1 X97.579 Y103.546 E0.03297
G1 X97.469 Y102.500 E0.03297
G1 X97.579 Y101.454 E0.03297
G1 X97.904 Y100.454 E0.03297
G1 X98.430 Y99.543 E0.03297
G1 X99.134 Y98.762 E0.03297
G1 X99.985 Y98.143 E0.03297
G1 X100.945 Y97.716 E0.03297
G1 X101.914 Y97.510 E0.03104
G1 X101.835 Y97.141 F7200.000
G1 F1800
G1 X101.934 Y97.120 E0.00314
G1 X103.085 Y97.124 E0.03610
G1 X104.172 Y97.355 E0.03484
G1 X105.205 Y97.815 E0.03546
G1 X106.120 Y98.480 E0.03546
G1 X106.877 Y99.320 E0.03546
G1 X107.442 Y100.300 E0.03546
G1 X107.791 Y101.375 E0.03546
G1 X107.910 Y102.500 E0.03546
G1 X107.791 Y103.625 E0.03546
G1 X107.442 Y104.700 E0.03546
G1 X106.886 Y105.663 E0.03484
G1 X106.119 Y106.521 E0.03610
G1 X105.205 Y107.185 E0.03543
G1 X104.172 Y107.645 E0.03546
G1 X103.065 Y107.880 E0.03546
G1 X101.935 Y107.880 E0.03546
G1 X100.828 Y107.645 E0.03546
G1 X99.795 Y107.185 E0.03546
G1 X98.880 Y106.520 E0.03546
G1 X98.123 Y105.680 E0.03546
G1 X97.558 Y104.700 E0.03546
G1 X97.209 Y103.625 E0.03546
G1 X97.090 Y102.500 E0.03546
G1 X97.209 Y101.375 E0.03546
G1 X97.558 Y100.300 E0.03546
G1 X98.123 Y99.320 E0.03546
G1 X98.880 Y98.480 E0.03546
G1 X99.795 Y97.815 E0.03546
G1 X100.828 Y97.355 E0.03546
G1 X101.777 Y97.153 E0.03040
G1 X101.895 Y96.743 F7200.000
G1 F1800
G1 X103.125 Y96.747 E0.03859
G1 X104.289 Y96.994 E0.03730
G1 X105.394 Y97.487 E0.03795
G1 X106.373 Y98.198 E0.03794
G1 X107.183 Y99.097 E0.03795
G1 X107.788 Y100.145 E0.03794
G1 X108.162 Y101.296 E0.03794
G1 X108.289 Y102.500 E0.03794
G1 X108.162 Y103.704 E0.03794
G1 X107.788 Y104.855 E0.03794
G1 X107.194 Y105.885 E0.03730
G1 X106.373 Y106.802 E0.03859
G1 X105.394 Y107.513 E0.03793
G1 X104.289 Y108.006 E0.03794
G1 X103.105 Y108.257 E0.03794
G1 X101.895 Y108.257 E0.03794
G1 X100.711 Y108.006 E0.03794
G1 X99.606 Y107.513 E0.03794
G1 X98.627 Y106.802 E0.03794
G1 X97.817 Y105.903 E0.03795
G1 X97.212 Y104.855 E0.03794
G1 X96.838 Y103.704 E0.03794
G1 X96.711 Y102.500 E0.03794
G1 X96.838 Y101.296 E0.03794
G1 X97.212 Y100.145 E0.03794
G1 X97.817 Y99.097 E0.03794
G1 X98.627 Y98.198 E0.03795
G1 X99.606 Y97.487 E0.03794
G1 X100.711 Y96.994 E0.03794
G1 X101.836 Y96.755 E0.03605
G1 X102.129 Y97.067 F7200.000
G1 F5760
G1 X103.125 Y96.747 E-0.44658
G1 X104.010 Y96.935 E-0.31342
G1 E-0.04000 F2100.00000
G1 Z0.800 F7200.000
G1 X104.933 Y98.231
G1 Z0.200
G1 E0.80000 F2100.00000
G1 F1800
G1 X106.704 Y100.001 E0.07894
G1 F5760
G1 X105.152 Y98.450 E-0.76000
G1 E-0.04000 F2100.00000
G1 Z0.800 F7200.000
G1 X107.148 Y100.982
G1 Z0.200
G1 E0.80000 F2100.00000
G1 F1800
G1 X104.301 Y98.135 E0.12693
G1 X103.967 Y97.986 E0.01155
G1 X103.522 Y97.892 E0.01435
G1 X104.301 Y98.671 E0.03476
G1 X103.815 Y98.454 E0.01679
G1 X103.476 Y98.383 E0.01090
G1 X102.877 Y97.783 E0.02672
G1 X102.339 Y97.781 E0.01696
G1 X102.827 Y98.269 E0.02176
G1 X102.291 Y98.269 E0.01690
G1 X101.837 Y97.815 E0.02025
G1 X101.395 Y97.909 E0.01425
G1 X101.807 Y98.322 E0.01841
G1 X101.365 Y98.416 E0.01425
G1 X100.965 Y98.016 E0.01783
G1 X100.594 Y98.182 E0.01280
G1 X100.965 Y98.552 E0.01654
G1 X100.594 Y98.718 E0.01280
G1 X100.223 Y98.347 E0.01654
G1 X100.127 Y98.390 E0.00333
G1 X99.897 Y98.557 E0.00896
G1 X100.248 Y98.907 E0.01563
G1 X99.937 Y99.133 E0.01210
G1 X99.587 Y98.782 E0.01563
G1 X99.285 Y99.017 E0.01205
G1 X99.631 Y99.363 E0.01546
G1 X99.377 Y99.646 E0.01197
G1 X99.031 Y99.299 E0.01546
G1 X98.777 Y99.581 E0.01197
G1 X99.123 Y99.928 E0.01546
G1 X99.067 Y99.990 E0.00265
G1 X98.914 Y100.254 E0.00962
G1 X98.554 Y99.894 E0.01603
G1 X98.358 Y100.234 E0.01238
G1 X98.716 Y100.593 E0.01599
G1 X98.615 Y100.768 E0.00637
G1 X98.551 Y100.964 E0.00650
G1 X98.162 Y100.575 E0.01733
G1 X98.031 Y100.980 E0.01342
G1 X98.419 Y101.369 E0.01733
G1 X98.339 Y101.616 E0.00819
G1 X98.319 Y101.805 E0.00599
G1 X97.899 Y101.385 E0.01873
G1 X97.858 Y101.513 E0.00426
G1 X97.823 Y101.844 E0.01050
G1 X98.268 Y102.290 E0.01986
G1 X98.246 Y102.500 E0.00666
G1 X98.282 Y102.840 E0.01077
G1 X97.772 Y102.330 E0.02275
G1 X97.754 Y102.500 E0.00540
G1 X97.795 Y102.889 E0.01232
G1 X98.363 Y103.457 E0.02532
G1 X98.633 Y104.263 E0.02682
G1 X97.858 Y103.488 E0.03456
G1 X98.116 Y104.282 E0.02633
G1 X100.698 Y106.865 E0.11513
G1 X101.033 Y107.014 E0.01156
G1 X101.478 Y107.108 E0.01434
G1 X100.699 Y106.329 E0.03476
G1 X101.185 Y106.546 E0.01680
G1 X101.523 Y106.617 E0.01089
G1 X102.126 Y107.220 E0.02687
G1 X102.662 Y107.220 E0.01690
G1 X102.173 Y106.731 E0.02183
G1 X102.709 Y106.731 E0.01690
G1 X103.163 Y107.185 E0.02025
G1 X103.605 Y107.091 E0.01425
G1 X103.192 Y106.678 E0.01841
G1 X103.635 Y106.584 E0.01425
G1 X104.035 Y106.984 E0.01783
G1 X104.406 Y106.818 E0.01280
G1 X104.035 Y106.448 E0.01654
G1 X104.406 Y106.282 E0.01280
G1 X104.777 Y106.653 E0.01654
G1 X104.873 Y106.610 E0.00333
G1 X105.103 Y106.443 E0.00895
G1 X104.752 Y106.093 E0.01563
G1 X105.063 Y105.867 E0.01210
G1 X105.413 Y106.218 E0.01563
G1 X105.674 Y106.028 E0.01016
G1 X105.715 Y105.983 E0.00192
G1 X105.368 Y105.637 E0.01544
G1 X105.623 Y105.354 E0.01197
G1 X105.968 Y105.700 E0.01540
G1 X106.221 Y105.417 E0.01197
G1 X105.877 Y105.072 E0.01536
G1 X105.933 Y105.010 E0.00266
G1 X106.086 Y104.746 E0.00962
G1 X106.446 Y105.106 E0.01603
G1 X106.642 Y104.766 E0.01238
G1 X106.284 Y104.407 E0.01599
G1 X106.385 Y104.232 E0.00638
G1 X106.449 Y104.036 E0.00650
G1 X106.838 Y104.425 E0.01733
G1 X106.969 Y104.020 E0.01342
G1 X106.581 Y103.632 E0.01733
G1 X106.661 Y103.384 E0.00819
G1 X106.681 Y103.195 E0.00599
G1 X107.101 Y103.615 E0.01872
G1 X107.142 Y103.487 E0.00426
G1 X107.177 Y103.156 E0.01049
G1 X106.732 Y102.710 E0.01986
G1 X106.754 Y102.500 E0.00667
G1 X106.718 Y102.160 E0.01076
G1 X107.228 Y102.671 E0.02274
G1 X107.246 Y102.500 E0.00541
G1 X107.205 Y102.111 E0.01232
G1 X106.637 Y101.544 E0.02532
G1 X106.367 Y100.737 E0.02682
G1 X107.333 Y101.703 E0.04306
G1 F5760
G1 X106.367 Y100.737 E-0.47311
G1 X106.630 Y101.522 E-0.28689
G1 E-0.04000 F2100.00000
G1 Z0.800 F7200.000
G1 X100.067 Y106.769
G1 Z0.200
G1 E0.80000 F2100.00000
G1 F1800
G1 X98.297 Y104.999 E0.07892
G1 F5760
G1 X99.848 Y106.551 E-0.76000
G1 E-0.04000 F2100.00000
G1 Z0.800 F7200.000
G1 X101.366 Y113.208
G1 Z0.200
G1 E0.80000 F2100.00000
G1 F1800
G1 X102.178 Y113.036 E0.02602
G1 X103.008 Y113.036 E0.02602
G1 X103.820 Y113.208 E0.02602
G1 X104.578 Y113.546 E0.02602
G1 X105.249 Y114.033 E0.02602
G1 X105.804 Y114.650 E0.02602
G1 X106.219 Y115.369 E0.02602
G1 X106.476 Y116.158 E0.02602
G1 X106.562 Y116.983 E0.02602
G1 X106.476 Y117.809 E0.02602
G1 X106.219 Y118.599 E0.02607
G1 X105.796 Y119.325 E0.02634
G1 X105.249 Y119.933 E0.02564
G1 X104.578 Y120.421 E0.02602
G1 X103.820 Y120.758 E0.02602
G1 X103.008 Y120.931 E0.02602
G1 X102.178 Y120.931 E0.02602
G1 X101.366 Y120.758 E0.02602
G1 X100.608 Y120.421 E0.02602
G1 X99.937 Y119.933 E0.02602
G1 X99.382 Y119.316 E0.02602
G1 X98.967 Y118.598 E0.02602
G1 X98.710 Y117.809 E0.02602
G1 X98.623 Y116.983 E0.02602
G1 X98.710 Y116.158 E0.02602
G1 X98.967 Y115.367 E0.02607
G1 X99.390 Y114.641 E0.02634
G1 X99.937 Y114.033 E0.02564
G1 X100.608 Y113.546 E0.02602
G1 X101.311 Y113.232 E0.02414
G1 X101.465 Y113.577 F7200.000
G1 F1800
G1 X102.218 Y113.413 E0.02416
G1 X102.968 Y113.413 E0.02353
G1 X103.702 Y113.569 E0.02353
G1 X104.388 Y113.874 E0.02353
G1 X104.995 Y114.315 E0.02353
G1 X105.498 Y114.873 E0.02353
G1 X105.873 Y115.523 E0.02353
G1 X106.105 Y116.237 E0.02353
G1 X106.183 Y116.983 E0.02353
G1 X106.105 Y117.730 E0.02353
G1 X105.873 Y118.445 E0.02357
G1 X105.490 Y119.102 E0.02385
G1 X104.995 Y119.651 E0.02317
G1 X104.388 Y120.093 E0.02353
G1 X103.702 Y120.398 E0.02353
G1 X102.968 Y120.554 E0.02353
G1 X102.218 Y120.554 E0.02353
G1 X101.483 Y120.398 E0.02353
G1 X100.798 Y120.093 E0.02353
G1 X100.191 Y119.651 E0.02353
G1 X99.688 Y119.094 E0.02353
G1 X99.313 Y118.444 E0.02353
G1 X99.081 Y117.730 E0.02353
G1 X99.003 Y116.983 E0.02353
G1 X99.081 Y116.237 E0.02353
G1 X99.313 Y115.522 E0.02357
G1 X99.696 Y114.864 E0.02385
G1 X100.191 Y114.315 E0.02317
G1 X100.798 Y113.874 E0.02353
G1 X101.410 Y113.601 E0.02101
G1 X101.563 Y113.946 F7200.000
G1 F1800
G1 X102.257 Y113.790 E0.02230
G1 X102.929 Y113.790 E0.02105
G1 X103.585 Y113.929 E0.02105
G1 X104.198 Y114.202 E0.02105
G1 X104.742 Y114.597 E0.02105
G1 X105.191 Y115.096 E0.02105
G1 X105.526 Y115.677 E0.02105
G1 X105.734 Y116.316 E0.02105
G1 X105.804 Y116.983 E0.02105
G1 X105.734 Y117.651 E0.02105
G1 X105.526 Y118.290 E0.02106
G1 X105.184 Y118.879 E0.02137
G1 X104.742 Y119.370 E0.02071
G1 X104.198 Y119.764 E0.02105
G1 X103.585 Y120.037 E0.02105
G1 X102.929 Y120.177 E0.02105
G1 X102.257 Y120.177 E0.02105
G1 X101.601 Y120.037 E0.02105
G1 X100.987 Y119.764 E0.02105
G1 X100.444 Y119.370 E0.02105
G1 X99.995 Y118.871 E0.02105
G1 X99.659 Y118.289 E0.02105
G1 X99.452 Y117.651 E0.02105
G1 X99.382 Y116.983 E0.02105
G1 X99.452 Y116.316 E0.02105
G1 X99.659 Y115.677 E0.02106
G1 X100.002 Y115.088 E0.02137
G1 X100.444 Y114.597 E0.02071
G1 X100.987 Y114.202 E0.02105
G1 X101.509 Y113.970 E0.01789
G1 X101.643 Y113.554 F7200.000
G1 F5760
G1 X102.257 Y113.790 E-0.26674
G1 X102.929 Y113.790 E-0.23251
G1 X103.585 Y113.929 E-0.23251
G1 X103.660 Y113.962 E-0.02823
G1 E-0.04000 F2100.00000
G1 Z0.800 F7200.000
G1 X101.038 Y112.199
G1 Z0.200
G1 E0.80000 F2100.00000
G1 F1800
G1 X102.065 Y111.981 E0.03292
G1 X103.138 Y111.984 E0.03362
G1 X104.147 Y112.199 E0.03237
G1 X105.108 Y112.627 E0.03297
G1 X105.959 Y113.245 E0.03297
G1 X106.663 Y114.026 E0.03297
G1 X107.189 Y114.937 E0.03297
G1 X107.514 Y115.937 E0.03297
G1 X107.623 Y116.983 E0.03297
G1 X107.514 Y118.029 E0.03297
G1 X107.189 Y119.029 E0.03297
G1 X106.672 Y119.923 E0.03237
G1 X105.958 Y120.723 E0.03362
G1 X105.108 Y121.340 E0.03292
G1 X104.147 Y121.768 E0.03297
G1 X103.119 Y121.986 E0.03297
G1 X102.067 Y121.986 E0.03297
G1 X101.038 Y121.768 E0.03297
G1 X100.078 Y121.340 E0.03297
G1 X99.227 Y120.722 E0.03297
G1 X98.523 Y119.940 E0.03297
G1 X97.997 Y119.029 E0.03297
G1 X97.672 Y118.029 E0.03297
G1 X97.562 Y116.983 E0.03297
G1 X97.672 Y115.937 E0.03297
G1 X97.997 Y114.937 E0.03297
G1 X98.523 Y114.026 E0.03297
G1 X99.227 Y113.245 E0.03297
G1 X100.078 Y112.627 E0.03297
G1 X100.984 Y112.223 E0.03109
G1 X100.830 Y111.879 F7200.000
G1 F1800
G1 X100.921 Y111.838 E0.00312
G1 X102.026 Y111.603 E0.03543
G1 X103.178 Y111.607 E0.03610
G1 X104.265 Y111.838 E0.03484
