; generated by Slic3r Prusa Edition 1.39.2+win64 on 2018-08-22 at 12:29:17

; 

; external perimeters extrusion width = 0.45mm
; perimeters extrusion width = 0.45mm
; infill extrusion width = 0.45mm
; solid infill extrusion width = 0.45mm
; top infill extrusion width = 0.45mm
; first layer extrusion width = 0.42mm

M107
M115 U3.1.0 ; tell printer latest fw version
M83  ; extruder relative mode
M104 S205 ; set extruder temp
M140 S55 ; set bed temp
M190 S55 ; wait for bed temp
M109 S205 ; wait for extruder temp
G28 W ; home all without mesh bed level
G80 ; mesh bed leveling
G1 Y-3.0 F1000.0 ; go outside print area
G92 E0.0
G1 X60.0 E9.0  F1000.0 ; intro line
G1 X100.0 E12.5  F1000.0 ; intro line
G92 E0.0
M900 K30; Filament gcode
G21 ; set units to millimeters
G90 ; use absolute coordinates
M83 ; use relative distances for extrusion
;BEFORE_LAYER_CHANGE
;0.2


G1 E-0.80000 F2100.00000
G1 Z0.600 F7200.000
;AFTER_LAYER_CHANGE
;0.2
G1 X22.827 Y93.311
G1 Z0.200
G1 E0.80000 F2100.00000
M204 S1000
G1 F1800
G1 X23.475 Y92.855 E0.02484
G1 X24.237 Y92.638 E0.02484
G1 X180.504 Y92.623 E4.89965
G1 X181.402 Y92.801 E0.02872
G1 X182.170 Y93.308 E0.02884
G1 X182.687 Y94.069 E0.02884
G1 X182.877 Y94.968 E0.02884
G1 X182.860 Y110.285 E0.48024
G1 X182.635 Y111.045 E0.02484
G1 X182.173 Y111.689 E0.02484
G1 X181.525 Y112.145 E0.02484
G1 X180.763 Y112.362 E0.02484
G1 X24.470 Y112.377 E4.90048
G1 X23.633 Y112.213 E0.02673
G1 X22.905 Y111.763 E0.02684
G1 X22.384 Y111.083 E0.02684
G1 X22.138 Y110.263 E0.02684
G1 X22.140 Y94.719 E0.48739
G1 X22.363 Y93.959 E0.02484
G1 X22.792 Y93.360 E0.02308
G1 F5760
G1 X23.475 Y92.855 E-0.29414
G1 X24.237 Y92.638 E-0.27444
G1 X24.789 Y92.638 E-0.19142
G1 E-0.04000 F2100.00000
G1 Z0.800 F7200.000
G1 X92.182 Y102.007
G1 Z0.200
G1 E0.80000 F2100.00000
G1 F1800
G1 X92.335 Y101.536 E0.01553
G1 X92.583 Y101.107 E0.01553
G1 X92.915 Y100.739 E0.01553
G1 X93.315 Y100.448 E0.01553
G1 X93.761 Y100.250 E0.01529
G1 X94.250 Y100.144 E0.01571
G1 X94.748 Y100.144 E0.01559
G1 X95.232 Y100.246 E0.01553
G1 X95.685 Y100.448 E0.01553
G1 X96.085 Y100.739 E0.01553
G1 X96.417 Y101.107 E0.01553
G1 X96.665 Y101.536 E0.01553
G1 X96.818 Y102.007 E0.01553
G1 X96.869 Y102.500 E0.01553
G1 X96.818 Y102.993 E0.01553
G1 X96.665 Y103.464 E0.01553
G1 X96.417 Y103.893 E0.01553
G1 X96.085 Y104.261 E0.01553
G1 X95.685 Y104.552 E0.01553
G1 X95.239 Y104.750 E0.01529
G1 X94.750 Y104.856 E0.01571
G1 X94.252 Y104.856 E0.01559
G1 X93.768 Y104.754 E0.01553
G1 X93.315 Y104.552 E0.01553
G1 X92.915 Y104.261 E0.01553
G1 X92.583 Y103.893 E0.01553
G1 X92.335 Y103.464 E0.01553
G1 X92.182 Y102.993 E0.01553
G1 X92.131 Y102.500 E0.01553
G1 X92.176 Y102.067 E0.01365
G1 X92.551 Y102.106 F7200.000
G1 F1800
G1 X92.682 Y101.690 E0.01367
G1 X92.890 Y101.330 E0.01305
G1 X93.168 Y101.021 E0.01305
G1 X93.505 Y100.776 E0.01305
G1 X93.879 Y100.610 E0.01283
G1 X94.291 Y100.521 E0.01323
G1 X94.708 Y100.521 E0.01308
G1 X95.115 Y100.607 E0.01305
G1 X95.495 Y100.776 E0.01305
G1 X95.832 Y101.021 E0.01305
G1 X96.110 Y101.330 E0.01305
G1 X96.318 Y101.690 E0.01305
G1 X96.447 Y102.086 E0.01305
G1 X96.490 Y102.500 E0.01305
G1 X96.447 Y102.914 E0.01305
G1 X96.318 Y103.310 E0.01305
G1 X96.110 Y103.670 E0.01305
G1 X95.832 Y103.979 E0.01305
G1 X95.495 Y104.224 E0.01305
G1 X95.121 Y104.390 E0.01283
G1 X94.709 Y104.479 E0.01323
G1 X94.292 Y104.479 E0.01308
G1 X93.885 Y104.393 E0.01305
G1 X93.505 Y104.224 E0.01305
G1 X93.168 Y103.979 E0.01305
G1 X92.890 Y103.670 E0.01305
G1 X92.682 Y103.310 E0.01305
G1 X92.553 Y102.914 E0.01305
G1 X92.510 Y102.500 E0.01305
G1 X92.545 Y102.166 E0.01053
G1 X92.924 Y102.165 F7200.000
G1 F1800
G1 X93.028 Y101.845 E0.01056
G1 X93.197 Y101.553 E0.01056
G1 X93.422 Y101.303 E0.01056
G1 X93.694 Y101.105 E0.01056
G1 X93.996 Y100.970 E0.01037
G1 X94.331 Y100.898 E0.01074
G1 X94.668 Y100.898 E0.01057
G1 X94.998 Y100.968 E0.01056
G1 X95.306 Y101.105 E0.01056
G1 X95.578 Y101.303 E0.01056
G1 X95.803 Y101.553 E0.01056
G1 X95.972 Y101.845 E0.01056
G1 X96.076 Y102.165 E0.01056
G1 X96.111 Y102.500 E0.01056
G1 X96.076 Y102.835 E0.01056
G1 X95.972 Y103.155 E0.01056
G1 X95.803 Y103.447 E0.01056
G1 X95.578 Y103.697 E0.01056
G1 X95.306 Y103.895 E0.01056
G1 X95.004 Y104.030 E0.01037
G1 X94.669 Y104.102 E0.01074
G1 X94.332 Y104.102 E0.01057
G1 X94.002 Y104.032 E0.01056
G1 X93.694 Y103.895 E0.01056
G1 X93.422 Y103.697 E0.01056
G1 X93.197 Y103.447 E0.01056
G1 X93.028 Y103.155 E0.01056
G1 X92.924 Y102.835 E0.01056
G1 X92.889 Y102.500 E0.01056
G1 X92.918 Y102.225 E0.00868
G1 X92.674 Y101.940 F7200.000
G1 F5760
G1 X93.028 Y101.845 E-0.13704
G1 X93.197 Y101.553 E-0.11668
G1 X93.422 Y101.303 E-0.11665
G1 X93.694 Y101.105 E-0.11666
G1 X93.996 Y100.970 E-0.11450
G1 X94.331 Y100.898 E-0.11865
G1 X94.446 Y100.898 E-0.03983
G1 E-0.04000 F2100.00000
G1 Z0.800 F7200.000
G1 X108.131 Y102.500
G1 Z0.200
G1 E0.80000 F2100.00000
G1 F1800
G1 X108.182 Y102.007 E0.01553
G1 X108.335 Y101.536 E0.01553
G1 X108.583 Y101.107 E0.01553
G1 X108.915 Y100.739 E0.01553
G1 X109.315 Y100.448 E0.01553
G1 X109.761 Y100.250 E0.01529
G1 X110.250 Y100.144 E0.01571
G1 X110.748 Y100.144 E0.01559
G1 X111.232 Y100.246 E0.01553
G1 X111.685 Y100.448 E0.01553
G1 X112.085 Y100.739 E0.01553
G1 X112.417 Y101.107 E0.01553
G1 X112.665 Y101.536 E0.01553
G1 X112.818 Y102.007 E0.01553
G1 X112.869 Y102.500 E0.01553
G1 X112.818 Y102.993 E0.01553
G1 X112.665 Y103.464 E0.01553
G1 X112.417 Y103.893 E0.01553
G1 X112.085 Y104.261 E0.01553
G1 X111.685 Y104.552 E0.01553
G1 X111.239 Y104.750 E0.01529
G1 X110.750 Y104.856 E0.01571
G1 X110.252 Y104.856 E0.01559
G1 X109.768 Y104.754 E0.01553
G1 X109.315 Y104.552 E0.01553
G1 X108.915 Y104.261 E0.01553
G1 X108.583 Y103.893 E0.01553
G1 X108.335 Y103.464 E0.01553
G1 X108.182 Y102.993 E0.01553
G1 X108.137 Y102.560 E0.01365
G1 X108.512 Y102.520 F7200.000
G1 F1800
G1 X108.553 Y102.086 E0.01367
G1 X108.682 Y101.690 E0.01305
G1 X108.890 Y101.330 E0.01305
G1 X109.168 Y101.021 E0.01305
G1 X109.505 Y100.776 E0.01305
G1 X109.879 Y100.610 E0.01283
G1 X110.291 Y100.521 E0.01323
G1 X110.708 Y100.521 E0.01308
G1 X111.115 Y100.607 E0.01305
G1 X111.495 Y100.776 E0.01305
G1 X111.832 Y101.021 E0.01305
G1 X112.110 Y101.330 E0.01305
G1 X112.318 Y101.690 E0.01305
G1 X112.447 Y102.086 E0.01305
G1 X112.490 Y102.500 E0.01305
G1 X112.447 Y102.914 E0.01305
G1 X112.318 Y103.310 E0.01305
G1 X112.110 Y103.670 E0.01305
G1 X111.832 Y103.979 E0.01305
G1 X111.495 Y104.224 E0.01305
G1 X111.121 Y104.390 E0.01283
G1 X110.709 Y104.479 E0.01323
G1 X110.292 Y104.479 E0.01308
G1 X109.885 Y104.393 E0.01305
G1 X109.505 Y104.224 E0.01305
G1 X109.168 Y103.979 E0.01305
G1 X108.890 Y103.670 E0.01305
G1 X108.682 Y103.310 E0.01305
G1 X108.553 Y102.914 E0.01305
G1 X108.518 Y102.580 E0.01053
G1 X108.889 Y102.500 F7200.000
G1 F1800
G1 X108.924 Y102.165 E0.01056
G1 X109.028 Y101.845 E0.01056
G1 X109.197 Y101.553 E0.01056
G1 X109.422 Y101.303 E0.01056
G1 X109.694 Y101.105 E0.01056
G1 X109.996 Y100.970 E0.01037
G1 X110.331 Y100.898 E0.01074
G1 X110.668 Y100.898 E0.01057
G1 X110.998 Y100.968 E0.01056
G1 X111.306 Y101.105 E0.01056
G1 X111.578 Y101.303 E0.01056
G1 X111.803 Y101.553 E0.01056
G1 X111.972 Y101.845 E0.01056
G1 X112.076 Y102.165 E0.01056
G1 X112.111 Y102.500 E0.01056
G1 X112.076 Y102.835 E0.01056
G1 X111.972 Y103.155 E0.01056
G1 X111.803 Y103.447 E0.01056
G1 X111.578 Y103.697 E0.01056
G1 X111.306 Y103.895 E0.01056
G1 X111.004 Y104.030 E0.01037
G1 X110.669 Y104.102 E0.01074
G1 X110.332 Y104.102 E0.01057
G1 X110.002 Y104.032 E0.01056
G1 X109.694 Y103.895 E0.01056
G1 X109.422 Y103.697 E0.01056
G1 X109.197 Y103.447 E0.01056
G1 X109.028 Y103.155 E0.01056
G1 X108.924 Y102.835 E0.01056
G1 X108.895 Y102.560 E0.00868
G1 X108.597 Y102.332 F7200.000
G1 F5760
G1 X108.924 Y102.165 E-0.13706
G1 X109.028 Y101.845 E-0.11664
G1 X109.197 Y101.553 E-0.11668
G1 X109.422 Y101.303 E-0.11665
G1 X109.694 Y101.105 E-0.11666
G1 X109.996 Y100.970 E-0.11450
G1 X110.114 Y100.945 E-0.04181
G1 E-0.04000 F2100.00000
G1 Z0.800 F7200.000
G1 X58.869 Y102.500
G1 Z0.200
G1 E0.80000 F2100.00000
G1 F1800
G1 X58.818 Y102.993 E0.01553
G1 X58.665 Y103.464 E0.01553
G1 X58.417 Y103.893 E0.01553
G1 X58.085 Y104.261 E0.01553
G1 X57.685 Y104.552 E0.01553
G1 X57.232 Y104.754 E0.01553
G1 X56.748 Y104.856 E0.01553
G1 X56.252 Y104.856 E0.01552
G1 X55.768 Y104.754 E0.01553
G1 X55.315 Y104.552 E0.01553
G1 X54.915 Y104.261 E0.01553
G1 X54.583 Y103.893 E0.01553
G1 X54.335 Y103.464 E0.01553
G1 X54.182 Y102.993 E0.01553
G1 X54.131 Y102.500 E0.01553
G1 X54.182 Y102.007 E0.01553
G1 X54.335 Y101.536 E0.01553
G1 X54.583 Y101.107 E0.01553
G1 X54.915 Y100.739 E0.01553
G1 X55.315 Y100.448 E0.01553
G1 X55.768 Y100.246 E0.01553
G1 X56.252 Y100.144 E0.01553
G1 X56.748 Y100.144 E0.01552
G1 X57.232 Y100.246 E0.01553
G1 X57.685 Y100.448 E0.01553
G1 X58.085 Y100.739 E0.01553
G1 X58.417 Y101.107 E0.01553
G1 X58.665 Y101.536 E0.01553
G1 X58.818 Y102.007 E0.01553
G1 X58.863 Y102.440 E0.01365
G1 X58.488 Y102.480 F7200.000
G1 F1800
G1 X58.447 Y102.914 E0.01367
G1 X58.318 Y103.310 E0.01305
G1 X58.110 Y103.670 E0.01305
G1 X57.832 Y103.979 E0.01305
G1 X57.495 Y104.224 E0.01305
G1 X57.115 Y104.393 E0.01305
G1 X56.708 Y104.479 E0.01305
G1 X56.292 Y104.479 E0.01304
G1 X55.885 Y104.393 E0.01305
G1 X55.505 Y104.224 E0.01305
G1 X55.168 Y103.979 E0.01305
G1 X54.890 Y103.670 E0.01305
G1 X54.682 Y103.310 E0.01305
G1 X54.553 Y102.914 E0.01305
G1 X54.510 Y102.500 E0.01305
G1 X54.553 Y102.086 E0.01305
G1 X54.682 Y101.690 E0.01305
G1 X54.890 Y101.330 E0.01305
G1 X55.168 Y101.021 E0.01305
G1 X55.505 Y100.776 E0.01305
G1 X55.885 Y100.607 E0.01305
G1 X56.292 Y100.521 E0.01305
G1 X56.708 Y100.521 E0.01304
G1 X57.115 Y100.607 E0.01305
G1 X57.495 Y100.776 E0.01305
G1 X57.832 Y101.021 E0.01305
G1 X58.110 Y101.330 E0.01305
G1 X58.318 Y101.690 E0.01305
G1 X58.447 Y102.086 E0.01305
G1 X58.482 Y102.420 E0.01053
G1 X58.111 Y102.500 F7200.000
G1 F1800
G1 X58.076 Y102.835 E0.01056
G1 X57.972 Y103.155 E0.01056
G1 X57.803 Y103.447 E0.01056
G1 X57.578 Y103.697 E0.01056
G1 X57.306 Y103.895 E0.01056
G1 X56.998 Y104.032 E0.01056
G1 X56.668 Y104.102 E0.01056
G1 X56.332 Y104.102 E0.01056
G1 X56.002 Y104.032 E0.01056
G1 X55.694 Y103.895 E0.01056
G1 X55.422 Y103.697 E0.01056
G1 X55.197 Y103.447 E0.01056
G1 X55.028 Y103.155 E0.01056
G1 X54.924 Y102.835 E0.01056
G1 X54.889 Y102.500 E0.01056
G1 X54.924 Y102.165 E0.01056
G1 X55.028 Y101.845 E0.01056
G1 X55.197 Y101.553 E0.01056
G1 X55.422 Y101.303 E0.01056
G1 X55.694 Y101.105 E0.01056
G1 X56.002 Y100.968 E0.01056
G1 X56.332 Y100.898 E0.01056
G1 X56.668 Y100.898 E0.01056
G1 X56.998 Y100.968 E0.01056
G1 X57.306 Y101.105 E0.01056
G1 X57.578 Y101.303 E0.01056
G1 X57.803 Y101.553 E0.01056
G1 X57.972 Y101.845 E0.01056
G1 X58.076 Y102.165 E0.01056
G1 X58.105 Y102.440 E0.00868
G1 X58.403 Y102.668 F7200.000
G1 F5760
G1 X58.076 Y102.835 E-0.13706
G1 X57.972 Y103.155 E-0.11664
G1 X57.803 Y103.447 E-0.11668
G1 X57.578 Y103.697 E-0.11665
G1 X57.306 Y103.895 E-0.11666
G1 X56.998 Y104.032 E-0.11668
G1 X56.886 Y104.056 E-0.03963
G1 E-0.04000 F2100.00000
G1 Z0.800 F7200.000
G1 X48.869 Y102.500
G1 Z0.200
G1 E0.80000 F2100.00000
G1 F1800
G1 X48.818 Y102.993 E0.01553
G1 X48.665 Y103.464 E0.01553
G1 X48.417 Y103.893 E0.01553
G1 X48.085 Y104.261 E0.01553
G1 X47.685 Y104.552 E0.01553
G1 X47.232 Y104.754 E0.01553
G1 X46.748 Y104.856 E0.01553
G1 X46.252 Y104.856 E0.01552
G1 X45.768 Y104.754 E0.01553
G1 X45.315 Y104.552 E0.01553
G1 X44.915 Y104.261 E0.01553
G1 X44.583 Y103.893 E0.01553
G1 X44.335 Y103.464 E0.01553
G1 X44.182 Y102.993 E0.01553
G1 X44.131 Y102.500 E0.01553
G1 X44.182 Y102.007 E0.01553
G1 X44.335 Y101.536 E0.01553
G1 X44.583 Y101.107 E0.01553
G1 X44.915 Y100.739 E0.01553
G1 X45.315 Y100.448 E0.01553
G1 X45.768 Y100.246 E0.01553
G1 X46.252 Y100.144 E0.01553
G1 X46.748 Y100.144 E0.01552
G1 X47.232 Y100.246 E0.01553
G1 X47.685 Y100.448 E0.01553
G1 X48.085 Y100.739 E0.01553
G1 X48.417 Y101.107 E0.01553
G1 X48.665 Y101.536 E0.01553
G1 X48.818 Y102.007 E0.01553
G1 X48.863 Y102.440 E0.01365
G1 X48.488 Y102.480 F7200.000
G1 F1800
G1 X48.447 Y102.914 E0.01367
G1 X48.318 Y103.310 E0.01305
G1 X48.110 Y103.670 E0.01305
G1 X47.832 Y103.979 E0.01305
G1 X47.495 Y104.224 E0.01305
G1 X47.115 Y104.393 E0.01305
G1 X46.708 Y104.479 E0.01305
G1 X46.292 Y104.479 E0.01304
G1 X45.885 Y104.393 E0.01305
G1 X45.505 Y104.224 E0.01305
G1 X45.168 Y103.979 E0.01305
G1 X44.890 Y103.670 E0.01305
G1 X44.682 Y103.310 E0.01305
G1 X44.553 Y102.914 E0.01305
G1 X44.510 Y102.500 E0.01305
G1 X44.553 Y102.086 E0.01305
G1 X44.682 Y101.690 E0.01305
G1 X44.890 Y101.330 E0.01305
G1 X45.168 Y101.021 E0.01305
G1 X45.505 Y100.776 E0.01305
G1 X45.885 Y100.607 E0.01305
G1 X46.292 Y100.521 E0.01305
G1 X46.708 Y100.521 E0.01304
G1 X47.115 Y100.607 E0.01305
G1 X47.495 Y100.776 E0.01305
G1 X47.832 Y101.021 E0.01305
G1 X48.110 Y101.330 E0.01305
G1 X48.318 Y101.690 E0.01305
G1 X48.447 Y102.086 E0.01305
G1 X48.482 Y102.420 E0.01053
G1 X48.111 Y102.500 F7200.000
G1 F1800
G1 X48.076 Y102.835 E0.01056
G1 X47.972 Y103.155 E0.01056
G1 X47.803 Y103.447 E0.01056
G1 X47.578 Y103.697 E0.01056
G1 X47.306 Y103.895 E0.01056
G1 X46.998 Y104.032 E0.01056
G1 X46.668 Y104.102 E0.01056
G1 X46.332 Y104.102 E0.01056
G1 X46.002 Y104.032 E0.01056
G1 X45.694 Y103.895 E0.01056
G1 X45.422 Y103.697 E0.01056
G1 X45.197 Y103.447 E0.01056
G1 X45.028 Y103.155 E0.01056
G1 X44.924 Y102.835 E0.01056
G1 X44.889 Y102.500 E0.01056
G1 X44.924 Y102.165 E0.01056
G1 X45.028 Y101.845 E0.01056
G1 X45.197 Y101.553 E0.01056
G1 X45.422 Y101.303 E0.01056
G1 X45.694 Y101.105 E0.01056
G1 X46.002 Y100.968 E0.01056
G1 X46.332 Y100.898 E0.01056
G1 X46.668 Y100.898 E0.01056
G1 X46.998 Y100.968 E0.01056
G1 X47.306 Y101.105 E0.01056
G1 X47.578 Y101.303 E0.01056
G1 X47.803 Y101.553 E0.01056
G1 X47.972 Y101.845 E0.01056
G1 X48.076 Y102.165 E0.01056
G1 X48.105 Y102.440 E0.00868
G1 X48.403 Y102.668 F7200.000
G1 F5760
G1 X48.076 Y102.835 E-0.13706
G1 X47.972 Y103.155 E-0.11664
G1 X47.803 Y103.447 E-0.11668
G1 X47.578 Y103.697 E-0.11665
G1 X47.306 Y103.895 E-0.11666
G1 X46.998 Y104.032 E-0.11668
G1 X46.886 Y104.056 E-0.03963
G1 E-0.04000 F2100.00000
G1 Z0.800 F7200.000
G1 X33.619 Y102.500
G1 Z0.200
G1 E0.80000 F2100.00000
G1 F1800
G1 X33.568 Y102.993 E0.01553
G1 X33.415 Y103.464 E0.01553
G1 X33.167 Y103.893 E0.01553
G1 X32.835 Y104.261 E0.01553
G1 X32.435 Y104.552 E0.01553
G1 X31.982 Y104.754 E0.01553
G1 X31.498 Y104.856 E0.01553
G1 X31.002 Y104.856 E0.01552
G1 X30.518 Y104.754 E0.01553
G1 X30.065 Y104.552 E0.01553
G1 X29.665 Y104.261 E0.01553
G1 X29.333 Y103.893 E0.01553
G1 X29.085 Y103.464 E0.01553
G1 X28.932 Y102.993 E0.01553
G1 X28.881 Y102.500 E0.01553
G1 X28.932 Y102.007 E0.01553
G1 X29.085 Y101.536 E0.01553
G1 X29.333 Y101.107 E0.01553
G1 X29.665 Y100.739 E0.01553
G1 X30.065 Y100.448 E0.01553
G1 X30.518 Y100.246 E0.01553
G1 X31.002 Y100.144 E0.01553
G1 X31.498 Y100.144 E0.01552
G1 X31.982 Y100.246 E0.01553
G1 X32.435 Y100.448 E0.01553
G1 X32.835 Y100.739 E0.01553
G1 X33.167 Y101.107 E0.01553
G1 X33.415 Y101.536 E0.01553
G1 X33.568 Y102.007 E0.01553
G1 X33.613 Y102.440 E0.01365
G1 X33.238 Y102.480 F7200.000
G1 F1800
G1 X33.197 Y102.914 E0.01367
G1 X33.068 Y103.310 E0.01305
G1 X32.860 Y103.670 E0.01305
G1 X32.582 Y103.979 E0.01305
G1 X32.245 Y104.224 E0.01305
G1 X31.865 Y104.393 E0.01305
G1 X31.458 Y104.479 E0.01305
G1 X31.042 Y104.479 E0.01304
G1 X30.635 Y104.393 E0.01305
G1 X30.255 Y104.224 E0.01305
G1 X29.918 Y103.979 E0.01305
G1 X29.640 Y103.670 E0.01305
G1 X29.432 Y103.310 E0.01305
G1 X29.303 Y102.914 E0.01305
G1 X29.260 Y102.500 E0.01305
G1 X29.303 Y102.086 E0.01305
G1 X29.432 Y101.690 E0.01305
G1 X29.640 Y101.330 E0.01305
G1 X29.918 Y101.021 E0.01305
G1 X30.255 Y100.776 E0.01305
G1 X30.635 Y100.607 E0.01305
G1 X31.042 Y100.521 E0.01305
G1 X31.458 Y100.521 E0.01304
G1 X31.865 Y100.607 E0.01305
G1 X32.245 Y100.776 E0.01305
G1 X32.582 Y101.021 E0.01305
G1 X32.860 Y101.330 E0.01305
G1 X33.068 Y101.690 E0.01305
G1 X33.197 Y102.086 E0.01305
G1 X33.232 Y102.420 E0.01053
G1 X32.861 Y102.500 F7200.000
G1 F1800
G1 X32.826 Y102.835 E0.01056
G1 X32.722 Y103.155 E0.01056
G1 X32.553 Y103.447 E0.01056
