; generated by Slic3r Prusa Edition 1.39.2+win64 on 2018-05-27 at 07:46:21

; 

; external perimeters extrusion width = 0.45mm
; perimeters extrusion width = 0.45mm
; infill extrusion width = 0.45mm
; solid infill extrusion width = 0.45mm
; top infill extrusion width = 0.45mm
; first layer extrusion width = 0.42mm

M107
M115 U3.1.0 ; tell printer latest fw version
M83  ; extruder relative mode
M104 S205 ; set extruder temp
M140 S55 ; set bed temp
M190 S55 ; wait for bed temp
M109 S205 ; wait for extruder temp
G28 W ; home all without mesh bed level
G80 ; mesh bed leveling
G1 Y-3.0 F1000.0 ; go outside print area
G92 E0.0
G1 X60.0 E9.0  F1000.0 ; intro line
G1 X100.0 E12.5  F1000.0 ; intro line
G92 E0.0
M900 K30; Filament gcode
G21 ; set units to millimeters
G90 ; use absolute coordinates
M83 ; use relative distances for extrusion
;BEFORE_LAYER_CHANGE
;0.2


G1 E-0.80000 F2100.00000
G1 Z0.600 F7200.000
;AFTER_LAYER_CHANGE
;0.2
G1 X90.281 Y65.146
G1 Z0.200
G1 E0.80000 F2100.00000
M204 S1000
G1 F1800
G1 X90.609 Y64.560 E0.02107
G1 X91.085 Y64.090 E0.02095
G1 X91.672 Y63.772 E0.02095
G1 X92.329 Y63.629 E0.02107
G1 X111.504 Y63.623 E0.60123
G1 X112.285 Y63.756 E0.02484
G1 X112.979 Y64.139 E0.02484
G1 X113.508 Y64.728 E0.02484
G1 X113.815 Y65.459 E0.02484
G1 X124.842 Y120.594 E1.76295
G1 X124.877 Y139.015 E0.57759
G1 X124.719 Y139.853 E0.02673
G1 X124.380 Y140.455 E0.02166
G1 X123.879 Y140.936 E0.02178
G1 X123.261 Y141.252 E0.02178
G1 X122.577 Y141.376 E0.02178
G1 X82.492 Y141.377 E1.25683
G1 X81.647 Y141.219 E0.02696
G1 X81.063 Y140.894 E0.02095
G1 X80.593 Y140.419 E0.02095
G1 X80.273 Y139.832 E0.02095
G1 X80.129 Y139.176 E0.02107
G1 X80.138 Y120.730 E0.57836
G1 X90.271 Y65.205 E1.76969
G1 F5760
G1 X90.609 Y64.560 E-0.25249
G1 X91.085 Y64.090 E-0.23142
G1 X91.672 Y63.772 E-0.23142
G1 X91.798 Y63.744 E-0.04467
G1 E-0.04000 F2100.00000
G1 Z0.800 F7200.000
G1 X87.492 Y128.131
G1 Z0.200
G1 E0.80000 F2100.00000
G1 F1800
G1 X88.095 Y128.193 E0.01900
G1 X88.667 Y128.378 E0.01885
G1 X89.187 Y128.679 E0.01885
G1 X89.632 Y129.080 E0.01879
G1 X89.985 Y129.565 E0.01880
G1 X90.229 Y130.113 E0.01882
G1 X90.354 Y130.700 E0.01879
G1 X90.354 Y131.300 E0.01884
G1 X90.229 Y131.887 E0.01879
G1 X89.985 Y132.435 E0.01882
G1 X89.632 Y132.920 E0.01880
G1 X89.187 Y133.321 E0.01879
G1 X88.667 Y133.622 E0.01885
G1 X88.096 Y133.806 E0.01880
G1 X87.500 Y133.870 E0.01880
G1 X86.904 Y133.806 E0.01880
G1 X86.333 Y133.622 E0.01880
G1 X85.813 Y133.321 E0.01885
G1 X85.368 Y132.920 E0.01880
G1 X85.015 Y132.435 E0.01879
G1 X84.771 Y131.887 E0.01881
G1 X84.646 Y131.300 E0.01879
G1 X84.646 Y130.700 E0.01884
G1 X84.771 Y130.113 E0.01879
G1 X85.015 Y129.565 E0.01881
G1 X85.368 Y129.080 E0.01879
G1 X85.813 Y128.679 E0.01880
G1 X86.333 Y128.378 E0.01885
G1 X86.904 Y128.194 E0.01880
G1 X87.432 Y128.138 E0.01666
G1 X87.472 Y128.513 F7200.000
G1 F1800
G1 X88.017 Y128.564 E0.01715
G1 X88.513 Y128.725 E0.01635
G1 X88.964 Y128.986 E0.01635
G1 X89.351 Y129.334 E0.01632
G1 X89.657 Y129.755 E0.01631
G1 X89.868 Y130.231 E0.01633
G1 X89.977 Y130.739 E0.01630
G1 X89.977 Y131.261 E0.01635
G1 X89.868 Y131.769 E0.01630
G1 X89.657 Y132.245 E0.01633
G1 X89.351 Y132.666 E0.01631
G1 X88.964 Y133.014 E0.01632
G1 X88.513 Y133.275 E0.01635
G1 X88.018 Y133.435 E0.01631
G1 X87.500 Y133.490 E0.01632
G1 X86.982 Y133.435 E0.01632
G1 X86.487 Y133.275 E0.01631
G1 X86.036 Y133.014 E0.01635
G1 X85.649 Y132.666 E0.01632
G1 X85.343 Y132.245 E0.01631
G1 X85.132 Y131.769 E0.01633
G1 X85.023 Y131.261 E0.01631
G1 X85.023 Y130.739 E0.01635
G1 X85.132 Y130.231 E0.01631
G1 X85.343 Y129.755 E0.01633
G1 X85.649 Y129.334 E0.01631
G1 X86.036 Y128.986 E0.01632
G1 X86.487 Y128.725 E0.01635
G1 X86.982 Y128.565 E0.01631
G1 X87.412 Y128.519 E0.01355
G1 X87.493 Y128.890 F7200.000
G1 F1800
G1 X87.938 Y128.935 E0.01404
G1 X88.359 Y129.071 E0.01384
G1 X88.741 Y129.292 E0.01385
G1 X89.069 Y129.588 E0.01384
G1 X89.328 Y129.944 E0.01383
G1 X89.508 Y130.348 E0.01384
G1 X89.600 Y130.779 E0.01382
G1 X89.600 Y131.221 E0.01387
G1 X89.508 Y131.652 E0.01382
G1 X89.328 Y132.056 E0.01384
G1 X89.069 Y132.412 E0.01383
G1 X88.741 Y132.708 E0.01384
G1 X88.359 Y132.929 E0.01385
G1 X87.939 Y133.065 E0.01383
G1 X87.500 Y133.111 E0.01384
G1 X87.061 Y133.065 E0.01384
G1 X86.641 Y132.929 E0.01383
G1 X86.259 Y132.708 E0.01385
G1 X85.931 Y132.412 E0.01384
G1 X85.672 Y132.056 E0.01383
G1 X85.492 Y131.652 E0.01384
G1 X85.400 Y131.221 E0.01382
G1 X85.400 Y130.779 E0.01387
G1 X85.492 Y130.348 E0.01382
G1 X85.672 Y129.944 E0.01384
G1 X85.931 Y129.588 E0.01383
G1 X86.259 Y129.292 E0.01384
G1 X86.641 Y129.071 E0.01385
G1 X87.061 Y128.935 E0.01383
G1 X87.433 Y128.896 E0.01174
G1 X87.692 Y128.543 F7200.000
G1 F5760
G1 X87.938 Y128.935 E-0.17547
G1 X88.359 Y129.071 E-0.15291
G1 X88.741 Y129.292 E-0.15301
G1 X89.069 Y129.588 E-0.15287
G1 X89.282 Y129.881 E-0.12573
G1 E-0.04000 F2100.00000
G1 Z0.800 F7200.000
G1 X114.646 Y130.700
G1 Z0.200
G1 E0.80000 F2100.00000
G1 F1800
G1 X114.771 Y130.113 E0.01879
G1 X115.015 Y129.565 E0.01881
G1 X115.368 Y129.080 E0.01879
G1 X115.813 Y128.679 E0.01880
G1 X116.333 Y128.378 E0.01885
G1 X116.904 Y128.194 E0.01880
G1 X117.492 Y128.131 E0.01854
G1 X118.095 Y128.193 E0.01900
G1 X118.667 Y128.378 E0.01885
G1 X119.187 Y128.679 E0.01885
G1 X119.632 Y129.080 E0.01879
G1 X119.985 Y129.565 E0.01880
G1 X120.229 Y130.113 E0.01882
G1 X120.354 Y130.700 E0.01879
G1 X120.354 Y131.300 E0.01884
G1 X120.229 Y131.887 E0.01879
G1 X119.985 Y132.435 E0.01882
G1 X119.632 Y132.920 E0.01880
G1 X119.187 Y133.321 E0.01879
G1 X118.667 Y133.622 E0.01885
G1 X118.096 Y133.806 E0.01880
G1 X117.500 Y133.870 E0.01880
G1 X116.904 Y133.806 E0.01880
G1 X116.333 Y133.622 E0.01880
G1 X115.813 Y133.321 E0.01885
G1 X115.368 Y132.920 E0.01880
G1 X115.015 Y132.435 E0.01879
G1 X114.771 Y131.887 E0.01881
G1 X114.646 Y131.300 E0.01879
G1 X114.646 Y130.760 E0.01696
G1 X115.023 Y130.760 F7200.000
G1 F1800
G1 X115.132 Y130.231 E0.01693
G1 X115.343 Y129.755 E0.01633
G1 X115.649 Y129.334 E0.01631
G1 X116.036 Y128.986 E0.01632
G1 X116.487 Y128.725 E0.01635
G1 X116.982 Y128.565 E0.01631
G1 X117.492 Y128.510 E0.01608
G1 X118.017 Y128.564 E0.01652
G1 X118.513 Y128.725 E0.01635
G1 X118.964 Y128.986 E0.01635
G1 X119.351 Y129.334 E0.01632
G1 X119.657 Y129.755 E0.01631
G1 X119.868 Y130.231 E0.01633
G1 X119.977 Y130.739 E0.01631
G1 X119.977 Y131.261 E0.01635
G1 X119.868 Y131.769 E0.01631
G1 X119.657 Y132.245 E0.01633
G1 X119.351 Y132.666 E0.01631
G1 X118.964 Y133.014 E0.01632
G1 X118.513 Y133.275 E0.01635
G1 X118.018 Y133.435 E0.01631
G1 X117.500 Y133.490 E0.01632
G1 X116.982 Y133.435 E0.01632
G1 X116.487 Y133.275 E0.01631
G1 X116.036 Y133.014 E0.01635
G1 X115.649 Y132.666 E0.01632
G1 X115.343 Y132.245 E0.01631
G1 X115.132 Y131.769 E0.01633
G1 X115.023 Y131.261 E0.01631
G1 X115.023 Y130.820 E0.01384
G1 X115.400 Y130.779 F7200.000
G1 F1800
G1 X115.492 Y130.348 E0.01382
G1 X115.672 Y129.944 E0.01384
G1 X115.931 Y129.588 E0.01383
G1 X116.259 Y129.292 E0.01384
G1 X116.641 Y129.071 E0.01385
G1 X117.061 Y128.935 E0.01383
G1 X117.493 Y128.890 E0.01362
G1 X117.939 Y128.935 E0.01404
G1 X118.359 Y129.071 E0.01384
G1 X118.741 Y129.292 E0.01385
G1 X119.069 Y129.588 E0.01384
G1 X119.328 Y129.944 E0.01383
G1 X119.508 Y130.348 E0.01384
G1 X119.600 Y130.779 E0.01382
G1 X119.600 Y131.221 E0.01387
G1 X119.508 Y131.652 E0.01382
G1 X119.328 Y132.056 E0.01384
G1 X119.069 Y132.412 E0.01383
G1 X118.741 Y132.708 E0.01384
G1 X118.359 Y132.929 E0.01385
G1 X117.939 Y133.065 E0.01383
G1 X117.500 Y133.111 E0.01384
G1 X117.061 Y133.065 E0.01384
G1 X116.641 Y132.929 E0.01383
G1 X116.259 Y132.708 E0.01385
G1 X115.931 Y132.412 E0.01384
G1 X115.672 Y132.056 E0.01383
G1 X115.492 Y131.652 E0.01384
G1 X115.400 Y131.221 E0.01382
G1 X115.400 Y130.839 E0.01198
G1 X115.077 Y130.544 F7200.000
G1 F5760
G1 X115.492 Y130.348 E-0.17306
G1 X115.672 Y129.944 E-0.15291
G1 X115.931 Y129.588 E-0.15274
G1 X116.259 Y129.292 E-0.15288
G1 X116.580 Y129.107 E-0.12841
G1 E-0.04000 F2100.00000
G1 Z0.800 F7200.000
G1 X108.036 Y85.924
G1 Z0.200
G1 E0.80000 F2100.00000
G1 F1800
G1 X108.036 Y121.964 E1.13001
G1 X121.536 Y121.964 E0.42328
G1 X121.536 Y138.036 E0.50392
G1 X83.464 Y138.036 E1.19371
G1 X83.464 Y121.964 E0.50392
G1 X96.964 Y121.964 E0.42328
G1 X96.964 Y85.924 E1.13001
G1 X93.464 Y85.924 E0.10974
G1 X93.464 Y66.964 E0.59448
G1 X110.536 Y66.964 E0.53527
G1 X110.536 Y85.924 E0.59448
G1 X108.096 Y85.924 E0.07650
G1 X108.413 Y86.301 F7200.000
G1 F1800
G1 X108.413 Y121.587 E1.10636
G1 X121.913 Y121.587 E0.42328
G1 X121.913 Y138.413 E0.52756
G1 X83.087 Y138.413 E1.21736
G1 X83.087 Y121.587 E0.52756
G1 X96.587 Y121.587 E0.42328
G1 X96.587 Y86.301 E1.10636
G1 X93.087 Y86.301 E0.10974
G1 X93.087 Y66.587 E0.61813
G1 X110.913 Y66.587 E0.55892
G1 X110.913 Y86.301 E0.61813
G1 X108.473 Y86.301 E0.07650
G1 X108.790 Y86.678 F7200.000
G1 F1800
G1 X108.790 Y121.210 E1.08271
G1 X122.290 Y121.210 E0.42328
G1 X122.290 Y138.790 E0.55121
G1 X82.710 Y138.790 E1.24100
G1 X82.710 Y121.210 E0.55121
G1 X96.210 Y121.210 E0.42328
G1 X96.210 Y86.678 E1.08271
G1 X92.710 Y86.678 E0.10974
G1 X92.710 Y66.210 E0.64177
G1 X111.290 Y66.210 E0.58256
G1 X111.290 Y86.678 E0.64177
G1 X108.850 Y86.678 E0.07650
G1 X108.436 Y86.864 F7200.000
G1 F5760
G1 X108.846 Y88.873 E-0.76000
G1 E-0.04000 F2100.00000
G1 Z0.800 F7200.000
G1 X107.923 Y96.861
G1 Z0.200
G1 E0.80000 F2100.00000
G1 F1800
G1 X97.247 Y86.185 E0.47424
G1 X97.247 Y86.720 E0.01678
G1 X107.753 Y97.226 E0.46671
G1 X107.753 Y97.760 E0.01678
G1 X97.247 Y87.254 E0.46671
G1 X97.247 Y87.788 E0.01678
G1 X107.753 Y98.294 E0.46671
G1 X107.753 Y98.829 E0.01678
G1 X97.247 Y88.322 E0.46671
G1 X97.247 Y88.857 E0.01678
G1 X107.753 Y99.363 E0.46671
G1 X107.753 Y99.897 E0.01678
G1 X97.247 Y89.391 E0.46671
G1 X97.247 Y89.925 E0.01678
G1 X107.753 Y100.431 E0.46671
G1 X107.753 Y100.965 E0.01678
G1 X97.247 Y90.459 E0.46671
G1 X97.247 Y90.994 E0.01678
G1 X107.753 Y101.500 E0.46671
G1 X107.753 Y102.034 E0.01678
G1 X97.247 Y91.528 E0.46671
G1 X97.247 Y92.062 E0.01678
G1 X107.753 Y102.568 E0.46671
G1 X107.753 Y103.102 E0.01678
G1 X97.247 Y92.596 E0.46671
G1 X97.247 Y93.131 E0.01678
G1 X107.753 Y103.637 E0.46671
G1 X107.753 Y104.171 E0.01678
G1 X97.247 Y93.665 E0.46671
G1 X97.247 Y94.199 E0.01678
G1 X107.753 Y104.705 E0.46671
G1 X107.753 Y105.239 E0.01678
G1 X97.247 Y94.733 E0.46671
G1 X97.247 Y95.268 E0.01678
G1 X107.753 Y105.774 E0.46671
G1 X107.753 Y106.308 E0.01678
G1 X97.247 Y95.802 E0.46671
G1 X97.247 Y96.336 E0.01678
G1 X107.753 Y106.842 E0.46671
G1 X107.753 Y107.376 E0.01678
G1 X97.247 Y96.870 E0.46671
G1 X97.247 Y97.405 E0.01678
G1 X107.753 Y107.911 E0.46671
G1 X107.753 Y108.445 E0.01678
G1 X97.247 Y97.939 E0.46671
G1 X97.247 Y98.473 E0.01678
G1 X107.753 Y108.979 E0.46671
G1 X107.753 Y109.513 E0.01678
G1 X97.247 Y99.007 E0.46671
G1 X97.247 Y99.541 E0.01678
G1 X107.753 Y110.048 E0.46671
G1 X107.753 Y110.582 E0.01678
G1 X97.247 Y100.076 E0.46671
G1 X97.247 Y100.610 E0.01678
G1 X107.753 Y111.116 E0.46671
G1 X107.753 Y111.650 E0.01678
G1 X97.247 Y101.144 E0.46671
G1 X97.247 Y101.678 E0.01678
G1 X107.753 Y112.185 E0.46671
G1 X107.753 Y112.719 E0.01678
G1 X97.247 Y102.213 E0.46671
G1 X97.247 Y102.747 E0.01678
G1 X107.753 Y113.253 E0.46671
G1 X107.753 Y113.787 E0.01678
G1 X97.247 Y103.281 E0.46671
G1 X97.247 Y103.815 E0.01678
G1 X107.753 Y114.322 E0.46671
G1 X107.753 Y114.856 E0.01678
G1 X97.247 Y104.350 E0.46671
G1 X97.247 Y104.884 E0.01678
G1 X107.753 Y115.390 E0.46671
G1 X107.753 Y115.924 E0.01678
G1 X97.247 Y105.418 E0.46671
G1 X97.247 Y105.952 E0.01678
G1 X107.753 Y116.459 E0.46671
G1 X107.753 Y116.993 E0.01678
G1 X97.247 Y106.487 E0.46671
G1 X97.247 Y107.021 E0.01678
G1 X107.753 Y117.527 E0.46671
G1 X107.753 Y118.061 E0.01678
G1 X97.247 Y107.555 E0.46671
G1 X97.247 Y108.089 E0.01678
G1 X107.753 Y118.595 E0.46671
G1 X107.753 Y119.130 E0.01678
G1 X97.247 Y108.624 E0.46671
G1 X97.247 Y109.158 E0.01678
G1 X107.753 Y119.664 E0.46671
G1 X107.753 Y120.198 E0.01678
G1 X97.247 Y109.692 E0.46671
G1 X97.247 Y110.226 E0.01678
G1 X107.753 Y120.732 E0.46671
G1 X107.753 Y121.267 E0.01678
G1 X97.247 Y110.761 E0.46671
G1 X97.247 Y111.295 E0.01678
G1 X107.753 Y121.801 E0.46671
G1 X107.753 Y122.247 E0.01401
G1 X108.199 Y122.247 E0.01401
G1 X115.024 Y129.072 E0.30318
G1 X115.156 Y128.890 E0.00706
G1 X115.272 Y128.786 E0.00490
G1 X108.733 Y122.247 E0.29047
G1 X109.268 Y122.247 E0.01678
G1 X115.553 Y128.532 E0.27922
G1 X115.646 Y128.449 E0.00391
G1 X115.873 Y128.318 E0.00824
G1 X109.802 Y122.247 E0.26968
G1 X110.336 Y122.247 E0.01678
G1 X116.211 Y128.122 E0.26098
G1 X116.614 Y127.990 E0.01330
G1 X110.870 Y122.247 E0.25513
G1 X111.405 Y122.247 E0.01678
G1 X117.051 Y127.894 E0.25084
G1 X117.544 Y127.852 E0.01554
G1 X111.939 Y122.247 E0.24901
G1 X112.473 Y122.247 E0.01678
G1 X118.399 Y128.173 E0.26323
G1 F5760
G1 X116.847 Y126.621 E-0.76000
G1 E-0.04000 F2100.00000
G1 Z0.800 F7200.000
G1 X114.921 Y129.503
G1 Z0.200
G1 E0.80000 F2100.00000
G1 F1800
G1 X97.247 Y111.829 E0.78511
G1 X97.247 Y112.363 E0.01678
G1 X114.626 Y129.743 E0.77204
G1 X114.501 Y130.025 E0.00972
G1 X114.479 Y130.129 E0.00333
G1 X97.247 Y112.898 E0.76547
G1 X97.247 Y113.432 E0.01678
G1 X114.385 Y130.570 E0.76130
G1 X114.363 Y130.670 E0.00322
G1 X114.363 Y131.083 E0.01297
G1 X97.247 Y113.966 E0.76036
G1 X97.247 Y114.500 E0.01678
G1 X114.661 Y131.915 E0.77359
G1 F5760
G1 X113.110 Y130.363 E-0.76000
G1 E-0.04000 F2100.00000
G1 Z0.800 F7200.000
G1 X116.561 Y133.814
G1 Z0.200
G1 E0.80000 F2100.00000
G1 F1800
G1 X120.500 Y137.753 E0.17497
G1 X121.034 Y137.753 E0.01678
G1 X117.427 Y134.146 E0.16022
G1 X117.500 Y134.154 E0.00230
G1 X117.924 Y134.109 E0.01339
G1 X121.253 Y137.438 E0.14788
G1 X121.253 Y136.904 E0.01678
G1 X118.366 Y134.016 E0.12826
G1 X118.770 Y133.886 E0.01333
G1 X121.253 Y136.369 E0.11032
G1 X121.253 Y135.835 E0.01678
G1 X119.110 Y133.692 E0.09520
G1 X119.354 Y133.551 E0.00887
G1 X119.433 Y133.480 E0.00331
G1 X121.253 Y135.301 E0.08087
G1 X121.253 Y134.767 E0.01678
G1 X119.714 Y133.227 E0.06839
G1 X119.844 Y133.110 E0.00550
G1 X119.964 Y132.944 E0.00645
G1 X121.253 Y134.232 E0.05724
G1 X121.253 Y133.698 E0.01678
G1 X120.189 Y132.635 E0.04725
G1 X120.365 Y132.276 E0.01254
G1 X121.253 Y133.164 E0.03944
G1 X121.253 Y132.630 E0.01678
G1 X120.517 Y131.893 E0.03271
G1 X120.610 Y131.453 E0.01415
G1 X121.253 Y132.095 E0.02855
G1 X121.253 Y131.561 E0.01678
G1 X120.637 Y130.945 E0.02739
G1 X120.637 Y130.670 E0.00864
G1 X120.566 Y130.340 E0.01058
G1 X121.253 Y131.027 E0.03050
G1 X121.253 Y130.493 E0.01678
G1 X113.007 Y122.247 E0.36630
G1 X113.541 Y122.247 E0.01678
G1 X121.253 Y129.959 E0.34257
G1 X121.253 Y129.424 E0.01678
G1 X114.076 Y122.247 E0.31883
G1 X114.610 Y122.247 E0.01678
G1 X121.253 Y128.890 E0.29510
G1 X121.253 Y128.356 E0.01678
G1 X115.144 Y122.247 E0.27137
G1 X115.678 Y122.247 E0.01678
G1 X121.253 Y127.822 E0.24764
G1 X121.253 Y127.287 E0.01678
G1 X116.213 Y122.247 E0.22390
G1 X116.747 Y122.247 E0.01678
G1 X121.253 Y126.753 E0.20017
G1 X121.253 Y126.219 E0.01678
G1 X117.281 Y122.247 E0.17644
G1 X117.815 Y122.247 E0.01678
G1 X121.253 Y125.685 E0.15271
G1 X121.253 Y125.150 E0.01678
G1 X118.350 Y122.247 E0.12898
G1 X118.884 Y122.247 E0.01678
G1 X121.253 Y124.616 E0.10524
G1 X121.253 Y124.082 E0.01678
G1 X119.418 Y122.247 E0.08151
G1 X119.952 Y122.247 E0.01678
G1 X121.253 Y123.548 E0.05778
G1 X121.253 Y123.013 E0.01678
G1 X120.487 Y122.247 E0.03405
G1 X121.021 Y122.247 E0.01678
G1 X121.423 Y122.649 E0.01785
G1 F5760
G1 X121.021 Y122.247 E-0.19684
G1 X120.487 Y122.247 E-0.18504
G1 X121.253 Y123.013 E-0.37541
G1 X121.253 Y123.021 E-0.00271
G1 E-0.04000 F2100.00000
G1 Z0.800 F7200.000
G1 X120.135 Y137.923
G1 Z0.200
G1 E0.80000 F2100.00000
G1 F1800
G1 X97.247 Y115.035 E1.01675
G1 X97.247 Y115.569 E0.01678
G1 X119.431 Y137.753 E0.98548
G1 X118.897 Y137.753 E0.01678
G1 X97.247 Y116.103 E0.96175
G1 X97.247 Y116.637 E0.01678
G1 X118.363 Y137.753 E0.93802
G1 X117.829 Y137.753 E0.01678
G1 X97.247 Y117.171 E0.91428
G1 X97.247 Y117.706 E0.01678
G1 X117.294 Y137.753 E0.89055
G1 X116.760 Y137.753 E0.01678
G1 X97.247 Y118.240 E0.86682
G1 X97.247 Y118.774 E0.01678
