; generated by Slic3r Prusa Edition 1.39.2+win64 on 2018-05-24 at 06:30:53

; 

; external perimeters extrusion width = 0.45mm
; perimeters extrusion width = 0.45mm
; infill extrusion width = 0.45mm
; solid infill extrusion width = 0.45mm
; top infill extrusion width = 0.45mm
; first layer extrusion width = 0.42mm

M107
M115 U3.1.0 ; tell printer latest fw version
M83  ; extruder relative mode
M104 S205 ; set extruder temp
M140 S55 ; set bed temp
M190 S55 ; wait for bed temp
M109 S205 ; wait for extruder temp
G28 W ; home all without mesh bed level
G80 ; mesh bed leveling
G1 Y-3.0 F1000.0 ; go outside print area
G92 E0.0
G1 X60.0 E9.0  F1000.0 ; intro line
G1 X100.0 E12.5  F1000.0 ; intro line
G92 E0.0
M900 K30; Filament gcode
G21 ; set units to millimeters
G90 ; use absolute coordinates
M83 ; use relative distances for extrusion
;BEFORE_LAYER_CHANGE
;0.2


G1 E-0.80000 F2100.00000
G1 Z0.600 F7200.000
;AFTER_LAYER_CHANGE
;0.2
G1 X81.393 Y91.748
G1 Z0.200
G1 E0.80000 F2100.00000
M204 S1000
G1 F1800
G1 X81.900 Y91.393 E0.01941
G1 X82.426 Y91.193 E0.01763
G1 X82.984 Y91.123 E0.01763
G1 X122.004 Y91.123 E1.22345
G1 X122.888 Y91.295 E0.02825
G1 X123.642 Y91.781 E0.02813
G1 X124.162 Y92.513 E0.02813
G1 X124.374 Y93.385 E0.02813
G1 X124.372 Y111.648 E0.57265
G1 X124.257 Y112.245 E0.01906
G1 X123.994 Y112.793 E0.01906
G1 X123.599 Y113.259 E0.01917
G1 X123.100 Y113.607 E0.01906
G1 X122.574 Y113.807 E0.01763
G1 X122.016 Y113.877 E0.01763
G1 X82.943 Y113.876 E1.22512
G1 X82.320 Y113.778 E0.01977
G1 X81.745 Y113.519 E0.01977
G1 X81.259 Y113.118 E0.01977
G1 X80.893 Y112.600 E0.01989
G1 X80.695 Y112.082 E0.01740
G1 X80.623 Y111.532 E0.01740
G1 X80.626 Y93.386 E0.56895
G1 X80.735 Y92.780 E0.01929
G1 X80.997 Y92.220 E0.01941
G1 X81.354 Y91.794 E0.01741
G1 F5760
G1 X81.900 Y91.393 E-0.23457
G1 X82.426 Y91.193 E-0.19479
G1 X82.984 Y91.123 E-0.19479
G1 X83.376 Y91.123 E-0.13584
G1 E-0.04000 F2100.00000
G1 Z0.800 F7200.000
G1 X83.964 Y94.464
G1 Z0.200
G1 E0.80000 F2100.00000
G1 F1800
G1 X121.036 Y94.464 E1.16236
G1 X121.036 Y110.536 E0.50392
G1 X83.964 Y110.536 E1.16236
G1 X83.964 Y94.524 E0.50204
G1 X83.587 Y94.087 F7200.000
G1 F1800
G1 X121.413 Y94.087 E1.18600
G1 X121.413 Y110.913 E0.52756
G1 X83.587 Y110.913 E1.18600
G1 X83.587 Y94.147 E0.52568
G1 X83.210 Y93.710 F7200.000
G1 F1800
G1 X121.790 Y93.710 E1.20965
G1 X121.790 Y111.290 E0.55121
G1 X83.210 Y111.290 E1.20965
G1 X83.210 Y93.770 E0.54933
G1 X83.606 Y93.767 F7200.000
G1 F5760
G1 X85.404 Y93.767 E-0.76000
G1 E-0.04000 F2100.00000
G1 Z0.800 F7200.000
G1 X84.847 Y110.423
G1 Z0.200
G1 E0.80000 F2100.00000
G1 F1800
G1 X84.247 Y109.823 E0.02687
G1 X84.247 Y109.284 E0.01705
G1 X85.216 Y110.253 E0.04338
G1 X85.754 Y110.253 E0.01705
G1 X84.247 Y108.746 E0.06749
G1 X84.247 Y108.207 E0.01705
G1 X86.293 Y110.253 E0.09159
G1 X86.831 Y110.253 E0.01705
G1 X84.247 Y107.669 E0.11570
G1 X84.247 Y107.130 E0.01705
G1 X87.370 Y110.253 E0.13981
G1 X87.908 Y110.253 E0.01705
G1 X84.247 Y106.592 E0.16391
G1 X84.247 Y106.054 E0.01705
G1 X88.446 Y110.253 E0.18802
G1 X88.985 Y110.253 E0.01705
G1 X84.247 Y105.515 E0.21212
G1 X84.247 Y104.977 E0.01705
G1 X89.523 Y110.253 E0.23623
G1 X90.062 Y110.253 E0.01705
G1 X84.247 Y104.438 E0.26034
G1 X84.247 Y103.900 E0.01705
G1 X90.600 Y110.253 E0.28444
G1 X91.139 Y110.253 E0.01705
G1 X84.247 Y103.361 E0.30855
G1 X84.247 Y102.823 E0.01705
G1 X91.677 Y110.253 E0.33265
G1 X92.216 Y110.253 E0.01705
G1 X84.247 Y102.284 E0.35676
G1 X84.247 Y101.746 E0.01705
G1 X92.754 Y110.253 E0.38087
G1 X93.292 Y110.253 E0.01705
G1 X84.247 Y101.208 E0.40497
G1 X84.247 Y100.669 E0.01705
G1 X93.831 Y110.253 E0.42908
G1 X94.369 Y110.253 E0.01705
G1 X84.247 Y100.131 E0.45318
G1 X84.247 Y99.592 E0.01705
G1 X94.908 Y110.253 E0.47729
G1 X95.446 Y110.253 E0.01705
G1 X84.247 Y99.054 E0.50140
G1 X84.247 Y98.515 E0.01705
G1 X95.985 Y110.253 E0.52550
G1 X96.523 Y110.253 E0.01705
G1 X84.247 Y97.977 E0.54961
G1 X84.247 Y97.439 E0.01705
G1 X97.061 Y110.253 E0.57371
G1 X97.600 Y110.253 E0.01705
G1 X84.247 Y96.900 E0.59782
G1 X84.247 Y96.362 E0.01705
G1 X98.138 Y110.253 E0.62193
G1 X98.677 Y110.253 E0.01705
G1 X84.247 Y95.823 E0.64603
G1 X84.247 Y95.285 E0.01705
G1 X99.215 Y110.253 E0.67014
G1 X99.754 Y110.253 E0.01705
G1 X84.247 Y94.747 E0.69422
G1 X84.786 Y94.747 E0.01705
G1 X100.292 Y110.253 E0.69422
G1 X100.830 Y110.253 E0.01705
G1 X85.324 Y94.747 E0.69422
G1 X85.863 Y94.747 E0.01705
G1 X101.369 Y110.253 E0.69422
G1 X101.907 Y110.253 E0.01705
G1 X86.401 Y94.747 E0.69422
G1 X86.940 Y94.747 E0.01705
G1 X102.446 Y110.253 E0.69422
G1 X102.984 Y110.253 E0.01705
G1 X87.478 Y94.747 E0.69422
G1 X88.016 Y94.747 E0.01705
G1 X103.523 Y110.253 E0.69422
G1 X104.061 Y110.253 E0.01705
G1 X88.555 Y94.747 E0.69422
G1 X89.093 Y94.747 E0.01705
G1 X104.599 Y110.253 E0.69422
G1 X105.138 Y110.253 E0.01705
G1 X89.632 Y94.747 E0.69422
G1 X90.170 Y94.747 E0.01705
G1 X105.676 Y110.253 E0.69422
G1 X106.215 Y110.253 E0.01705
G1 X90.709 Y94.747 E0.69422
G1 X91.247 Y94.747 E0.01705
G1 X106.753 Y110.253 E0.69422
G1 X107.292 Y110.253 E0.01705
G1 X91.786 Y94.747 E0.69422
G1 X92.324 Y94.747 E0.01705
G1 X107.830 Y110.253 E0.69422
G1 X108.368 Y110.253 E0.01705
G1 X92.862 Y94.747 E0.69422
G1 X93.401 Y94.747 E0.01705
G1 X108.907 Y110.253 E0.69422
G1 X109.445 Y110.253 E0.01705
G1 X93.939 Y94.747 E0.69422
G1 X94.478 Y94.747 E0.01705
G1 X109.984 Y110.253 E0.69422
G1 X110.522 Y110.253 E0.01705
G1 X95.016 Y94.747 E0.69422
G1 X95.555 Y94.747 E0.01705
G1 X111.061 Y110.253 E0.69422
G1 X111.599 Y110.253 E0.01705
G1 X96.093 Y94.747 E0.69422
G1 X96.631 Y94.747 E0.01705
G1 X112.138 Y110.253 E0.69422
G1 X112.676 Y110.253 E0.01705
G1 X97.170 Y94.747 E0.69422
G1 X97.708 Y94.747 E0.01705
G1 X113.214 Y110.253 E0.69422
G1 X113.753 Y110.253 E0.01705
G1 X98.247 Y94.747 E0.69422
G1 X98.785 Y94.747 E0.01705
G1 X114.291 Y110.253 E0.69422
G1 X114.830 Y110.253 E0.01705
G1 X99.324 Y94.747 E0.69422
G1 X99.862 Y94.747 E0.01705
G1 X115.368 Y110.253 E0.69422
G1 X115.907 Y110.253 E0.01705
G1 X100.400 Y94.747 E0.69422
G1 X100.939 Y94.747 E0.01705
G1 X116.445 Y110.253 E0.69422
G1 X116.983 Y110.253 E0.01705
G1 X101.477 Y94.747 E0.69422
G1 X102.016 Y94.747 E0.01705
G1 X117.522 Y110.253 E0.69422
G1 X118.060 Y110.253 E0.01705
G1 X102.554 Y94.747 E0.69422
G1 X103.093 Y94.747 E0.01705
G1 X118.599 Y110.253 E0.69422
G1 X119.137 Y110.253 E0.01705
G1 X103.631 Y94.747 E0.69422
G1 X104.169 Y94.747 E0.01705
G1 X119.676 Y110.253 E0.69422
G1 X120.214 Y110.253 E0.01705
G1 X104.708 Y94.747 E0.69422
G1 X105.246 Y94.747 E0.01705
G1 X120.752 Y110.253 E0.69422
G1 X120.753 Y109.715 E0.01703
G1 X105.785 Y94.747 E0.67014
G1 X106.323 Y94.747 E0.01705
G1 X120.753 Y109.177 E0.64604
G1 X120.753 Y108.638 E0.01705
G1 X106.862 Y94.747 E0.62193
G1 X107.400 Y94.747 E0.01705
G1 X120.753 Y108.100 E0.59783
G1 X120.753 Y107.562 E0.01705
G1 X107.938 Y94.747 E0.57372
G1 X108.477 Y94.747 E0.01705
G1 X120.753 Y107.023 E0.54961
G1 X120.753 Y106.485 E0.01705
G1 X109.015 Y94.747 E0.52551
G1 X109.554 Y94.747 E0.01705
G1 X120.753 Y105.946 E0.50140
G1 X120.753 Y105.408 E0.01705
G1 X110.092 Y94.747 E0.47730
G1 X110.631 Y94.747 E0.01705
G1 X120.753 Y104.869 E0.45319
G1 X120.753 Y104.331 E0.01705
G1 X111.169 Y94.747 E0.42908
G1 X111.707 Y94.747 E0.01705
G1 X120.753 Y103.793 E0.40498
G1 X120.753 Y103.254 E0.01705
G1 X112.246 Y94.747 E0.38087
G1 X112.784 Y94.747 E0.01705
G1 X120.753 Y102.716 E0.35676
G1 X120.753 Y102.177 E0.01705
G1 X113.323 Y94.747 E0.33266
G1 X113.861 Y94.747 E0.01705
G1 X120.753 Y101.639 E0.30855
G1 X120.753 Y101.100 E0.01705
G1 X114.400 Y94.747 E0.28445
G1 X114.938 Y94.747 E0.01705
G1 X120.753 Y100.562 E0.26034
G1 X120.753 Y100.023 E0.01705
G1 X115.477 Y94.747 E0.23623
G1 X116.015 Y94.747 E0.01705
G1 X120.753 Y99.485 E0.21213
G1 X120.753 Y98.947 E0.01705
G1 X116.553 Y94.747 E0.18802
G1 X117.092 Y94.747 E0.01705
G1 X120.753 Y98.408 E0.16392
G1 X120.753 Y97.870 E0.01705
G1 X117.630 Y94.747 E0.13981
G1 X118.169 Y94.747 E0.01705
G1 X120.753 Y97.331 E0.11570
G1 X120.753 Y96.793 E0.01705
G1 X118.707 Y94.747 E0.09160
G1 X119.246 Y94.747 E0.01705
G1 X120.753 Y96.254 E0.06749
G1 X120.753 Y95.716 E0.01705
G1 X119.784 Y94.747 E0.04339
G1 X120.322 Y94.747 E0.01705
G1 X120.923 Y95.347 E0.02688
M106 S242.25
;BEFORE_LAYER_CHANGE
;0.35


G1 F5760
G1 X120.322 Y94.747 E-0.29405
G1 X119.784 Y94.747 E-0.18649
G1 X120.355 Y95.317 E-0.27946
G1 E-0.04000 F2100.00000
G1 Z0.800 F7200.000
;AFTER_LAYER_CHANGE
;0.35
G1 X124.162 Y92.513
G1 Z0.350
G1 E0.80000 F2100.00000
G1 F3000
G1 X124.374 Y93.385 E0.02170
G1 X124.372 Y111.648 E0.44171
G1 X124.257 Y112.245 E0.01470
G1 X123.994 Y112.793 E0.01470
G1 X123.599 Y113.259 E0.01479
G1 X123.100 Y113.607 E0.01470
G1 X122.574 Y113.807 E0.01360
G1 X122.016 Y113.877 E0.01360
G1 X82.943 Y113.876 E0.94499
G1 X82.320 Y113.778 E0.01525
G1 X81.745 Y113.519 E0.01525
G1 X81.259 Y113.118 E0.01525
G1 X80.893 Y112.600 E0.01534
G1 X80.695 Y112.082 E0.01342
G1 X80.623 Y111.532 E0.01342
G1 X80.626 Y93.386 E0.43885
G1 X80.735 Y92.780 E0.01488
G1 X80.997 Y92.220 E0.01497
G1 X81.393 Y91.748 E0.01488
G1 X81.900 Y91.393 E0.01497
G1 X82.426 Y91.193 E0.01360
G1 X82.984 Y91.123 E0.01360
G1 X122.004 Y91.123 E0.94370
G1 X122.888 Y91.295 E0.02179
G1 X123.642 Y91.781 E0.02170
G1 X124.128 Y92.464 E0.02025
G1 F5760
G1 X124.374 Y93.385 E-0.33018
G1 X124.374 Y94.626 E-0.42982
G1 E-0.04000 F2100.00000
G1 Z0.950 F7200.000
G1 X120.939 Y94.561
G1 Z0.350
G1 E0.80000 F2100.00000
M204 S800
G1 F3000
G1 X120.939 Y110.439 E0.41373
G1 X84.061 Y110.439 E0.96090
G1 X84.061 Y94.561 E0.41373
G1 X120.879 Y94.561 E0.95934
M204 S1000
G1 X121.357 Y94.143 F7200.000
M204 S800
G1 F3000
G1 X121.357 Y110.857 E0.43551
G1 X83.643 Y110.857 E0.98268
G1 X83.643 Y94.143 E0.43551
G1 X121.297 Y94.143 E0.98111
M204 S1000
G1 X121.775 Y93.725 F7200.000
M204 S800
G1 F2400
G1 X121.775 Y111.275 E0.45728
G1 X83.225 Y111.275 E1.00445
G1 X83.225 Y93.725 E0.45728
G1 X121.715 Y93.725 E1.00289
M204 S1000
G1 X121.626 Y94.096 F7200.000
G1 F5760
G1 X121.723 Y95.919 E-0.76000
G1 E-0.04000 F2100.00000
G1 Z0.950 F7200.000
G1 X119.964 Y110.314
G1 Z0.350
G1 E0.80000 F2100.00000
M204 S2000
G1 F3000
G1 X120.626 Y109.652 E0.02457
G1 X120.626 Y109.057 E0.01560
G1 X119.557 Y110.126 E0.03966
G1 X118.962 Y110.126 E0.01560
G1 X120.626 Y108.462 E0.06172
G1 X120.626 Y107.867 E0.01560
G1 X118.367 Y110.126 E0.08378
G1 X117.773 Y110.126 E0.01560
G1 X120.626 Y107.273 E0.10584
G1 X120.626 Y106.678 E0.01560
G1 X117.178 Y110.126 E0.12790
G1 X116.583 Y110.126 E0.01560
G1 X120.626 Y106.083 E0.14996
G1 X120.626 Y105.488 E0.01560
G1 X115.988 Y110.126 E0.17202
G1 X115.393 Y110.126 E0.01560
G1 X120.626 Y104.893 E0.19408
G1 X120.626 Y104.299 E0.01560
G1 X114.799 Y110.126 E0.21614
G1 X114.204 Y110.126 E0.01560
G1 X120.626 Y103.704 E0.23820
G1 X120.626 Y103.109 E0.01560
G1 X113.609 Y110.126 E0.26027
G1 X113.014 Y110.126 E0.01560
G1 X120.626 Y102.514 E0.28233
G1 X120.626 Y101.920 E0.01560
G1 X112.420 Y110.126 E0.30439
G1 X111.825 Y110.126 E0.01560
G1 X120.626 Y101.325 E0.32645
G1 X120.626 Y100.730 E0.01560
G1 X111.230 Y110.126 E0.34851
G1 X110.635 Y110.126 E0.01560
G1 X120.626 Y100.135 E0.37057
G1 X120.626 Y99.541 E0.01560
G1 X110.041 Y110.126 E0.39263
G1 X109.446 Y110.126 E0.01560
G1 X120.626 Y98.946 E0.41469
G1 X120.626 Y98.351 E0.01560
G1 X108.851 Y110.126 E0.43675
G1 X108.256 Y110.126 E0.01560
G1 X120.626 Y97.756 E0.45881
G1 X120.626 Y97.161 E0.01560
G1 X107.661 Y110.126 E0.48087
G1 X107.067 Y110.126 E0.01560
G1 X120.626 Y96.567 E0.50293
G1 X120.626 Y95.972 E0.01560
G1 X106.472 Y110.126 E0.52500
G1 X105.877 Y110.126 E0.01560
G1 X120.626 Y95.377 E0.54706
G1 X120.626 Y94.874 E0.01320
G1 X120.534 Y94.874 E0.00240
G1 X105.282 Y110.126 E0.56572
G1 X104.688 Y110.126 E0.01560
G1 X119.940 Y94.874 E0.56572
G1 X119.345 Y94.874 E0.01560
G1 X104.093 Y110.126 E0.56572
G1 X103.498 Y110.126 E0.01560
G1 X118.750 Y94.874 E0.56572
G1 X118.155 Y94.874 E0.01560
G1 X102.903 Y110.126 E0.56572
G1 X102.309 Y110.126 E0.01560
G1 X117.561 Y94.874 E0.56572
G1 X116.966 Y94.874 E0.01560
G1 X101.714 Y110.126 E0.56572
G1 X101.119 Y110.126 E0.01560
G1 X116.371 Y94.874 E0.56572
G1 X115.776 Y94.874 E0.01560
G1 X100.524 Y110.126 E0.56572
G1 X99.929 Y110.126 E0.01560
G1 X115.182 Y94.874 E0.56572
G1 X114.587 Y94.874 E0.01560
G1 X99.335 Y110.126 E0.56572
G1 X98.740 Y110.126 E0.01560
G1 X113.992 Y94.874 E0.56572
G1 X113.397 Y94.874 E0.01560
G1 X98.145 Y110.126 E0.56572
G1 X97.550 Y110.126 E0.01560
G1 X112.802 Y94.874 E0.56572
G1 X112.208 Y94.874 E0.01560
G1 X96.956 Y110.126 E0.56572
G1 X96.361 Y110.126 E0.01560
G1 X111.613 Y94.874 E0.56572
G1 X111.018 Y94.874 E0.01560
G1 X95.766 Y110.126 E0.56572
G1 X95.171 Y110.126 E0.01560
G1 X110.423 Y94.874 E0.56572
G1 X109.829 Y94.874 E0.01560
G1 X94.577 Y110.126 E0.56572
G1 X93.982 Y110.126 E0.01560
G1 X109.234 Y94.874 E0.56572
G1 X108.639 Y94.874 E0.01560
G1 X93.387 Y110.126 E0.56572
G1 X92.792 Y110.126 E0.01560
G1 X108.044 Y94.874 E0.56572
G1 X107.450 Y94.874 E0.01560
G1 X92.197 Y110.126 E0.56572
G1 X91.603 Y110.126 E0.01560
G1 X106.855 Y94.874 E0.56572
G1 X106.260 Y94.874 E0.01560
G1 X91.008 Y110.126 E0.56572
G1 X90.413 Y110.126 E0.01560
G1 X105.665 Y94.874 E0.56572
G1 X105.070 Y94.874 E0.01560
G1 X89.818 Y110.126 E0.56572
G1 X89.224 Y110.126 E0.01560
G1 X104.476 Y94.874 E0.56572
G1 X103.881 Y94.874 E0.01560
G1 X88.629 Y110.126 E0.56572
G1 X88.034 Y110.126 E0.01560
G1 X103.286 Y94.874 E0.56572
G1 X102.691 Y94.874 E0.01560
G1 X87.439 Y110.126 E0.56572
G1 X86.845 Y110.126 E0.01560
G1 X102.097 Y94.874 E0.56572
G1 X101.502 Y94.874 E0.01560
G1 X86.250 Y110.126 E0.56572
G1 X85.655 Y110.126 E0.01560
G1 X100.907 Y94.874 E0.56572
G1 X100.312 Y94.874 E0.01560
G1 X85.060 Y110.126 E0.56572
G1 X84.465 Y110.126 E0.01560
G1 X99.718 Y94.874 E0.56572
G1 X99.123 Y94.874 E0.01560
G1 X84.374 Y109.623 E0.54706
G1 X84.374 Y109.028 E0.01560
G1 X98.528 Y94.874 E0.52499
G1 X97.933 Y94.874 E0.01560
G1 X84.374 Y108.433 E0.50293
G1 X84.374 Y107.838 E0.01560
G1 X97.338 Y94.874 E0.48087
G1 X96.744 Y94.874 E0.01560
G1 X84.374 Y107.244 E0.45881
G1 X84.374 Y106.649 E0.01560
G1 X96.149 Y94.874 E0.43675
G1 X95.554 Y94.874 E0.01560
G1 X84.374 Y106.054 E0.41469
G1 X84.374 Y105.459 E0.01560
G1 X94.959 Y94.874 E0.39263
G1 X94.365 Y94.874 E0.01560
G1 X84.374 Y104.865 E0.37057
G1 X84.374 Y104.270 E0.01560
G1 X93.770 Y94.874 E0.34851
G1 X93.175 Y94.874 E0.01560
G1 X84.374 Y103.675 E0.32645
G1 X84.374 Y103.080 E0.01560
G1 X92.580 Y94.874 E0.30439
G1 X91.986 Y94.874 E0.01560
G1 X84.374 Y102.486 E0.28233
G1 X84.374 Y101.891 E0.01560
G1 X91.391 Y94.874 E0.26026
G1 X90.796 Y94.874 E0.01560
G1 X84.374 Y101.296 E0.23820
G1 X84.374 Y100.701 E0.01560
G1 X90.201 Y94.874 E0.21614
G1 X89.606 Y94.874 E0.01560
G1 X84.374 Y100.106 E0.19408
G1 X84.374 Y99.512 E0.01560
G1 X89.012 Y94.874 E0.17202
G1 X88.417 Y94.874 E0.01560
G1 X84.374 Y98.917 E0.14996
G1 X84.374 Y98.322 E0.01560
G1 X87.822 Y94.874 E0.12790
G1 X87.227 Y94.874 E0.01560
G1 X84.374 Y97.727 E0.10584
G1 X84.374 Y97.133 E0.01560
G1 X86.633 Y94.874 E0.08378
G1 X86.038 Y94.874 E0.01560
G1 X84.374 Y96.538 E0.06172
G1 X84.374 Y95.943 E0.01560
G1 X85.443 Y94.874 E0.03966
G1 X84.848 Y94.874 E0.01560
G1 X84.186 Y95.536 E0.02457
M204 S1000
;BEFORE_LAYER_CHANGE
;0.5


G1 F5760
G1 X84.848 Y94.874 E-0.32446
G1 X85.443 Y94.874 E-0.20600
G1 X84.974 Y95.343 E-0.22954
G1 E-0.04000 F2100.00000
G1 Z0.950 F7200.000
;AFTER_LAYER_CHANGE
;0.5
G1 X122.888 Y91.295
G1 Z0.500
G1 E0.80000 F2100.00000
G1 F3000
G1 X123.642 Y91.781 E0.02170
G1 X124.162 Y92.513 E0.02170
G1 X124.374 Y93.385 E0.02170
G1 X124.372 Y111.648 E0.44171
G1 X124.257 Y112.245 E0.01470
G1 X123.994 Y112.793 E0.01470
G1 X123.599 Y113.259 E0.01479
G1 X123.100 Y113.607 E0.01470
G1 X122.574 Y113.807 E0.01360
G1 X122.016 Y113.877 E0.01360
G1 X82.943 Y113.876 E0.94499
G1 X82.320 Y113.778 E0.01525
G1 X81.745 Y113.519 E0.01525
G1 X81.259 Y113.118 E0.01525
G1 X80.893 Y112.600 E0.01534
G1 X80.695 Y112.082 E0.01342
G1 X80.623 Y111.532 E0.01342
G1 X80.626 Y93.386 E0.43885
G1 X80.735 Y92.780 E0.01488
G1 X80.997 Y92.220 E0.01497
G1 X81.393 Y91.748 E0.01488
G1 X81.900 Y91.393 E0.01497
G1 X82.426 Y91.193 E0.01360
