; generated by Slic3r Prusa Edition 1.39.2+win64 on 2018-05-27 at 06:34:49

; 

; external perimeters extrusion width = 0.45mm
; perimeters extrusion width = 0.45mm
; infill extrusion width = 0.45mm
; solid infill extrusion width = 0.45mm
; top infill extrusion width = 0.45mm
; first layer extrusion width = 0.42mm

M107
M115 U3.1.0 ; tell printer latest fw version
M83  ; extruder relative mode
M104 S205 ; set extruder temp
M140 S55 ; set bed temp
M190 S55 ; wait for bed temp
M109 S205 ; wait for extruder temp
G28 W ; home all without mesh bed level
G80 ; mesh bed leveling
G1 Y-3.0 F1000.0 ; go outside print area
G92 E0.0
G1 X60.0 E9.0  F1000.0 ; intro line
G1 X100.0 E12.5  F1000.0 ; intro line
G92 E0.0
M900 K30; Filament gcode
G21 ; set units to millimeters
G90 ; use absolute coordinates
M83 ; use relative distances for extrusion
;BEFORE_LAYER_CHANGE
;0.2


G1 E-0.80000 F2100.00000
G1 Z0.600 F7200.000
;AFTER_LAYER_CHANGE
;0.2
G1 X65.323 Y87.011
G1 Z0.200
G1 E0.80000 F2100.00000
M204 S1000
G1 F1800
G1 X68.724 Y85.498 E0.11671
G1 X72.369 Y84.722 E0.11683
G1 X75.874 Y84.708 E0.10991
G1 X146.272 Y85.123 E2.20731
G1 X146.774 Y85.181 E0.01585
G1 X147.252 Y85.345 E0.01585
G1 X147.798 Y85.696 E0.02036
G1 X148.231 Y86.186 E0.02048
G1 X148.514 Y86.774 E0.02048
G1 X148.626 Y87.418 E0.02048
G1 X148.627 Y117.515 E0.94369
G1 X148.569 Y118.021 E0.01597
G1 X148.405 Y118.504 E0.01597
G1 X148.048 Y119.055 E0.02060
G1 X147.551 Y119.490 E0.02071
G1 X146.956 Y119.770 E0.02060
G1 X146.308 Y119.876 E0.02060
G1 X72.618 Y120.292 E2.31053
G1 X68.756 Y119.512 E0.12355
G1 X65.495 Y118.078 E0.11170
G1 X62.121 Y115.620 E0.13087
G1 X59.779 Y112.997 E0.11027
G1 X57.917 Y109.769 E0.11683
G1 X56.766 Y106.229 E0.11671
G1 X56.384 Y102.733 E0.11027
G1 X56.819 Y98.571 E0.13122
G1 X57.918 Y95.230 E0.11027
G1 X59.667 Y92.174 E0.11039
G1 X62.115 Y89.388 E0.11629
G1 X62.479 Y89.060 E0.01538
G1 X65.275 Y87.046 E0.10802
G1 F5760
G1 X67.277 Y86.148 E-0.76000
G1 E-0.04000 F2100.00000
G1 Z0.800 F7200.000
G1 X135.629 Y109.833
G1 Z0.200
G1 E0.80000 F2100.00000
G1 F1800
G1 X135.929 Y109.313 E0.01881
G1 X136.330 Y108.868 E0.01881
G1 X136.815 Y108.515 E0.01881
G1 X137.363 Y108.271 E0.01881
G1 X137.950 Y108.146 E0.01881
G1 X138.550 Y108.146 E0.01881
G1 X139.137 Y108.271 E0.01881
G1 X139.685 Y108.515 E0.01881
G1 X140.170 Y108.868 E0.01881
G1 X140.571 Y109.313 E0.01881
G1 X140.871 Y109.833 E0.01881
G1 X141.057 Y110.403 E0.01881
G1 X141.119 Y111.000 E0.01881
G1 X141.057 Y111.597 E0.01881
G1 X140.871 Y112.167 E0.01881
G1 X140.571 Y112.687 E0.01881
G1 X140.170 Y113.132 E0.01881
G1 X139.685 Y113.485 E0.01881
G1 X139.137 Y113.729 E0.01881
G1 X138.550 Y113.854 E0.01881
G1 X137.950 Y113.854 E0.01881
G1 X137.363 Y113.729 E0.01881
G1 X136.815 Y113.485 E0.01881
G1 X136.330 Y113.132 E0.01881
G1 X135.929 Y112.687 E0.01881
G1 X135.629 Y112.167 E0.01881
G1 X135.443 Y111.597 E0.01881
G1 X135.381 Y111.000 E0.01881
G1 X135.443 Y110.403 E0.01881
G1 X135.610 Y109.890 E0.01693
G1 X135.969 Y110.006 F7200.000
G1 F1800
G1 X136.235 Y109.536 E0.01695
G1 X136.584 Y109.149 E0.01632
G1 X137.005 Y108.843 E0.01632
G1 X137.480 Y108.632 E0.01633
G1 X137.990 Y108.523 E0.01632
G1 X138.510 Y108.523 E0.01632
G1 X139.020 Y108.632 E0.01632
G1 X139.495 Y108.843 E0.01632
G1 X139.916 Y109.149 E0.01632
G1 X140.265 Y109.536 E0.01632
G1 X140.525 Y109.987 E0.01632
G1 X140.686 Y110.482 E0.01632
G1 X140.740 Y111.000 E0.01632
G1 X140.686 Y111.518 E0.01632
G1 X140.525 Y112.013 E0.01633
G1 X140.265 Y112.464 E0.01632
G1 X139.916 Y112.851 E0.01632
G1 X139.495 Y113.157 E0.01632
G1 X139.020 Y113.368 E0.01633
G1 X138.510 Y113.477 E0.01632
G1 X137.990 Y113.477 E0.01632
G1 X137.480 Y113.368 E0.01632
G1 X137.005 Y113.157 E0.01633
G1 X136.584 Y112.851 E0.01632
G1 X136.235 Y112.464 E0.01632
G1 X135.975 Y112.013 E0.01632
G1 X135.814 Y111.518 E0.01632
G1 X135.760 Y111.000 E0.01632
G1 X135.814 Y110.482 E0.01632
G1 X135.950 Y110.064 E0.01380
G1 X136.321 Y110.141 F7200.000
G1 F1800
G1 X136.542 Y109.759 E0.01384
G1 X136.837 Y109.431 E0.01384
G1 X137.194 Y109.172 E0.01384
G1 X137.598 Y108.992 E0.01384
G1 X138.029 Y108.900 E0.01384
G1 X138.471 Y108.900 E0.01384
G1 X138.902 Y108.992 E0.01384
G1 X139.306 Y109.172 E0.01384
G1 X139.663 Y109.431 E0.01384
G1 X139.958 Y109.759 E0.01384
G1 X140.179 Y110.141 E0.01384
G1 X140.315 Y110.561 E0.01384
G1 X140.361 Y111.000 E0.01384
G1 X140.315 Y111.439 E0.01384
G1 X140.179 Y111.859 E0.01384
G1 X139.958 Y112.241 E0.01384
G1 X139.663 Y112.569 E0.01384
G1 X139.306 Y112.828 E0.01384
G1 X138.902 Y113.008 E0.01384
G1 X138.471 Y113.100 E0.01384
G1 X138.029 Y113.100 E0.01384
G1 X137.598 Y113.008 E0.01384
G1 X137.194 Y112.828 E0.01384
G1 X136.837 Y112.569 E0.01384
G1 X136.542 Y112.241 E0.01384
G1 X136.321 Y111.859 E0.01384
G1 X136.185 Y111.439 E0.01384
G1 X136.139 Y111.000 E0.01384
G1 X136.185 Y110.561 E0.01384
G1 X136.303 Y110.198 E0.01196
G1 X136.086 Y109.818 F7200.000
G1 F5760
G1 X136.542 Y109.759 E-0.17324
G1 X136.837 Y109.431 E-0.15287
G1 X137.194 Y109.172 E-0.15285
G1 X137.598 Y108.992 E-0.15288
G1 X137.960 Y108.915 E-0.12816
G1 E-0.04000 F2100.00000
G1 Z0.800 F7200.000
G1 X137.950 Y97.854
G1 Z0.200
G1 E0.80000 F2100.00000
G1 F1800
G1 X137.363 Y97.729 E0.01881
G1 X136.815 Y97.485 E0.01881
G1 X136.330 Y97.132 E0.01881
G1 X135.929 Y96.687 E0.01881
G1 X135.629 Y96.167 E0.01881
G1 X135.443 Y95.597 E0.01881
G1 X135.381 Y95.000 E0.01881
G1 X135.443 Y94.403 E0.01881
G1 X135.629 Y93.833 E0.01881
G1 X135.929 Y93.313 E0.01881
G1 X136.330 Y92.867 E0.01881
G1 X136.815 Y92.515 E0.01881
G1 X137.363 Y92.271 E0.01881
G1 X137.950 Y92.146 E0.01881
G1 X138.550 Y92.146 E0.01881
G1 X139.137 Y92.271 E0.01881
G1 X139.685 Y92.515 E0.01881
G1 X140.170 Y92.867 E0.01881
G1 X140.571 Y93.313 E0.01881
G1 X140.871 Y93.833 E0.01881
G1 X141.057 Y94.403 E0.01881
G1 X141.119 Y95.000 E0.01881
G1 X141.057 Y95.597 E0.01881
G1 X140.871 Y96.167 E0.01881
G1 X140.571 Y96.687 E0.01881
G1 X140.170 Y97.132 E0.01881
G1 X139.685 Y97.485 E0.01881
G1 X139.137 Y97.729 E0.01881
G1 X138.550 Y97.854 E0.01881
G1 X138.010 Y97.854 E0.01693
G1 X138.010 Y97.477 F7200.000
G1 F1800
G1 X137.480 Y97.368 E0.01695
G1 X137.005 Y97.157 E0.01632
G1 X136.584 Y96.851 E0.01632
G1 X136.235 Y96.464 E0.01633
G1 X135.975 Y96.013 E0.01632
G1 X135.814 Y95.518 E0.01633
G1 X135.760 Y95.000 E0.01632
G1 X135.814 Y94.482 E0.01632
G1 X135.975 Y93.987 E0.01633
G1 X136.235 Y93.536 E0.01632
G1 X136.584 Y93.149 E0.01633
G1 X137.005 Y92.843 E0.01632
G1 X137.480 Y92.632 E0.01632
G1 X137.990 Y92.523 E0.01632
G1 X138.510 Y92.523 E0.01633
G1 X139.020 Y92.632 E0.01632
G1 X139.495 Y92.843 E0.01632
G1 X139.916 Y93.149 E0.01632
G1 X140.265 Y93.536 E0.01633
G1 X140.525 Y93.987 E0.01632
G1 X140.686 Y94.482 E0.01633
G1 X140.740 Y95.000 E0.01632
G1 X140.686 Y95.518 E0.01632
G1 X140.525 Y96.013 E0.01633
G1 X140.265 Y96.464 E0.01632
G1 X139.916 Y96.851 E0.01633
G1 X139.495 Y97.157 E0.01632
G1 X139.020 Y97.368 E0.01632
G1 X138.510 Y97.477 E0.01632
G1 X138.070 Y97.477 E0.01381
G1 X138.029 Y97.100 F7200.000
G1 F1800
G1 X137.598 Y97.008 E0.01384
G1 X137.194 Y96.828 E0.01384
G1 X136.837 Y96.569 E0.01384
G1 X136.542 Y96.241 E0.01384
G1 X136.321 Y95.859 E0.01384
G1 X136.185 Y95.439 E0.01384
G1 X136.139 Y95.000 E0.01384
G1 X136.185 Y94.561 E0.01384
G1 X136.321 Y94.141 E0.01384
G1 X136.542 Y93.759 E0.01384
G1 X136.837 Y93.431 E0.01384
G1 X137.194 Y93.172 E0.01384
G1 X137.598 Y92.992 E0.01384
G1 X138.029 Y92.900 E0.01384
G1 X138.471 Y92.900 E0.01384
G1 X138.902 Y92.992 E0.01384
G1 X139.306 Y93.172 E0.01384
G1 X139.663 Y93.431 E0.01384
G1 X139.958 Y93.759 E0.01384
G1 X140.179 Y94.141 E0.01384
G1 X140.315 Y94.561 E0.01384
G1 X140.361 Y95.000 E0.01384
G1 X140.315 Y95.439 E0.01384
G1 X140.179 Y95.859 E0.01384
G1 X139.958 Y96.241 E0.01384
G1 X139.663 Y96.569 E0.01384
G1 X139.306 Y96.828 E0.01384
G1 X138.902 Y97.008 E0.01384
G1 X138.471 Y97.100 E0.01384
G1 X138.089 Y97.100 E0.01196
G1 X137.794 Y97.423 F7200.000
G1 F5760
G1 X137.598 Y97.008 E-0.17323
G1 X137.194 Y96.828 E-0.15288
G1 X136.837 Y96.569 E-0.15283
G1 X136.542 Y96.241 E-0.15288
G1 X136.357 Y95.920 E-0.12818
G1 E-0.04000 F2100.00000
G1 Z0.800 F7200.000
G1 X80.584 Y104.632
G1 Z0.200
G1 E0.80000 F2100.00000
G1 F1800
G1 X80.389 Y105.233 E0.01980
G1 X79.686 Y106.450 E0.04404
G1 X78.746 Y107.494 E0.04404
G1 X77.610 Y108.319 E0.04405
G1 X76.406 Y108.855 E0.04131
G1 X76.455 Y108.910 E0.00229
G1 X76.734 Y109.394 E0.01753
G1 X76.910 Y109.935 E0.01783
G1 X76.969 Y110.500 E0.01783
G1 X76.910 Y111.065 E0.01783
G1 X76.734 Y111.606 E0.01783
G1 X76.450 Y112.098 E0.01783
G1 X76.070 Y112.521 E0.01783
G1 X75.610 Y112.855 E0.01783
G1 X75.090 Y113.086 E0.01783
G1 X74.534 Y113.205 E0.01783
G1 X73.966 Y113.205 E0.01783
G1 X73.410 Y113.086 E0.01783
G1 X72.890 Y112.855 E0.01783
G1 X72.430 Y112.521 E0.01783
G1 X72.050 Y112.098 E0.01783
G1 X71.765 Y111.604 E0.01789
G1 X71.589 Y111.056 E0.01805
G1 X71.531 Y110.500 E0.01753
G1 X71.590 Y109.935 E0.01783
G1 X71.766 Y109.394 E0.01783
G1 X72.092 Y108.854 E0.01977
G1 X70.890 Y108.319 E0.04126
G1 X69.754 Y107.494 E0.04405
G1 X68.814 Y106.450 E0.04404
G1 X68.110 Y105.231 E0.04411
G1 X67.918 Y104.631 E0.01976
G1 X67.610 Y104.855 E0.01195
G1 X67.090 Y105.086 E0.01782
G1 X66.534 Y105.205 E0.01783
G1 X65.966 Y105.205 E0.01783
G1 X65.410 Y105.086 E0.01783
G1 X64.890 Y104.855 E0.01782
G1 X64.430 Y104.521 E0.01783
G1 X64.050 Y104.098 E0.01783
G1 X63.766 Y103.606 E0.01782
G1 X63.590 Y103.065 E0.01783
G1 X63.531 Y102.500 E0.01782
G1 X63.590 Y101.935 E0.01782
G1 X63.766 Y101.394 E0.01783
G1 X64.050 Y100.902 E0.01782
G1 X64.430 Y100.479 E0.01783
G1 X64.890 Y100.145 E0.01783
G1 X65.410 Y99.914 E0.01782
G1 X65.966 Y99.795 E0.01783
G1 X66.534 Y99.795 E0.01783
G1 X67.090 Y99.914 E0.01783
G1 X67.610 Y100.145 E0.01782
G1 X67.916 Y100.368 E0.01188
G1 X68.111 Y99.767 E0.01980
G1 X68.814 Y98.550 E0.04405
G1 X69.754 Y97.506 E0.04405
G1 X70.890 Y96.681 E0.04404
G1 X72.092 Y96.146 E0.04126
G1 X71.766 Y95.606 E0.01977
G1 X71.590 Y95.065 E0.01783
G1 X71.531 Y94.500 E0.01782
G1 X71.590 Y93.935 E0.01782
G1 X71.766 Y93.394 E0.01783
G1 X72.050 Y92.902 E0.01782
G1 X72.430 Y92.479 E0.01783
G1 X72.890 Y92.145 E0.01783
G1 X73.410 Y91.914 E0.01782
G1 X73.966 Y91.795 E0.01783
G1 X74.534 Y91.795 E0.01783
G1 X75.090 Y91.914 E0.01783
G1 X75.610 Y92.145 E0.01782
G1 X76.070 Y92.479 E0.01783
G1 X76.450 Y92.902 E0.01783
G1 X76.734 Y93.394 E0.01782
G1 X76.910 Y93.935 E0.01783
G1 X76.969 Y94.500 E0.01782
G1 X76.910 Y95.065 E0.01782
G1 X76.734 Y95.606 E0.01783
G1 X76.408 Y96.146 E0.01977
G1 X77.610 Y96.681 E0.04126
G1 X78.746 Y97.506 E0.04404
G1 X79.686 Y98.550 E0.04405
G1 X80.389 Y99.767 E0.04405
G1 X80.584 Y100.368 E0.01980
G1 X80.890 Y100.145 E0.01188
G1 X81.410 Y99.914 E0.01782
G1 X81.966 Y99.795 E0.01783
G1 X82.534 Y99.795 E0.01783
G1 X83.090 Y99.914 E0.01783
G1 X83.610 Y100.145 E0.01782
G1 X84.070 Y100.479 E0.01783
G1 X84.450 Y100.902 E0.01783
G1 X84.734 Y101.394 E0.01782
G1 X84.910 Y101.935 E0.01783
G1 X84.969 Y102.500 E0.01782
G1 X84.910 Y103.065 E0.01782
G1 X84.734 Y103.606 E0.01783
G1 X84.450 Y104.098 E0.01782
G1 X84.070 Y104.521 E0.01783
G1 X83.610 Y104.855 E0.01783
G1 X83.090 Y105.086 E0.01782
G1 X82.534 Y105.205 E0.01783
G1 X81.966 Y105.205 E0.01783
G1 X81.410 Y105.086 E0.01783
G1 X80.890 Y104.855 E0.01782
G1 X80.632 Y104.668 E0.01000
G1 X80.413 Y103.938 F7200.000
G1 F1800
G1 X80.042 Y105.079 E0.03761
G1 X79.379 Y106.227 E0.04156
G1 X78.493 Y107.212 E0.04156
G1 X77.420 Y107.991 E0.04156
G1 X76.209 Y108.530 E0.04156
G1 X75.659 Y108.647 E0.01763
G1 X75.817 Y108.762 E0.00611
G1 X76.148 Y109.132 E0.01556
G1 X76.388 Y109.548 E0.01507
G1 X76.539 Y110.013 E0.01534
G1 X76.590 Y110.500 E0.01534
G1 X76.539 Y110.987 E0.01534
G1 X76.388 Y111.452 E0.01534
G1 X76.143 Y111.876 E0.01534
G1 X75.816 Y112.239 E0.01534
G1 X75.420 Y112.527 E0.01534
G1 X74.973 Y112.726 E0.01534
G1 X74.495 Y112.827 E0.01534
G1 X74.005 Y112.827 E0.01534
G1 X73.527 Y112.726 E0.01534
G1 X73.080 Y112.527 E0.01534
G1 X72.684 Y112.239 E0.01534
G1 X72.357 Y111.876 E0.01534
G1 X72.111 Y111.451 E0.01538
G1 X71.960 Y110.978 E0.01557
G1 X71.910 Y110.500 E0.01507
G1 X71.961 Y110.013 E0.01534
G1 X72.112 Y109.548 E0.01534
G1 X72.357 Y109.124 E0.01534
G1 X72.684 Y108.761 E0.01534
G1 X72.841 Y108.647 E0.00608
G1 X72.291 Y108.530 E0.01763
G1 X71.080 Y107.991 E0.04156
G1 X70.007 Y107.212 E0.04156
G1 X69.121 Y106.227 E0.04156
G1 X68.457 Y105.078 E0.04160
G1 X68.091 Y103.934 E0.03766
G1 X67.816 Y104.239 E0.01288
G1 X67.420 Y104.527 E0.01534
G1 X66.973 Y104.726 E0.01534
G1 X66.495 Y104.827 E0.01534
G1 X66.005 Y104.827 E0.01534
G1 X65.527 Y104.726 E0.01534
G1 X65.080 Y104.527 E0.01534
G1 X64.684 Y104.239 E0.01534
G1 X64.357 Y103.876 E0.01534
G1 X64.112 Y103.452 E0.01534
G1 X63.961 Y102.987 E0.01534
G1 X63.910 Y102.500 E0.01534
G1 X63.961 Y102.013 E0.01534
G1 X64.112 Y101.548 E0.01534
G1 X64.357 Y101.124 E0.01534
G1 X64.684 Y100.761 E0.01534
G1 X65.080 Y100.473 E0.01534
G1 X65.527 Y100.274 E0.01534
G1 X66.005 Y100.173 E0.01534
G1 X66.495 Y100.173 E0.01534
G1 X66.973 Y100.274 E0.01534
G1 X67.420 Y100.473 E0.01534
G1 X67.816 Y100.761 E0.01534
G1 X68.087 Y101.062 E0.01271
G1 X68.458 Y99.921 E0.03761
G1 X69.121 Y98.773 E0.04156
G1 X70.008 Y97.788 E0.04156
G1 X71.080 Y97.009 E0.04156
G1 X72.291 Y96.470 E0.04156
G1 X72.841 Y96.353 E0.01763
G1 X72.684 Y96.239 E0.00607
G1 X72.357 Y95.876 E0.01534
G1 X72.112 Y95.452 E0.01534
G1 X71.961 Y94.987 E0.01534
G1 X71.910 Y94.500 E0.01534
G1 X71.961 Y94.013 E0.01534
G1 X72.112 Y93.548 E0.01534
G1 X72.357 Y93.124 E0.01534
G1 X72.684 Y92.761 E0.01534
G1 X73.080 Y92.473 E0.01534
G1 X73.527 Y92.274 E0.01534
G1 X74.005 Y92.173 E0.01534
G1 X74.495 Y92.173 E0.01534
G1 X74.973 Y92.274 E0.01534
G1 X75.420 Y92.473 E0.01534
G1 X75.816 Y92.761 E0.01534
G1 X76.143 Y93.124 E0.01534
G1 X76.388 Y93.548 E0.01534
G1 X76.539 Y94.013 E0.01534
G1 X76.590 Y94.500 E0.01534
G1 X76.539 Y94.987 E0.01534
G1 X76.388 Y95.452 E0.01534
G1 X76.143 Y95.876 E0.01534
G1 X75.816 Y96.239 E0.01534
G1 X75.659 Y96.353 E0.00607
G1 X76.209 Y96.470 E0.01763
G1 X77.420 Y97.009 E0.04156
G1 X78.492 Y97.788 E0.04156
G1 X79.379 Y98.773 E0.04156
G1 X80.042 Y99.921 E0.04156
G1 X80.413 Y101.062 E0.03761
G1 X80.684 Y100.761 E0.01271
G1 X81.080 Y100.473 E0.01534
G1 X81.527 Y100.274 E0.01534
G1 X82.005 Y100.173 E0.01534
G1 X82.495 Y100.173 E0.01534
G1 X82.973 Y100.274 E0.01534
G1 X83.420 Y100.473 E0.01534
G1 X83.816 Y100.761 E0.01534
G1 X84.143 Y101.124 E0.01534
G1 X84.388 Y101.548 E0.01534
G1 X84.539 Y102.013 E0.01534
G1 X84.590 Y102.500 E0.01534
G1 X84.539 Y102.987 E0.01534
G1 X84.388 Y103.452 E0.01534
G1 X84.143 Y103.876 E0.01534
G1 X83.816 Y104.239 E0.01534
G1 X83.420 Y104.527 E0.01534
G1 X82.973 Y104.726 E0.01534
G1 X82.495 Y104.827 E0.01534
G1 X82.005 Y104.827 E0.01534
G1 X81.527 Y104.726 E0.01534
G1 X81.080 Y104.527 E0.01534
G1 X80.684 Y104.239 E0.01534
G1 X80.453 Y103.983 E0.01083
G1 F5760
G1 X80.042 Y105.079 E-0.40548
G1 X79.530 Y105.965 E-0.35452
G1 E-0.04000 F2100.00000
G1 Z0.800 F7200.000
G1 X75.563 Y109.043
G1 Z0.200
G1 E0.80000 F2100.00000
G1 F1800
G1 X75.840 Y109.354 E0.01308
G1 X76.042 Y109.702 E0.01261
G1 X76.168 Y110.092 E0.01285
G1 X76.211 Y110.500 E0.01286
G1 X76.168 Y110.908 E0.01285
G1 X76.042 Y111.298 E0.01286
G1 X75.837 Y111.653 E0.01285
G1 X75.562 Y111.957 E0.01286
G1 X75.231 Y112.198 E0.01286
G1 X74.856 Y112.365 E0.01286
G1 X74.455 Y112.450 E0.01286
G1 X74.045 Y112.450 E0.01285
G1 X73.644 Y112.365 E0.01286
G1 X73.269 Y112.198 E0.01286
G1 X72.938 Y111.957 E0.01286
G1 X72.663 Y111.653 E0.01286
G1 X72.458 Y111.297 E0.01287
G1 X72.331 Y110.900 E0.01308
G1 X72.289 Y110.500 E0.01261
G1 X72.332 Y110.092 E0.01286
G1 X72.458 Y109.702 E0.01285
G1 X72.663 Y109.347 E0.01285
G1 X72.938 Y109.043 E0.01285
G1 X73.269 Y108.802 E0.01286
G1 X73.644 Y108.635 E0.01286
G1 X74.045 Y108.550 E0.01286
G1 X74.455 Y108.550 E0.01285
G1 X74.856 Y108.635 E0.01286
G1 X75.231 Y108.802 E0.01286
G1 X75.514 Y109.008 E0.01099
G1 X75.943 Y108.920 F7200.000
G1 F5760
G1 X75.840 Y109.354 E-0.16485
G1 X76.042 Y109.702 E-0.13931
G1 X76.168 Y110.092 E-0.14200
G1 X76.211 Y110.500 E-0.14201
G1 X76.168 Y110.908 E-0.14200
G1 X76.142 Y110.990 E-0.02983
