; generated by Slic3r Prusa Edition 1.39.2+win64 on 2018-08-22 at 08:30:15

; 

; external perimeters extrusion width = 0.45mm
; perimeters extrusion width = 0.45mm
; infill extrusion width = 0.45mm
; solid infill extrusion width = 0.45mm
; top infill extrusion width = 0.45mm
; first layer extrusion width = 0.42mm

M107
M115 U3.1.0 ; tell printer latest fw version
M83  ; extruder relative mode
M104 S205 ; set extruder temp
M140 S55 ; set bed temp
M190 S55 ; wait for bed temp
M109 S205 ; wait for extruder temp
G28 W ; home all without mesh bed level
G80 ; mesh bed leveling
G1 Y-3.0 F1000.0 ; go outside print area
G92 E0.0
G1 X60.0 E9.0  F1000.0 ; intro line
G1 X100.0 E12.5  F1000.0 ; intro line
G92 E0.0
M900 K30; Filament gcode
G21 ; set units to millimeters
G90 ; use absolute coordinates
M83 ; use relative distances for extrusion
;BEFORE_LAYER_CHANGE
;0.2


G1 E-0.80000 F2100.00000
G1 Z0.600 F7200.000
;AFTER_LAYER_CHANGE
;0.2
G1 X23.272 Y92.964
G1 Z0.200
G1 E0.80000 F2100.00000
M204 S1000
G1 F1800
G1 X23.983 Y92.680 E0.02402
G1 X24.497 Y92.623 E0.01621
G1 X180.504 Y92.623 E4.89147
G1 X181.409 Y92.804 E0.02896
G1 X182.175 Y93.313 E0.02884
G1 X182.691 Y94.079 E0.02896
G1 X182.877 Y94.980 E0.02884
G1 X182.877 Y110.015 E0.47142
G1 X182.661 Y127.551 E0.54986
G1 X182.494 Y128.295 E0.02390
G1 X182.097 Y128.950 E0.02402
G1 X181.516 Y129.443 E0.02390
G1 X180.805 Y129.728 E0.02402
G1 X180.291 Y129.785 E0.01621
G1 X24.262 Y129.785 E4.89219
G1 X23.482 Y129.644 E0.02484
G1 X22.792 Y129.255 E0.02484
G1 X22.266 Y128.657 E0.02496
G1 X21.968 Y127.923 E0.02484
G1 X21.911 Y127.417 E0.01597
G1 X21.911 Y112.396 E0.47095
G1 X22.127 Y94.865 E0.54974
G1 X22.293 Y94.117 E0.02402
G1 X22.689 Y93.461 E0.02402
G1 X23.227 Y93.003 E0.02214
G1 F5760
G1 X23.983 Y92.680 E-0.28511
G1 X24.497 Y92.623 E-0.17907
G1 X25.351 Y92.623 E-0.29583
G1 E-0.04000 F2100.00000
G1 Z0.800 F7200.000
G1 X171.381 Y102.500
G1 Z0.200
G1 E0.80000 F2100.00000
G1 F1800
G1 X171.432 Y102.007 E0.01553
G1 X171.585 Y101.536 E0.01553
G1 X171.833 Y101.107 E0.01553
G1 X172.164 Y100.739 E0.01553
G1 X172.565 Y100.448 E0.01553
G1 X173.018 Y100.246 E0.01553
G1 X173.502 Y100.144 E0.01553
G1 X173.998 Y100.144 E0.01552
G1 X174.482 Y100.246 E0.01553
G1 X174.935 Y100.448 E0.01553
G1 X175.336 Y100.739 E0.01553
G1 X175.667 Y101.107 E0.01553
G1 X175.915 Y101.536 E0.01553
G1 X176.068 Y102.007 E0.01553
G1 X176.119 Y102.500 E0.01553
G1 X176.068 Y102.993 E0.01553
G1 X175.915 Y103.464 E0.01553
G1 X175.667 Y103.893 E0.01553
G1 X175.336 Y104.261 E0.01553
G1 X174.935 Y104.552 E0.01553
G1 X174.482 Y104.754 E0.01553
G1 X173.998 Y104.856 E0.01553
G1 X173.502 Y104.856 E0.01552
G1 X173.018 Y104.754 E0.01553
G1 X172.565 Y104.552 E0.01553
G1 X172.164 Y104.261 E0.01553
G1 X171.833 Y103.893 E0.01553
G1 X171.585 Y103.464 E0.01553
G1 X171.432 Y102.993 E0.01553
G1 X171.387 Y102.560 E0.01365
G1 X171.762 Y102.520 F7200.000
G1 F1800
G1 X171.803 Y102.086 E0.01367
G1 X171.932 Y101.690 E0.01304
G1 X172.140 Y101.330 E0.01305
G1 X172.418 Y101.021 E0.01305
G1 X172.755 Y100.776 E0.01305
G1 X173.135 Y100.607 E0.01305
G1 X173.542 Y100.521 E0.01305
G1 X173.958 Y100.521 E0.01304
G1 X174.365 Y100.607 E0.01305
G1 X174.745 Y100.776 E0.01305
G1 X175.082 Y101.021 E0.01305
G1 X175.360 Y101.330 E0.01305
G1 X175.568 Y101.690 E0.01305
G1 X175.697 Y102.086 E0.01305
G1 X175.740 Y102.500 E0.01305
G1 X175.697 Y102.914 E0.01305
G1 X175.568 Y103.310 E0.01305
G1 X175.360 Y103.670 E0.01305
G1 X175.082 Y103.979 E0.01305
G1 X174.745 Y104.224 E0.01305
G1 X174.365 Y104.393 E0.01305
G1 X173.958 Y104.479 E0.01305
G1 X173.542 Y104.479 E0.01304
G1 X173.135 Y104.393 E0.01305
G1 X172.755 Y104.224 E0.01305
G1 X172.418 Y103.979 E0.01305
G1 X172.140 Y103.670 E0.01305
G1 X171.932 Y103.310 E0.01305
G1 X171.803 Y102.914 E0.01304
G1 X171.768 Y102.580 E0.01053
G1 X172.139 Y102.500 F7200.000
G1 F1800
G1 X172.174 Y102.165 E0.01056
G1 X172.278 Y101.845 E0.01056
G1 X172.447 Y101.553 E0.01056
G1 X172.672 Y101.303 E0.01056
G1 X172.944 Y101.105 E0.01056
G1 X173.252 Y100.968 E0.01056
G1 X173.582 Y100.898 E0.01056
G1 X173.918 Y100.898 E0.01056
G1 X174.248 Y100.968 E0.01056
G1 X174.556 Y101.105 E0.01056
G1 X174.828 Y101.303 E0.01056
G1 X175.053 Y101.553 E0.01056
G1 X175.222 Y101.845 E0.01056
G1 X175.326 Y102.165 E0.01056
G1 X175.361 Y102.500 E0.01056
G1 X175.326 Y102.835 E0.01056
G1 X175.222 Y103.155 E0.01056
G1 X175.053 Y103.447 E0.01056
G1 X174.828 Y103.697 E0.01056
G1 X174.556 Y103.895 E0.01056
G1 X174.248 Y104.032 E0.01056
G1 X173.918 Y104.102 E0.01056
G1 X173.582 Y104.102 E0.01056
G1 X173.252 Y104.032 E0.01056
G1 X172.944 Y103.895 E0.01056
G1 X172.672 Y103.697 E0.01056
G1 X172.447 Y103.447 E0.01056
G1 X172.278 Y103.155 E0.01056
G1 X172.174 Y102.835 E0.01056
G1 X172.145 Y102.560 E0.00868
G1 X171.847 Y102.332 F7200.000
G1 F5760
G1 X172.174 Y102.165 E-0.13706
G1 X172.278 Y101.845 E-0.11664
G1 X172.447 Y101.553 E-0.11668
G1 X172.672 Y101.303 E-0.11665
G1 X172.944 Y101.105 E-0.11666
G1 X173.252 Y100.968 E-0.11668
G1 X173.364 Y100.944 E-0.03964
G1 E-0.04000 F2100.00000
G1 Z0.800 F7200.000
G1 X112.869 Y102.500
G1 Z0.200
G1 E0.80000 F2100.00000
G1 F1800
G1 X112.818 Y102.993 E0.01553
G1 X112.665 Y103.464 E0.01553
G1 X112.417 Y103.893 E0.01553
G1 X112.085 Y104.261 E0.01553
G1 X111.685 Y104.552 E0.01553
G1 X111.239 Y104.750 E0.01529
G1 X110.750 Y104.856 E0.01571
G1 X110.252 Y104.856 E0.01559
G1 X109.768 Y104.754 E0.01553
G1 X109.315 Y104.552 E0.01553
G1 X108.915 Y104.261 E0.01553
G1 X108.583 Y103.893 E0.01553
G1 X108.335 Y103.464 E0.01553
G1 X108.182 Y102.993 E0.01553
G1 X108.131 Y102.500 E0.01553
G1 X108.182 Y102.007 E0.01553
G1 X108.335 Y101.536 E0.01553
G1 X108.583 Y101.107 E0.01553
G1 X108.915 Y100.739 E0.01553
G1 X109.315 Y100.448 E0.01553
G1 X109.761 Y100.250 E0.01529
G1 X110.250 Y100.144 E0.01571
G1 X110.748 Y100.144 E0.01559
G1 X111.232 Y100.246 E0.01553
G1 X111.685 Y100.448 E0.01553
G1 X112.085 Y100.739 E0.01553
G1 X112.417 Y101.107 E0.01553
G1 X112.665 Y101.536 E0.01553
G1 X112.818 Y102.007 E0.01553
G1 X112.863 Y102.440 E0.01365
G1 X112.488 Y102.480 F7200.000
G1 F1800
G1 X112.447 Y102.914 E0.01367
G1 X112.318 Y103.310 E0.01305
G1 X112.110 Y103.670 E0.01305
G1 X111.832 Y103.979 E0.01305
G1 X111.495 Y104.224 E0.01305
G1 X111.121 Y104.390 E0.01283
G1 X110.709 Y104.479 E0.01323
G1 X110.292 Y104.479 E0.01308
G1 X109.885 Y104.393 E0.01305
G1 X109.505 Y104.224 E0.01305
G1 X109.168 Y103.979 E0.01305
G1 X108.890 Y103.670 E0.01305
G1 X108.682 Y103.310 E0.01305
G1 X108.553 Y102.914 E0.01305
G1 X108.510 Y102.500 E0.01305
G1 X108.553 Y102.086 E0.01305
G1 X108.682 Y101.690 E0.01305
G1 X108.890 Y101.330 E0.01305
G1 X109.168 Y101.021 E0.01305
G1 X109.505 Y100.776 E0.01305
G1 X109.879 Y100.610 E0.01283
G1 X110.291 Y100.521 E0.01323
G1 X110.708 Y100.521 E0.01308
G1 X111.115 Y100.607 E0.01305
G1 X111.495 Y100.776 E0.01305
G1 X111.832 Y101.021 E0.01305
G1 X112.110 Y101.330 E0.01305
G1 X112.318 Y101.690 E0.01305
G1 X112.447 Y102.086 E0.01305
G1 X112.482 Y102.420 E0.01053
G1 X112.111 Y102.500 F7200.000
G1 F1800
G1 X112.076 Y102.835 E0.01056
G1 X111.972 Y103.155 E0.01056
G1 X111.803 Y103.447 E0.01056
G1 X111.578 Y103.697 E0.01056
G1 X111.306 Y103.895 E0.01056
G1 X111.004 Y104.030 E0.01037
G1 X110.669 Y104.102 E0.01074
G1 X110.332 Y104.102 E0.01057
G1 X110.002 Y104.032 E0.01056
G1 X109.694 Y103.895 E0.01056
G1 X109.422 Y103.697 E0.01056
G1 X109.197 Y103.447 E0.01056
G1 X109.028 Y103.155 E0.01056
G1 X108.924 Y102.835 E0.01056
G1 X108.889 Y102.500 E0.01056
G1 X108.924 Y102.165 E0.01056
G1 X109.028 Y101.845 E0.01056
G1 X109.197 Y101.553 E0.01056
G1 X109.422 Y101.303 E0.01056
G1 X109.694 Y101.105 E0.01056
G1 X109.996 Y100.970 E0.01037
G1 X110.331 Y100.898 E0.01074
G1 X110.668 Y100.898 E0.01057
G1 X110.998 Y100.968 E0.01056
G1 X111.306 Y101.105 E0.01056
G1 X111.578 Y101.303 E0.01056
G1 X111.803 Y101.553 E0.01056
G1 X111.972 Y101.845 E0.01056
G1 X112.076 Y102.165 E0.01056
G1 X112.105 Y102.440 E0.00868
G1 X112.403 Y102.668 F7200.000
G1 F5760
G1 X112.076 Y102.835 E-0.13706
G1 X111.972 Y103.155 E-0.11664
G1 X111.803 Y103.447 E-0.11668
G1 X111.578 Y103.697 E-0.11665
G1 X111.306 Y103.895 E-0.11666
G1 X111.004 Y104.030 E-0.11450
G1 X110.886 Y104.055 E-0.04181
G1 E-0.04000 F2100.00000
G1 Z0.800 F7200.000
G1 X96.869 Y102.500
G1 Z0.200
G1 E0.80000 F2100.00000
G1 F1800
G1 X96.818 Y102.993 E0.01553
G1 X96.665 Y103.464 E0.01553
G1 X96.417 Y103.893 E0.01553
G1 X96.085 Y104.261 E0.01553
G1 X95.685 Y104.552 E0.01553
G1 X95.239 Y104.750 E0.01529
G1 X94.750 Y104.856 E0.01571
G1 X94.252 Y104.856 E0.01559
G1 X93.768 Y104.754 E0.01553
G1 X93.315 Y104.552 E0.01553
G1 X92.915 Y104.261 E0.01553
G1 X92.583 Y103.893 E0.01553
G1 X92.335 Y103.464 E0.01553
G1 X92.182 Y102.993 E0.01553
G1 X92.131 Y102.500 E0.01553
G1 X92.182 Y102.007 E0.01553
G1 X92.335 Y101.536 E0.01553
G1 X92.583 Y101.107 E0.01553
G1 X92.915 Y100.739 E0.01553
G1 X93.315 Y100.448 E0.01553
G1 X93.761 Y100.250 E0.01529
G1 X94.250 Y100.144 E0.01571
G1 X94.748 Y100.144 E0.01559
G1 X95.232 Y100.246 E0.01553
G1 X95.685 Y100.448 E0.01553
G1 X96.085 Y100.739 E0.01553
G1 X96.417 Y101.107 E0.01553
G1 X96.665 Y101.536 E0.01553
G1 X96.818 Y102.007 E0.01553
G1 X96.863 Y102.440 E0.01365
G1 X96.488 Y102.480 F7200.000
G1 F1800
G1 X96.447 Y102.914 E0.01367
G1 X96.318 Y103.310 E0.01305
G1 X96.110 Y103.670 E0.01305
G1 X95.832 Y103.979 E0.01305
G1 X95.495 Y104.224 E0.01305
G1 X95.121 Y104.390 E0.01283
G1 X94.709 Y104.479 E0.01323
G1 X94.292 Y104.479 E0.01308
G1 X93.885 Y104.393 E0.01305
G1 X93.505 Y104.224 E0.01305
G1 X93.168 Y103.979 E0.01305
G1 X92.890 Y103.670 E0.01305
G1 X92.682 Y103.310 E0.01305
G1 X92.553 Y102.914 E0.01305
G1 X92.510 Y102.500 E0.01305
G1 X92.553 Y102.086 E0.01305
G1 X92.682 Y101.690 E0.01305
G1 X92.890 Y101.330 E0.01305
G1 X93.168 Y101.021 E0.01305
G1 X93.505 Y100.776 E0.01305
G1 X93.879 Y100.610 E0.01283
G1 X94.291 Y100.521 E0.01323
G1 X94.708 Y100.521 E0.01308
G1 X95.115 Y100.607 E0.01305
G1 X95.495 Y100.776 E0.01305
G1 X95.832 Y101.021 E0.01305
G1 X96.110 Y101.330 E0.01305
G1 X96.318 Y101.690 E0.01305
G1 X96.447 Y102.086 E0.01305
G1 X96.482 Y102.420 E0.01053
G1 X96.111 Y102.500 F7200.000
G1 F1800
G1 X96.076 Y102.835 E0.01056
G1 X95.972 Y103.155 E0.01056
G1 X95.803 Y103.447 E0.01056
G1 X95.578 Y103.697 E0.01056
G1 X95.306 Y103.895 E0.01056
G1 X95.004 Y104.030 E0.01037
G1 X94.669 Y104.102 E0.01074
G1 X94.332 Y104.102 E0.01057
G1 X94.002 Y104.032 E0.01056
G1 X93.694 Y103.895 E0.01056
G1 X93.422 Y103.697 E0.01056
G1 X93.197 Y103.447 E0.01056
G1 X93.028 Y103.155 E0.01056
G1 X92.924 Y102.835 E0.01056
G1 X92.889 Y102.500 E0.01056
G1 X92.924 Y102.165 E0.01056
G1 X93.028 Y101.845 E0.01056
G1 X93.197 Y101.553 E0.01056
G1 X93.422 Y101.303 E0.01056
G1 X93.694 Y101.105 E0.01056
G1 X93.996 Y100.970 E0.01037
G1 X94.331 Y100.898 E0.01074
G1 X94.668 Y100.898 E0.01057
G1 X94.998 Y100.968 E0.01056
G1 X95.306 Y101.105 E0.01056
G1 X95.578 Y101.303 E0.01056
G1 X95.803 Y101.553 E0.01056
G1 X95.972 Y101.845 E0.01056
G1 X96.076 Y102.165 E0.01056
G1 X96.105 Y102.440 E0.00868
G1 X96.403 Y102.668 F7200.000
G1 F5760
G1 X96.076 Y102.835 E-0.13706
G1 X95.972 Y103.155 E-0.11664
G1 X95.803 Y103.447 E-0.11668
G1 X95.578 Y103.697 E-0.11665
G1 X95.306 Y103.895 E-0.11666
G1 X95.004 Y104.030 E-0.11450
G1 X94.886 Y104.055 E-0.04181
G1 E-0.04000 F2100.00000
G1 Z0.800 F7200.000
G1 X33.619 Y102.500
G1 Z0.200
G1 E0.80000 F2100.00000
G1 F1800
G1 X33.568 Y102.993 E0.01553
G1 X33.415 Y103.464 E0.01553
G1 X33.167 Y103.893 E0.01553
G1 X32.835 Y104.261 E0.01553
G1 X32.435 Y104.552 E0.01553
G1 X31.982 Y104.754 E0.01553
G1 X31.498 Y104.856 E0.01553
G1 X31.002 Y104.856 E0.01552
G1 X30.518 Y104.754 E0.01553
G1 X30.065 Y104.552 E0.01553
G1 X29.665 Y104.261 E0.01553
G1 X29.333 Y103.893 E0.01553
G1 X29.085 Y103.464 E0.01553
G1 X28.932 Y102.993 E0.01553
G1 X28.881 Y102.500 E0.01553
G1 X28.932 Y102.007 E0.01553
G1 X29.085 Y101.536 E0.01553
G1 X29.333 Y101.107 E0.01553
G1 X29.665 Y100.739 E0.01553
G1 X30.065 Y100.448 E0.01553
G1 X30.518 Y100.246 E0.01553
G1 X31.002 Y100.144 E0.01553
G1 X31.498 Y100.144 E0.01552
G1 X31.982 Y100.246 E0.01553
G1 X32.435 Y100.448 E0.01553
G1 X32.835 Y100.739 E0.01553
G1 X33.167 Y101.107 E0.01553
G1 X33.415 Y101.536 E0.01553
G1 X33.568 Y102.007 E0.01553
G1 X33.613 Y102.440 E0.01365
G1 X33.238 Y102.480 F7200.000
G1 F1800
G1 X33.197 Y102.914 E0.01367
G1 X33.068 Y103.310 E0.01305
G1 X32.860 Y103.670 E0.01305
G1 X32.582 Y103.979 E0.01305
G1 X32.245 Y104.224 E0.01305
G1 X31.865 Y104.393 E0.01305
G1 X31.458 Y104.479 E0.01305
G1 X31.042 Y104.479 E0.01304
G1 X30.635 Y104.393 E0.01305
G1 X30.255 Y104.224 E0.01305
G1 X29.918 Y103.979 E0.01305
G1 X29.640 Y103.670 E0.01305
G1 X29.432 Y103.310 E0.01305
G1 X29.303 Y102.914 E0.01305
G1 X29.260 Y102.500 E0.01305
G1 X29.303 Y102.086 E0.01305
G1 X29.432 Y101.690 E0.01305
G1 X29.640 Y101.330 E0.01305
G1 X29.918 Y101.021 E0.01305
G1 X30.255 Y100.776 E0.01305
G1 X30.635 Y100.607 E0.01305
G1 X31.042 Y100.521 E0.01305
G1 X31.458 Y100.521 E0.01304
G1 X31.865 Y100.607 E0.01305
G1 X32.245 Y100.776 E0.01305
G1 X32.582 Y101.021 E0.01305
G1 X32.860 Y101.330 E0.01305
G1 X33.068 Y101.690 E0.01305
G1 X33.197 Y102.086 E0.01305
G1 X33.232 Y102.420 E0.01053
G1 X32.861 Y102.500 F7200.000
G1 F1800
G1 X32.826 Y102.835 E0.01056
G1 X32.722 Y103.155 E0.01056
G1 X32.553 Y103.447 E0.01056
G1 X32.328 Y103.697 E0.01056
G1 X32.056 Y103.895 E0.01056
G1 X31.748 Y104.032 E0.01056
G1 X31.418 Y104.102 E0.01056
G1 X31.082 Y104.102 E0.01056
G1 X30.752 Y104.032 E0.01056
G1 X30.444 Y103.895 E0.01056
G1 X30.172 Y103.697 E0.01056
G1 X29.947 Y103.447 E0.01056
G1 X29.778 Y103.155 E0.01056
G1 X29.674 Y102.835 E0.01056
G1 X29.639 Y102.500 E0.01056
G1 X29.674 Y102.165 E0.01056
G1 X29.778 Y101.845 E0.01056
G1 X29.947 Y101.553 E0.01056
G1 X30.172 Y101.303 E0.01056
G1 X30.444 Y101.105 E0.01056
G1 X30.752 Y100.968 E0.01056
G1 X31.082 Y100.898 E0.01056
G1 X31.418 Y100.898 E0.01056
G1 X31.748 Y100.968 E0.01056
G1 X32.056 Y101.105 E0.01056
G1 X32.328 Y101.303 E0.01056
G1 X32.553 Y101.553 E0.01056
G1 X32.722 Y101.845 E0.01056
G1 X32.826 Y102.165 E0.01056
G1 X32.855 Y102.440 E0.00868
G1 X33.153 Y102.668 F7200.000
G1 F5760
G1 X32.826 Y102.835 E-0.13706
G1 X32.722 Y103.155 E-0.11664
G1 X32.553 Y103.447 E-0.11668
G1 X32.328 Y103.697 E-0.11665
G1 X32.056 Y103.895 E-0.11666
G1 X31.748 Y104.032 E-0.11668
G1 X31.636 Y104.056 E-0.03963
G1 E-0.04000 F2100.00000
G1 Z0.800 F7200.000
G1 X25.464 Y95.964
G1 Z0.200
G1 E0.80000 F2100.00000
G1 F1800
G1 X179.536 Y95.964 E4.83081
G1 X179.536 Y109.036 E0.40985
G1 X25.464 Y109.036 E4.83081
G1 X25.464 Y96.024 E0.40797
G1 X25.087 Y95.587 F7200.000
G1 F1800
G1 X179.913 Y95.587 E4.85446
G1 X179.913 Y109.413 E0.43350
G1 X25.087 Y109.413 E4.85446
G1 X25.087 Y95.647 E0.43162
G1 X24.710 Y95.210 F7200.000
G1 F1800
G1 X180.290 Y95.210 E4.87810
G1 X180.290 Y109.790 E0.45715
G1 X24.710 Y109.790 E4.87810
G1 X24.710 Y95.270 E0.45526
G1 X25.110 Y95.222 F7200.000
G1 F5760
G1 X26.904 Y95.269 E-0.76000
G1 E-0.04000 F2100.00000
G1 Z0.800 F7200.000
G1 X27.928 Y96.077
G1 Z0.200
G1 E0.80000 F2100.00000
G1 F1800
G1 X31.761 Y99.910 E0.17036
G1 X31.527 Y99.861 E0.00751
G1 X31.177 Y99.861 E0.01101
G1 X27.563 Y96.247 E0.16061
G1 X27.029 Y96.247 E0.01680
G1 X30.700 Y99.919 E0.16319
G1 X30.430 Y99.976 E0.00868
G1 X30.287 Y100.040 E0.00492
G1 X26.494 Y96.247 E0.16857
G1 X25.960 Y96.247 E0.01680
G1 X29.918 Y100.205 E0.17593
G1 X29.608 Y100.430 E0.01203
G1 X25.747 Y96.569 E0.17162
G1 X25.747 Y97.103 E0.01680
G1 X29.331 Y100.687 E0.15928
G1 X29.083 Y100.974 E0.01191
G1 X25.747 Y97.638 E0.14828
G1 X25.747 Y98.172 E0.01680
G1 X28.888 Y101.313 E0.13959
G1 X28.826 Y101.421 E0.00390
G1 X28.736 Y101.696 E0.00910
G1 X25.747 Y98.707 E0.13285
G1 X25.747 Y99.241 E0.01680
G1 X28.635 Y102.130 E0.12836
G1 X28.596 Y102.500 E0.01170
G1 X28.611 Y102.640 E0.00442
G1 X25.747 Y99.776 E0.12729
G1 X25.747 Y100.310 E0.01680
G1 X28.734 Y103.297 E0.13276
G1 F5760
G1 X27.182 Y101.746 E-0.76000
G1 E-0.04000 F2100.00000
G1 Z0.800 F7200.000
G1 X30.469 Y105.032
G1 Z0.200
G1 E0.80000 F2100.00000
G1 F1800
G1 X34.190 Y108.753 E0.16537
G1 X34.724 Y108.753 E0.01680
G1 X31.110 Y105.139 E0.16061
