; generated by Slic3r Prusa Edition 1.39.2+win64 on 2018-07-15 at 19:13:28

; 

; external perimeters extrusion width = 0.45mm
; perimeters extrusion width = 0.45mm
; infill extrusion width = 0.45mm
; solid infill extrusion width = 0.45mm
; top infill extrusion width = 0.45mm
; first layer extrusion width = 0.42mm

M107
M115 U3.1.0 ; tell printer latest fw version
M83  ; extruder relative mode
M104 S205 ; set extruder temp
M140 S55 ; set bed temp
M190 S55 ; wait for bed temp
M109 S205 ; wait for extruder temp
G28 W ; home all without mesh bed level
G80 ; mesh bed leveling
G1 Y-3.0 F1000.0 ; go outside print area
G92 E0.0
G1 X60.0 E9.0  F1000.0 ; intro line
G1 X100.0 E12.5  F1000.0 ; intro line
G92 E0.0
M900 K30; Filament gcode
G21 ; set units to millimeters
G90 ; use absolute coordinates
M83 ; use relative distances for extrusion
;BEFORE_LAYER_CHANGE
;0.2


G1 E-0.80000 F2100.00000
G1 Z0.600 F7200.000
;AFTER_LAYER_CHANGE
;0.2
G1 X21.222 Y81.496
G1 Z0.200
G1 E0.80000 F2100.00000
M204 S1000
G1 F1800
G1 X21.918 Y81.195 E0.02378
G1 X22.500 Y81.123 E0.01838
G1 X182.504 Y81.123 E5.01681
G1 X183.402 Y81.301 E0.02872
G1 X184.170 Y81.808 E0.02884
G1 X184.687 Y82.569 E0.02884
G1 X184.877 Y83.468 E0.02884
G1 X184.875 Y121.607 E1.19580
G1 X184.722 Y122.346 E0.02367
G1 X184.342 Y123.002 E0.02378
G1 X183.778 Y123.504 E0.02367
G1 X183.082 Y123.805 E0.02378
G1 X182.500 Y123.877 E0.01838
G1 X22.477 Y123.877 E5.01740
G1 X21.712 Y123.743 E0.02437
G1 X21.030 Y123.368 E0.02437
G1 X20.506 Y122.794 E0.02437
G1 X20.195 Y122.082 E0.02437
G1 X20.123 Y121.505 E0.01823
G1 X20.125 Y83.401 E1.19472
G1 X20.277 Y82.658 E0.02378
G1 X20.656 Y82.000 E0.02378
G1 X21.177 Y81.536 E0.02190
G1 F5760
G1 X21.918 Y81.195 E-0.28252
G1 X22.500 Y81.123 E-0.20302
G1 X23.292 Y81.123 E-0.27445
G1 E-0.04000 F2100.00000
G1 Z0.800 F7200.000
G1 X149.781 Y91.500
G1 Z0.200
G1 E0.80000 F2100.00000
G1 F1800
G1 X149.862 Y90.726 E0.02439
G1 X150.102 Y89.987 E0.02437
G1 X150.491 Y89.314 E0.02437
G1 X151.011 Y88.736 E0.02439
G1 X151.640 Y88.279 E0.02437
G1 X152.350 Y87.963 E0.02438
G1 X153.112 Y87.801 E0.02440
G1 X153.888 Y87.801 E0.02434
G1 X154.650 Y87.963 E0.02440
G1 X155.360 Y88.279 E0.02438
G1 X155.989 Y88.736 E0.02437
G1 X156.509 Y89.314 E0.02439
G1 X156.898 Y89.987 E0.02437
G1 X157.138 Y90.726 E0.02437
G1 X157.219 Y91.500 E0.02439
G1 X157.138 Y92.274 E0.02439
G1 X156.898 Y93.013 E0.02437
G1 X156.509 Y93.686 E0.02437
G1 X155.989 Y94.264 E0.02439
G1 X155.360 Y94.721 E0.02437
G1 X154.650 Y95.037 E0.02438
G1 X153.888 Y95.199 E0.02440
G1 X153.112 Y95.199 E0.02434
G1 X152.350 Y95.037 E0.02440
G1 X151.640 Y94.721 E0.02438
G1 X151.011 Y94.264 E0.02437
G1 X150.491 Y93.686 E0.02439
G1 X150.102 Y93.013 E0.02437
G1 X149.862 Y92.274 E0.02437
G1 X149.787 Y91.560 E0.02251
G1 X150.162 Y91.520 F7200.000
G1 F1800
G1 X150.233 Y90.805 E0.02253
G1 X150.449 Y90.141 E0.02189
G1 X150.797 Y89.537 E0.02189
G1 X151.265 Y89.018 E0.02191
G1 X151.830 Y88.607 E0.02189
G1 X152.468 Y88.323 E0.02189
G1 X153.151 Y88.178 E0.02192
G1 X153.849 Y88.178 E0.02186
G1 X154.532 Y88.323 E0.02192
G1 X155.170 Y88.607 E0.02189
G1 X155.735 Y89.018 E0.02189
G1 X156.203 Y89.537 E0.02191
G1 X156.551 Y90.141 E0.02189
G1 X156.767 Y90.805 E0.02189
G1 X156.840 Y91.500 E0.02190
G1 X156.767 Y92.195 E0.02190
G1 X156.551 Y92.859 E0.02189
G1 X156.203 Y93.463 E0.02189
G1 X155.735 Y93.982 E0.02191
G1 X155.170 Y94.393 E0.02189
G1 X154.532 Y94.677 E0.02189
G1 X153.849 Y94.822 E0.02192
G1 X153.151 Y94.822 E0.02186
G1 X152.468 Y94.677 E0.02192
G1 X151.830 Y94.393 E0.02189
G1 X151.265 Y93.982 E0.02189
G1 X150.797 Y93.463 E0.02191
G1 X150.449 Y92.859 E0.02189
G1 X150.233 Y92.195 E0.02189
G1 X150.168 Y91.580 E0.01938
G1 X150.543 Y91.541 F7200.000
G1 F1800
G1 X150.603 Y90.884 E0.02067
G1 X150.795 Y90.296 E0.01941
G1 X151.104 Y89.760 E0.01940
G1 X151.519 Y89.299 E0.01942
G1 X152.019 Y88.936 E0.01941
G1 X152.585 Y88.684 E0.01941
G1 X153.191 Y88.555 E0.01943
G1 X153.809 Y88.555 E0.01938
G1 X154.415 Y88.684 E0.01943
G1 X154.981 Y88.936 E0.01941
G1 X155.481 Y89.299 E0.01941
G1 X155.896 Y89.760 E0.01942
G1 X156.205 Y90.296 E0.01940
G1 X156.397 Y90.884 E0.01941
G1 X156.461 Y91.500 E0.01941
G1 X156.397 Y92.116 E0.01941
G1 X156.205 Y92.704 E0.01941
G1 X155.896 Y93.240 E0.01940
G1 X155.481 Y93.701 E0.01942
G1 X154.981 Y94.064 E0.01941
G1 X154.415 Y94.316 E0.01941
G1 X153.809 Y94.445 E0.01943
G1 X153.191 Y94.445 E0.01938
G1 X152.585 Y94.316 E0.01943
G1 X152.019 Y94.064 E0.01941
G1 X151.519 Y93.701 E0.01941
G1 X151.104 Y93.240 E0.01942
G1 X150.795 Y92.704 E0.01940
G1 X150.603 Y92.116 E0.01941
G1 X150.549 Y91.600 E0.01625
G1 X150.195 Y91.344 F7200.000
G1 F5760
G1 X150.603 Y90.884 E-0.24872
G1 X150.795 Y90.296 E-0.21441
G1 X151.104 Y89.760 E-0.21433
G1 X151.264 Y89.582 E-0.08255
G1 E-0.04000 F2100.00000
G1 Z0.800 F7200.000
G1 X173.781 Y91.500
G1 Z0.200
G1 E0.80000 F2100.00000
G1 F1800
G1 X173.862 Y90.726 E0.02439
G1 X174.102 Y89.987 E0.02437
G1 X174.491 Y89.314 E0.02437
G1 X175.011 Y88.736 E0.02439
G1 X175.640 Y88.279 E0.02437
G1 X176.351 Y87.963 E0.02438
G1 X177.112 Y87.801 E0.02440
G1 X177.888 Y87.801 E0.02434
G1 X178.649 Y87.963 E0.02440
G1 X179.360 Y88.279 E0.02438
G1 X179.989 Y88.736 E0.02437
G1 X180.509 Y89.314 E0.02439
G1 X180.898 Y89.988 E0.02442
G1 X181.139 Y90.736 E0.02463
G1 X181.219 Y91.500 E0.02409
G1 X181.138 Y92.274 E0.02439
G1 X180.898 Y93.013 E0.02437
G1 X180.509 Y93.686 E0.02437
G1 X179.989 Y94.264 E0.02439
G1 X179.360 Y94.721 E0.02437
G1 X178.649 Y95.037 E0.02438
G1 X177.888 Y95.199 E0.02440
G1 X177.112 Y95.199 E0.02434
G1 X176.350 Y95.037 E0.02440
G1 X175.640 Y94.721 E0.02438
G1 X175.011 Y94.264 E0.02437
G1 X174.491 Y93.686 E0.02439
G1 X174.102 Y93.012 E0.02442
G1 X173.861 Y92.264 E0.02463
G1 X173.787 Y91.560 E0.02220
G1 X174.162 Y91.520 F7200.000
G1 F1800
G1 X174.233 Y90.805 E0.02253
G1 X174.449 Y90.141 E0.02189
G1 X174.797 Y89.537 E0.02189
G1 X175.265 Y89.018 E0.02191
G1 X175.830 Y88.607 E0.02189
G1 X176.468 Y88.323 E0.02189
G1 X177.151 Y88.178 E0.02192
G1 X177.849 Y88.178 E0.02186
G1 X178.532 Y88.323 E0.02192
G1 X179.170 Y88.607 E0.02189
G1 X179.735 Y89.018 E0.02189
G1 X180.203 Y89.537 E0.02191
G1 X180.552 Y90.142 E0.02191
G1 X180.768 Y90.814 E0.02214
G1 X180.840 Y91.500 E0.02162
G1 X180.767 Y92.195 E0.02190
G1 X180.551 Y92.859 E0.02189
G1 X180.203 Y93.463 E0.02189
G1 X179.735 Y93.982 E0.02191
G1 X179.170 Y94.393 E0.02189
G1 X178.532 Y94.677 E0.02189
G1 X177.849 Y94.822 E0.02192
G1 X177.151 Y94.822 E0.02186
G1 X176.468 Y94.677 E0.02192
G1 X175.830 Y94.393 E0.02189
G1 X175.265 Y93.982 E0.02189
G1 X174.797 Y93.463 E0.02191
G1 X174.448 Y92.858 E0.02191
G1 X174.232 Y92.186 E0.02214
G1 X174.168 Y91.580 E0.01909
G1 X174.543 Y91.541 F7200.000
G1 F1800
G1 X174.603 Y90.884 E0.02067
G1 X174.795 Y90.296 E0.01941
G1 X175.104 Y89.759 E0.01940
G1 X175.519 Y89.299 E0.01942
G1 X176.019 Y88.936 E0.01941
G1 X176.585 Y88.684 E0.01941
G1 X177.191 Y88.555 E0.01943
G1 X177.809 Y88.555 E0.01938
G1 X178.415 Y88.684 E0.01943
G1 X178.981 Y88.936 E0.01941
G1 X179.481 Y89.299 E0.01941
G1 X179.896 Y89.759 E0.01942
G1 X180.205 Y90.296 E0.01941
G1 X180.397 Y90.893 E0.01966
G1 X180.461 Y91.500 E0.01915
G1 X180.397 Y92.116 E0.01941
G1 X180.205 Y92.704 E0.01941
G1 X179.896 Y93.241 E0.01940
G1 X179.481 Y93.701 E0.01942
G1 X178.981 Y94.064 E0.01941
G1 X178.415 Y94.316 E0.01941
G1 X177.809 Y94.445 E0.01943
G1 X177.191 Y94.445 E0.01938
G1 X176.585 Y94.316 E0.01943
G1 X176.019 Y94.064 E0.01941
G1 X175.519 Y93.701 E0.01941
G1 X175.104 Y93.241 E0.01942
G1 X174.795 Y92.704 E0.01941
G1 X174.603 Y92.107 E0.01966
G1 X174.549 Y91.600 E0.01598
G1 X174.195 Y91.344 F7200.000
G1 F5760
G1 X174.603 Y90.884 E-0.24872
G1 X174.795 Y90.296 E-0.21440
G1 X175.104 Y89.759 E-0.21433
G1 X175.264 Y89.582 E-0.08255
G1 E-0.04000 F2100.00000
G1 Z0.800 F7200.000
G1 X113.219 Y91.500
G1 Z0.200
G1 E0.80000 F2100.00000
G1 F1800
G1 X113.160 Y92.065 E0.01781
G1 X112.985 Y92.606 E0.01784
G1 X112.700 Y93.099 E0.01783
G1 X112.320 Y93.521 E0.01783
G1 X111.860 Y93.855 E0.01782
G1 X111.341 Y94.086 E0.01782
G1 X110.784 Y94.205 E0.01783
G1 X110.216 Y94.205 E0.01783
G1 X109.659 Y94.086 E0.01783
G1 X109.140 Y93.855 E0.01782
G1 X108.680 Y93.521 E0.01782
G1 X108.300 Y93.099 E0.01783
G1 X108.015 Y92.606 E0.01783
G1 X107.840 Y92.065 E0.01784
G1 X107.781 Y91.500 E0.01781
G1 X107.840 Y90.935 E0.01781
G1 X108.015 Y90.394 E0.01784
G1 X108.300 Y89.901 E0.01783
G1 X108.680 Y89.479 E0.01783
G1 X109.140 Y89.145 E0.01782
G1 X109.659 Y88.914 E0.01782
G1 X110.216 Y88.795 E0.01783
G1 X110.784 Y88.795 E0.01783
G1 X111.341 Y88.914 E0.01783
G1 X111.860 Y89.145 E0.01782
G1 X112.320 Y89.479 E0.01782
G1 X112.700 Y89.901 E0.01783
G1 X112.985 Y90.394 E0.01783
G1 X113.160 Y90.935 E0.01784
G1 X113.213 Y91.440 E0.01593
G1 X112.838 Y91.480 F7200.000
G1 F1800
G1 X112.789 Y91.986 E0.01596
G1 X112.638 Y92.452 E0.01535
G1 X112.393 Y92.876 E0.01535
G1 X112.066 Y93.239 E0.01534
G1 X111.670 Y93.527 E0.01533
G1 X111.223 Y93.726 E0.01533
G1 X110.745 Y93.827 E0.01535
G1 X110.255 Y93.827 E0.01535
G1 X109.777 Y93.726 E0.01535
G1 X109.330 Y93.527 E0.01533
G1 X108.934 Y93.239 E0.01533
G1 X108.607 Y92.876 E0.01534
G1 X108.362 Y92.452 E0.01535
G1 X108.211 Y91.986 E0.01535
G1 X108.160 Y91.500 E0.01533
G1 X108.211 Y91.014 E0.01533
G1 X108.362 Y90.548 E0.01535
G1 X108.607 Y90.124 E0.01535
G1 X108.934 Y89.761 E0.01534
G1 X109.330 Y89.473 E0.01533
G1 X109.777 Y89.274 E0.01533
G1 X110.255 Y89.173 E0.01535
G1 X110.745 Y89.173 E0.01535
G1 X111.223 Y89.274 E0.01535
G1 X111.670 Y89.473 E0.01533
G1 X112.066 Y89.761 E0.01533
G1 X112.393 Y90.124 E0.01534
G1 X112.638 Y90.548 E0.01535
G1 X112.789 Y91.014 E0.01535
G1 X112.832 Y91.420 E0.01280
G1 X112.461 Y91.500 F7200.000
G1 F1800
G1 X112.419 Y91.908 E0.01285
G1 X112.292 Y92.298 E0.01286
G1 X112.087 Y92.653 E0.01286
G1 X111.812 Y92.957 E0.01286
G1 X111.481 Y93.198 E0.01285
G1 X111.106 Y93.365 E0.01285
G1 X110.705 Y93.450 E0.01286
G1 X110.295 Y93.450 E0.01286
G1 X109.894 Y93.365 E0.01286
G1 X109.519 Y93.198 E0.01285
G1 X109.188 Y92.957 E0.01285
G1 X108.913 Y92.653 E0.01286
G1 X108.708 Y92.298 E0.01286
G1 X108.581 Y91.908 E0.01286
G1 X108.539 Y91.500 E0.01285
G1 X108.581 Y91.092 E0.01285
G1 X108.708 Y90.702 E0.01286
G1 X108.913 Y90.347 E0.01286
G1 X109.188 Y90.043 E0.01286
G1 X109.519 Y89.802 E0.01285
G1 X109.894 Y89.635 E0.01285
G1 X110.295 Y89.550 E0.01286
G1 X110.705 Y89.550 E0.01286
G1 X111.106 Y89.635 E0.01286
G1 X111.481 Y89.802 E0.01285
G1 X111.812 Y90.043 E0.01285
G1 X112.087 Y90.347 E0.01286
G1 X112.292 Y90.702 E0.01286
G1 X112.419 Y91.092 E0.01286
G1 X112.455 Y91.440 E0.01097
G1 X112.808 Y91.700 F7200.000
G1 F5760
G1 X112.419 Y91.908 E-0.16233
G1 X112.292 Y92.298 E-0.14205
G1 X112.087 Y92.653 E-0.14202
G1 X111.812 Y92.957 E-0.14206
G1 X111.481 Y93.198 E-0.14197
G1 X111.403 Y93.233 E-0.02957
G1 E-0.04000 F2100.00000
G1 Z0.800 F7200.000
G1 X97.219 Y91.500
G1 Z0.200
G1 E0.80000 F2100.00000
G1 F1800
G1 X97.160 Y92.065 E0.01782
G1 X96.984 Y92.606 E0.01783
G1 X96.700 Y93.098 E0.01782
G1 X96.320 Y93.521 E0.01783
G1 X95.860 Y93.855 E0.01783
G1 X95.340 Y94.086 E0.01782
G1 X94.784 Y94.205 E0.01783
G1 X94.216 Y94.205 E0.01783
G1 X93.660 Y94.086 E0.01783
G1 X93.140 Y93.855 E0.01782
G1 X92.680 Y93.521 E0.01783
G1 X92.300 Y93.098 E0.01783
G1 X92.016 Y92.606 E0.01782
G1 X91.840 Y92.065 E0.01783
G1 X91.781 Y91.500 E0.01782
G1 X91.840 Y90.935 E0.01782
G1 X92.016 Y90.394 E0.01783
G1 X92.300 Y89.902 E0.01782
G1 X92.680 Y89.479 E0.01783
G1 X93.140 Y89.145 E0.01783
G1 X93.660 Y88.914 E0.01782
G1 X94.216 Y88.795 E0.01783
G1 X94.784 Y88.795 E0.01783
G1 X95.340 Y88.914 E0.01783
G1 X95.860 Y89.145 E0.01782
G1 X96.320 Y89.479 E0.01783
G1 X96.700 Y89.902 E0.01783
G1 X96.984 Y90.394 E0.01782
G1 X97.160 Y90.935 E0.01783
G1 X97.213 Y91.440 E0.01594
G1 X96.838 Y91.480 F7200.000
G1 F1800
G1 X96.789 Y91.987 E0.01596
G1 X96.638 Y92.452 E0.01534
G1 X96.393 Y92.876 E0.01534
G1 X96.066 Y93.239 E0.01534
G1 X95.670 Y93.527 E0.01534
G1 X95.223 Y93.726 E0.01534
G1 X94.745 Y93.827 E0.01534
G1 X94.255 Y93.827 E0.01534
G1 X93.777 Y93.726 E0.01534
G1 X93.330 Y93.527 E0.01534
G1 X92.934 Y93.239 E0.01534
G1 X92.607 Y92.876 E0.01534
G1 X92.362 Y92.452 E0.01534
G1 X92.211 Y91.987 E0.01534
G1 X92.160 Y91.500 E0.01534
G1 X92.211 Y91.013 E0.01534
G1 X92.362 Y90.548 E0.01534
G1 X92.607 Y90.124 E0.01534
G1 X92.934 Y89.761 E0.01534
G1 X93.330 Y89.473 E0.01534
G1 X93.777 Y89.274 E0.01534
G1 X94.255 Y89.173 E0.01534
G1 X94.745 Y89.173 E0.01534
G1 X95.223 Y89.274 E0.01534
G1 X95.670 Y89.473 E0.01534
G1 X96.066 Y89.761 E0.01534
G1 X96.393 Y90.124 E0.01534
G1 X96.638 Y90.548 E0.01534
G1 X96.789 Y91.013 E0.01534
G1 X96.832 Y91.420 E0.01282
G1 X96.461 Y91.500 F7200.000
G1 F1800
G1 X96.418 Y91.908 E0.01285
G1 X96.292 Y92.298 E0.01286
G1 X96.087 Y92.653 E0.01285
G1 X95.812 Y92.957 E0.01286
G1 X95.481 Y93.198 E0.01285
G1 X95.106 Y93.365 E0.01285
G1 X94.705 Y93.450 E0.01286
G1 X94.295 Y93.450 E0.01285
G1 X93.894 Y93.365 E0.01286
G1 X93.519 Y93.198 E0.01285
G1 X93.188 Y92.957 E0.01286
G1 X92.913 Y92.653 E0.01286
G1 X92.708 Y92.298 E0.01285
G1 X92.582 Y91.908 E0.01286
G1 X92.539 Y91.500 E0.01285
G1 X92.582 Y91.092 E0.01285
G1 X92.708 Y90.702 E0.01286
G1 X92.913 Y90.347 E0.01285
G1 X93.188 Y90.043 E0.01286
G1 X93.519 Y89.802 E0.01285
G1 X93.894 Y89.635 E0.01285
G1 X94.295 Y89.550 E0.01286
G1 X94.705 Y89.550 E0.01285
G1 X95.106 Y89.635 E0.01286
G1 X95.481 Y89.802 E0.01285
G1 X95.812 Y90.043 E0.01286
G1 X96.087 Y90.347 E0.01286
G1 X96.292 Y90.702 E0.01285
G1 X96.418 Y91.092 E0.01286
G1 X96.455 Y91.440 E0.01097
G1 X96.808 Y91.700 F7200.000
G1 F5760
G1 X96.418 Y91.908 E-0.16237
G1 X96.292 Y92.298 E-0.14203
G1 X96.087 Y92.653 E-0.14199
G1 X95.812 Y92.957 E-0.14201
G1 X95.481 Y93.198 E-0.14200
G1 X95.402 Y93.233 E-0.02961
G1 E-0.04000 F2100.00000
G1 Z0.800 F7200.000
G1 X56.219 Y91.500
G1 Z0.200
G1 E0.80000 F2100.00000
G1 F1800
G1 X56.138 Y92.273 E0.02438
G1 X55.898 Y93.013 E0.02438
G1 X55.509 Y93.686 E0.02438
G1 X54.989 Y94.264 E0.02438
G1 X54.360 Y94.721 E0.02438
G1 X53.649 Y95.037 E0.02438
G1 X52.889 Y95.199 E0.02438
G1 X52.111 Y95.199 E0.02438
G1 X51.351 Y95.037 E0.02438
G1 X50.640 Y94.721 E0.02438
G1 X50.011 Y94.264 E0.02438
G1 X49.491 Y93.686 E0.02438
G1 X49.102 Y93.013 E0.02438
G1 X48.862 Y92.273 E0.02438
G1 X48.781 Y91.500 E0.02438
G1 X48.862 Y90.727 E0.02438
G1 X49.102 Y89.987 E0.02438
G1 X49.491 Y89.314 E0.02438
G1 X50.011 Y88.736 E0.02438
G1 X50.640 Y88.279 E0.02438
G1 X51.351 Y87.963 E0.02438
G1 X52.111 Y87.801 E0.02438
G1 X52.889 Y87.801 E0.02438
G1 X53.649 Y87.963 E0.02438
G1 X54.360 Y88.279 E0.02438
G1 X54.989 Y88.736 E0.02438
G1 X55.509 Y89.314 E0.02438
G1 X55.898 Y89.987 E0.02438
G1 X56.138 Y90.727 E0.02438
G1 X56.213 Y91.440 E0.02250
G1 X55.838 Y91.480 F7200.000
G1 F1800
G1 X55.767 Y92.195 E0.02252
G1 X55.551 Y92.859 E0.02189
G1 X55.202 Y93.463 E0.02189
G1 X54.735 Y93.982 E0.02189
G1 X54.170 Y94.393 E0.02190
G1 X53.532 Y94.677 E0.02190
G1 X52.849 Y94.822 E0.02189
G1 X52.151 Y94.822 E0.02190
G1 X51.468 Y94.677 E0.02189
G1 X50.830 Y94.393 E0.02190
G1 X50.265 Y93.982 E0.02190
G1 X49.798 Y93.463 E0.02189
G1 X49.448 Y92.859 E0.02190
G1 X49.233 Y92.195 E0.02189
G1 X49.160 Y91.500 E0.02190
G1 X49.233 Y90.805 E0.02190
G1 X49.448 Y90.141 E0.02189
G1 X49.798 Y89.537 E0.02190
G1 X50.265 Y89.018 E0.02189
G1 X50.830 Y88.607 E0.02190
G1 X51.468 Y88.323 E0.02190
G1 X52.151 Y88.178 E0.02189
G1 X52.849 Y88.178 E0.02190
G1 X53.532 Y88.323 E0.02189
G1 X54.170 Y88.607 E0.02190
G1 X54.735 Y89.018 E0.02190
G1 X55.202 Y89.537 E0.02189
G1 X55.551 Y90.141 E0.02189
G1 X55.767 Y90.805 E0.02189
G1 X55.832 Y91.420 E0.01938
G1 X55.457 Y91.459 F7200.000
G1 F1800
G1 X55.396 Y92.116 E0.02066
G1 X55.205 Y92.704 E0.01941
G1 X54.896 Y93.241 E0.01941
G1 X54.481 Y93.701 E0.01941
G1 X53.981 Y94.064 E0.01941
G1 X53.415 Y94.316 E0.01941
G1 X52.810 Y94.445 E0.01941
G1 X52.190 Y94.445 E0.01941
G1 X51.585 Y94.316 E0.01941
G1 X51.019 Y94.064 E0.01941
G1 X50.519 Y93.701 E0.01941
G1 X50.104 Y93.241 E0.01941
G1 X49.795 Y92.704 E0.01941
G1 X49.604 Y92.116 E0.01941
G1 X49.539 Y91.500 E0.01941
G1 X49.604 Y90.884 E0.01941
G1 X49.795 Y90.296 E0.01941
G1 X50.104 Y89.759 E0.01941
