;FLAVOR:Marlin
;TIME:6839
;Filament used: 4.92814m
;Layer height: 0.15
;MINX:52.467
;MINY:41.598
;MINZ:0.2
;MAXX:189.009
;MAXY:83.082
;MAXZ:3.95
;Generated with Cura_SteamEngine 4.4.0
M82 ;absolute extrusion mode
G21 ; set units to millimeters
G90 ; use absolute positioning
M82 ; absolute extrusion mode
M104 S210 ; set extruder temp
M140 S60 ; set bed temp
M190 S60 ; wait for bed temp
M109 S210 ; wait for extruder temp
G28 W ; home all without mesh bed level
G80 ; mesh bed leveling
G92 E0.0 ; reset extruder distance position
G1 Y-3.0 F1000.0 ; go outside print area
G1 X60.0 E9.0 F1000.0 ; intro line
G1 X100.0 E21.5 F1000.0 ; intro line
G92 E0.0 ; reset extruder distance position
G92 E0
G92 E0
G1 F2100 E-0.8
;LAYER_COUNT:26
;LAYER:0
M107
;MESH:rfid_banner.stl
G0 F3600 X62.238 Y64.345 Z0.2
;TYPE:WALL-OUTER
G1 F2100 E0
G1 F1800 X62.649 Y63.967 E0.01857
G1 X62.958 Y63.534 E0.03626
G1 X63.17 Y63.044 E0.05402
G1 X63.275 Y62.522 E0.07173
G1 X63.27 Y61.989 E0.08946
G1 X63.154 Y61.47 E0.10715
G1 X62.933 Y60.986 E0.12484
G1 X62.633 Y60.574 E0.1418
G1 X62.237 Y60.218 E0.15951
G1 X61.775 Y59.951 E0.17725
G1 X61.268 Y59.786 E0.19499
G1 X60.738 Y59.731 E0.21271
G1 X60.207 Y59.786 E0.23047
G1 X59.7 Y59.951 E0.2482
G1 X59.237 Y60.219 E0.26599
G1 X58.826 Y60.596 E0.28454
G1 X58.517 Y61.03 E0.30226
G1 X58.306 Y61.52 E0.32001
G1 X58.201 Y62.042 E0.33772
G1 X58.206 Y62.575 E0.35544
G1 X58.322 Y63.094 E0.37313
G1 X58.542 Y63.578 E0.39082
G1 X58.842 Y63.989 E0.40774
G1 X59.238 Y64.346 E0.42547
G1 X59.7 Y64.613 E0.44322
G1 X60.207 Y64.778 E0.46095
G1 X60.738 Y64.833 E0.47871
G1 X61.268 Y64.778 E0.49643
G1 X61.775 Y64.613 E0.51417
G1 X62.238 Y64.345 E0.53196
G0 F3600 X62.385 Y64.21
G0 X62.722 Y64.577
G0 X179.738 Y65.275
G0 X181.488 Y64.777
G0 X181.238 Y64.345
G1 F1800 X181.649 Y63.967 E0.55053
G1 X181.958 Y63.534 E0.56822
G1 X182.17 Y63.044 E0.58598
G1 X182.275 Y62.522 E0.60369
G1 X182.27 Y61.989 E0.62142
G1 X182.154 Y61.47 E0.63911
G1 X181.933 Y60.986 E0.6568
G1 X181.633 Y60.574 E0.67375
G1 X181.257 Y60.236 E0.69057
G1 X180.776 Y59.952 E0.70915
G1 X180.268 Y59.786 E0.72692
G1 X179.738 Y59.731 E0.74465
G1 X179.207 Y59.786 E0.7624
G1 X178.7 Y59.951 E0.78014
G1 X178.237 Y60.219 E0.79793
G1 X177.826 Y60.596 E0.81648
G1 X177.517 Y61.03 E0.8342
G1 X177.306 Y61.52 E0.85194
G1 X177.201 Y62.042 E0.86965
G1 X177.206 Y62.575 E0.88738
G1 X177.322 Y63.094 E0.90507
G1 X177.542 Y63.578 E0.92275
G1 X177.842 Y63.989 E0.93968
G1 X178.238 Y64.346 E0.95741
G1 X178.7 Y64.613 E0.97516
G1 X179.207 Y64.778 E0.99289
G1 X179.738 Y64.833 E1.01065
G1 X180.268 Y64.778 E1.02837
G1 X180.775 Y64.613 E1.0461
G1 X181.238 Y64.345 E1.0639
G0 F3600 X181.385 Y64.21
G0 X181.722 Y64.577
G0 X182.342 Y63.751
G0 X187.417 Y42.833
G0 X187.793 Y42.501
G1 F1800 X188.785 Y43.937 E1.12194
G1 X189.009 Y45.78 E1.18369
G1 X189.009 Y79.727 E2.31278
G1 X188.361 Y81.436 E2.37357
G1 X187.002 Y82.642 E2.434
G1 X185.308 Y83.058 E2.49202
G1 X62.689 Y83.082 E6.57034
G1 X56.262 Y83.082 E6.7841
G1 X54.476 Y82.642 E6.84528
G1 X53.116 Y81.437 E6.90572
G1 X52.467 Y79.727 E6.96655
G1 X52.467 Y45.78 E8.09563
G1 X52.691 Y43.936 E8.15741
G1 X53.723 Y42.442 E8.21781
G1 X55.329 Y41.598 E8.27815
G1 X186.146 Y41.598 E12.62914
G1 X187.688 Y42.408 E12.68707
G1 X187.793 Y42.501 E12.69174
G0 F3600 X187.906 Y42.665
G0 X187.491 Y42.767
;TYPE:WALL-INNER
G1 F1800 X188.4 Y44.083 E12.74494
G1 X188.609 Y45.803 E12.80256
G1 X188.609 Y79.654 E13.92845
G1 X188.021 Y81.203 E13.98356
G1 X186.811 Y82.278 E14.03739
G1 X185.262 Y82.658 E14.09044
G1 X62.689 Y82.682 E18.16724
G1 X56.309 Y82.682 E18.37944
G1 X54.667 Y82.277 E18.43569
G1 X53.455 Y81.204 E18.48952
G1 X52.867 Y79.654 E18.54466
G1 X52.867 Y45.803 E19.67055
G1 X53.076 Y44.082 E19.72821
G1 X53.996 Y42.75 E19.78205
G1 X55.427 Y41.998 E19.83582
G1 X186.048 Y41.998 E24.18029
G1 X187.46 Y42.74 E24.23335
G1 X187.491 Y42.767 E24.23471
G0 F3600 X187.417 Y42.833
G0 X180.983 Y59.494
G0 X180.942 Y59.585
G1 F1800 X180.352 Y59.393 E24.25535
G1 X179.738 Y59.329 E24.27588
G1 X179.124 Y59.393 E24.29642
G1 X178.536 Y59.584 E24.31698
G1 X177.999 Y59.895 E24.33762
G1 X177.525 Y60.33 E24.35902
G1 X177.166 Y60.833 E24.37957
G1 X176.922 Y61.4 E24.4001
G1 X176.801 Y62.004 E24.42059
G1 X176.806 Y62.621 E24.44111
G1 X176.941 Y63.222 E24.4616
G1 X177.195 Y63.781 E24.48202
G1 X177.543 Y64.258 E24.50166
G1 X178.001 Y64.671 E24.52217
G1 X178.536 Y64.98 E24.54272
G1 X179.124 Y65.171 E24.56328
G1 X179.738 Y65.235 E24.58381
G1 X180.351 Y65.171 E24.60431
G1 X180.939 Y64.98 E24.62488
G1 X181.476 Y64.669 E24.64552
G1 X181.95 Y64.233 E24.66694
G1 X182.308 Y63.732 E24.68742
G1 X182.554 Y63.164 E24.708
G1 X182.675 Y62.56 E24.72849
G1 X182.67 Y61.943 E24.74902
G1 X182.535 Y61.342 E24.7695
G1 X182.28 Y60.783 E24.78994
G1 X181.932 Y60.305 E24.8096
G1 X181.495 Y59.912 E24.82915
G1 X180.942 Y59.585 E24.85052
G0 F3600 X180.983 Y59.494
G0 X179.863 Y59.31
G0 X62.535 Y64.749
G0 X62.476 Y64.669
G1 F1800 X62.95 Y64.233 E24.87194
G1 X63.308 Y63.732 E24.89242
G1 X63.554 Y63.164 E24.91301
G1 X63.675 Y62.56 E24.9335
G1 X63.67 Y61.943 E24.95402
G1 X63.535 Y61.342 E24.97451
G1 X63.28 Y60.783 E24.99494
G1 X62.932 Y60.305 E25.01461
G1 X62.473 Y59.893 E25.03512
G1 X61.939 Y59.584 E25.05564
G1 X61.351 Y59.393 E25.0762
G1 X60.738 Y59.329 E25.0967
G1 X60.124 Y59.393 E25.11724
G1 X59.536 Y59.584 E25.1378
G1 X58.999 Y59.895 E25.15844
G1 X58.525 Y60.33 E25.17984
G1 X58.166 Y60.833 E25.20039
G1 X57.922 Y61.4 E25.22092
G1 X57.801 Y62.004 E25.24141
G1 X57.806 Y62.621 E25.26193
G1 X57.941 Y63.222 E25.28242
G1 X58.195 Y63.781 E25.30284
G1 X58.543 Y64.258 E25.32248
G1 X59.001 Y64.671 E25.34299
G1 X59.536 Y64.98 E25.36354
G1 X60.124 Y65.171 E25.3841
G1 X60.738 Y65.235 E25.40463
G1 X61.351 Y65.171 E25.42513
G1 X61.939 Y64.98 E25.4457
G1 X62.476 Y64.669 E25.46634
G0 F3600 X62.708 Y64.985
;TYPE:SKIN
G1 F1800 X63.244 Y64.493 E25.49054
G1 X63.649 Y63.925 E25.51374
G1 X63.928 Y63.281 E25.53708
G1 X64.065 Y62.597 E25.56028
G1 X64.06 Y61.898 E25.58353
G1 X63.907 Y61.217 E25.60675
G1 X63.619 Y60.586 E25.62982
G1 X63.223 Y60.042 E25.6522
G1 X62.703 Y59.575 E25.67544
G1 X62.099 Y59.226 E25.69864
G1 X61.433 Y59.009 E25.72194
G1 X60.738 Y58.937 E25.74518
G1 X60.042 Y59.009 E25.76845
G1 X59.376 Y59.226 E25.79175
G1 X58.767 Y59.579 E25.81516
G1 X58.231 Y60.07 E25.83934
G1 X57.825 Y60.64 E25.86262
G1 X57.548 Y61.283 E25.8859
G1 X57.411 Y61.967 E25.9091
G1 X57.416 Y62.666 E25.93235
G1 X57.569 Y63.347 E25.95557
G1 X57.856 Y63.978 E25.97862
G1 X58.252 Y64.521 E26.00098
G1 X58.771 Y64.988 E26.0242
G1 X59.376 Y65.339 E26.04746
G1 X60.042 Y65.555 E26.07075
G1 X60.738 Y65.627 E26.09402
G1 X61.433 Y65.555 E26.11726
G1 X62.099 Y65.338 E26.14056
G1 X62.708 Y64.985 E26.16397
G0 F3600 X53.257 Y79.582
G1 F1800 X53.257 Y45.834 E27.28643
G1 X53.453 Y44.223 E27.34041
G1 X54.264 Y43.05 E27.38784
G1 X55.522 Y42.388 E27.43512
G1 X185.953 Y42.388 E31.77328
G1 X187.212 Y43.05 E31.82059
G1 X188.023 Y44.224 E31.86804
G1 X188.219 Y45.834 E31.92199
G1 X188.219 Y79.582 E33.04445
G1 X187.69 Y80.975 E33.09401
G1 X186.624 Y81.922 E33.14144
G1 X185.213 Y82.268 E33.18976
G1 X62.689 Y82.292 E37.26492
G1 X56.355 Y82.292 E37.47559
G1 X54.855 Y81.922 E37.52698
G1 X53.785 Y80.975 E37.5745
G1 X53.257 Y79.582 E37.62405
G0 F3600 X176.416 Y62.666
G1 F1800 X176.569 Y63.347 E37.64726
G1 X176.856 Y63.978 E37.67032
G1 X177.252 Y64.521 E37.69267
G1 X177.771 Y64.988 E37.7159
G1 X178.376 Y65.339 E37.73916
G1 X179.042 Y65.555 E37.76245
G1 X179.738 Y65.627 E37.78572
G1 X180.433 Y65.555 E37.80896
G1 X181.099 Y65.338 E37.83226
G1 X181.708 Y64.985 E37.85567
G1 X182.244 Y64.493 E37.87987
G1 X182.649 Y63.925 E37.90307
G1 X182.928 Y63.281 E37.92641
G1 X183.065 Y62.597 E37.94961
G1 X183.06 Y61.898 E37.97286
G1 X182.907 Y61.217 E37.99608
G1 X182.619 Y60.586 E38.01915
G1 X182.223 Y60.042 E38.04153
G1 X181.727 Y59.596 E38.06371
G1 X181.104 Y59.228 E38.08778
G1 X180.434 Y59.009 E38.11122
G1 X179.738 Y58.937 E38.1345
G1 X179.042 Y59.009 E38.15777
G1 X178.376 Y59.226 E38.18107
G1 X177.767 Y59.579 E38.20448
G1 X177.231 Y60.07 E38.22866
G1 X176.825 Y60.64 E38.25193
G1 X176.548 Y61.283 E38.27522
G1 X176.411 Y61.967 E38.29842
G1 X176.416 Y62.666 E38.32167
G0 F3600 X177.06 Y61
G0 X186.633 Y42.949
G1 F1800 X187.565 Y43.88 E38.36548
G1 X187.635 Y43.95
G0 F3600 X187.909 Y44.79
G1 F1800 X185.686 Y42.568 E38.47002
G0 F3600 X185.121 Y42.568
G1 F1800 X187.987 Y45.435 E38.60485
G0 F3600 X188.038 Y46.051
G1 F1800 X184.555 Y42.568 E38.76868
G0 F3600 X183.989 Y42.568
G1 F1800 X188.038 Y46.617 E38.95914
G0 F3600 X188.038 Y47.183
G1 F1800 X183.424 Y42.568 E39.17619
G0 F3600 X182.858 Y42.568
G1 F1800 X188.038 Y47.748 E39.41984
G0 F3600 X188.038 Y48.314
G1 F1800 X182.292 Y42.568 E39.69011
G0 F3600 X181.727 Y42.568
G1 F1800 X188.038 Y48.88 E39.98699
G0 F3600 X188.038 Y49.445
G1 F1800 X181.161 Y42.568 E40.31046
G0 F3600 X180.595 Y42.568
G1 F1800 X188.038 Y50.011 E40.66056
G0 F3600 X188.038 Y50.577
G1 F1800 X180.03 Y42.568 E41.03725
G0 F3600 X179.464 Y42.568
G1 F1800 X188.038 Y51.142 E41.44055
G0 F3600 X188.038 Y51.708
G1 F1800 X178.898 Y42.568 E41.87046
G0 F3600 X178.333 Y42.568
G1 F1800 X188.038 Y52.274 E42.32698
G0 F3600 X188.038 Y52.839
G1 F1800 X177.767 Y42.568 E42.8101
G0 F3600 X177.201 Y42.568
G1 F1800 X188.038 Y53.405 E43.31984
G0 F3600 X188.038 Y53.971
G1 F1800 X176.635 Y42.568 E43.8562
G0 F3600 X176.07 Y42.568
G1 F1800 X188.038 Y54.537 E44.41916
G0 F3600 X188.038 Y55.102
G1 F1800 X175.504 Y42.568 E45.00872
G0 F3600 X174.938 Y42.568
G1 F1800 X188.038 Y55.668 E45.62491
G0 F3600 X188.038 Y56.234
G1 F1800 X174.373 Y42.568 E46.26769
G0 F3600 X173.807 Y42.568
G1 F1800 X188.038 Y56.799 E46.93707
G0 F3600 X188.038 Y57.365
G1 F1800 X173.241 Y42.568 E47.63308
G0 F3600 X172.676 Y42.568
G1 F1800 X188.038 Y57.931 E48.35568
G0 F3600 X188.038 Y58.496
G1 F1800 X172.11 Y42.568 E49.10489
G0 F3600 X171.544 Y42.568
G1 F1800 X188.038 Y59.062 E49.88071
G0 F3600 X188.038 Y59.628
G1 F1800 X170.979 Y42.568 E50.68314
G0 F3600 X170.413 Y42.568
G1 F1800 X188.038 Y60.193 E51.51217
G0 F3600 X188.038 Y60.759
G1 F1800 X169.847 Y42.568 E52.36781
G0 F3600 X169.282 Y42.568
G1 F1800 X188.038 Y61.325 E53.25006
G0 F3600 X188.038 Y61.89
G1 F1800 X168.716 Y42.568 E54.15891
G0 F3600 X168.15 Y42.568
G1 F1800 X188.038 Y62.456 E55.09438
G0 F3600 X188.038 Y63.022
G1 F1800 X167.585 Y42.568 E56.05645
G0 F3600 X167.019 Y42.568
G1 F1800 X188.038 Y63.587 E57.04512
G0 F3600 X188.038 Y64.153
G1 F1800 X166.453 Y42.568 E58.06041
G0 F3600 X165.887 Y42.568
G1 F1800 X188.038 Y64.719 E59.10233
G0 F3600 X188.038 Y65.285
G1 F1800 X165.322 Y42.568 E60.17084
G0 F3600 X164.756 Y42.568
G1 F1800 X181.355 Y59.167 E60.95161
G1 X181.425 Y59.237
G0 F3600 X180.451 Y58.829
G1 F1800 X164.19 Y42.568 E61.71648
G0 F3600 X163.625 Y42.568
G1 F1800 X179.82 Y58.764 E62.47826
G0 F3600 X179.292 Y58.801
G1 F1800 X163.059 Y42.568 E63.24181
G0 F3600 X162.493 Y42.568
G1 F1800 X178.817 Y58.892 E64.00964
G0 F3600 X178.391 Y59.031
G1 F1800 X161.928 Y42.568 E64.78401
G0 F3600 X161.362 Y42.568
G1 F1800 X178.018 Y59.224 E65.56746
G0 F3600 X177.659 Y59.431
G1 F1800 X160.796 Y42.568 E66.36064
G0 F3600 X160.231 Y42.568
G1 F1800 X177.365 Y59.702 E67.16657
G0 F3600 X177.075 Y59.978
G1 F1800 X159.665 Y42.568 E67.98549
G0 F3600 X159.099 Y42.568
G1 F1800 X176.839 Y60.308 E68.81992
G0 F3600 X176.621 Y60.656
G1 F1800 X158.534 Y42.568 E69.6707
G0 F3600 X157.968 Y42.568
G1 F1800 X176.451 Y61.051 E70.54009
G0 F3600 X176.322 Y61.488
G1 F1800 X157.402 Y42.568 E71.43003
G0 F3600 X156.836 Y42.568
G1 F1800 X176.23 Y61.962 E72.34226
G0 F3600 X176.234 Y62.531
G1 F1800 X156.271 Y42.568 E73.28126
G0 F3600 X155.705 Y42.568
G1 F1800 X176.354 Y63.217 E74.25252
G1 X176.424 Y63.287
G0 F3600 X176.856 Y64.285
G1 F1800 X155.139 Y42.568 E75.27403
G0 F3600 X154.574 Y42.568
G1 F1800 X188.038 Y76.033 E76.84809
G0 F3600 X188.038 Y76.598
G1 F1800 X154.008 Y42.568 E78.44876
G0 F3600 X153.442 Y42.568
G1 F1800 X188.038 Y77.164 E80.07605
G0 F3600 X188.038 Y77.73
G1 F1800 X152.877 Y42.568 E81.72994
G0 F3600 X152.311 Y42.568
G1 F1800 X188.038 Y78.295 E83.41043
G0 F3600 X188.038 Y78.861
G1 F1800 X151.745 Y42.568 E85.11754
G0 F3600 X151.18 Y42.568
G1 F1800 X188.038 Y79.427 E86.85125
G0 F3600 X187.917 Y79.871
G1 F1800 X150.614 Y42.568 E88.60587
G0 F3600 X150.048 Y42.568
G1 F1800 X187.76 Y80.28 E90.37972
G0 F3600 X187.605 Y80.69
G1 F1800 X149.483 Y42.568 E92.17287
G0 F3600 X148.917 Y42.568
G1 F1800 X187.367 Y81.018 E93.98144
G0 F3600 X187.068 Y81.285
G1 F1800 X148.351 Y42.568 E95.80257
G0 F3600 X147.786 Y42.568
G1 F1800 X186.768 Y81.551 E97.63618
G0 F3600 X186.434 Y81.782
G1 F1800 X147.22 Y42.568 E99.48069
G0 F3600 X146.654 Y42.568
G1 F1800 X185.98 Y81.894 E101.33046
G0 F3600 X185.525 Y82.005
G1 F1800 X146.088 Y42.568 E103.18546
G0 F3600 X145.523 Y42.568
G1 F1800 X185.042 Y82.088 E105.04434
G0 F3600 X184.477 Y82.088
G1 F1800 X144.957 Y42.568 E106.90324
G0 F3600 X144.391 Y42.568
G1 F1800 X183.911 Y82.088 E108.76213
G0 F3600 X183.345 Y82.088
G1 F1800 X143.826 Y42.568 E110.62101
G0 F3600 X143.26 Y42.568
G1 F1800 X182.78 Y82.088 E112.47991
G0 F3600 X182.214 Y82.088
G1 F1800 X142.694 Y42.568 E114.33881
G0 F3600 X142.129 Y42.568
G1 F1800 X181.648 Y82.088 E116.19769
G0 F3600 X181.083 Y82.088
G1 F1800 X141.563 Y42.568 E118.05659
G0 F3600 X140.997 Y42.568
G1 F1800 X180.517 Y82.088 E119.91549
G0 F3600 X179.952 Y82.088
G1 F1800 X140.432 Y42.568 E121.77439
G0 F3600 X139.866 Y42.568
G1 F1800 X179.386 Y82.088 E123.63328
G0 F3600 X178.82 Y82.088
G1 F1800 X139.3 Y42.568 E125.49218
G0 F3600 X138.735 Y42.568
G1 F1800 X178.255 Y82.088 E127.35108
G0 F3600 X177.69 Y82.089
G1 F1800 X138.169 Y42.568 E129.21003
G0 F3600 X137.603 Y42.568
G1 F1800 X177.124 Y82.089 E131.06898
G0 F3600 X176.558 Y82.089
G1 F1800 X137.038 Y42.568 E132.9279
G0 F3600 X136.472 Y42.568
G1 F1800 X175.993 Y82.089 E134.78685
G0 F3600 X175.427 Y82.089
G1 F1800 X135.906 Y42.568 E136.64579
G0 F3600 X135.34 Y42.568
G1 F1800 X174.861 Y82.089 E138.50474
G0 F3600 X174.296 Y82.089
G1 F1800 X134.775 Y42.568 E140.36369
G0 F3600 X134.209 Y42.568
G1 F1800 X173.731 Y82.09 E142.22268
G0 F3600 X173.165 Y82.09
G1 F1800 X133.643 Y42.568 E144.08167
G0 F3600 X133.078 Y42.568
G1 F1800 X172.599 Y82.09 E145.94065
G0 F3600 X172.034 Y82.09
G1 F1800 X132.512 Y42.568 E147.79964
G0 F3600 X131.946 Y42.568
G1 F1800 X171.468 Y82.09 E149.65863
G0 F3600 X170.902 Y82.09
G1 F1800 X131.381 Y42.568 E151.5176
G0 F3600 X130.815 Y42.568
G1 F1800 X170.337 Y82.09 E153.3766
G0 F3600 X169.772 Y82.09
G1 F1800 X130.249 Y42.568 E155.23561
G0 F3600 X129.684 Y42.568
G1 F1800 X169.206 Y82.09 E157.09461
G0 F3600 X168.64 Y82.09
G1 F1800 X129.118 Y42.568 E158.9536
G0 F3600 X128.552 Y42.568
G1 F1800 X168.075 Y82.09 E160.81262
G0 F3600 X167.509 Y82.09
G1 F1800 X127.987 Y42.568 E162.67161
G0 F3600 X127.421 Y42.568
G1 F1800 X166.943 Y82.09 E164.53061
G0 F3600 X166.378 Y82.091
G1 F1800 X126.855 Y42.568 E166.38965
G0 F3600 X126.289 Y42.568
G1 F1800 X165.813 Y82.091 E168.24871
G0 F3600 X165.247 Y82.091
G1 F1800 X125.724 Y42.568 E170.10775
G0 F3600 X125.158 Y42.568
G1 F1800 X164.681 Y82.091 E171.96679
G0 F3600 X164.115 Y82.091
G1 F1800 X124.592 Y42.568 E173.82583
G0 F3600 X124.027 Y42.568
G1 F1800 X163.55 Y82.091 E175.68487
G0 F3600 X162.984 Y82.091
G1 F1800 X123.461 Y42.568 E177.54391
G0 F3600 X122.895 Y42.568
G1 F1800 X162.419 Y82.092 E179.403
G0 F3600 X161.853 Y82.092
G1 F1800 X122.33 Y42.568 E181.26207
G0 F3600 X121.764 Y42.568
G1 F1800 X161.288 Y82.092 E183.12115
G0 F3600 X160.722 Y82.092
G1 F1800 X121.198 Y42.568 E184.98024
G0 F3600 X120.633 Y42.568
G1 F1800 X160.156 Y82.092 E186.83931
G0 F3600 X159.591 Y82.092
G1 F1800 X120.067 Y42.568 E188.69839
G0 F3600 X119.501 Y42.568
G1 F1800 X159.026 Y82.092 E190.55751
G0 F3600 X158.46 Y82.092
G1 F1800 X118.936 Y42.568 E192.41659
G0 F3600 X118.37 Y42.568
G1 F1800 X157.894 Y82.092 E194.27568
G0 F3600 X157.329 Y82.092
G1 F1800 X117.804 Y42.568 E196.13479
G0 F3600 X117.239 Y42.568
G1 F1800 X156.763 Y82.092 E197.99388
G0 F3600 X156.197 Y82.092
G1 F1800 X116.673 Y42.568 E199.85297
G0 F3600 X116.107 Y42.568
G1 F1800 X155.632 Y82.092 E201.71208
G0 F3600 X155.067 Y82.093
G1 F1800 X115.541 Y42.568 E203.57124
