;FLAVOR:Marlin
;TIME:2676
;Filament used: 2.09748m
;Layer height: 0.15
;MINX:106.326
;MINY:86.428
;MINZ:0.2
;MAXX:143.674
;MAXY:123.572
;MAXZ:18.95
;Generated with Cura_SteamEngine 4.4.0
M82 ;absolute extrusion mode
G21 ; set units to millimeters
G90 ; use absolute positioning
M82 ; absolute extrusion mode
M104 S200 ; set extruder temp
M140 S60 ; set bed temp
M190 S60 ; wait for bed temp
M109 S200 ; wait for extruder temp
G28 W ; home all without mesh bed level
G80 ; mesh bed leveling
G92 E0.0 ; reset extruder distance position
G1 Y-3.0 F1000.0 ; go outside print area
G1 X60.0 E9.0 F1000.0 ; intro line
G1 X100.0 E21.5 F1000.0 ; intro line
G92 E0.0 ; reset extruder distance position
G92 E0
G92 E0
G1 F2100 E-0.8
;LAYER_COUNT:126
;LAYER:0
M107
;MESH:mouse_conenozzle.stl
G0 F3600 X129.943 Y96.436 Z0.2
;TYPE:WALL-OUTER
G1 F2100 E0
G1 F1800 X131.616 Y97.652 E0.06879
G1 X132.973 Y99.159 E0.13624
G1 X134.034 Y100.98 E0.20634
G1 X134.672 Y102.943 E0.27499
G1 X134.885 Y104.96 E0.34245
G1 X134.672 Y107.057 E0.41255
G1 X134.046 Y108.982 E0.47988
G1 X133.019 Y110.781 E0.54878
G1 X131.619 Y112.347 E0.61864
G1 X129.973 Y113.543 E0.68631
G1 X128.091 Y114.39 E0.75496
G1 X126.036 Y114.834 E0.82488
G1 X123.967 Y114.834 E0.8937
G1 X121.983 Y114.413 E0.96116
G1 X120.057 Y113.564 E1.03116
G1 X118.384 Y112.348 E1.09995
G1 X117.027 Y110.841 E1.1674
G1 X115.966 Y109.02 E1.2375
G1 X115.328 Y107.057 E1.30615
G1 X115.115 Y105.039 E1.37364
G1 X115.328 Y102.943 E1.44371
G1 X115.954 Y101.018 E1.51104
G1 X116.981 Y99.219 E1.57994
G1 X118.381 Y97.653 E1.6498
G1 X120.027 Y96.457 E1.71748
G1 X121.909 Y95.61 E1.78612
G1 X123.964 Y95.166 E1.85605
G1 X126.033 Y95.166 E1.92486
G1 X128.017 Y95.587 E1.99232
G1 X129.943 Y96.436 E2.06232
G0 F3600 X130.104 Y96.553
G0 X129.81 Y96.956
G0 X122.73 Y102.479
G0 X121.918 Y103.588
G0 X121.612 Y104.963
G0 X121.888 Y106.346
G0 X122.368 Y107.112
G0 X123.226 Y107.957
G0 X123.524 Y107.556
G1 F1800 X124.088 Y107.806 E2.08284
G1 X124.692 Y107.935 E2.10339
G1 X125.308 Y107.935 E2.12387
G1 X125.912 Y107.806 E2.14442
G1 X126.475 Y107.556 E2.1649
G1 X126.975 Y107.193 E2.18546
G1 X127.367 Y106.757 E2.20496
G1 X127.68 Y106.229 E2.22537
G1 X127.876 Y105.644 E2.24589
G1 X127.947 Y105.032 E2.26638
G1 X127.891 Y104.419 E2.28686
G1 X127.707 Y103.829 E2.30741
G1 X127.404 Y103.294 E2.32786
G1 X126.996 Y102.83 E2.34841
G1 X126.476 Y102.444 E2.36995
G1 X125.912 Y102.194 E2.39047
G1 X125.308 Y102.065 E2.41101
G1 X124.692 Y102.065 E2.4315
G1 X124.088 Y102.194 E2.45204
G1 X123.525 Y102.444 E2.47253
G1 X123.025 Y102.807 E2.49308
G1 X122.633 Y103.243 E2.51258
G1 X122.32 Y103.771 E2.533
G1 X122.124 Y104.356 E2.55352
G1 X122.053 Y104.968 E2.57401
G1 X122.109 Y105.581 E2.59448
G1 X122.293 Y106.171 E2.61504
G1 X122.596 Y106.706 E2.63549
G1 X123.004 Y107.17 E2.65604
G1 X123.524 Y107.556 E2.67758
G0 F3600 X123.707 Y107.637
G0 X123.321 Y107.904
;TYPE:WALL-INNER
G1 F1800 X123.964 Y108.189 E2.70097
G1 X124.65 Y108.335 E2.7243
G1 X125.35 Y108.335 E2.74758
G1 X126.036 Y108.188 E2.77092
G1 X126.676 Y107.904 E2.7942
G1 X127.244 Y107.492 E2.81754
G1 X127.691 Y106.995 E2.83978
G1 X128.046 Y106.396 E2.86293
G1 X128.269 Y105.732 E2.88623
G1 X128.349 Y105.037 E2.9095
G1 X128.285 Y104.34 E2.93278
G1 X128.076 Y103.669 E2.95615
G1 X127.732 Y103.061 E2.97939
G1 X127.268 Y102.534 E3.00274
G1 X126.679 Y102.096 E3.02716
G1 X126.036 Y101.811 E3.05055
G1 X125.35 Y101.665 E3.07388
G1 X124.65 Y101.665 E3.09716
G1 X123.964 Y101.812 E3.12049
G1 X123.324 Y102.096 E3.14378
G1 X122.756 Y102.508 E3.16712
G1 X122.309 Y103.005 E3.18935
G1 X121.954 Y103.604 E3.21251
G1 X121.731 Y104.268 E3.23581
G1 X121.651 Y104.963 E3.25908
G1 X121.715 Y105.66 E3.28236
G1 X121.924 Y106.331 E3.30573
G1 X122.268 Y106.939 E3.32897
G1 X122.732 Y107.466 E3.35232
G1 X123.321 Y107.904 E3.37673
G0 F3600 X123.271 Y107.99
G0 X122.236 Y106.962
G0 X121.676 Y105.667
G0 X121.692 Y104.26
G0 X122.277 Y102.982
G0 X129.692 Y96.87
G0 X129.741 Y96.784
G1 F1800 X131.348 Y97.952 E3.44281
G1 X132.648 Y99.396 E3.50743
G1 X133.668 Y101.146 E3.5748
G1 X134.278 Y103.024 E3.64048
G1 X134.483 Y104.96 E3.70523
G1 X134.278 Y106.975 E3.77259
G1 X133.679 Y108.819 E3.83708
G1 X132.694 Y110.544 E3.90315
G1 X131.35 Y112.048 E3.97023
G1 X129.771 Y113.195 E4.03515
G1 X127.964 Y114.008 E4.10105
G1 X125.994 Y114.434 E4.16809
G1 X124.008 Y114.434 E4.23414
G1 X122.107 Y114.031 E4.29877
G1 X120.259 Y113.216 E4.36595
G1 X118.652 Y112.048 E4.43203
G1 X117.352 Y110.604 E4.49665
G1 X116.332 Y108.854 E4.56402
G1 X115.722 Y106.976 E4.62969
G1 X115.517 Y105.037 E4.69455
G1 X115.722 Y103.025 E4.76181
G1 X116.322 Y101.18 E4.82634
G1 X117.306 Y99.456 E4.89236
G1 X118.65 Y97.952 E4.95945
G1 X120.229 Y96.805 E5.02436
G1 X122.036 Y95.992 E5.09026
G1 X124.006 Y95.566 E5.1573
G1 X125.992 Y95.566 E5.22336
G1 X127.893 Y95.969 E5.28799
G1 X129.741 Y96.784 E5.35517
G0 F3600 X129.543 Y97.124
;TYPE:SKIN
G1 F1800 X131.087 Y98.246 E5.41865
G1 X132.33 Y99.626 E5.48042
G1 X133.31 Y101.307 E5.54514
G1 X133.894 Y103.106 E5.60805
G1 X134.091 Y104.959 E5.67002
G1 X133.894 Y106.893 E5.73468
G1 X133.32 Y108.661 E5.79651
G1 X132.376 Y110.314 E5.85982
G1 X131.089 Y111.755 E5.92408
G1 X129.568 Y112.859 E5.98659
G1 X127.843 Y113.636 E6.04952
G1 X125.954 Y114.044 E6.11379
G1 X124.05 Y114.044 E6.17712
G1 X122.228 Y113.657 E6.23907
G1 X120.457 Y112.876 E6.30345
G1 X118.913 Y111.754 E6.36693
G1 X117.67 Y110.374 E6.4287
G1 X116.69 Y108.693 E6.49342
G1 X116.106 Y106.894 E6.55633
G1 X115.909 Y105.035 E6.61851
G1 X116.106 Y103.107 E6.68297
G1 X116.681 Y101.338 E6.74483
G1 X117.624 Y99.686 E6.8081
G1 X118.911 Y98.245 E6.87236
G1 X120.432 Y97.141 E6.93487
G1 X122.157 Y96.364 E6.9978
G1 X124.046 Y95.956 E7.06207
G1 X125.95 Y95.956 E7.1254
G1 X127.772 Y96.343 E7.18735
G1 X129.543 Y97.124 E7.25173
G0 F3600 X126.876 Y101.757
G1 F1800 X126.157 Y101.438 E7.27789
G1 X125.391 Y101.275 E7.30394
G1 X124.609 Y101.275 E7.32995
G1 X123.843 Y101.439 E7.356
G1 X123.129 Y101.756 E7.38199
G1 X122.493 Y102.217 E7.40811
G1 X121.993 Y102.773 E7.43298
G1 X121.597 Y103.44 E7.45878
G1 X121.349 Y104.182 E7.4848
G1 X121.259 Y104.959 E7.51082
G1 X121.331 Y105.736 E7.53677
G1 X121.564 Y106.487 E7.56293
G1 X121.948 Y107.167 E7.5889
G1 X122.467 Y107.755 E7.61499
G1 X123.124 Y108.243 E7.64221
G1 X123.843 Y108.562 E7.66837
G1 X124.609 Y108.725 E7.69442
G1 X125.391 Y108.725 E7.72043
G1 X126.157 Y108.561 E7.74648
G1 X126.871 Y108.244 E7.77246
G1 X127.507 Y107.783 E7.79859
G1 X128.007 Y107.227 E7.82346
G1 X128.403 Y106.56 E7.84926
G1 X128.651 Y105.818 E7.87528
G1 X128.741 Y105.041 E7.9013
G1 X128.669 Y104.264 E7.92725
G1 X128.436 Y103.513 E7.9534
G1 X128.052 Y102.833 E7.97938
G1 X127.533 Y102.245 E8.00546
G1 X126.876 Y101.757 E8.03268
G0 F3600 X129.724 Y97.48
G1 F1800 X132.472 Y100.228 E8.16194
G1 X132.542 Y100.298
G0 F3600 X133.184 Y101.506
G1 F1800 X128.571 Y96.893 E8.37892
G1 X128.501 Y96.823
G0 F3600 X127.605 Y96.492
G1 F1800 X133.457 Y102.345 E8.65421
G1 X133.527 Y102.415
G0 F3600 X133.72 Y103.173
G1 F1800 X126.886 Y96.339 E8.97566
G0 F3600 X126.169 Y96.187
G1 F1800 X133.787 Y103.806 E9.33401
G0 F3600 X133.854 Y104.438
G1 F1800 X125.551 Y96.136 E9.72453
G0 F3600 X124.986 Y96.136
G1 F1800 X133.899 Y105.049 E10.14377
G0 F3600 X133.847 Y105.563
G1 F1800 X124.42 Y96.136 E10.58719
G0 F3600 X123.892 Y96.173
G1 F1800 X133.795 Y106.077 E11.05302
G0 F3600 X133.743 Y106.59
G1 F1800 X123.426 Y96.274 E11.53828
G0 F3600 X122.96 Y96.373
G1 F1800 X133.649 Y107.062 E12.04105
G0 F3600 X133.51 Y107.489
G1 F1800 X122.495 Y96.474 E12.55917
G0 F3600 X122.06 Y96.604
G1 F1800 X127.315 Y101.86 E12.80637
G1 X127.385 Y101.93
G0 F3600 X128.22 Y102.764
G1 F1800 X133.371 Y107.915 E13.04866
G0 F3600 X133.233 Y108.342
G1 F1800 X128.723 Y103.832 E13.26079
G0 F3600 X128.875 Y104.55
G1 F1800 X133.066 Y108.741 E13.45792
G0 F3600 X132.86 Y109.101
G1 F1800 X128.908 Y105.149 E13.64381
G0 F3600 X128.849 Y105.656
G1 F1800 X132.654 Y109.461 E13.82279
G0 F3600 X132.449 Y109.822
G1 F1800 X128.74 Y106.113 E13.99725
G0 F3600 X128.599 Y106.537
G1 F1800 X132.243 Y110.182 E14.16867
G0 F3600 X131.981 Y110.485
G1 F1800 X128.404 Y106.908 E14.33693
G0 F3600 X128.194 Y107.263
G1 F1800 X131.714 Y110.784 E14.50252
G0 F3600 X131.448 Y111.083
G1 F1800 X127.937 Y107.572 E14.66767
G0 F3600 X127.669 Y107.87
G1 F1800 X131.181 Y111.382 E14.83286
G0 F3600 X130.901 Y111.668
G1 F1800 X127.351 Y108.118 E14.99984
G0 F3600 X127.023 Y108.355
G1 F1800 X130.573 Y111.906 E15.16685
G0 F3600 X130.245 Y112.143
G1 F1800 X126.643 Y108.541 E15.33627
G0 F3600 X126.251 Y108.715
G1 F1800 X129.918 Y112.381 E15.50873
G0 F3600 X129.59 Y112.619
G1 F1800 X125.792 Y108.822 E15.68736
G0 F3600 X125.309 Y108.905
G1 F1800 X129.221 Y112.816 E15.87134
G0 F3600 X128.832 Y112.992
G1 F1800 X124.744 Y108.905 E16.0636
G0 F3600 X124.066 Y108.793
G1 F1800 X128.441 Y113.168 E16.26939
G0 F3600 X128.052 Y113.344
G1 F1800 X123.168 Y108.46 E16.49912
G1 X123.098 Y108.39
G0 F3600 X121.565 Y106.857
G1 F1800 X116.666 Y101.959 E16.72953
G0 F3600 X116.528 Y102.386
G1 F1800 X127.638 Y113.496 E17.25211
G0 F3600 X127.173 Y113.596
G1 F1800 X116.389 Y102.813 E17.75933
G0 F3600 X116.27 Y103.259
G1 F1800 X126.707 Y113.697 E18.25028
G0 F3600 X126.242 Y113.797
G1 F1800 X116.217 Y103.772 E18.72183
G0 F3600 X116.165 Y104.286
G1 F1800 X125.743 Y113.863 E19.17232
G0 F3600 X125.177 Y113.863
G1 F1800 X116.112 Y104.798 E19.59871
G0 F3600 X116.125 Y105.377
G1 F1800 X124.612 Y113.863 E19.99789
G0 F3600 X124.039 Y113.856
G1 F1800 X116.192 Y106.01 E20.36697
G0 F3600 X116.259 Y106.643
G1 F1800 X123.32 Y113.704 E20.69909
G0 F3600 X122.602 Y113.551
G1 F1800 X116.462 Y107.411 E20.9879
G1 X116.392 Y107.341
G0 F3600 X116.734 Y108.249
G1 F1800 X121.722 Y113.236 E21.2225
G1 X121.792 Y113.306
G0 F3600 X120.709 Y112.789
G1 F1800 X117.296 Y109.377 E21.38301
G1 X117.226 Y109.307
G0 F3600 X121.201 Y105.928
G1 F1800 X116.806 Y101.532 E21.58976
G0 F3600 X116.992 Y101.153
G1 F1800 X121.106 Y105.266 E21.78325
G0 F3600 X121.107 Y104.702
G1 F1800 X117.197 Y100.793 E21.96714
G0 F3600 X117.403 Y100.433
G1 F1800 X121.166 Y104.195 E22.14412
G0 F3600 X121.299 Y103.762
G1 F1800 X117.609 Y100.073 E22.31766
G0 F3600 X117.828 Y99.726
G1 F1800 X121.444 Y103.342 E22.48774
G0 F3600 X121.655 Y102.987
G1 F1800 X118.094 Y99.426 E22.65524
G0 F3600 X118.361 Y99.127
G1 F1800 X121.871 Y102.637 E22.82034
G0 F3600 X122.139 Y102.34
G1 F1800 X118.628 Y98.829 E22.98549
G0 F3600 X118.895 Y98.53
G1 F1800 X122.414 Y102.049 E23.15101
G0 F3600 X122.743 Y101.812
G1 F1800 X119.192 Y98.262 E23.31802
G0 F3600 X119.52 Y98.024
G1 F1800 X123.077 Y101.581 E23.48533
G0 F3600 X123.469 Y101.407
G1 F1800 X119.848 Y97.786 E23.65565
G0 F3600 X120.176 Y97.548
G1 F1800 X123.875 Y101.248 E23.82966
G0 F3600 X124.341 Y101.148
G1 F1800 X120.504 Y97.311 E24.01014
G0 F3600 X120.89 Y97.131
G1 F1800 X124.853 Y101.095 E24.19657
G0 F3600 X125.422 Y101.097
G1 F1800 X121.28 Y96.955 E24.3914
G0 F3600 X121.67 Y96.78
G1 F1800 X126.142 Y101.252 E24.60175
M104 S200
G1 X126.212 Y101.322
;MESH:NONMESH
G0 F600 X126.212 Y101.322 Z0.35
G0 F3600 X123.123 Y101.747
;TIME_ELAPSED:33.957896
;LAYER:1
M140 S60
M106 S255
;TYPE:WALL-INNER
;MESH:mouse_conenozzle.stl
G1 F3300 X122.487 Y102.209 E24.62136
G1 X121.962 Y102.794 E24.64097
G1 X121.57 Y103.471 E24.66048
G1 X121.327 Y104.218 E24.68008
G1 X121.245 Y105 E24.69969
G1 X121.327 Y105.782 E24.7193
G1 X121.57 Y106.529 E24.7389
G1 X121.962 Y107.206 E24.75841
G1 X122.487 Y107.791 E24.77802
G1 X123.123 Y108.253 E24.79763
G1 X123.84 Y108.57 E24.81719
G1 X124.608 Y108.735 E24.83678
G1 X125.392 Y108.735 E24.85634
G1 X126.16 Y108.57 E24.87593
G1 X126.877 Y108.253 E24.89549
G1 X127.513 Y107.791 E24.9151
G1 X128.038 Y107.206 E24.93471
G1 X128.43 Y106.529 E24.95422
G1 X128.673 Y105.782 E24.97382
G1 X128.755 Y105 E24.99343
G1 X128.673 Y104.218 E25.01304
G1 X128.43 Y103.471 E25.03264
G1 X128.038 Y102.794 E25.05215
G1 X127.513 Y102.209 E25.07176
G1 X126.877 Y101.747 E25.09137
G1 X126.16 Y101.43 E25.11093
G1 X125.392 Y101.265 E25.13052
G1 X124.608 Y101.265 E25.15008
G1 X123.84 Y101.43 E25.16967
G1 X123.123 Y101.747 E25.18923
G0 F5400 X129.622 Y97.002
G1 F3300 X131.184 Y98.137 E25.23739
G1 X132.411 Y99.498 E25.2831
G1 X133.442 Y101.244 E25.33368
G1 X134.036 Y103.072 E25.38163
G1 X134.229 Y104.891 E25.42726
G1 X134.036 Y106.928 E25.4783
G1 X133.474 Y108.654 E25.52358
G1 X132.524 Y110.345 E25.57196
G1 X131.174 Y111.872 E25.62281
G1 X129.712 Y112.936 E25.66791
G1 X127.937 Y113.75 E25.71662
G1 X125.966 Y114.189 E25.767
G1 X124.033 Y114.189 E25.81521
G1 X122.251 Y113.811 E25.86066
G1 X120.378 Y112.998 E25.91159
G1 X118.816 Y111.863 E25.95975
G1 X117.589 Y110.502 E26.00546
G1 X116.558 Y108.756 E26.05605
G1 X115.964 Y106.928 E26.10399
G1 X115.771 Y105.099 E26.14987
G1 X115.964 Y103.072 E26.20066
G1 X116.526 Y101.346 E26.24594
G1 X117.476 Y99.655 E26.29433
G1 X118.826 Y98.128 E26.34517
G1 X120.288 Y97.064 E26.39027
G1 X122.063 Y96.25 E26.43899
G1 X124.034 Y95.811 E26.48936
G1 X125.967 Y95.811 E26.53758
G1 X127.749 Y96.189 E26.58302
G1 X129.622 Y97.002 E26.63395
G0 F5400 X129.823 Y96.653
G1 F3300 X131.452 Y97.837 E26.68419
G1 X132.733 Y99.258 E26.73191
G1 X133.809 Y101.08 E26.78469
G1 X134.43 Y102.991 E26.83482
G1 X134.631 Y104.891 E26.88248
G1 X134.43 Y107.009 E26.93555
G1 X133.841 Y108.818 E26.98301
G1 X132.852 Y110.578 E27.03337
G1 X131.448 Y112.167 E27.08626
G1 X129.91 Y113.286 E27.13371
G1 X128.069 Y114.13 E27.18423
G1 X126.008 Y114.589 E27.2369
G1 X123.992 Y114.589 E27.28719
G1 X122.127 Y114.193 E27.33475
G1 X120.177 Y113.347 E27.38777
G1 X118.548 Y112.163 E27.43801
G1 X117.267 Y110.742 E27.48573
G1 X116.191 Y108.92 E27.53851
G1 X115.57 Y107.009 E27.58864
G1 X115.369 Y105.103 E27.63645
G1 X115.57 Y102.991 E27.68937
G1 X116.159 Y101.182 E27.73683
G1 X117.148 Y99.422 E27.78719
G1 X118.552 Y97.833 E27.84008
G1 X120.09 Y96.714 E27.88753
G1 X121.931 Y95.87 E27.93804
G1 X123.992 Y95.411 E27.99072
G1 X126.008 Y95.411 E28.04101
G1 X127.873 Y95.807 E28.08857
G1 X129.823 Y96.653 E28.14159
G0 F5400 X129.774 Y96.739
G0 X122.69 Y102.434
G0 X122.756 Y102.508
G1 F3300 X122.287 Y103.03 E28.15909
G1 X121.937 Y103.635 E28.17653
G1 X121.72 Y104.302 E28.19403
G1 X121.647 Y105 E28.21153
G1 X121.72 Y105.698 E28.22904
G1 X121.937 Y106.365 E28.24654
G1 X122.287 Y106.97 E28.26397
G1 X122.756 Y107.492 E28.28148
G1 X123.324 Y107.904 E28.29898
G1 X123.964 Y108.188 E28.31645
G1 X124.65 Y108.335 E28.33395
G1 X125.35 Y108.335 E28.35141
G1 X126.036 Y108.188 E28.36891
G1 X126.676 Y107.904 E28.38638
G1 X127.244 Y107.492 E28.40388
G1 X127.713 Y106.97 E28.42138
G1 X128.063 Y106.365 E28.43882
G1 X128.28 Y105.698 E28.45632
G1 X128.353 Y105 E28.47382
G1 X128.28 Y104.302 E28.49133
G1 X128.063 Y103.635 E28.50883
G1 X127.713 Y103.03 E28.52626
G1 X127.244 Y102.508 E28.54377
G1 X126.676 Y102.096 E28.56127
G1 X126.036 Y101.812 E28.57874
G1 X125.35 Y101.665 E28.59624
G1 X124.65 Y101.665 E28.6137
G1 X123.964 Y101.812 E28.6312
G1 X123.324 Y102.096 E28.64867
G1 X122.756 Y102.508 E28.66617
G0 F5400 X122.69 Y102.434
G0 X122.055 Y103.353
G0 X121.617 Y104.334
G0 X122.113 Y104.386
;TYPE:WALL-OUTER
G1 F2100 X122.049 Y105 E28.68157
G1 X122.113 Y105.614 E28.69697
G1 X122.304 Y106.201 E28.71237
G1 X122.612 Y106.734 E28.72772
G1 X123.025 Y107.193 E28.74313
G1 X123.525 Y107.556 E28.75854
G1 X124.088 Y107.806 E28.7739
G1 X124.692 Y107.935 E28.78931
G1 X125.308 Y107.935 E28.80468
G1 X125.912 Y107.806 E28.82008
G1 X126.475 Y107.556 E28.83545
G1 X126.975 Y107.193 E28.85086
G1 X127.388 Y106.734 E28.86627
G1 X127.696 Y106.201 E28.88162
G1 X127.887 Y105.614 E28.89702
G1 X127.951 Y105 E28.91242
G1 X127.887 Y104.386 E28.92782
G1 X127.696 Y103.799 E28.94322
G1 X127.388 Y103.266 E28.95857
G1 X126.975 Y102.807 E28.97398
G1 X126.475 Y102.444 E28.98939
G1 X125.912 Y102.194 E29.00476
G1 X125.308 Y102.065 E29.02016
G1 X124.692 Y102.065 E29.03553
G1 X124.088 Y102.194 E29.05093
G1 X123.525 Y102.444 E29.0663
G1 X123.025 Y102.807 E29.08171
G1 X122.612 Y103.266 E29.09712
G1 X122.304 Y103.799 E29.11247
G1 X122.113 Y104.386 E29.12787
G0 F5400 X122.093 Y104.585
G0 X121.596 Y104.533
G0 X121.901 Y103.619
G0 X122.639 Y102.58
G0 X129.774 Y96.739
