;FLAVOR:Marlin
;TIME:3674
;Filament used: 5.94779m
;Layer height: 0.3
;MINX:113.701
;MINY:66.263
;MINZ:0.2
;MAXX:136.299
;MAXY:143.737
;MAXZ:29
;Generated with Cura_SteamEngine 4.4.0
M82 ;absolute extrusion mode
G21 ; set units to millimeters
G90 ; use absolute positioning
M82 ; absolute extrusion mode
M104 S210 ; set extruder temp
M140 S60 ; set bed temp
M190 S60 ; wait for bed temp
M109 S210 ; wait for extruder temp
G28 W ; home all without mesh bed level
G80 ; mesh bed leveling
G92 E0.0 ; reset extruder distance position
G1 Y-3.0 F1000.0 ; go outside print area
G1 X60.0 E9.0 F1000.0 ; intro line
G1 X100.0 E21.5 F1000.0 ; intro line
G92 E0.0 ; reset extruder distance position
G92 E0
G92 E0
G1 F2100 E-0.8
;LAYER_COUNT:97
;LAYER:0
M107
;MESH:rfid_holder_mount.stl
G0 F3600 X125.221 Y79.59 Z0.2
;TYPE:WALL-OUTER
G1 F2100 E0
G1 F1800 X125.651 Y79.497 E0.01463
G1 X126.052 Y79.318 E0.02924
G1 X126.405 Y79.062 E0.04374
G1 X126.7 Y78.735 E0.05839
G1 X126.92 Y78.355 E0.07299
G1 X127.055 Y77.937 E0.0876
G1 X127.101 Y77.5 E0.10222
G1 X127.055 Y77.063 E0.11683
G1 X126.92 Y76.645 E0.13144
G1 X126.7 Y76.265 E0.14605
G1 X126.404 Y75.937 E0.16074
G1 X126.049 Y75.68 E0.17532
G1 X125.648 Y75.502 E0.18991
G1 X125.219 Y75.41 E0.2045
G1 X124.779 Y75.41 E0.21914
G1 X124.349 Y75.503 E0.23377
G1 X123.948 Y75.682 E0.24838
G1 X123.595 Y75.938 E0.26288
G1 X123.3 Y76.265 E0.27753
G1 X123.08 Y76.645 E0.29213
G1 X122.945 Y77.063 E0.30674
G1 X122.899 Y77.5 E0.32136
G1 X122.945 Y77.937 E0.33597
G1 X123.08 Y78.355 E0.35058
G1 X123.3 Y78.735 E0.36519
G1 X123.596 Y79.063 E0.37988
G1 X123.951 Y79.32 E0.39446
G1 X124.352 Y79.498 E0.40905
G1 X124.781 Y79.59 E0.42364
G1 X125.221 Y79.59 E0.43828
G0 F3600 X125.416 Y79.548
G0 X125.521 Y80.036
G0 X134.368 Y82.749
G0 X134.8 Y82.999
G1 F1800 X134.8 Y127.001 E1.90179
G1 X135.308 Y127.882 E1.93561
G1 X136.048 Y130.141 E2.01468
G1 X136.297 Y132.491 E2.09328
G1 X136.054 Y134.842 E2.17189
G1 X135.327 Y137.085 E2.25031
G1 X134.148 Y139.131 E2.32885
G1 X132.567 Y140.889 E2.40749
G1 X130.648 Y142.285 E2.48642
G1 X128.493 Y143.245 E2.56488
G1 X126.179 Y143.737 E2.64357
G1 X123.821 Y143.737 E2.722
G1 X121.507 Y143.245 E2.80068
G1 X119.352 Y142.285 E2.87915
G1 X117.44 Y140.896 E2.95775
G1 X115.864 Y139.145 E3.0361
G1 X114.683 Y137.103 E3.11456
G1 X113.952 Y134.859 E3.19306
G1 X113.703 Y132.509 E3.27166
G1 X113.946 Y130.158 E3.35027
G1 X114.674 Y127.913 E3.42876
G1 X115.2 Y127.001 E3.46378
G1 X115.2 Y82.999 E4.92729
G1 X114.692 Y82.118 E4.96112
G1 X113.952 Y79.859 E5.04018
G1 X113.703 Y77.509 E5.11878
G1 X113.946 Y75.158 E5.19739
G1 X114.674 Y72.913 E5.27589
G1 X115.853 Y70.867 E5.35443
G1 X117.433 Y69.111 E5.43299
G1 X119.352 Y67.715 E5.51192
G1 X121.507 Y66.755 E5.59039
G1 X123.821 Y66.263 E5.66907
G1 X126.179 Y66.263 E5.7475
G1 X128.493 Y66.755 E5.82618
G1 X130.648 Y67.715 E5.90465
G1 X132.56 Y69.104 E5.98325
G1 X134.136 Y70.854 E6.06158
G1 X135.317 Y72.897 E6.14007
G1 X136.048 Y75.139 E6.2185
G1 X136.297 Y77.491 E6.29717
G1 X136.054 Y79.842 E6.37578
G1 X135.326 Y82.087 E6.45427
G1 X134.8 Y82.999 E6.48929
G0 F3600 X134.8 Y83.199
G0 X134.3 Y83.199
G0 X127.734 Y97.718
G0 X127.003 Y98.723
G0 X125.938 Y99.34
G0 X124.703 Y99.476
G0 X123.522 Y99.165
G0 X123.724 Y98.709
G1 F1800 X124.225 Y98.93 E6.5075
G1 X124.746 Y99.037 E6.52519
G1 X125.28 Y99.034 E6.54296
G1 X125.8 Y98.921 E6.56065
G1 X126.286 Y98.702 E6.57838
G1 X126.708 Y98.395 E6.59574
G1 X127.064 Y97.999 E6.61345
G1 X127.331 Y97.538 E6.63117
G1 X127.496 Y97.031 E6.6489
G1 X127.551 Y96.5 E6.66666
G1 X127.496 Y95.969 E6.68442
G1 X127.331 Y95.462 E6.70215
G1 X127.063 Y95 E6.71991
G1 X126.697 Y94.597 E6.73802
G1 X126.264 Y94.285 E6.75577
G1 X125.775 Y94.07 E6.77354
G1 X125.254 Y93.963 E6.79123
G1 X124.72 Y93.966 E6.80899
G1 X124.2 Y94.079 E6.82669
G1 X123.714 Y94.298 E6.84442
G1 X123.292 Y94.605 E6.86177
G1 X122.936 Y95.001 E6.87949
G1 X122.669 Y95.462 E6.8972
G1 X122.504 Y95.969 E6.91494
G1 X122.449 Y96.5 E6.93269
G1 X122.504 Y97.031 E6.95045
G1 X122.669 Y97.538 E6.96818
G1 X122.936 Y97.999 E6.9859
G1 X123.283 Y98.385 E7.00316
G1 X123.724 Y98.709 E7.02137
G0 F3600 X123.907 Y98.789
G0 X123.705 Y99.246
G0 X122.007 Y113.5
G0 X122.266 Y114.718
G0 X123.009 Y115.732
G0 X124.024 Y116.386
G0 X124.225 Y115.93
G1 F1800 X124.746 Y116.037 E7.03906
G1 X125.28 Y116.034 E7.05682
G1 X125.8 Y115.921 E7.07452
G1 X126.286 Y115.702 E7.09225
G1 X126.708 Y115.395 E7.1096
G1 X127.064 Y114.999 E7.12731
G1 X127.331 Y114.538 E7.14503
G1 X127.496 Y114.031 E7.16277
G1 X127.551 Y113.5 E7.18052
G1 X127.496 Y112.969 E7.19828
G1 X127.331 Y112.462 E7.21601
G1 X127.063 Y112 E7.23378
G1 X126.697 Y111.597 E7.25188
G1 X126.264 Y111.285 E7.26963
G1 X125.775 Y111.07 E7.2874
G1 X125.254 Y110.963 E7.30509
G1 X124.72 Y110.966 E7.32285
G1 X124.2 Y111.079 E7.34055
G1 X123.714 Y111.298 E7.35828
G1 X123.292 Y111.605 E7.37564
G1 X122.936 Y112.001 E7.39335
G1 X122.669 Y112.462 E7.41107
G1 X122.504 Y112.969 E7.4288
G1 X122.449 Y113.5 E7.44656
G1 X122.504 Y114.031 E7.46431
G1 X122.669 Y114.538 E7.48204
G1 X122.937 Y115 E7.49981
G1 X123.303 Y115.403 E7.51792
G1 X123.736 Y115.715 E7.53567
G1 X124.225 Y115.93 E7.55343
G0 F3600 X124.421 Y115.97
G0 X124.32 Y116.459
G0 X127.487 Y131.972
G0 X127.487 Y133.028
G0 X127.057 Y133.995
G0 X126.354 Y134.641
G0 X125.326 Y135.078
G0 X125.221 Y134.59
G1 F1800 X125.651 Y134.497 E7.56807
G1 X126.052 Y134.318 E7.58267
G1 X126.405 Y134.062 E7.59717
G1 X126.7 Y133.735 E7.61182
G1 X126.92 Y133.355 E7.62643
G1 X127.055 Y132.937 E7.64104
G1 X127.101 Y132.5 E7.65565
G1 X127.055 Y132.063 E7.67027
G1 X126.92 Y131.645 E7.68488
G1 X126.7 Y131.265 E7.69948
G1 X126.404 Y130.937 E7.71418
G1 X126.049 Y130.68 E7.72875
G1 X125.648 Y130.502 E7.74334
G1 X125.219 Y130.41 E7.75794
G1 X124.779 Y130.41 E7.77257
G1 X124.349 Y130.503 E7.7872
G1 X123.948 Y130.682 E7.80181
G1 X123.595 Y130.938 E7.81631
G1 X123.3 Y131.265 E7.83096
G1 X123.08 Y131.645 E7.84557
G1 X122.945 Y132.063 E7.86018
G1 X122.899 Y132.5 E7.87479
G1 X122.945 Y132.937 E7.88941
G1 X123.08 Y133.355 E7.90402
G1 X123.3 Y133.735 E7.91862
G1 X123.596 Y134.063 E7.93331
G1 X123.951 Y134.32 E7.94789
G1 X124.352 Y134.498 E7.96248
G1 X124.78 Y134.59 E7.97704
G1 X125.221 Y134.59 E7.99171
G0 F3600 X125.416 Y134.548
G0 X125.521 Y135.036
G0 X124.216 Y134.918
G0 X123.301 Y134.391
G0 X122.676 Y133.535
G0 X122.468 Y132.601
G0 X122.621 Y131.441
G0 X122.712 Y131.481
;TYPE:WALL-INNER
G1 F1800 X122.552 Y131.98 E8.00914
G1 X122.497 Y132.5 E8.02653
G1 X122.552 Y133.02 E8.04392
G1 X122.712 Y133.519 E8.06135
G1 X122.975 Y133.972 E8.07877
G1 X123.327 Y134.362 E8.09625
G1 X123.75 Y134.669 E8.11363
G1 X124.228 Y134.88 E8.13101
G1 X124.737 Y134.99 E8.14833
G1 X125.264 Y134.99 E8.16586
G1 X125.776 Y134.879 E8.18328
G1 X126.253 Y134.666 E8.20066
G1 X126.674 Y134.361 E8.21795
G1 X127.025 Y133.972 E8.23538
G1 X127.288 Y133.519 E8.2528
G1 X127.448 Y133.02 E8.27023
G1 X127.503 Y132.5 E8.28762
G1 X127.448 Y131.98 E8.30501
G1 X127.288 Y131.481 E8.32244
G1 X127.025 Y131.028 E8.33986
G1 X126.673 Y130.638 E8.35734
G1 X126.25 Y130.331 E8.37472
G1 X125.772 Y130.12 E8.3921
G1 X125.261 Y130.01 E8.40948
G1 X124.736 Y130.01 E8.42694
G1 X124.224 Y130.121 E8.44437
G1 X123.747 Y130.334 E8.46174
G1 X123.326 Y130.639 E8.47904
G1 X122.975 Y131.028 E8.49646
G1 X122.712 Y131.481 E8.51388
G0 F3600 X122.621 Y131.441
G0 X122.532 Y115.296
G0 X122.612 Y115.237
G1 F1800 X123.035 Y115.703 E8.53482
G1 X123.536 Y116.064 E8.55536
G1 X124.103 Y116.313 E8.57595
G1 X124.706 Y116.437 E8.59643
G1 X125.324 Y116.434 E8.61698
G1 X125.926 Y116.303 E8.63747
G1 X126.488 Y116.05 E8.65797
G1 X126.977 Y115.694 E8.67809
G1 X127.389 Y115.235 E8.6986
G1 X127.698 Y114.702 E8.7191
G1 X127.889 Y114.114 E8.73966
G1 X127.953 Y113.5 E8.76019
G1 X127.889 Y112.886 E8.78072
G1 X127.698 Y112.298 E8.80129
G1 X127.388 Y111.763 E8.82185
G1 X126.965 Y111.297 E8.84278
G1 X126.464 Y110.936 E8.86332
G1 X125.897 Y110.687 E8.88392
G1 X125.294 Y110.563 E8.9044
G1 X124.676 Y110.566 E8.92495
G1 X124.074 Y110.697 E8.94544
G1 X123.512 Y110.95 E8.96594
G1 X123.023 Y111.306 E8.98606
G1 X122.611 Y111.765 E9.00657
G1 X122.302 Y112.298 E9.02706
G1 X122.111 Y112.886 E9.04763
G1 X122.047 Y113.5 E9.06816
G1 X122.111 Y114.114 E9.08869
G1 X122.302 Y114.702 E9.10925
G1 X122.612 Y115.237 E9.12982
G0 F3600 X122.532 Y115.296
G0 X122.072 Y114.122
G0 X123.472 Y99.143
G0 X123.522 Y99.057
G1 F1800 X124.103 Y99.313 E9.15094
G1 X124.706 Y99.437 E9.17141
G1 X125.324 Y99.434 E9.19197
G1 X125.926 Y99.303 E9.21246
G1 X126.488 Y99.05 E9.23296
G1 X126.977 Y98.694 E9.25308
G1 X127.389 Y98.235 E9.27359
G1 X127.698 Y97.702 E9.29408
G1 X127.889 Y97.114 E9.31464
G1 X127.953 Y96.5 E9.33518
G1 X127.889 Y95.886 E9.35571
G1 X127.698 Y95.298 E9.37627
G1 X127.388 Y94.763 E9.39684
G1 X126.965 Y94.297 E9.41777
G1 X126.464 Y93.936 E9.43831
G1 X125.897 Y93.687 E9.4589
G1 X125.294 Y93.563 E9.47938
G1 X124.676 Y93.566 E9.49994
G1 X124.074 Y93.697 E9.52043
G1 X123.512 Y93.95 E9.54093
G1 X123.023 Y94.306 E9.56104
G1 X122.611 Y94.765 E9.58156
G1 X122.302 Y95.298 E9.60205
G1 X122.111 Y95.886 E9.62261
G1 X122.047 Y96.5 E9.64314
G1 X122.111 Y97.114 E9.66368
G1 X122.302 Y97.702 E9.68424
G1 X122.611 Y98.235 E9.70473
G1 X123.013 Y98.683 E9.72475
G1 X123.522 Y99.057 E9.74576
G0 F3600 X123.472 Y99.143
G0 X124.703 Y99.476
G0 X125.938 Y99.34
G0 X127.003 Y98.723
G0 X127.597 Y97.953
G0 X134.304 Y82.867
G0 X134.4 Y82.892
G1 F1800 X134.4 Y127.108 E11.21639
G1 X134.941 Y128.048 E11.25246
G1 X135.654 Y130.224 E11.32862
G1 X135.895 Y132.491 E11.40445
G1 X135.66 Y134.758 E11.48025
G1 X134.959 Y136.921 E11.55588
G1 X133.819 Y138.899 E11.63181
G1 X132.298 Y140.59 E11.70746
G1 X130.448 Y141.936 E11.78355
G1 X128.369 Y142.863 E11.85926
G1 X126.138 Y143.337 E11.93512
G1 X123.862 Y143.337 E12.01082
G1 X121.631 Y142.863 E12.08668
G1 X119.555 Y141.938 E12.16227
G1 X117.709 Y140.596 E12.23818
G1 X116.188 Y138.907 E12.31378
G1 X115.05 Y136.94 E12.38936
G1 X114.346 Y134.777 E12.46502
G1 X114.105 Y132.508 E12.54091
G1 X114.34 Y130.238 E12.61681
G1 X115.041 Y128.077 E12.69238
G1 X115.6 Y127.108 E12.72958
G1 X115.6 Y82.892 E14.20021
G1 X115.059 Y81.952 E14.23629
G1 X114.346 Y79.776 E14.31245
G1 X114.105 Y77.508 E14.3883
G1 X114.34 Y75.238 E14.46421
G1 X115.039 Y73.081 E14.53962
G1 X116.18 Y71.102 E14.6156
G1 X117.704 Y69.408 E14.69139
G1 X119.552 Y68.064 E14.76739
G1 X121.631 Y67.137 E14.8431
G1 X123.862 Y66.663 E14.91896
G1 X126.138 Y66.663 E14.99466
G1 X128.369 Y67.137 E15.07052
G1 X130.445 Y68.062 E15.14611
G1 X132.292 Y69.404 E15.22205
G1 X133.812 Y71.092 E15.2976
G1 X134.95 Y73.06 E15.37321
G1 X135.654 Y75.221 E15.4488
G1 X135.895 Y77.491 E15.52473
G1 X135.66 Y79.762 E15.60067
G1 X134.959 Y81.923 E15.67623
G1 X134.4 Y82.892 E15.71343
G0 F3600 X134.304 Y82.867
G0 X124.216 Y79.918
G0 X123.301 Y79.391
G0 X122.676 Y78.535
G0 X122.468 Y77.601
G0 X122.621 Y76.441
G0 X122.712 Y76.481
G1 F1800 X122.552 Y76.98 E15.73086
G1 X122.497 Y77.5 E15.74826
G1 X122.552 Y78.02 E15.76565
G1 X122.712 Y78.519 E15.78308
G1 X122.975 Y78.972 E15.8005
G1 X123.327 Y79.362 E15.81797
G1 X123.75 Y79.669 E15.83536
G1 X124.228 Y79.88 E15.85273
G1 X124.739 Y79.99 E15.87012
G1 X125.264 Y79.99 E15.88758
G1 X125.776 Y79.879 E15.90501
G1 X126.253 Y79.666 E15.92238
G1 X126.674 Y79.361 E15.93967
G1 X127.025 Y78.972 E15.9571
G1 X127.288 Y78.519 E15.97452
G1 X127.448 Y78.02 E15.99195
G1 X127.503 Y77.5 E16.00934
G1 X127.448 Y76.98 E16.02673
G1 X127.288 Y76.481 E16.04416
G1 X127.025 Y76.028 E16.06158
G1 X126.673 Y75.638 E16.07906
G1 X126.25 Y75.331 E16.09644
G1 X125.772 Y75.12 E16.11382
G1 X125.261 Y75.01 E16.13121
G1 X124.736 Y75.01 E16.14867
G1 X124.224 Y75.121 E16.16609
G1 X123.747 Y75.334 E16.18347
G1 X123.326 Y75.639 E16.20076
G1 X122.975 Y76.028 E16.21818
G1 X122.712 Y76.481 E16.23561
G0 F3600 X122.353 Y76.321
;TYPE:SKIN
G1 F1800 X122.168 Y76.9 E16.25582
G1 X122.105 Y77.5 E16.27589
G1 X122.168 Y78.1 E16.29595
G1 X122.353 Y78.679 E16.31617
G1 X122.659 Y79.203 E16.33635
G1 X123.065 Y79.654 E16.35654
G1 X123.555 Y80.009 E16.37666
G1 X124.107 Y80.253 E16.39674
G1 X124.698 Y80.38 E16.41684
G1 X125.305 Y80.38 E16.43703
G1 X125.898 Y80.252 E16.45721
G1 X126.45 Y80.005 E16.47732
G1 X126.936 Y79.653 E16.49728
G1 X127.341 Y79.203 E16.51742
G1 X127.647 Y78.679 E16.5376
G1 X127.832 Y78.1 E16.55781
G1 X127.895 Y77.5 E16.57788
G1 X127.832 Y76.9 E16.59795
G1 X127.647 Y76.321 E16.61816
G1 X127.341 Y75.797 E16.63835
G1 X126.935 Y75.346 E16.65853
G1 X126.445 Y74.991 E16.67865
G1 X125.893 Y74.747 E16.69873
G1 X125.302 Y74.62 E16.71883
G1 X124.695 Y74.62 E16.73902
G1 X124.102 Y74.748 E16.7592
G1 X123.55 Y74.995 E16.77931
G1 X123.064 Y75.347 E16.79927
G1 X122.659 Y75.797 E16.81941
G1 X122.353 Y76.321 E16.83959
G0 F3600 X115.398 Y73.24
G1 F1800 X116.497 Y71.332 E16.91282
G1 X117.965 Y69.702 E16.98578
G1 X119.75 Y68.403 E17.05921
G1 X121.752 Y67.51 E17.13212
G1 X123.905 Y67.053 E17.20533
G1 X126.095 Y67.053 E17.27817
G1 X128.248 Y67.511 E17.35138
G1 X130.247 Y68.401 E17.42416
G1 X132.031 Y69.698 E17.49752
G1 X133.497 Y71.326 E17.57038
G1 X134.59 Y73.216 E17.643
G1 X135.27 Y75.303 E17.716
G1 X135.503 Y77.488 E17.78909
G1 X135.276 Y79.681 E17.86242
G1 X134.6 Y81.763 E17.93522
G1 X134.01 Y82.787 E17.97453
G1 X134.01 Y127.212 E19.45211
G1 X134.582 Y128.208 E19.49031
G1 X135.27 Y130.307 E19.56378
G1 X135.503 Y132.488 E19.63674
G1 X135.276 Y134.677 E19.70993
G1 X134.6 Y136.762 E19.78283
G1 X133.502 Y138.669 E19.85602
G1 X132.037 Y140.296 E19.92884
G1 X130.25 Y141.597 E20.00236
G1 X128.248 Y142.49 E20.07527
G1 X126.095 Y142.947 E20.14848
G1 X123.905 Y142.947 E20.22132
G1 X121.752 Y142.489 E20.29453
G1 X119.753 Y141.599 E20.36731
G1 X117.97 Y140.302 E20.44064
G1 X116.503 Y138.673 E20.51355
G1 X115.41 Y136.784 E20.58614
G1 X114.73 Y134.695 E20.65921
G1 X114.497 Y132.508 E20.73236
G1 X114.724 Y130.319 E20.80556
G1 X115.4 Y128.237 E20.87836
G1 X115.99 Y127.213 E20.91767
G1 X115.99 Y82.788 E22.39525
G1 X115.418 Y81.792 E22.43345
G1 X114.73 Y79.693 E22.50692
G1 X114.497 Y77.508 E22.58001
G1 X114.724 Y75.319 E22.6532
G1 X115.398 Y73.24 E22.72589
G0 F3600 X124.633 Y93.176
G1 F1800 X123.951 Y93.325 E22.74911
G1 X123.315 Y93.611 E22.77231
G1 X122.76 Y94.015 E22.79514
G1 X122.294 Y94.535 E22.81836
G1 X121.944 Y95.138 E22.84155
G1 X121.727 Y95.804 E22.86485
G1 X121.655 Y96.5 E22.88812
G1 X121.727 Y97.196 E22.91139
G1 X121.944 Y97.862 E22.93469
G1 X122.293 Y98.465 E22.95786
G1 X122.75 Y98.974 E22.98062
G1 X123.325 Y99.396 E23.00434
G1 X123.984 Y99.687 E23.0283
G1 X124.667 Y99.827 E23.05149
G1 X125.367 Y99.824 E23.07477
G1 X126.049 Y99.675 E23.09799
G1 X126.685 Y99.389 E23.12118
G1 X127.24 Y98.985 E23.14401
G1 X127.706 Y98.465 E23.16724
G1 X128.056 Y97.862 E23.19043
G1 X128.273 Y97.196 E23.21373
G1 X128.345 Y96.5 E23.237
G1 X128.273 Y95.804 E23.26027
G1 X128.056 Y95.138 E23.28357
G1 X127.704 Y94.531 E23.30691
G1 X127.226 Y94.005 E23.33055
G1 X126.659 Y93.595 E23.35382
G1 X126.016 Y93.313 E23.37717
G1 X125.333 Y93.173 E23.40036
G1 X124.633 Y93.176 E23.42364
G0 F3600 X122.997 Y94.277
G0 X122.266 Y95.282
G0 X122.007 Y96.5
G0 X124.633 Y110.176
G1 F1800 X123.951 Y110.325 E23.44686
G1 X123.315 Y110.611 E23.47005
G1 X122.76 Y111.015 E23.49289
G1 X122.294 Y111.535 E23.51611
G1 X121.944 Y112.138 E23.5393
G1 X121.727 Y112.804 E23.5626
G1 X121.655 Y113.5 E23.58587
G1 X121.727 Y114.196 E23.60914
G1 X121.944 Y114.862 E23.63244
G1 X122.296 Y115.469 E23.65578
G1 X122.774 Y115.995 E23.67942
G1 X123.341 Y116.405 E23.70269
G1 X123.984 Y116.687 E23.72604
G1 X124.667 Y116.827 E23.74923
G1 X125.367 Y116.824 E23.77251
G1 X126.049 Y116.675 E23.79573
G1 X126.685 Y116.389 E23.81893
G1 X127.24 Y115.985 E23.84176
G1 X127.706 Y115.465 E23.86498
G1 X128.056 Y114.862 E23.88817
G1 X128.273 Y114.196 E23.91147
G1 X128.345 Y113.5 E23.93474
G1 X128.273 Y112.804 E23.95801
G1 X128.056 Y112.138 E23.98131
G1 X127.704 Y111.531 E24.00465
G1 X127.226 Y111.005 E24.02829
G1 X126.659 Y110.595 E24.05156
G1 X126.016 Y110.313 E24.07491
G1 X125.333 Y110.173 E24.0981
G1 X124.633 Y110.176 E24.12138
G0 F3600 X122.997 Y111.277
G0 X122.266 Y112.282
G0 X122.007 Y113.5
G0 X124.695 Y129.62
G1 F1800 X124.102 Y129.748 E24.14156
