;FLAVOR:Marlin
;TIME:3160
;Filament used: 2.50737m
;Layer height: 0.15
;MINX:106.326
;MINY:86.428
;MINZ:0.2
;MAXX:143.674
;MAXY:123.572
;MAXZ:23.9
;Generated with Cura_SteamEngine 4.4.0
M82 ;absolute extrusion mode
G21 ; set units to millimeters
G90 ; use absolute positioning
M82 ; absolute extrusion mode
M104 S200 ; set extruder temp
M140 S60 ; set bed temp
M190 S60 ; wait for bed temp
M109 S200 ; wait for extruder temp
G28 W ; home all without mesh bed level
G80 ; mesh bed leveling
G92 E0.0 ; reset extruder distance position
G1 Y-3.0 F1000.0 ; go outside print area
G1 X60.0 E9.0 F1000.0 ; intro line
G1 X100.0 E21.5 F1000.0 ; intro line
G92 E0.0 ; reset extruder distance position
G92 E0
G92 E0
G1 F2100 E-0.8
;LAYER_COUNT:159
;LAYER:0
M107
;MESH:r_coneshaper.stl
G0 F3600 X129.929 Y96.462 Z0.2
;TYPE:WALL-OUTER
G1 F2100 E0
G1 F1800 X131.597 Y97.674 E0.06858
G1 X132.96 Y99.188 E0.13633
G1 X134.006 Y100.99 E0.20563
G1 X134.643 Y102.949 E0.27415
G1 X134.856 Y104.973 E0.34184
G1 X134.643 Y107.051 E0.41131
G1 X134.015 Y108.982 E0.47885
G1 X132.988 Y110.775 E0.54758
G1 X131.6 Y112.324 E0.61675
G1 X129.948 Y113.525 E0.68469
G1 X128.074 Y114.366 E0.753
G1 X126.029 Y114.805 E0.82257
G1 X123.971 Y114.805 E0.89102
G1 X121.978 Y114.382 E0.95878
G1 X120.071 Y113.538 E1.02814
G1 X118.403 Y112.326 E1.09672
G1 X117.04 Y110.812 E1.16448
G1 X115.994 Y109.01 E1.23378
G1 X115.357 Y107.051 E1.30229
G1 X115.144 Y105.026 E1.37002
G1 X115.357 Y102.949 E1.43946
G1 X115.985 Y101.018 E1.507
G1 X117.012 Y99.225 E1.57572
G1 X118.4 Y97.676 E1.6449
G1 X120.052 Y96.475 E1.71283
G1 X121.926 Y95.634 E1.78115
G1 X123.971 Y95.195 E1.85071
G1 X126.029 Y95.195 E1.91916
G1 X128.022 Y95.618 E1.98693
G1 X129.929 Y96.462 E2.05629
G0 F3600 X130.09 Y96.579
G0 X129.796 Y96.982
G0 X128.796 Y105.849
G0 X128.536 Y106.62
G0 X128.123 Y107.316
G0 X126.947 Y108.371
G0 X126.202 Y108.703
G0 X125.407 Y108.871
G0 X124.593 Y108.871
G0 X123.071 Y108.445
G0 X123.274 Y107.989
G1 F1800 X123.934 Y108.282 E2.08031
G1 X124.639 Y108.432 E2.10428
G1 X125.361 Y108.432 E2.12829
G1 X126.066 Y108.282 E2.15227
G1 X126.726 Y107.989 E2.17629
G1 X127.31 Y107.564 E2.20031
G1 X127.767 Y107.055 E2.22306
G1 X128.134 Y106.436 E2.24699
G1 X128.364 Y105.753 E2.27096
G1 X128.446 Y105.037 E2.29493
G1 X128.381 Y104.32 E2.31888
G1 X128.164 Y103.631 E2.34291
G1 X127.811 Y103.004 E2.36684
G1 X127.335 Y102.463 E2.3908
G1 X126.726 Y102.011 E2.41603
G1 X126.066 Y101.718 E2.44005
G1 X125.361 Y101.568 E2.46402
G1 X124.639 Y101.568 E2.48803
G1 X123.934 Y101.718 E2.51201
G1 X123.274 Y102.011 E2.53603
G1 X122.69 Y102.436 E2.56005
G1 X122.233 Y102.945 E2.5828
G1 X121.866 Y103.564 E2.60673
G1 X121.636 Y104.247 E2.6307
G1 X121.554 Y104.963 E2.65467
G1 X121.619 Y105.68 E2.67862
G1 X121.836 Y106.369 E2.70265
G1 X122.189 Y106.996 E2.72658
G1 X122.665 Y107.537 E2.75054
G1 X123.274 Y107.989 E2.77577
G0 F3600 X123.456 Y108.07
G0 X123.071 Y108.337
;TYPE:WALL-INNER
G1 F1800 X123.81 Y108.665 E2.80266
G1 X124.597 Y108.832 E2.82942
G1 X125.403 Y108.832 E2.85623
G1 X126.19 Y108.665 E2.88299
G1 X126.927 Y108.337 E2.90982
G1 X127.579 Y107.863 E2.93663
G1 X128.091 Y107.293 E2.96211
G1 X128.5 Y106.604 E2.98876
G1 X128.757 Y105.841 E3.01554
G1 X128.848 Y105.042 E3.04229
G1 X128.775 Y104.241 E3.06904
G1 X128.533 Y103.471 E3.09588
G1 X128.139 Y102.771 E3.1226
G1 X127.607 Y102.167 E3.14937
G1 X126.929 Y101.663 E3.17747
G1 X126.19 Y101.335 E3.20436
G1 X125.403 Y101.168 E3.23112
G1 X124.597 Y101.168 E3.25793
G1 X123.81 Y101.335 E3.28468
G1 X123.073 Y101.663 E3.31152
G1 X122.421 Y102.137 E3.33833
G1 X121.909 Y102.707 E3.36381
G1 X121.5 Y103.396 E3.39046
G1 X121.243 Y104.159 E3.41724
G1 X121.152 Y104.958 E3.44398
G1 X121.225 Y105.759 E3.47074
G1 X121.467 Y106.529 E3.49758
G1 X121.861 Y107.229 E3.5243
G1 X122.393 Y107.833 E3.55107
G1 X123.071 Y108.337 E3.57917
G0 F3600 X123.021 Y108.423
G0 X122.366 Y107.862
G0 X121.829 Y107.252
G0 X121.431 Y106.544
G0 X121.186 Y105.766
G0 X121.113 Y104.958
G0 X121.204 Y104.151
G0 X121.464 Y103.38
G0 X121.877 Y102.684
G0 X129.679 Y96.897
G0 X129.728 Y96.811
G1 F1800 X131.329 Y97.974 E3.64498
G1 X132.635 Y99.424 E3.70989
G1 X133.64 Y101.156 E3.77649
G1 X134.249 Y103.03 E3.84203
G1 X134.454 Y104.973 E3.90701
G1 X134.249 Y106.97 E3.97378
G1 X133.648 Y108.818 E4.03842
G1 X132.662 Y110.539 E4.10438
G1 X131.331 Y112.025 E4.17074
G1 X129.746 Y113.177 E4.23591
G1 X127.948 Y113.984 E4.30146
G1 X125.987 Y114.405 E4.36817
G1 X124.012 Y114.405 E4.43385
G1 X122.104 Y114 E4.49873
G1 X120.272 Y113.189 E4.56536
G1 X118.671 Y112.026 E4.63118
G1 X117.365 Y110.576 E4.69609
G1 X116.36 Y108.844 E4.76269
G1 X115.751 Y106.97 E4.82823
G1 X115.546 Y105.025 E4.89328
G1 X115.751 Y103.03 E4.95998
G1 X116.352 Y101.182 E5.02461
G1 X117.338 Y99.461 E5.09058
G1 X118.669 Y97.975 E5.15693
G1 X120.254 Y96.823 E5.2221
G1 X122.052 Y96.016 E5.28765
G1 X124.013 Y95.595 E5.35436
G1 X125.988 Y95.595 E5.42005
G1 X127.896 Y96 E5.48493
G1 X129.728 Y96.811 E5.55156
G0 F3600 X129.53 Y97.151
;TYPE:SKIN
G1 F1800 X131.068 Y98.268 E5.61478
G1 X132.321 Y99.658 E5.67703
G1 X133.28 Y101.312 E5.74062
G1 X133.865 Y103.112 E5.80357
G1 X134.062 Y104.973 E5.86581
G1 X133.865 Y106.887 E5.92981
G1 X133.289 Y108.66 E5.99181
G1 X132.345 Y110.309 E6.05501
G1 X131.07 Y111.731 E6.11853
G1 X129.543 Y112.841 E6.18132
G1 X127.832 Y113.61 E6.24371
G1 X125.943 Y114.015 E6.30797
G1 X124.055 Y114.015 E6.37076
G1 X122.225 Y113.626 E6.43299
G1 X120.47 Y112.849 E6.49683
G1 X118.932 Y111.732 E6.56005
G1 X117.679 Y110.342 E6.62229
G1 X116.72 Y108.688 E6.68588
G1 X116.135 Y106.888 E6.74883
G1 X115.938 Y105.023 E6.81121
G1 X116.135 Y103.113 E6.87507
G1 X116.711 Y101.34 E6.93707
G1 X117.655 Y99.691 E7.00027
G1 X118.93 Y98.269 E7.06379
G1 X120.457 Y97.159 E7.12658
G1 X122.168 Y96.39 E7.18898
G1 X124.057 Y95.985 E7.25323
G1 X125.945 Y95.985 E7.31603
G1 X127.775 Y96.374 E7.37825
G1 X129.53 Y97.151 E7.44209
G0 F3600 X127.126 Y101.324
G1 F1800 X126.311 Y100.962 E7.47175
G1 X125.444 Y100.778 E7.50123
G1 X124.556 Y100.778 E7.53076
G1 X123.689 Y100.962 E7.56024
G1 X122.876 Y101.324 E7.58984
G1 X122.158 Y101.846 E7.61937
G1 X121.593 Y102.475 E7.64749
G1 X121.143 Y103.232 E7.67678
G1 X120.861 Y104.073 E7.70628
G1 X120.76 Y104.954 E7.73578
G1 X120.841 Y105.836 E7.76523
G1 X121.107 Y106.685 E7.79483
G1 X121.541 Y107.456 E7.82425
G1 X122.128 Y108.122 E7.85378
G1 X122.874 Y108.676 E7.88469
G1 X123.689 Y109.038 E7.91435
G1 X124.556 Y109.222 E7.94383
G1 X125.444 Y109.222 E7.97336
G1 X126.311 Y109.038 E8.00284
G1 X127.124 Y108.676 E8.03244
G1 X127.842 Y108.154 E8.06196
G1 X128.407 Y107.525 E8.09009
G1 X128.857 Y106.768 E8.11938
G1 X129.139 Y105.927 E8.14888
G1 X129.24 Y105.046 E8.17837
G1 X129.159 Y104.164 E8.20783
G1 X128.893 Y103.315 E8.23742
G1 X128.459 Y102.544 E8.26685
G1 X127.872 Y101.878 E8.29638
G1 X127.126 Y101.324 E8.32728
G0 F3600 X129.855 Y97.611
G1 F1800 X132.402 Y100.158 E8.44709
G1 X132.472 Y100.228
G0 F3600 X133.137 Y101.459
G1 F1800 X128.627 Y96.949 E8.65922
G1 X128.557 Y96.879
G0 F3600 X127.644 Y96.531
G1 F1800 X133.41 Y102.297 E8.93044
G1 X133.48 Y102.367
G0 F3600 X133.684 Y103.137
G1 F1800 X126.925 Y96.378 E9.24836
G0 F3600 X126.207 Y96.225
G1 F1800 X133.754 Y103.772 E9.60335
G0 F3600 X133.82 Y104.405
G1 F1800 X125.58 Y96.165 E9.99093
G0 F3600 X125.015 Y96.165
G1 F1800 X133.875 Y105.025 E10.40768
G0 F3600 X133.822 Y105.538
G1 F1800 X124.449 Y96.165 E10.84856
G0 F3600 X123.918 Y96.199
G1 F1800 X133.77 Y106.051 E11.31196
G0 F3600 X133.717 Y106.564
G1 F1800 X123.452 Y96.299 E11.7948
G0 F3600 X122.986 Y96.399
G1 F1800 X133.626 Y107.039 E12.29527
G0 F3600 X133.487 Y107.466
G1 F1800 X128.793 Y102.772 E12.51606
G1 X128.723 Y102.702
G0 F3600 X129.222 Y103.766
G1 F1800 X133.349 Y107.893 E12.71018
G0 F3600 X133.21 Y108.32
G1 F1800 X129.367 Y104.477 E12.89095
G0 F3600 X129.414 Y105.09
G1 F1800 X133.045 Y108.721 E13.06174
G0 F3600 X132.839 Y109.081
G1 F1800 X129.356 Y105.597 E13.22559
G0 F3600 X129.275 Y106.082
G1 F1800 X132.634 Y109.441 E13.38359
G0 F3600 X132.427 Y109.8
G1 F1800 X129.133 Y106.505 E13.53855
G0 F3600 X128.977 Y106.915
G1 F1800 X132.221 Y110.16 E13.69116
G0 F3600 X131.961 Y110.465
G1 F1800 X128.766 Y107.27 E13.84145
G0 F3600 X128.556 Y107.625
G1 F1800 X131.694 Y110.764 E13.98907
G0 F3600 X131.426 Y111.061
G1 F1800 X128.289 Y107.925 E14.1366
G0 F3600 X128.021 Y108.222
G1 F1800 X131.159 Y111.36 E14.2842
G0 F3600 X130.878 Y111.645
G1 F1800 X127.707 Y108.474 E14.43336
G0 F3600 X127.38 Y108.712
G1 F1800 X130.551 Y111.883 E14.58251
G0 F3600 X130.223 Y112.121
G1 F1800 X127.021 Y108.919 E14.73313
G0 F3600 X126.629 Y109.093
G1 F1800 X129.896 Y112.359 E14.88677
G0 F3600 X129.568 Y112.598
G1 F1800 X126.212 Y109.242 E15.04463
G0 F3600 X125.746 Y109.342
G1 F1800 X129.201 Y112.796 E15.20712
G0 F3600 X128.811 Y112.972
G1 F1800 X125.241 Y109.402 E15.37504
G0 F3600 X124.675 Y109.402
G1 F1800 X128.421 Y113.147 E15.55121
G0 F3600 X128.03 Y113.323
G1 F1800 X123.994 Y109.286 E15.74108
G1 X123.924 Y109.216
G0 F3600 X123.129 Y108.987
G1 F1800 X127.613 Y113.471 E15.95199
G0 F3600 X127.147 Y113.571
G1 F1800 X116.412 Y102.835 E16.45696
G0 F3600 X116.551 Y102.409
G1 F1800 X120.991 Y106.849 E16.6658
G1 X121.061 Y106.919
G0 F3600 X120.701 Y105.993
G1 F1800 X116.69 Y101.982 E16.85447
G0 F3600 X116.829 Y101.556
G1 F1800 X120.614 Y105.34 E17.03248
G0 F3600 X120.6 Y104.761
G1 F1800 X117.013 Y101.174 E17.2012
G0 F3600 X117.219 Y100.814
G1 F1800 X120.659 Y104.254 E17.36301
G0 F3600 X120.764 Y103.794
G1 F1800 X117.424 Y100.454 E17.52011
G0 F3600 X117.63 Y100.094
G1 F1800 X120.906 Y103.369 E17.67418
G0 F3600 X121.082 Y102.98
G1 F1800 X117.847 Y99.745 E17.82634
G0 F3600 X118.115 Y99.447
G1 F1800 X121.293 Y102.625 E17.97583
G0 F3600 X121.519 Y102.286
G1 F1800 X118.382 Y99.149 E18.12338
G0 F3600 X118.649 Y98.85
G1 F1800 X121.787 Y101.988 E18.27098
G0 F3600 X122.058 Y101.693
G1 F1800 X118.916 Y98.552 E18.41875
G0 F3600 X119.215 Y98.285
G1 F1800 X122.386 Y101.456 E18.56791
G0 F3600 X122.714 Y101.218
G1 F1800 X119.542 Y98.046 E18.71711
G0 F3600 X119.87 Y97.808
G1 F1800 X123.091 Y101.03 E18.86864
G0 F3600 X123.483 Y100.856
G1 F1800 X120.197 Y97.57 E19.0232
G0 F3600 X120.525 Y97.332
G1 F1800 X123.921 Y100.728 E19.18294
G0 F3600 X124.387 Y100.629
G1 F1800 X120.911 Y97.152 E19.34646
G0 F3600 X121.301 Y96.976
G1 F1800 X124.922 Y100.597 E19.51678
G0 F3600 X125.495 Y100.605
G1 F1800 X121.691 Y96.801 E19.69571
G0 F3600 X122.081 Y96.626
G1 F1800 X126.213 Y100.757 E19.89004
G1 X126.283 Y100.827
G0 F3600 X127.166 Y101.145
G1 F1800 X122.52 Y96.498 E20.1086
G1 X122.45 Y96.428
G0 F3600 X116.297 Y103.286
G1 F1800 X126.682 Y113.671 E20.59708
G0 F3600 X126.216 Y113.771
G1 F1800 X116.244 Y103.799 E21.06613
G0 F3600 X116.191 Y104.312
G1 F1800 X125.714 Y113.834 E21.51404
G0 F3600 X125.148 Y113.834
G1 F1800 X116.138 Y104.825 E21.93782
G0 F3600 X116.159 Y105.411
G1 F1800 X124.583 Y113.834 E22.33403
G0 F3600 X124.001 Y113.818
G1 F1800 X116.225 Y106.043 E22.69977
G0 F3600 X116.292 Y106.675
G1 F1800 X123.282 Y113.666 E23.02858
G0 F3600 X122.564 Y113.513
G1 F1800 X116.508 Y107.457 E23.31344
G1 X116.438 Y107.387
G0 F3600 X116.782 Y108.296
G1 F1800 X121.666 Y113.181 E23.54319
G1 X121.736 Y113.251
G0 F3600 X120.652 Y112.732
G1 F1800 X117.369 Y109.45 E23.69759
M104 S200
G1 X117.299 Y109.38
;MESH:NONMESH
G0 F600 X117.299 Y109.38 Z0.35
G0 F3600 X121.877 Y102.684
G0 X129.579 Y97.071
;TIME_ELAPSED:33.459385
;LAYER:1
M140 S60
M106 S255
;TYPE:WALL-INNER
;MESH:r_coneshaper.stl
G1 F3300 X131.13 Y98.197 E23.7454
G1 X132.364 Y99.567 E23.79139
G1 X133.368 Y101.28 E23.84092
G1 X133.956 Y103.089 E23.88837
G1 X134.151 Y104.927 E23.93448
G1 X133.956 Y106.911 E23.98421
G1 X133.39 Y108.654 E24.02992
G1 X132.444 Y110.324 E24.0778
G1 X131.125 Y111.807 E24.12731
G1 X129.628 Y112.894 E24.17346
G1 X127.894 Y113.681 E24.22096
G1 X125.953 Y114.108 E24.27054
G1 X124.042 Y114.108 E24.31821
G1 X122.241 Y113.725 E24.36414
G1 X120.421 Y112.929 E24.41369
G1 X118.87 Y111.803 E24.4615
G1 X117.636 Y110.433 E24.50749
G1 X116.632 Y108.72 E24.55702
G1 X116.044 Y106.911 E24.60447
G1 X115.849 Y105.066 E24.65075
G1 X116.044 Y103.089 E24.70031
G1 X116.61 Y101.346 E24.74602
G1 X117.556 Y99.676 E24.7939
G1 X118.875 Y98.193 E24.84341
G1 X120.372 Y97.106 E24.88956
G1 X122.106 Y96.319 E24.93706
G1 X124.047 Y95.892 E24.98664
G1 X125.958 Y95.892 E25.03431
G1 X127.759 Y96.275 E25.08024
G1 X129.579 Y97.071 E25.12979
G0 F5400 X122.395 Y102.108
G0 X121.499 Y103.318
G0 X121.227 Y104.083
G0 X121.119 Y104.887
G0 X121.177 Y105.697
G0 X121.407 Y106.477
G0 X122.86 Y108.68
G1 F3300 X123.686 Y109.048 E25.15235
G1 X124.555 Y109.232 E25.1745
G1 X125.445 Y109.232 E25.19671
G1 X126.314 Y109.048 E25.21886
G1 X127.128 Y108.685 E25.2411
G1 X127.848 Y108.162 E25.2633
G1 X128.371 Y107.581 E25.2828
G1 X128.828 Y106.839 E25.30453
G1 X129.126 Y106.003 E25.32667
G1 X129.244 Y105.124 E25.3488
G1 X129.18 Y104.238 E25.37096
G1 X128.929 Y103.385 E25.39314
G1 X128.507 Y102.605 E25.41526
G1 X127.931 Y101.927 E25.43745
G1 X127.14 Y101.32 E25.46232
G1 X126.314 Y100.952 E25.48488
G1 X125.445 Y100.768 E25.50704
G1 X124.555 Y100.768 E25.52924
G1 X123.686 Y100.952 E25.5514
G1 X122.872 Y101.315 E25.57363
G1 X122.152 Y101.838 E25.59583
G1 X121.629 Y102.419 E25.61533
G1 X121.172 Y103.161 E25.63707
G1 X120.874 Y103.997 E25.65921
G1 X120.756 Y104.876 E25.68133
G1 X120.82 Y105.762 E25.70349
G1 X121.071 Y106.615 E25.72567
G1 X121.493 Y107.395 E25.74779
G1 X122.069 Y108.073 E25.76998
G1 X122.86 Y108.68 E25.79485
G0 F5400 X123.066 Y108.334
G1 F3300 X123.81 Y108.665 E25.81517
G1 X124.597 Y108.832 E25.83524
G1 X125.403 Y108.832 E25.85534
G1 X126.19 Y108.665 E25.87541
G1 X126.927 Y108.337 E25.89553
G1 X127.579 Y107.863 E25.91564
G1 X128.049 Y107.34 E25.93318
G1 X128.465 Y106.665 E25.95296
G1 X128.735 Y105.908 E25.97301
G1 X128.842 Y105.112 E25.99304
G1 X128.784 Y104.31 E26.0131
G1 X128.557 Y103.538 E26.03318
G1 X128.175 Y102.832 E26.0532
G1 X127.654 Y102.218 E26.07329
G1 X126.934 Y101.666 E26.09592
G1 X126.19 Y101.335 E26.11623
G1 X125.403 Y101.168 E26.1363
G1 X124.597 Y101.168 E26.15641
G1 X123.81 Y101.335 E26.17647
G1 X123.073 Y101.663 E26.1966
G1 X122.421 Y102.137 E26.21671
G1 X121.951 Y102.66 E26.23425
G1 X121.535 Y103.335 E26.25402
G1 X121.265 Y104.092 E26.27407
G1 X121.158 Y104.888 E26.29411
G1 X121.216 Y105.69 E26.31417
G1 X121.443 Y106.462 E26.33424
G1 X121.825 Y107.168 E26.35426
G1 X122.346 Y107.782 E26.37435
G1 X123.066 Y108.334 E26.39698
G0 F5400 X123.015 Y108.419
G0 X122.319 Y107.81
G0 X121.792 Y107.19
G0 X121.407 Y106.477
G0 X121.177 Y105.697
G0 X121.119 Y104.887
G0 X121.227 Y104.083
G0 X121.499 Y103.318
G0 X121.919 Y102.637
G0 X129.73 Y96.807
G0 X129.779 Y96.721
G1 F3300 X131.398 Y97.897 E26.4469
G1 X132.688 Y99.329 E26.49498
G1 X133.735 Y101.115 E26.54662
G1 X134.35 Y103.008 E26.59627
G1 X134.553 Y104.927 E26.64441
G1 X134.35 Y106.992 E26.69617
G1 X133.757 Y108.817 E26.74403
G1 X132.77 Y110.559 E26.79398
G1 X131.395 Y112.106 E26.84561
G1 X129.833 Y113.24 E26.89376
G1 X128.018 Y114.064 E26.94348
G1 X125.998 Y114.508 E26.99507
G1 X124.001 Y114.508 E27.04489
G1 X122.115 Y114.107 E27.09299
G1 X120.221 Y113.279 E27.14455
G1 X118.602 Y112.103 E27.19447
G1 X117.312 Y110.671 E27.24254
G1 X116.265 Y108.885 E27.29419
G1 X115.65 Y106.992 E27.34384
G1 X115.447 Y105.069 E27.39207
G1 X115.65 Y103.008 E27.44373
G1 X116.243 Y101.183 E27.4916
G1 X117.23 Y99.441 E27.54155
G1 X118.605 Y97.894 E27.59318
G1 X120.167 Y96.76 E27.64133
G1 X121.982 Y95.936 E27.69105
G1 X124.002 Y95.492 E27.74264
G1 X125.999 Y95.492 E27.79246
G1 X127.885 Y95.893 E27.84056
G1 X129.779 Y96.721 E27.89212
G0 F5400 X129.979 Y96.371
;TYPE:WALL-OUTER
G1 F2100 X131.666 Y97.597 E27.94414
G1 X133.012 Y99.091 E27.9943
G1 X134.102 Y100.95 E28.04806
G1 X134.744 Y102.927 E28.09991
G1 X134.955 Y104.927 E28.15008
G1 X134.744 Y107.073 E28.20387
G1 X134.124 Y108.98 E28.25389
G1 X133.096 Y110.794 E28.3059
G1 X131.665 Y112.404 E28.35963
G1 X130.038 Y113.586 E28.4098
G1 X128.142 Y114.447 E28.46174
G1 X126.043 Y114.908 E28.51535
G1 X123.96 Y114.908 E28.56731
G1 X121.989 Y114.489 E28.61758
G1 X120.021 Y113.629 E28.67115
G1 X118.334 Y112.403 E28.72317
