;FLAVOR:Marlin
;TIME:3168
;Filament used: 2.5145m
;Layer height: 0.15
;MINX:106.326
;MINY:86.428
;MINZ:0.2
;MAXX:143.674
;MAXY:123.572
;MAXZ:23.9
;Generated with Cura_SteamEngine 4.4.0
M82 ;absolute extrusion mode
G21 ; set units to millimeters
G90 ; use absolute positioning
M82 ; absolute extrusion mode
M104 S200 ; set extruder temp
M140 S60 ; set bed temp
M190 S60 ; wait for bed temp
M109 S200 ; wait for extruder temp
G28 W ; home all without mesh bed level
G80 ; mesh bed leveling
G92 E0.0 ; reset extruder distance position
G1 Y-3.0 F1000.0 ; go outside print area
G1 X60.0 E9.0 F1000.0 ; intro line
G1 X100.0 E21.5 F1000.0 ; intro line
G92 E0.0 ; reset extruder distance position
G92 E0
G92 E0
G1 F2100 E-0.8
;LAYER_COUNT:159
;LAYER:0
M107
;MESH:coneshaper.stl
G0 F3600 X129.929 Y96.462 Z0.2
;TYPE:WALL-OUTER
G1 F2100 E0
G1 F1800 X131.597 Y97.674 E0.06858
G1 X132.96 Y99.188 E0.13633
G1 X134.006 Y100.99 E0.20563
G1 X134.643 Y102.949 E0.27415
G1 X134.856 Y104.973 E0.34184
G1 X134.643 Y107.051 E0.41131
G1 X134.015 Y108.982 E0.47885
G1 X132.988 Y110.775 E0.54758
G1 X131.6 Y112.324 E0.61675
G1 X129.948 Y113.525 E0.68469
G1 X128.074 Y114.366 E0.753
G1 X126.029 Y114.805 E0.82257
G1 X123.971 Y114.805 E0.89102
G1 X121.978 Y114.382 E0.95878
G1 X120.071 Y113.538 E1.02814
G1 X118.403 Y112.326 E1.09672
G1 X117.04 Y110.812 E1.16448
G1 X115.994 Y109.01 E1.23378
G1 X115.357 Y107.051 E1.30229
G1 X115.144 Y105.026 E1.37002
G1 X115.357 Y102.949 E1.43946
G1 X115.985 Y101.018 E1.507
G1 X117.012 Y99.225 E1.57572
G1 X118.4 Y97.676 E1.6449
G1 X120.052 Y96.475 E1.71283
G1 X121.926 Y95.634 E1.78115
G1 X123.971 Y95.195 E1.85071
G1 X126.029 Y95.195 E1.91916
G1 X128.022 Y95.618 E1.98693
G1 X129.929 Y96.462 E2.05629
G0 F3600 X130.09 Y96.579
G0 X129.796 Y96.982
G0 X122.73 Y102.479
G0 X121.918 Y103.588
G0 X121.612 Y104.963
G0 X121.888 Y106.346
G0 X122.368 Y107.112
G0 X123.226 Y107.957
G0 X123.524 Y107.556
G1 F1800 X124.088 Y107.806 E2.07681
G1 X124.692 Y107.935 E2.09735
G1 X125.308 Y107.935 E2.11784
G1 X125.912 Y107.806 E2.13838
G1 X126.475 Y107.556 E2.15887
G1 X126.975 Y107.193 E2.17942
G1 X127.367 Y106.757 E2.19892
G1 X127.68 Y106.229 E2.21934
G1 X127.876 Y105.644 E2.23986
G1 X127.947 Y105.032 E2.26035
G1 X127.891 Y104.419 E2.28082
G1 X127.707 Y103.829 E2.30138
G1 X127.404 Y103.294 E2.32183
G1 X126.996 Y102.83 E2.34238
G1 X126.476 Y102.444 E2.36392
G1 X125.912 Y102.194 E2.38444
G1 X125.308 Y102.065 E2.40498
G1 X124.692 Y102.065 E2.42547
G1 X124.088 Y102.194 E2.44601
G1 X123.525 Y102.444 E2.4665
G1 X123.025 Y102.807 E2.48705
G1 X122.633 Y103.243 E2.50655
G1 X122.32 Y103.771 E2.52696
G1 X122.124 Y104.356 E2.54748
G1 X122.053 Y104.968 E2.56798
G1 X122.109 Y105.581 E2.58845
G1 X122.293 Y106.171 E2.609
G1 X122.596 Y106.706 E2.62945
G1 X123.004 Y107.17 E2.65
G1 X123.524 Y107.556 E2.67154
G0 F3600 X123.707 Y107.637
G0 X123.321 Y107.904
;TYPE:WALL-INNER
G1 F1800 X123.964 Y108.189 E2.69494
G1 X124.65 Y108.335 E2.71826
G1 X125.35 Y108.335 E2.74155
G1 X126.036 Y108.188 E2.76488
G1 X126.676 Y107.904 E2.78817
G1 X127.244 Y107.492 E2.81151
G1 X127.691 Y106.995 E2.83374
G1 X128.046 Y106.396 E2.8569
G1 X128.269 Y105.732 E2.8802
G1 X128.349 Y105.037 E2.90346
G1 X128.285 Y104.34 E2.92674
G1 X128.076 Y103.669 E2.95012
G1 X127.732 Y103.061 E2.97335
G1 X127.268 Y102.534 E2.99671
G1 X126.679 Y102.096 E3.02112
G1 X126.036 Y101.811 E3.04451
G1 X125.35 Y101.665 E3.06784
G1 X124.65 Y101.665 E3.09112
G1 X123.964 Y101.812 E3.11446
G1 X123.324 Y102.096 E3.13775
G1 X122.756 Y102.508 E3.16108
G1 X122.309 Y103.005 E3.18332
G1 X121.954 Y103.604 E3.20648
G1 X121.731 Y104.268 E3.22977
G1 X121.651 Y104.963 E3.25304
G1 X121.715 Y105.66 E3.27632
G1 X121.924 Y106.331 E3.2997
G1 X122.268 Y106.939 E3.32293
G1 X122.732 Y107.466 E3.34628
G1 X123.321 Y107.904 E3.3707
G0 F3600 X123.271 Y107.99
G0 X122.236 Y106.962
G0 X121.676 Y105.667
G0 X121.692 Y104.26
G0 X122.277 Y102.982
G0 X129.679 Y96.897
G0 X129.728 Y96.811
G1 F1800 X131.329 Y97.974 E3.43651
G1 X132.635 Y99.424 E3.50142
G1 X133.64 Y101.156 E3.56802
G1 X134.249 Y103.03 E3.63356
G1 X134.454 Y104.973 E3.69854
G1 X134.249 Y106.97 E3.76531
G1 X133.648 Y108.818 E3.82995
G1 X132.662 Y110.539 E3.89591
G1 X131.331 Y112.025 E3.96227
G1 X129.746 Y113.177 E4.02744
G1 X127.948 Y113.984 E4.09299
G1 X125.987 Y114.405 E4.1597
G1 X124.012 Y114.405 E4.22538
G1 X122.104 Y114 E4.29026
G1 X120.272 Y113.189 E4.35689
G1 X118.671 Y112.026 E4.42271
G1 X117.365 Y110.576 E4.48762
G1 X116.36 Y108.844 E4.55422
G1 X115.751 Y106.97 E4.61976
G1 X115.546 Y105.025 E4.68481
G1 X115.751 Y103.03 E4.75151
G1 X116.352 Y101.182 E4.81614
G1 X117.338 Y99.461 E4.88211
G1 X118.669 Y97.975 E4.94846
G1 X120.254 Y96.823 E5.01363
G1 X122.052 Y96.016 E5.07918
G1 X124.013 Y95.595 E5.14589
G1 X125.988 Y95.595 E5.21158
G1 X127.896 Y96 E5.27646
G1 X129.728 Y96.811 E5.34309
G0 F3600 X129.53 Y97.151
;TYPE:SKIN
G1 F1800 X131.068 Y98.268 E5.40631
G1 X132.321 Y99.658 E5.46856
G1 X133.28 Y101.312 E5.53215
G1 X133.865 Y103.112 E5.5951
G1 X134.062 Y104.973 E5.65734
G1 X133.865 Y106.887 E5.72134
G1 X133.289 Y108.66 E5.78334
G1 X132.345 Y110.309 E5.84654
G1 X131.07 Y111.731 E5.91006
G1 X129.543 Y112.841 E5.97285
G1 X127.832 Y113.61 E6.03524
G1 X125.943 Y114.015 E6.0995
G1 X124.055 Y114.015 E6.16229
G1 X122.225 Y113.626 E6.22452
G1 X120.47 Y112.849 E6.28836
G1 X118.932 Y111.732 E6.35158
G1 X117.679 Y110.342 E6.41382
G1 X116.72 Y108.688 E6.47741
G1 X116.135 Y106.888 E6.54036
G1 X115.938 Y105.023 E6.60274
G1 X116.135 Y103.113 E6.6666
G1 X116.711 Y101.34 E6.7286
G1 X117.655 Y99.691 E6.7918
G1 X118.93 Y98.269 E6.85532
G1 X120.457 Y97.159 E6.91811
G1 X122.168 Y96.39 E6.98051
G1 X124.057 Y95.985 E7.04476
G1 X125.945 Y95.985 E7.10756
G1 X127.775 Y96.374 E7.16978
G1 X129.53 Y97.151 E7.23362
G0 F3600 X126.876 Y101.757
G1 F1800 X126.157 Y101.438 E7.25978
G1 X125.391 Y101.275 E7.28583
G1 X124.609 Y101.275 E7.31184
G1 X123.843 Y101.439 E7.33789
G1 X123.129 Y101.756 E7.36388
G1 X122.493 Y102.217 E7.39
G1 X121.993 Y102.773 E7.41487
G1 X121.597 Y103.44 E7.44067
G1 X121.349 Y104.182 E7.46669
G1 X121.259 Y104.959 E7.49271
G1 X121.331 Y105.736 E7.51866
G1 X121.564 Y106.487 E7.54482
G1 X121.948 Y107.167 E7.57079
G1 X122.467 Y107.755 E7.59688
G1 X123.124 Y108.243 E7.6241
G1 X123.843 Y108.562 E7.65026
G1 X124.609 Y108.725 E7.67631
G1 X125.391 Y108.725 E7.70231
G1 X126.157 Y108.561 E7.72837
G1 X126.871 Y108.244 E7.75435
G1 X127.507 Y107.783 E7.78048
G1 X128.007 Y107.227 E7.80535
G1 X128.403 Y106.56 E7.83115
G1 X128.651 Y105.818 E7.85717
G1 X128.741 Y105.041 E7.88319
G1 X128.669 Y104.264 E7.90914
G1 X128.436 Y103.513 E7.93529
G1 X128.052 Y102.833 E7.96127
G1 X127.533 Y102.245 E7.98735
G1 X126.876 Y101.757 E8.01457
G0 F3600 X129.855 Y97.611
G1 F1800 X132.402 Y100.158 E8.13437
G1 X132.472 Y100.228
G0 F3600 X133.137 Y101.459
G1 F1800 X128.627 Y96.949 E8.34651
G1 X128.557 Y96.879
G0 F3600 X127.644 Y96.531
G1 F1800 X133.41 Y102.297 E8.61773
G1 X133.48 Y102.367
G0 F3600 X133.684 Y103.137
G1 F1800 X126.925 Y96.378 E8.93565
G0 F3600 X126.207 Y96.225
G1 F1800 X133.754 Y103.772 E9.29064
G0 F3600 X133.82 Y104.405
G1 F1800 X125.58 Y96.165 E9.67822
G0 F3600 X125.015 Y96.165
G1 F1800 X133.875 Y105.025 E10.09497
G0 F3600 X133.822 Y105.538
G1 F1800 X124.449 Y96.165 E10.53585
G0 F3600 X123.918 Y96.199
G1 F1800 X133.77 Y106.051 E10.99925
G0 F3600 X133.717 Y106.564
G1 F1800 X123.452 Y96.299 E11.48209
G0 F3600 X122.986 Y96.399
G1 F1800 X133.626 Y107.039 E11.98256
G0 F3600 X133.487 Y107.466
G1 F1800 X122.52 Y96.498 E12.49844
G0 F3600 X122.081 Y96.626
G1 F1800 X127.315 Y101.86 E12.74463
G1 X127.385 Y101.93
G0 F3600 X128.22 Y102.764
G1 F1800 X133.349 Y107.893 E12.98588
G0 F3600 X133.21 Y108.32
G1 F1800 X128.723 Y103.832 E13.19696
G0 F3600 X128.875 Y104.55
G1 F1800 X133.045 Y108.721 E13.39313
G0 F3600 X132.839 Y109.081
G1 F1800 X128.908 Y105.149 E13.57805
G0 F3600 X128.849 Y105.656
G1 F1800 X132.634 Y109.441 E13.75609
G0 F3600 X132.427 Y109.8
G1 F1800 X128.74 Y106.113 E13.92951
G0 F3600 X128.599 Y106.537
G1 F1800 X132.221 Y110.16 E14.0999
G0 F3600 X131.961 Y110.465
G1 F1800 X128.404 Y106.908 E14.26722
G0 F3600 X128.194 Y107.263
G1 F1800 X131.694 Y110.764 E14.43187
G0 F3600 X131.426 Y111.061
G1 F1800 X127.937 Y107.572 E14.59598
G0 F3600 X127.669 Y107.87
G1 F1800 X131.159 Y111.36 E14.76014
G0 F3600 X130.878 Y111.645
G1 F1800 X127.351 Y108.118 E14.92604
G0 F3600 X127.023 Y108.355
G1 F1800 X130.551 Y111.883 E15.09198
G0 F3600 X130.223 Y112.121
G1 F1800 X126.643 Y108.541 E15.26038
G0 F3600 X126.251 Y108.715
G1 F1800 X129.896 Y112.359 E15.4318
G0 F3600 X129.568 Y112.598
G1 F1800 X125.792 Y108.822 E15.60941
G0 F3600 X125.309 Y108.905
G1 F1800 X129.201 Y112.796 E15.79246
G0 F3600 X128.811 Y112.972
G1 F1800 X124.744 Y108.905 E15.98376
G0 F3600 X124.066 Y108.793
G1 F1800 X128.421 Y113.147 E16.18858
G0 F3600 X128.03 Y113.323
G1 F1800 X123.168 Y108.46 E16.4173
G1 X123.098 Y108.39
G0 F3600 X121.565 Y106.857
G1 F1800 X116.69 Y101.982 E16.6466
G0 F3600 X116.829 Y101.556
G1 F1800 X121.201 Y105.928 E16.85225
G0 F3600 X121.106 Y105.266
G1 F1800 X117.013 Y101.174 E17.04475
G0 F3600 X117.219 Y100.814
G1 F1800 X121.107 Y104.702 E17.22763
G0 F3600 X121.166 Y104.195
G1 F1800 X117.424 Y100.454 E17.40361
G0 F3600 X117.63 Y100.094
G1 F1800 X121.299 Y103.762 E17.57617
G0 F3600 X121.444 Y103.342
G1 F1800 X117.847 Y99.745 E17.74536
G0 F3600 X118.115 Y99.447
G1 F1800 X121.655 Y102.987 E17.91187
G0 F3600 X121.871 Y102.637
G1 F1800 X118.382 Y99.149 E18.07596
G0 F3600 X118.649 Y98.85
G1 F1800 X122.139 Y102.34 E18.24012
G0 F3600 X122.414 Y102.049
G1 F1800 X118.916 Y98.552 E18.40463
G0 F3600 X119.215 Y98.285
G1 F1800 X122.743 Y101.812 E18.57055
G0 F3600 X123.077 Y101.581
G1 F1800 X119.542 Y98.046 E18.73683
G0 F3600 X119.87 Y97.808
G1 F1800 X123.469 Y101.407 E18.90612
G0 F3600 X123.875 Y101.248
G1 F1800 X120.197 Y97.57 E19.07912
G0 F3600 X120.525 Y97.332
G1 F1800 X124.341 Y101.148 E19.25861
G0 F3600 X124.853 Y101.095
G1 F1800 X120.911 Y97.152 E19.44405
G0 F3600 X121.301 Y96.976
G1 F1800 X125.422 Y101.097 E19.63789
G0 F3600 X126.142 Y101.252
G1 F1800 X121.691 Y96.801 E19.84725
G1 X121.621 Y96.731
G0 F3600 X116.551 Y102.409
G1 F1800 X127.613 Y113.471 E20.36758
G0 F3600 X127.147 Y113.571
G1 F1800 X116.412 Y102.835 E20.87254
G0 F3600 X116.297 Y103.286
G1 F1800 X126.682 Y113.671 E21.36102
G0 F3600 X126.216 Y113.771
G1 F1800 X116.244 Y103.799 E21.83007
G0 F3600 X116.191 Y104.312
G1 F1800 X125.714 Y113.834 E22.27798
G0 F3600 X125.148 Y113.834
G1 F1800 X116.138 Y104.825 E22.70176
G0 F3600 X116.159 Y105.411
G1 F1800 X124.583 Y113.834 E23.09798
G0 F3600 X124.001 Y113.818
G1 F1800 X116.225 Y106.043 E23.46371
G0 F3600 X116.292 Y106.675
G1 F1800 X123.282 Y113.666 E23.79252
G0 F3600 X122.564 Y113.513
G1 F1800 X116.508 Y107.457 E24.07738
G1 X116.438 Y107.387
G0 F3600 X116.782 Y108.296
G1 F1800 X121.666 Y113.181 E24.30713
G1 X121.736 Y113.251
G0 F3600 X120.652 Y112.732
G1 F1800 X117.369 Y109.45 E24.46153
M104 S200
G1 X117.299 Y109.38
;MESH:NONMESH
G0 F600 X117.299 Y109.38 Z0.35
G0 F3600 X123.123 Y101.747
;TIME_ELAPSED:33.975965
;LAYER:1
M140 S60
M106 S255
;TYPE:WALL-INNER
;MESH:coneshaper.stl
G1 F3300 X122.487 Y102.209 E24.48114
G1 X121.962 Y102.794 E24.50075
G1 X121.57 Y103.471 E24.52026
G1 X121.327 Y104.218 E24.53986
G1 X121.245 Y105 E24.55947
G1 X121.327 Y105.782 E24.57908
G1 X121.57 Y106.529 E24.59868
G1 X121.962 Y107.206 E24.61819
G1 X122.487 Y107.791 E24.6378
G1 X123.123 Y108.253 E24.65741
G1 X123.84 Y108.57 E24.67697
G1 X124.608 Y108.735 E24.69656
G1 X125.392 Y108.735 E24.71612
G1 X126.16 Y108.57 E24.73571
G1 X126.877 Y108.253 E24.75527
G1 X127.513 Y107.791 E24.77488
G1 X128.038 Y107.206 E24.79449
G1 X128.43 Y106.529 E24.814
G1 X128.673 Y105.782 E24.8336
G1 X128.755 Y105 E24.85321
G1 X128.673 Y104.218 E24.87282
G1 X128.43 Y103.471 E24.89242
G1 X128.038 Y102.794 E24.91193
G1 X127.513 Y102.209 E24.93154
G1 X126.877 Y101.747 E24.95115
G1 X126.16 Y101.43 E24.97071
G1 X125.392 Y101.265 E24.9903
G1 X124.608 Y101.265 E25.00986
G1 X123.84 Y101.43 E25.02945
G1 X123.123 Y101.747 E25.04901
G0 F5400 X129.579 Y97.071
G1 F3300 X131.13 Y98.197 E25.09682
G1 X132.364 Y99.567 E25.14281
G1 X133.368 Y101.28 E25.19234
G1 X133.956 Y103.089 E25.23979
G1 X134.151 Y104.927 E25.2859
G1 X133.956 Y106.911 E25.33563
G1 X133.39 Y108.654 E25.38134
G1 X132.444 Y110.324 E25.42922
G1 X131.125 Y111.807 E25.47873
G1 X129.628 Y112.894 E25.52488
G1 X127.894 Y113.681 E25.57238
G1 X125.953 Y114.108 E25.62196
G1 X124.042 Y114.108 E25.66963
G1 X122.241 Y113.725 E25.71556
G1 X120.421 Y112.929 E25.76511
G1 X118.87 Y111.803 E25.81292
G1 X117.636 Y110.433 E25.85891
G1 X116.632 Y108.72 E25.90844
G1 X116.044 Y106.911 E25.95589
G1 X115.849 Y105.066 E26.00217
G1 X116.044 Y103.089 E26.05173
G1 X116.61 Y101.346 E26.09744
G1 X117.556 Y99.676 E26.14532
G1 X118.875 Y98.193 E26.19483
G1 X120.372 Y97.106 E26.24098
G1 X122.106 Y96.319 E26.28848
G1 X124.047 Y95.892 E26.33806
G1 X125.958 Y95.892 E26.38573
G1 X127.759 Y96.275 E26.43166
G1 X129.579 Y97.071 E26.48121
G0 F5400 X129.779 Y96.721
G1 F3300 X131.398 Y97.897 E26.53113
G1 X132.688 Y99.329 E26.5792
G1 X133.735 Y101.115 E26.63085
G1 X134.35 Y103.008 E26.6805
G1 X134.553 Y104.927 E26.72863
G1 X134.35 Y106.992 E26.78039
G1 X133.757 Y108.817 E26.82826
G1 X132.77 Y110.559 E26.87821
G1 X131.395 Y112.106 E26.92984
G1 X129.833 Y113.24 E26.97799
G1 X128.018 Y114.064 E27.02771
G1 X125.998 Y114.508 E27.0793
G1 X124.001 Y114.508 E27.12912
G1 X122.115 Y114.107 E27.17721
G1 X120.221 Y113.279 E27.22878
G1 X118.602 Y112.103 E27.27869
G1 X117.312 Y110.671 E27.32677
G1 X116.265 Y108.885 E27.37842
G1 X115.65 Y106.992 E27.42807
G1 X115.447 Y105.069 E27.4763
G1 X115.65 Y103.008 E27.52796
G1 X116.243 Y101.183 E27.57583
G1 X117.23 Y99.441 E27.62578
G1 X118.605 Y97.894 E27.67741
G1 X120.167 Y96.76 E27.72555
G1 X121.982 Y95.936 E27.77528
G1 X124.002 Y95.492 E27.82687
G1 X125.999 Y95.492 E27.87669
G1 X127.885 Y95.893 E27.92478
G1 X129.779 Y96.721 E27.97635
G0 F5400 X129.73 Y96.807
G0 X122.69 Y102.434
G0 X122.756 Y102.508
G1 F3300 X122.287 Y103.03 E27.99385
G1 X121.937 Y103.635 E28.01129
G1 X121.72 Y104.302 E28.02878
G1 X121.647 Y105 E28.04629
G1 X121.72 Y105.698 E28.0638
G1 X121.937 Y106.365 E28.08129
G1 X122.287 Y106.97 E28.09873
G1 X122.756 Y107.492 E28.11623
G1 X123.324 Y107.904 E28.13374
G1 X123.964 Y108.188 E28.1512
G1 X124.65 Y108.335 E28.1687
G1 X125.35 Y108.335 E28.18617
G1 X126.036 Y108.188 E28.20367
G1 X126.676 Y107.904 E28.22113
G1 X127.244 Y107.492 E28.23864
G1 X127.713 Y106.97 E28.25614
G1 X128.063 Y106.365 E28.27358
G1 X128.28 Y105.698 E28.29107
G1 X128.353 Y105 E28.30858
G1 X128.28 Y104.302 E28.32609
G1 X128.063 Y103.635 E28.34358
G1 X127.713 Y103.03 E28.36102
G1 X127.244 Y102.508 E28.37852
G1 X126.676 Y102.096 E28.39603
G1 X126.036 Y101.812 E28.41349
G1 X125.35 Y101.665 E28.431
G1 X124.65 Y101.665 E28.44846
G1 X123.964 Y101.812 E28.46596
G1 X123.324 Y102.096 E28.48342
G1 X122.756 Y102.508 E28.50093
G0 F5400 X122.69 Y102.434
G0 X122.055 Y103.353
G0 X121.617 Y104.334
G0 X122.113 Y104.386
;TYPE:WALL-OUTER
G1 F2100 X122.049 Y105 E28.51633
G1 X122.113 Y105.614 E28.53173
G1 X122.304 Y106.201 E28.54712
G1 X122.612 Y106.734 E28.56248
G1 X123.025 Y107.193 E28.57788
G1 X123.525 Y107.556 E28.5933
G1 X124.088 Y107.806 E28.60866
G1 X124.692 Y107.935 E28.62407
G1 X125.308 Y107.935 E28.63944
G1 X125.912 Y107.806 E28.65484
G1 X126.475 Y107.556 E28.67021
G1 X126.975 Y107.193 E28.68562
G1 X127.388 Y106.734 E28.70102
G1 X127.696 Y106.201 E28.71638
G1 X127.887 Y105.614 E28.73178
G1 X127.951 Y105 E28.74718
G1 X127.887 Y104.386 E28.76258
G1 X127.696 Y103.799 E28.77798
G1 X127.388 Y103.266 E28.79333
G1 X126.975 Y102.807 E28.80873
G1 X126.475 Y102.444 E28.82415
G1 X125.912 Y102.194 E28.83951
G1 X125.308 Y102.065 E28.85492
G1 X124.692 Y102.065 E28.87029
G1 X124.088 Y102.194 E28.88569
G1 X123.525 Y102.444 E28.90106
G1 X123.025 Y102.807 E28.91647
G1 X122.612 Y103.266 E28.93187
G1 X122.304 Y103.799 E28.94723
G1 X122.113 Y104.386 E28.96263
G0 F5400 X122.093 Y104.585
G0 X121.596 Y104.533
G0 X121.901 Y103.619
G0 X122.639 Y102.58
G0 X129.73 Y96.807
G0 X129.979 Y96.371
G1 F2100 X131.666 Y97.597 E29.01465
