;FLAVOR:Marlin
;TIME:9171
;Filament used: 10.7441m
;Layer height: 0.3
;MINX:77.037
;MINY:39.213
;MINZ:0.2
;MAXX:170.028
;MAXY:170.601
;MAXZ:16.7
;Generated with Cura_SteamEngine 4.4.0
M82 ;absolute extrusion mode
G21 ; set units to millimeters
G90 ; use absolute positioning
M82 ; absolute extrusion mode
M104 S200 ; set extruder temp
M140 S60 ; set bed temp
M190 S60 ; wait for bed temp
M109 S200 ; wait for extruder temp
G28 W ; home all without mesh bed level
G80 ; mesh bed leveling
G92 E0.0 ; reset extruder distance position
G1 Y-3.0 F1000.0 ; go outside print area
G1 X60.0 E9.0 F1000.0 ; intro line
G1 X100.0 E21.5 F1000.0 ; intro line
G92 E0.0 ; reset extruder distance position
G92 E0
G92 E0
G1 F2100 E-0.8
;LAYER_COUNT:56
;LAYER:0
M107
;MESH:Top_Slots_SM.stl
G0 F3600 X97.528 Y75.663 Z0.2
;TYPE:WALL-OUTER
G1 F2100 E0
G1 F1800 X97.528 Y61.763 E0.46232
G1 X80.77 Y61.763 E1.01969
G1 X80.769 Y57.863 E1.1494
G1 X80.769 Y57.663 E1.15606
G1 X80.969 Y57.663 E1.16036
G1 X97.528 Y57.663 E1.71112
G1 X97.528 Y43.763 E2.17343
G1 X81.001 Y43.763 E2.72312
G1 X80.954 Y43.763 E2.72469
G1 X80.879 Y43.763 E2.72718
G1 X80.954 Y43.429 E2.73502
G1 X80.97 Y43.385 E2.73647
G1 X81.154 Y42.881 E2.75431
G1 X81.423 Y42.36 E2.77382
G1 X81.752 Y41.886 E2.79301
G1 X82.153 Y41.442 E2.81291
G1 X82.6 Y41.06 E2.83246
G1 X83.079 Y40.747 E2.85149
G1 X83.602 Y40.495 E2.8708
G1 X84.163 Y40.307 E2.89048
G1 X84.723 Y40.196 E2.90947
G1 X85.321 Y40.155 E2.92941
G1 X164.515 Y40.154 E5.56341
G1 X165.123 Y40.193 E5.58367
G1 X165.695 Y40.307 E5.60307
G1 X166.261 Y40.497 E5.62293
G1 X166.794 Y40.759 E5.64268
G1 X167.3 Y41.094 E5.66287
G1 X167.745 Y41.483 E5.68253
G1 X168.134 Y41.925 E5.70211
G1 X168.467 Y42.42 E5.72195
G1 X168.739 Y42.967 E5.74227
G1 X168.928 Y43.52 E5.76171
G1 X169.045 Y44.1 E5.78139
G1 X169.086 Y44.707 E5.80162
G1 X169.086 Y94.7 E7.4644
G1 X169.048 Y95.309 E7.48469
G1 X168.934 Y95.881 E7.50409
G1 X168.744 Y96.446 E7.52392
G1 X168.482 Y96.979 E7.54367
G1 X168.15 Y97.481 E7.56369
G1 X167.754 Y97.934 E7.5837
G1 X167.316 Y98.319 E7.60309
G1 X166.821 Y98.652 E7.62294
G1 X166.274 Y98.924 E7.64326
G1 X165.721 Y99.113 E7.66269
G1 X165.141 Y99.23 E7.68237
G1 X164.534 Y99.271 E7.70261
G1 X85.341 Y99.272 E10.33658
G1 X84.732 Y99.233 E10.35687
G1 X84.153 Y99.118 E10.37651
G1 X83.601 Y98.931 E10.39589
G1 X83.066 Y98.669 E10.41571
G1 X82.556 Y98.331 E10.43606
G1 X82.107 Y97.939 E10.45588
G1 X81.722 Y97.501 E10.47528
G1 X81.388 Y97.006 E10.49514
G1 X81.118 Y96.462 E10.51534
G1 X80.926 Y95.898 E10.53515
G1 X80.811 Y95.327 E10.55453
G1 X80.77 Y94.715 E10.57493
G1 X80.769 Y75.863 E11.20195
G1 X80.769 Y75.663 E11.2086
G1 X80.969 Y75.663 E11.21291
G1 X97.528 Y75.663 E11.76366
G0 F3600 X97.528 Y75.463
G0 X98.028 Y75.463
G0 X109.768 Y89.079
G0 X110.12 Y88.725
G1 F1800 X110.416 Y89.019 E11.77754
G1 X110.798 Y89.159 E11.79107
G1 X111.203 Y89.127 E11.80458
G1 X111.557 Y88.931 E11.81804
G1 X111.796 Y88.61 E11.83135
G1 X111.878 Y88.235 E11.84412
G1 X111.878 Y51.191 E13.07621
G1 X111.796 Y50.817 E13.08894
G1 X111.548 Y50.487 E13.10267
G1 X111.19 Y50.296 E13.11617
G1 X110.786 Y50.27 E13.12963
G1 X110.406 Y50.413 E13.14313
G1 X110.125 Y50.698 E13.15645
G1 X109.985 Y51.07 E13.16967
G1 X109.978 Y88.242 E14.40601
G1 X110.12 Y88.725 E14.42276
G0 F3600 X110.261 Y88.866
G0 X109.909 Y89.22
G0 X110.737 Y89.604
G0 X113.768 Y89.079
G0 X114.12 Y88.725
G1 F1800 X114.416 Y89.019 E14.43663
G1 X114.798 Y89.159 E14.45016
G1 X115.203 Y89.127 E14.46368
G1 X115.557 Y88.931 E14.47713
G1 X115.796 Y88.61 E14.49045
G1 X115.878 Y88.235 E14.50321
G1 X115.878 Y51.191 E15.7353
G1 X115.796 Y50.817 E15.74804
G1 X115.548 Y50.487 E15.76177
G1 X115.19 Y50.296 E15.77526
G1 X114.786 Y50.27 E15.78873
G1 X114.406 Y50.413 E15.80223
G1 X114.125 Y50.698 E15.81554
G1 X113.985 Y51.07 E15.82876
G1 X113.978 Y88.242 E17.06511
G1 X114.12 Y88.725 E17.08185
G0 F3600 X114.261 Y88.866
G0 X113.909 Y89.22
G0 X114.737 Y89.604
G0 X117.768 Y89.079
G0 X118.12 Y88.725
G1 F1800 X118.416 Y89.019 E17.09573
G1 X118.798 Y89.159 E17.10926
G1 X119.203 Y89.127 E17.12277
G1 X119.557 Y88.931 E17.13623
G1 X119.796 Y88.61 E17.14954
G1 X119.878 Y88.235 E17.16231
G1 X119.878 Y51.191 E18.3944
G1 X119.796 Y50.817 E18.40713
G1 X119.548 Y50.487 E18.42086
G1 X119.19 Y50.296 E18.43436
G1 X118.786 Y50.27 E18.44782
G1 X118.406 Y50.413 E18.46133
G1 X118.125 Y50.698 E18.47464
G1 X117.985 Y51.07 E18.48786
G1 X117.978 Y88.242 E19.7242
G1 X118.12 Y88.725 E19.74095
G0 F3600 X118.261 Y88.866
G0 X117.909 Y89.22
G0 X118.737 Y89.604
G0 X121.768 Y89.079
G0 X122.12 Y88.725
G1 F1800 X122.416 Y89.019 E19.75483
G1 X122.798 Y89.159 E19.76836
G1 X123.203 Y89.127 E19.78187
G1 X123.557 Y88.931 E19.79533
G1 X123.796 Y88.61 E19.80864
G1 X123.878 Y88.235 E19.82141
G1 X123.878 Y51.191 E21.05349
G1 X123.796 Y50.817 E21.06623
G1 X123.548 Y50.487 E21.07996
G1 X123.19 Y50.296 E21.09345
G1 X122.786 Y50.27 E21.10692
G1 X122.406 Y50.413 E21.12042
G1 X122.125 Y50.698 E21.13374
G1 X121.985 Y51.07 E21.14696
G1 X121.978 Y88.242 E22.3833
G1 X122.12 Y88.725 E22.40005
G0 F3600 X122.261 Y88.866
G0 X121.909 Y89.22
G0 X122.737 Y89.604
G0 X125.768 Y89.079
G0 X126.12 Y88.725
G1 F1800 X126.416 Y89.019 E22.41392
G1 X126.798 Y89.159 E22.42745
G1 X127.203 Y89.127 E22.44097
G1 X127.557 Y88.931 E22.45442
G1 X127.796 Y88.61 E22.46773
G1 X127.878 Y88.235 E22.4805
G1 X127.878 Y51.191 E23.71259
G1 X127.796 Y50.817 E23.72533
G1 X127.548 Y50.487 E23.73905
G1 X127.19 Y50.296 E23.75255
G1 X126.786 Y50.27 E23.76602
G1 X126.406 Y50.413 E23.77952
G1 X126.125 Y50.698 E23.79283
G1 X125.985 Y51.07 E23.80605
G1 X125.978 Y88.242 E25.0424
G1 X126.12 Y88.725 E25.05914
G0 F3600 X126.261 Y88.866
G0 X125.909 Y89.22
G0 X126.737 Y89.604
G0 X129.768 Y89.079
G0 X130.12 Y88.725
G1 F1800 X130.416 Y89.019 E25.07302
G1 X130.798 Y89.159 E25.08655
G1 X131.203 Y89.127 E25.10006
G1 X131.557 Y88.931 E25.11352
G1 X131.796 Y88.61 E25.12683
G1 X131.878 Y88.235 E25.1396
G1 X131.878 Y51.191 E26.37169
G1 X131.796 Y50.817 E26.38442
G1 X131.548 Y50.487 E26.39815
G1 X131.19 Y50.296 E26.41165
G1 X130.786 Y50.27 E26.42511
G1 X130.406 Y50.413 E26.43862
G1 X130.125 Y50.698 E26.45193
G1 X129.985 Y51.07 E26.46515
G1 X129.978 Y88.242 E27.70149
G1 X130.12 Y88.725 E27.71824
G0 F3600 X130.261 Y88.866
G0 X129.909 Y89.22
G0 X130.737 Y89.604
G0 X133.768 Y89.079
G0 X134.12 Y88.725
G1 F1800 X134.416 Y89.019 E27.73211
G1 X134.798 Y89.159 E27.74565
G1 X135.203 Y89.127 E27.75916
G1 X135.557 Y88.931 E27.77262
G1 X135.796 Y88.61 E27.78593
G1 X135.878 Y88.235 E27.79869
G1 X135.878 Y51.191 E29.03078
G1 X135.796 Y50.817 E29.04352
G1 X135.548 Y50.487 E29.05725
G1 X135.19 Y50.296 E29.07074
G1 X134.786 Y50.27 E29.08421
G1 X134.406 Y50.413 E29.09771
G1 X134.125 Y50.698 E29.11102
G1 X133.985 Y51.07 E29.12424
G1 X133.978 Y88.242 E30.36059
G1 X134.12 Y88.725 E30.37733
G0 F3600 X134.261 Y88.866
G0 X133.909 Y89.22
G0 X134.737 Y89.604
G0 X137.768 Y89.079
G0 X138.12 Y88.725
G1 F1800 X138.416 Y89.019 E30.39121
G1 X138.798 Y89.159 E30.40474
G1 X139.203 Y89.127 E30.41825
G1 X139.557 Y88.931 E30.43171
G1 X139.796 Y88.61 E30.44502
G1 X139.878 Y88.235 E30.45779
G1 X139.878 Y51.191 E31.68988
G1 X139.796 Y50.817 E31.70261
G1 X139.548 Y50.487 E31.71634
G1 X139.19 Y50.296 E31.72984
G1 X138.786 Y50.27 E31.7433
G1 X138.406 Y50.413 E31.75681
G1 X138.125 Y50.698 E31.77012
G1 X137.985 Y51.07 E31.78334
G1 X137.978 Y88.242 E33.01969
G1 X138.12 Y88.725 E33.03643
G0 F3600 X138.261 Y88.866
G0 X137.909 Y89.22
G0 X138.737 Y89.604
G0 X141.768 Y89.079
G0 X142.12 Y88.725
G1 F1800 X142.416 Y89.019 E33.05031
G1 X142.798 Y89.159 E33.06384
G1 X143.203 Y89.127 E33.07735
G1 X143.557 Y88.931 E33.09081
G1 X143.796 Y88.61 E33.10412
G1 X143.878 Y88.235 E33.11689
G1 X143.878 Y51.191 E34.34898
G1 X143.796 Y50.817 E34.36171
G1 X143.548 Y50.487 E34.37544
G1 X143.19 Y50.296 E34.38894
G1 X142.786 Y50.27 E34.4024
G1 X142.406 Y50.413 E34.4159
G1 X142.125 Y50.698 E34.42922
G1 X141.985 Y51.07 E34.44244
G1 X141.978 Y88.242 E35.67878
G1 X142.12 Y88.725 E35.69553
G0 F3600 X142.261 Y88.866
G0 X141.909 Y89.22
G0 X142.737 Y89.604
G0 X145.768 Y89.079
G0 X146.12 Y88.725
G1 F1800 X146.416 Y89.019 E35.7094
G1 X146.798 Y89.159 E35.72293
G1 X147.203 Y89.127 E35.73645
G1 X147.557 Y88.931 E35.74991
G1 X147.796 Y88.61 E35.76322
G1 X147.878 Y88.235 E35.77598
G1 X147.878 Y51.191 E37.00807
G1 X147.796 Y50.817 E37.02081
G1 X147.548 Y50.487 E37.03454
G1 X147.19 Y50.296 E37.04803
G1 X146.786 Y50.27 E37.0615
G1 X146.406 Y50.413 E37.075
G1 X146.125 Y50.698 E37.08831
G1 X145.985 Y51.07 E37.10153
G1 X145.978 Y88.242 E38.33788
G1 X146.12 Y88.725 E38.35462
G0 F3600 X146.261 Y88.866
G0 X145.909 Y89.22
G0 X146.737 Y89.604
G0 X149.768 Y89.079
G0 X150.12 Y88.725
G1 F1800 X150.416 Y89.019 E38.3685
G1 X150.798 Y89.159 E38.38203
G1 X151.203 Y89.127 E38.39554
G1 X151.557 Y88.931 E38.409
G1 X151.796 Y88.61 E38.42231
G1 X151.878 Y88.235 E38.43508
G1 X151.878 Y51.191 E39.66717
G1 X151.796 Y50.817 E39.6799
G1 X151.548 Y50.487 E39.69363
G1 X151.19 Y50.296 E39.70713
G1 X150.786 Y50.27 E39.72059
G1 X150.406 Y50.413 E39.7341
G1 X150.125 Y50.698 E39.74741
G1 X149.985 Y51.07 E39.76063
G1 X149.978 Y88.242 E40.99698
G1 X150.12 Y88.725 E41.01372
G0 F3600 X150.261 Y88.866
G0 X149.909 Y89.22
G0 X150.737 Y89.604
G0 X153.768 Y89.079
G0 X154.12 Y88.725
G1 F1800 X154.416 Y89.019 E41.0276
G1 X154.798 Y89.159 E41.04113
G1 X155.203 Y89.127 E41.05464
G1 X155.557 Y88.931 E41.0681
G1 X155.796 Y88.61 E41.08141
G1 X155.878 Y88.235 E41.09418
G1 X155.878 Y51.191 E42.32626
G1 X155.796 Y50.817 E42.339
G1 X155.548 Y50.487 E42.35273
G1 X155.19 Y50.296 E42.36622
G1 X154.786 Y50.27 E42.37969
G1 X154.406 Y50.413 E42.39319
G1 X154.125 Y50.698 E42.40651
G1 X153.985 Y51.07 E42.41973
G1 X153.978 Y88.242 E43.65607
G1 X154.12 Y88.725 E43.67282
G0 F3600 X154.261 Y88.866
G0 X153.909 Y89.22
G0 X154.737 Y89.604
G0 X155.852 Y89.269
G0 X156.317 Y88.282
G0 X157.546 Y50.99
G0 X158.162 Y50.037
G0 X159.198 Y49.856
G0 X159.548 Y50.487
G1 F1800 X159.19 Y50.296 E43.68631
G1 X158.786 Y50.27 E43.69978
G1 X158.406 Y50.413 E43.71328
G1 X158.125 Y50.698 E43.72659
G1 X157.985 Y51.07 E43.73981
G1 X157.978 Y88.235 E44.97593
G1 X158.06 Y88.611 E44.98873
G1 X158.308 Y88.938 E45.00238
G1 X158.664 Y89.131 E45.01584
G1 X159.07 Y89.157 E45.02938
G1 X159.448 Y89.013 E45.04283
G1 X159.731 Y88.73 E45.05614
G1 X159.87 Y88.356 E45.06941
G1 X159.878 Y51.191 E46.30552
G1 X159.796 Y50.817 E46.31826
G1 X159.548 Y50.487 E46.33199
G0 F3600 X159.372 Y50.393
G0 X159.815 Y50.176
;TYPE:WALL-INNER
G1 F1800 X159.302 Y49.902 E46.35133
G1 X158.726 Y49.865 E46.37053
G1 X158.183 Y50.07 E46.38983
G1 X157.781 Y50.478 E46.40888
G1 X157.585 Y50.997 E46.42734
G1 X157.578 Y88.278 E47.66731
G1 X157.688 Y88.782 E47.68447
G1 X158.041 Y89.249 E47.70394
G1 X158.551 Y89.525 E47.72322
G1 X159.131 Y89.562 E47.74255
G1 X159.67 Y89.356 E47.76175
G1 X160.076 Y88.951 E47.78082
G1 X160.27 Y88.428 E47.79937
G1 X160.278 Y51.148 E49.03931
G1 X160.168 Y50.646 E49.0564
G1 X159.815 Y50.176 E49.07595
G0 F3600 X159.88 Y50.101
G0 X158.721 Y49.826
G0 X157.748 Y50.457
G0 X156.317 Y88.282
G0 X155.852 Y89.269
G0 X154.737 Y89.604
G0 X153.68 Y88.987
G0 X153.765 Y88.936
G1 F1800 X154.196 Y89.364 E49.09616
G1 X154.742 Y89.565 E49.11551
G1 X155.321 Y89.519 E49.13483
G1 X155.826 Y89.239 E49.15403
G1 X156.168 Y88.78 E49.17307
G1 X156.278 Y88.278 E49.19016
G1 X156.278 Y51.148 E50.42511
G1 X156.168 Y50.646 E50.4422
G1 X155.815 Y50.176 E50.46175
G1 X155.302 Y49.902 E50.4811
G1 X154.726 Y49.865 E50.50029
G1 X154.183 Y50.07 E50.5196
G1 X153.781 Y50.478 E50.53865
G1 X153.585 Y50.997 E50.5571
G1 X153.578 Y88.3 E51.7978
G1 X153.765 Y88.936 E51.81985
G0 F3600 X153.68 Y88.987
G0 X151.332 Y89.557
G0 X150.283 Y89.437
G0 X149.765 Y88.936
G1 F1800 X150.196 Y89.364 E51.84006
G1 X150.742 Y89.565 E51.85941
G1 X151.321 Y89.519 E51.87873
G1 X151.826 Y89.239 E51.89793
G1 X152.168 Y88.78 E51.91697
G1 X152.278 Y88.278 E51.93406
G1 X152.278 Y51.148 E53.16901
G1 X152.168 Y50.646 E53.1861
G1 X151.815 Y50.176 E53.20565
G1 X151.302 Y49.902 E53.225
G1 X150.726 Y49.865 E53.24419
G1 X150.183 Y50.07 E53.2635
G1 X149.781 Y50.478 E53.28255
G1 X149.585 Y50.997 E53.301
G1 X149.578 Y88.3 E54.5417
G1 X149.765 Y88.936 E54.56375
G0 F3600 X149.68 Y88.987
G0 X147.332 Y89.557
G0 X146.283 Y89.437
G0 X145.765 Y88.936
G1 F1800 X146.196 Y89.364 E54.58396
G1 X146.742 Y89.565 E54.60331
G1 X147.321 Y89.519 E54.62263
G1 X147.826 Y89.239 E54.64183
G1 X148.168 Y88.78 E54.66087
G1 X148.278 Y88.278 E54.67796
G1 X148.278 Y51.148 E55.91291
G1 X148.168 Y50.646 E55.93
G1 X147.815 Y50.176 E55.94955
G1 X147.302 Y49.902 E55.9689
G1 X146.726 Y49.865 E55.98809
G1 X146.183 Y50.07 E56.0074
G1 X145.781 Y50.478 E56.02645
G1 X145.585 Y50.997 E56.0449
G1 X145.578 Y88.3 E57.2856
G1 X145.765 Y88.936 E57.30765
G0 F3600 X145.68 Y88.987
G0 X143.332 Y89.557
G0 X142.283 Y89.437
G0 X141.765 Y88.936
G1 F1800 X142.196 Y89.364 E57.32786
G1 X142.742 Y89.565 E57.34721
G1 X143.321 Y89.519 E57.36653
G1 X143.826 Y89.239 E57.38573
G1 X144.168 Y88.78 E57.40477
G1 X144.278 Y88.278 E57.42186
G1 X144.278 Y51.148 E58.65681
G1 X144.168 Y50.646 E58.6739
G1 X143.815 Y50.176 E58.69345
G1 X143.302 Y49.902 E58.7128
G1 X142.726 Y49.865 E58.73199
G1 X142.183 Y50.07 E58.7513
G1 X141.781 Y50.478 E58.77035
G1 X141.585 Y50.997 E58.7888
G1 X141.578 Y88.3 E60.0295
G1 X141.765 Y88.936 E60.05155
G0 F3600 X141.68 Y88.987
G0 X139.332 Y89.557
G0 X138.283 Y89.437
G0 X137.765 Y88.936
G1 F1800 X138.196 Y89.364 E60.07176
G1 X138.742 Y89.565 E60.09111
G1 X139.321 Y89.519 E60.11043
G1 X139.826 Y89.239 E60.12963
G1 X140.168 Y88.78 E60.14867
G1 X140.278 Y88.278 E60.16576
G1 X140.278 Y51.148 E61.40071
G1 X140.168 Y50.646 E61.4178
G1 X139.815 Y50.176 E61.43735
G1 X139.302 Y49.902 E61.4567
G1 X138.726 Y49.865 E61.47589
G1 X138.183 Y50.07 E61.4952
G1 X137.781 Y50.478 E61.51425
G1 X137.585 Y50.997 E61.5327
G1 X137.578 Y88.3 E62.7734
G1 X137.765 Y88.936 E62.79545
G0 F3600 X137.68 Y88.987
G0 X135.332 Y89.557
G0 X134.283 Y89.437
G0 X133.765 Y88.936
G1 F1800 X134.196 Y89.364 E62.81566
G1 X134.742 Y89.565 E62.83501
G1 X135.321 Y89.519 E62.85433
G1 X135.826 Y89.239 E62.87353
G1 X136.168 Y88.78 E62.89257
G1 X136.278 Y88.278 E62.90966
G1 X136.278 Y51.148 E64.14461
G1 X136.168 Y50.646 E64.1617
G1 X135.815 Y50.176 E64.18125
G1 X135.302 Y49.902 E64.2006
G1 X134.726 Y49.865 E64.21979
G1 X134.183 Y50.07 E64.2391
G1 X133.781 Y50.478 E64.25815
G1 X133.585 Y50.997 E64.2766
G1 X133.578 Y88.3 E65.5173
G1 X133.765 Y88.936 E65.53935
G0 F3600 X133.68 Y88.987
G0 X131.332 Y89.557
G0 X130.283 Y89.437
G0 X129.765 Y88.936
G1 F1800 X130.196 Y89.364 E65.55956
G1 X130.742 Y89.565 E65.57891
G1 X131.321 Y89.519 E65.59823
G1 X131.826 Y89.239 E65.61743
G1 X132.168 Y88.78 E65.63647
G1 X132.278 Y88.278 E65.65356
G1 X132.278 Y51.148 E66.88851
G1 X132.168 Y50.646 E66.9056
G1 X131.815 Y50.176 E66.92515
G1 X131.302 Y49.902 E66.9445
G1 X130.726 Y49.865 E66.96369
G1 X130.183 Y50.07 E66.983
G1 X129.781 Y50.478 E67.00205
G1 X129.585 Y50.997 E67.0205
G1 X129.578 Y88.3 E68.2612
G1 X129.765 Y88.936 E68.28325
G0 F3600 X129.68 Y88.987
G0 X127.332 Y89.557
G0 X126.283 Y89.437
G0 X125.765 Y88.936
G1 F1800 X126.196 Y89.364 E68.30346
G1 X126.742 Y89.565 E68.32281
G1 X127.321 Y89.519 E68.34213
G1 X127.826 Y89.239 E68.36133
G1 X128.168 Y88.78 E68.38037
G1 X128.278 Y88.278 E68.39746
G1 X128.278 Y51.148 E69.63241
G1 X128.168 Y50.646 E69.6495
G1 X127.815 Y50.176 E69.66905
G1 X127.302 Y49.902 E69.6884
G1 X126.726 Y49.865 E69.70759
G1 X126.183 Y50.07 E69.7269
G1 X125.781 Y50.478 E69.74595
G1 X125.585 Y50.997 E69.7644
G1 X125.578 Y88.3 E71.0051
G1 X125.765 Y88.936 E71.02715
G0 F3600 X125.68 Y88.987
G0 X123.332 Y89.557
G0 X122.283 Y89.437
G0 X121.765 Y88.936
G1 F1800 X122.196 Y89.364 E71.04736
G1 X122.742 Y89.565 E71.06671
G1 X123.321 Y89.519 E71.08603
G1 X123.826 Y89.239 E71.10523
G1 X124.168 Y88.78 E71.12427
G1 X124.278 Y88.278 E71.14136
G1 X124.278 Y51.148 E72.37631
G1 X124.168 Y50.646 E72.3934
G1 X123.815 Y50.176 E72.41295
G1 X123.302 Y49.902 E72.4323
G1 X122.726 Y49.865 E72.45149
G1 X122.183 Y50.07 E72.4708
G1 X121.781 Y50.478 E72.48985
G1 X121.585 Y50.997 E72.5083
G1 X121.578 Y88.3 E73.749
G1 X121.765 Y88.936 E73.77105
