;FLAVOR:Marlin
;TIME:4204
;Filament used: 3.60258m
;Layer height: 0.15
;MINX:57.2
;MINY:69.3
;MINZ:0.3
;MAXX:142.8
;MAXY:130.7
;MAXZ:3.9
;Generated with Cura_SteamEngine 4.4.0
M140 S60
M105
M190 S60
M104 S205
M105
M109 S205
M82 ;absolute extrusion mode
G21 ;metric values
G90 ;absolute positioning
M82 ;set extruder to absolute mode
M107 ;start with the fan off
G28 X0 Y0 ;move X/Y to min endstops
G28 Z0 ;move Z to min endstops
G1 Z15.0 F9000 ;move the platform down 15mm
G92 E0 ;zero the extruded length
G1 F200 E3 ;extrude 3mm of feed stock
G92 E0 ;zero the extruded length again
G1 F9000
;Put printing message on LCD screen
M117 Printing...
G92 E0
G92 E0
G1 F1500 E-6.5
;LAYER_COUNT:25
;LAYER:0
M107
G0 F3600 X60.222 Y70.934 Z0.3
;TYPE:SKIRT
G1 F1500 E0
G1 F1800 X60.87 Y70.483 E0.03939
G1 X61.561 Y70.099 E0.07883
G1 X62.286 Y69.787 E0.11821
G1 X63.039 Y69.55 E0.15759
G1 X63.813 Y69.391 E0.19701
G1 X64.598 Y69.31 E0.23638
G1 X65 Y69.3 E0.25644
G1 X135 Y69.3 E3.74876
G1 X135.789 Y69.34 E3.78817
G1 X136.569 Y69.459 E3.82754
G1 X137.334 Y69.657 E3.86696
G1 X138.074 Y69.931 E3.90633
G1 X138.783 Y70.279 E3.94573
G1 X139.454 Y70.697 E3.98517
G1 X140.078 Y71.18 E4.02454
G1 X140.651 Y71.723 E4.06393
G1 X141.166 Y72.322 E4.10334
G1 X141.617 Y72.97 E4.14272
G1 X142.001 Y73.661 E4.18216
G1 X142.313 Y74.386 E4.22154
G1 X142.55 Y75.139 E4.26093
G1 X142.709 Y75.913 E4.30035
G1 X142.79 Y76.698 E4.33972
G1 X142.8 Y77.1 E4.35978
G1 X142.8 Y122.9 E6.64475
G1 X142.76 Y123.689 E6.68417
G1 X142.641 Y124.469 E6.72353
G1 X142.443 Y125.234 E6.76295
G1 X142.169 Y125.974 E6.80232
G1 X141.821 Y126.683 E6.84173
G1 X141.403 Y127.354 E6.88117
G1 X140.92 Y127.978 E6.92053
G1 X140.377 Y128.551 E6.95992
G1 X139.778 Y129.066 E6.99933
G1 X139.13 Y129.517 E7.03872
G1 X138.439 Y129.901 E7.07816
G1 X137.714 Y130.213 E7.11753
G1 X136.961 Y130.45 E7.15692
G1 X136.187 Y130.609 E7.19634
G1 X135.402 Y130.69 E7.23571
G1 X135 Y130.7 E7.25577
G1 X65 Y130.7 E10.74809
G1 X64.211 Y130.66 E10.7875
G1 X63.431 Y130.541 E10.82687
G1 X62.666 Y130.343 E10.86629
G1 X61.926 Y130.069 E10.90566
G1 X61.217 Y129.721 E10.94506
G1 X60.546 Y129.303 E10.9845
G1 X59.922 Y128.82 E11.02387
G1 X59.349 Y128.277 E11.06325
G1 X58.834 Y127.678 E11.10267
G1 X58.383 Y127.03 E11.14205
G1 X57.999 Y126.339 E11.18149
G1 X57.687 Y125.614 E11.22087
G1 X57.45 Y124.861 E11.26026
G1 X57.291 Y124.087 E11.29968
G1 X57.21 Y123.302 E11.33905
G1 X57.2 Y122.9 E11.35911
G1 X57.2 Y77.1 E13.64408
G1 X57.24 Y76.311 E13.6835
G1 X57.359 Y75.531 E13.72286
G1 X57.557 Y74.766 E13.76228
G1 X57.831 Y74.026 E13.80165
G1 X58.179 Y73.317 E13.84106
G1 X58.597 Y72.646 E13.8805
G1 X59.08 Y72.022 E13.91986
G1 X59.623 Y71.449 E13.95925
G1 X60.222 Y70.934 E13.99866
G0 F3600 X60.611 Y71.142
G1 F1800 X61.253 Y70.719 E14.03702
G1 X61.936 Y70.364 E14.07542
G1 X62.651 Y70.083 E14.11375
G1 X63.393 Y69.877 E14.15216
G1 X64.151 Y69.749 E14.19052
G1 X65 Y69.7 E14.23294
G1 X135 Y69.7 E17.72526
G1 X135.768 Y69.74 E17.76363
G1 X136.528 Y69.859 E17.802
G1 X137.271 Y70.057 E17.84037
G1 X137.99 Y70.331 E17.87875
G1 X138.676 Y70.678 E17.91711
G1 X139.323 Y71.094 E17.95548
G1 X139.923 Y71.575 E17.99385
G1 X140.47 Y72.116 E18.03223
G1 X140.958 Y72.711 E18.07062
G1 X141.381 Y73.353 E18.10898
G1 X141.736 Y74.036 E18.14738
G1 X142.017 Y74.751 E18.18571
G1 X142.223 Y75.493 E18.22413
G1 X142.351 Y76.251 E18.26248
G1 X142.4 Y77.1 E18.30491
G1 X142.4 Y122.9 E20.58988
G1 X142.36 Y123.668 E20.62825
G1 X142.241 Y124.428 E20.66663
G1 X142.043 Y125.171 E20.70499
G1 X141.769 Y125.89 E20.74338
G1 X141.422 Y126.576 E20.78173
G1 X141.006 Y127.223 E20.82011
G1 X140.525 Y127.823 E20.85847
G1 X139.984 Y128.37 E20.89685
G1 X139.389 Y128.858 E20.93525
G1 X138.747 Y129.281 E20.9736
G1 X138.064 Y129.636 E21.01201
G1 X137.349 Y129.917 E21.05033
G1 X136.607 Y130.123 E21.08875
G1 X135.849 Y130.251 E21.1271
G1 X135 Y130.3 E21.16953
G1 X65 Y130.3 E24.66185
G1 X64.232 Y130.26 E24.70021
G1 X63.472 Y130.141 E24.73859
G1 X62.729 Y129.943 E24.77695
G1 X62.01 Y129.669 E24.81534
G1 X61.324 Y129.322 E24.85369
G1 X60.677 Y128.906 E24.89207
G1 X60.077 Y128.425 E24.93044
G1 X59.53 Y127.884 E24.96882
G1 X59.042 Y127.289 E25.00721
G1 X58.619 Y126.647 E25.04557
G1 X58.264 Y125.964 E25.08397
G1 X57.983 Y125.249 E25.1223
G1 X57.777 Y124.507 E25.16072
G1 X57.649 Y123.749 E25.19907
G1 X57.6 Y122.9 E25.2415
G1 X57.6 Y77.1 E27.52647
G1 X57.64 Y76.332 E27.56483
G1 X57.759 Y75.572 E27.60321
G1 X57.957 Y74.829 E27.64158
G1 X58.231 Y74.11 E27.67996
G1 X58.578 Y73.424 E27.71832
G1 X58.994 Y72.777 E27.75669
G1 X59.475 Y72.177 E27.79506
G1 X60.016 Y71.63 E27.83344
G1 X60.611 Y71.142 E27.87183
G0 F3600 X60.998 Y71.357
G1 F1800 X61.634 Y70.962 E27.90918
G1 X62.308 Y70.638 E27.94649
G1 X63.013 Y70.388 E27.98381
G1 X63.741 Y70.214 E28.02116
G1 X64.483 Y70.119 E28.05848
G1 X65 Y70.1 E28.08429
G1 X135 Y70.1 E31.5766
G1 X135.747 Y70.14 E31.61392
G1 X136.485 Y70.259 E31.65122
G1 X137.207 Y70.457 E31.68857
G1 X137.903 Y70.73 E31.72587
G1 X138.566 Y71.077 E31.7632
G1 X139.189 Y71.492 E31.80055
G1 X139.763 Y71.971 E31.83784
G1 X140.284 Y72.508 E31.87517
G1 X140.743 Y73.098 E31.91247
G1 X141.138 Y73.734 E31.94982
G1 X141.462 Y74.408 E31.98713
G1 X141.712 Y75.113 E32.02445
G1 X141.886 Y75.841 E32.06179
G1 X141.981 Y76.583 E32.09911
G1 X142 Y77.1 E32.12492
G1 X142 Y122.9 E34.40989
G1 X141.96 Y123.647 E34.44721
G1 X141.841 Y124.385 E34.48451
G1 X141.643 Y125.107 E34.52186
G1 X141.37 Y125.803 E34.55916
G1 X141.023 Y126.466 E34.59649
G1 X140.608 Y127.089 E34.63384
G1 X140.129 Y127.663 E34.67114
G1 X139.592 Y128.184 E34.70846
G1 X139.002 Y128.643 E34.74576
G1 X138.366 Y129.038 E34.78311
G1 X137.692 Y129.362 E34.82042
G1 X136.987 Y129.612 E34.85774
G1 X136.259 Y129.786 E34.89508
G1 X135.517 Y129.881 E34.9324
G1 X135 Y129.9 E34.95821
G1 X65 Y129.9 E38.45053
G1 X64.253 Y129.86 E38.48785
G1 X63.515 Y129.741 E38.52514
G1 X62.793 Y129.543 E38.56249
G1 X62.097 Y129.27 E38.59979
G1 X61.434 Y128.923 E38.63713
G1 X60.811 Y128.508 E38.67447
G1 X60.237 Y128.029 E38.71177
G1 X59.716 Y127.492 E38.7491
G1 X59.257 Y126.902 E38.78639
G1 X58.862 Y126.266 E38.82374
G1 X58.538 Y125.592 E38.86105
G1 X58.288 Y124.887 E38.89837
G1 X58.114 Y124.159 E38.93571
G1 X58.019 Y123.417 E38.97304
G1 X58 Y122.9 E38.99885
G1 X58 Y77.1 E41.28382
G1 X58.04 Y76.353 E41.32114
G1 X58.159 Y75.615 E41.35843
G1 X58.357 Y74.893 E41.39578
G1 X58.63 Y74.197 E41.43308
G1 X58.977 Y73.534 E41.47042
G1 X59.392 Y72.911 E41.50776
G1 X59.871 Y72.337 E41.54506
G1 X60.408 Y71.816 E41.58239
G1 X60.998 Y71.357 E41.61968
G0 F3600 X60.799 Y72.009
G1 F1800 X61.384 Y71.579 E41.65591
G1 X62.013 Y71.215 E41.69216
G1 X62.678 Y70.922 E41.72842
G1 X63.371 Y70.704 E41.76466
G1 X64.083 Y70.564 E41.80086
G1 X65 Y70.5 E41.84672
G1 X135 Y70.5 E45.33904
G1 X135.725 Y70.54 E45.37526
G1 X136.442 Y70.659 E45.41152
G1 X137.141 Y70.857 E45.44777
G1 X137.814 Y71.13 E45.484
G1 X138.453 Y71.475 E45.52023
G1 X139.05 Y71.889 E45.55648
G1 X139.598 Y72.365 E45.59269
G1 X140.091 Y72.899 E45.62895
G1 X140.521 Y73.484 E45.66517
G1 X140.885 Y74.113 E45.70143
G1 X141.178 Y74.778 E45.73768
G1 X141.396 Y75.471 E45.77393
G1 X141.536 Y76.183 E45.81013
G1 X141.6 Y77.1 E45.85599
G1 X141.6 Y122.9 E48.14096
G1 X141.56 Y123.625 E48.17719
G1 X141.441 Y124.342 E48.21345
G1 X141.243 Y125.041 E48.24969
G1 X140.97 Y125.714 E48.28593
G1 X140.625 Y126.353 E48.32216
G1 X140.211 Y126.95 E48.3584
G1 X139.735 Y127.498 E48.39461
G1 X139.201 Y127.991 E48.43087
G1 X138.616 Y128.421 E48.4671
G1 X137.987 Y128.785 E48.50335
G1 X137.322 Y129.078 E48.53961
G1 X136.629 Y129.296 E48.57585
G1 X135.917 Y129.436 E48.61205
G1 X135 Y129.5 E48.65791
G1 X65 Y129.5 E52.15023
G1 X64.275 Y129.46 E52.18645
G1 X63.558 Y129.341 E52.22271
G1 X62.859 Y129.143 E52.25896
G1 X62.186 Y128.87 E52.29519
G1 X61.547 Y128.525 E52.33142
G1 X60.95 Y128.111 E52.36767
G1 X60.402 Y127.635 E52.40388
G1 X59.909 Y127.101 E52.44014
G1 X59.479 Y126.516 E52.47636
G1 X59.115 Y125.887 E52.51262
G1 X58.822 Y125.222 E52.54887
G1 X58.604 Y124.529 E52.58512
G1 X58.464 Y123.817 E52.62132
G1 X58.4 Y122.9 E52.66718
G1 X58.4 Y77.1 E54.95215
G1 X58.44 Y76.375 E54.98838
G1 X58.559 Y75.658 E55.02464
G1 X58.757 Y74.959 E55.06088
G1 X59.03 Y74.286 E55.09712
G1 X59.375 Y73.647 E55.13335
G1 X59.789 Y73.05 E55.16959
G1 X60.265 Y72.502 E55.2058
G1 X60.799 Y72.009 E55.24206
G0 F3600 X61.189 Y72.209
G1 F1800 X61.768 Y71.809 E55.27717
G1 X62.389 Y71.477 E55.3123
G1 X63.043 Y71.217 E55.34742
G1 X63.723 Y71.033 E55.38256
G1 X64.419 Y70.927 E55.41769
G1 X65 Y70.9 E55.4467
G1 X135 Y70.9 E58.93902
G1 X135.703 Y70.94 E58.97415
G1 X136.397 Y71.059 E59.00928
G1 X137.072 Y71.257 E59.04437
G1 X137.721 Y71.529 E59.07948
G1 X138.335 Y71.874 E59.11462
G1 X138.906 Y72.285 E59.14972
G1 X139.427 Y72.759 E59.18486
G1 X139.891 Y73.289 E59.22
G1 X140.291 Y73.868 E59.25511
G1 X140.623 Y74.489 E59.29024
G1 X140.883 Y75.143 E59.32535
G1 X141.067 Y75.823 E59.3605
G1 X141.173 Y76.519 E59.39562
G1 X141.2 Y77.1 E59.42464
G1 X141.2 Y122.9 E61.70961
G1 X141.16 Y123.603 E61.74474
G1 X141.041 Y124.297 E61.77987
G1 X140.843 Y124.972 E61.81496
G1 X140.571 Y125.621 E61.85007
G1 X140.226 Y126.235 E61.88521
G1 X139.815 Y126.806 E61.92031
G1 X139.341 Y127.327 E61.95545
G1 X138.811 Y127.791 E61.99059
G1 X138.232 Y128.191 E62.0257
G1 X137.611 Y128.523 E62.06083
G1 X136.957 Y128.783 E62.09594
G1 X136.277 Y128.967 E62.13109
G1 X135.581 Y129.073 E62.16621
G1 X135 Y129.1 E62.19523
G1 X65 Y129.1 E65.68755
G1 X64.297 Y129.06 E65.72267
G1 X63.603 Y128.941 E65.7578
G1 X62.928 Y128.743 E65.7929
G1 X62.279 Y128.471 E65.82801
G1 X61.665 Y128.126 E65.86314
G1 X61.094 Y127.715 E65.89824
G1 X60.573 Y127.241 E65.93338
G1 X60.109 Y126.711 E65.96853
G1 X59.709 Y126.132 E66.00364
G1 X59.377 Y125.511 E66.03877
G1 X59.117 Y124.857 E66.07388
G1 X58.933 Y124.177 E66.10902
G1 X58.827 Y123.481 E66.14415
G1 X58.8 Y122.9 E66.17317
G1 X58.8 Y77.1 E68.45814
G1 X58.84 Y76.397 E68.49327
G1 X58.959 Y75.703 E68.5284
G1 X59.157 Y75.028 E68.56349
G1 X59.429 Y74.379 E68.5986
G1 X59.774 Y73.765 E68.63374
G1 X60.185 Y73.194 E68.66883
G1 X60.659 Y72.673 E68.70398
G1 X61.189 Y72.209 E68.73912
G0 F3600 X61.578 Y72.417
G1 F1800 X62.15 Y72.048 E68.77308
G1 X62.762 Y71.749 E68.80706
G1 X63.404 Y71.524 E68.841
G1 X64.069 Y71.375 E68.875
G1 X65 Y71.3 E68.9216
G1 X135 Y71.3 E72.41391
G1 X135.68 Y71.34 E72.4479
G1 X136.35 Y71.459 E72.48185
G1 X137.002 Y71.656 E72.51583
G1 X137.626 Y71.928 E72.54979
G1 X138.214 Y72.272 E72.58377
G1 X138.758 Y72.682 E72.61776
G1 X139.249 Y73.153 E72.6517
G1 X139.683 Y73.678 E72.68569
G1 X140.052 Y74.25 E72.71965
G1 X140.351 Y74.862 E72.75363
G1 X140.576 Y75.504 E72.78757
G1 X140.725 Y76.169 E72.82157
G1 X140.8 Y77.1 E72.86817
G1 X140.8 Y122.9 E75.15314
G1 X140.76 Y123.58 E75.18712
G1 X140.641 Y124.25 E75.22107
G1 X140.444 Y124.902 E75.25505
G1 X140.172 Y125.526 E75.28901
G1 X139.828 Y126.114 E75.323
G1 X139.418 Y126.658 E75.35698
G1 X138.947 Y127.149 E75.39093
G1 X138.422 Y127.583 E75.42491
G1 X137.85 Y127.952 E75.45887
G1 X137.238 Y128.251 E75.49285
G1 X136.596 Y128.476 E75.52679
G1 X135.931 Y128.625 E75.56079
G1 X135 Y128.7 E75.60739
G1 X65 Y128.7 E79.09971
G1 X64.32 Y128.66 E79.13369
G1 X63.65 Y128.541 E79.16764
G1 X62.998 Y128.344 E79.20162
G1 X62.374 Y128.072 E79.23558
G1 X61.786 Y127.728 E79.26957
G1 X61.242 Y127.318 E79.30355
G1 X60.751 Y126.847 E79.3375
G1 X60.317 Y126.322 E79.37148
G1 X59.948 Y125.75 E79.40544
G1 X59.649 Y125.138 E79.43942
G1 X59.424 Y124.496 E79.47336
G1 X59.275 Y123.831 E79.50736
G1 X59.2 Y122.9 E79.55396
G1 X59.2 Y77.1 E81.83893
G1 X59.24 Y76.42 E81.87292
G1 X59.359 Y75.75 E81.90687
G1 X59.556 Y75.098 E81.94085
G1 X59.828 Y74.474 E81.97481
G1 X60.172 Y73.886 E82.00879
G1 X60.582 Y73.342 E82.04278
G1 X61.053 Y72.851 E82.07672
G1 X61.578 Y72.417 E82.11071
G0 F3600 X61.445 Y73.035
G1 F1800 X61.965 Y72.634 E82.14347
G1 X62.529 Y72.298 E82.17622
G1 X63.131 Y72.034 E82.20902
G1 X63.76 Y71.844 E82.2418
G1 X64.407 Y71.733 E82.27455
G1 X65 Y71.7 E82.30418
G1 X135 Y71.7 E85.79649
G1 X135.656 Y71.74 E85.82928
G1 X136.302 Y71.859 E85.86205
G1 X136.929 Y72.056 E85.89484
G1 X137.527 Y72.328 E85.92762
G1 X138.088 Y72.67 E85.9604
G1 X138.603 Y73.078 E85.99318
G1 X139.065 Y73.545 E86.02595
G1 X139.466 Y74.065 E86.05871
G1 X139.802 Y74.629 E86.09146
G1 X140.066 Y75.231 E86.12426
G1 X140.256 Y75.86 E86.15704
G1 X140.367 Y76.507 E86.18979
G1 X140.4 Y77.1 E86.21942
G1 X140.4 Y122.9 E88.50439
G1 X140.36 Y123.556 E88.53718
G1 X140.241 Y124.202 E88.56995
G1 X140.044 Y124.829 E88.60274
G1 X139.772 Y125.427 E88.63552
G1 X139.43 Y125.988 E88.66829
G1 X139.022 Y126.503 E88.70107
G1 X138.555 Y126.965 E88.73385
G1 X138.035 Y127.366 E88.76661
G1 X137.471 Y127.702 E88.79936
G1 X136.869 Y127.966 E88.83216
G1 X136.24 Y128.156 E88.86494
G1 X135.593 Y128.267 E88.89769
G1 X135 Y128.3 E88.92732
G1 X65 Y128.3 E92.41963
G1 X64.344 Y128.26 E92.45242
G1 X63.698 Y128.141 E92.48519
G1 X63.071 Y127.944 E92.51798
G1 X62.473 Y127.672 E92.55076
G1 X61.912 Y127.33 E92.58354
G1 X61.397 Y126.922 E92.61632
G1 X60.935 Y126.455 E92.64909
G1 X60.534 Y125.935 E92.68185
G1 X60.198 Y125.371 E92.7146
G1 X59.934 Y124.769 E92.7474
G1 X59.744 Y124.14 E92.78018
G1 X59.633 Y123.493 E92.81293
G1 X59.6 Y122.9 E92.84256
G1 X59.6 Y77.1 E95.12753
G1 X59.64 Y76.444 E95.16032
G1 X59.759 Y75.798 E95.19309
G1 X59.956 Y75.171 E95.22588
G1 X60.228 Y74.573 E95.25866
G1 X60.57 Y74.012 E95.29144
G1 X60.978 Y73.497 E95.32422
G1 X61.445 Y73.035 E95.35699
G0 F3600 X61.836 Y73.229
G1 F1800 X62.35 Y72.86 E95.38856
G1 X62.906 Y72.56 E95.42008
G1 X63.495 Y72.332 E95.45159
G1 X64.109 Y72.18 E95.48314
G1 X65 Y72.1 E95.52777
G1 X135 Y72.1 E99.02009
G1 X135.631 Y72.14 E99.05163
G1 X136.252 Y72.259 E99.08318
G1 X136.852 Y72.456 E99.11468
G1 X137.424 Y72.727 E99.14626
G1 X137.956 Y73.067 E99.17776
G1 X138.441 Y73.473 E99.20932
G1 X138.871 Y73.936 E99.24084
G1 X139.24 Y74.45 E99.27241
G1 X139.54 Y75.006 E99.30393
G1 X139.768 Y75.595 E99.33544
G1 X139.92 Y76.209 E99.367
G1 X140 Y77.1 E99.41163
G1 X140 Y122.9 E101.6966
G1 X139.96 Y123.531 E101.72814
G1 X139.841 Y124.152 E101.75969
G1 X139.644 Y124.752 E101.79119
G1 X139.373 Y125.324 E101.82277
G1 X139.033 Y125.856 E101.85427
G1 X138.627 Y126.341 E101.88583
G1 X138.164 Y126.771 E101.91735
G1 X137.65 Y127.14 E101.94892
G1 X137.094 Y127.44 E101.98044
G1 X136.505 Y127.668 E102.01195
G1 X135.891 Y127.82 E102.0435
G1 X135 Y127.9 E102.08814
G1 X65 Y127.9 E105.58045
G1 X64.369 Y127.86 E105.61199
G1 X63.748 Y127.741 E105.64354
G1 X63.148 Y127.544 E105.67505
G1 X62.576 Y127.273 E105.70662
G1 X62.044 Y126.933 E105.73812
G1 X61.559 Y126.527 E105.76968
G1 X61.129 Y126.064 E105.8012
G1 X60.76 Y125.55 E105.83277
G1 X60.46 Y124.994 E105.86429
G1 X60.232 Y124.405 E105.8958
G1 X60.08 Y123.791 E105.92736
G1 X60 Y122.9 E105.97199
G1 X60 Y77.1 E108.25696
G1 X60.04 Y76.469 E108.2885
G1 X60.159 Y75.848 E108.32005
G1 X60.356 Y75.248 E108.35155
G1 X60.627 Y74.676 E108.38313
G1 X60.967 Y74.144 E108.41463
G1 X61.373 Y73.659 E108.44619
G1 X61.836 Y73.229 E108.47771
G0 F3600 X62.225 Y73.431
G1 F1800 X62.732 Y73.098 E108.50797
G1 X63.278 Y72.834 E108.53823
G1 X63.854 Y72.645 E108.56848
G1 X64.45 Y72.533 E108.59873
G1 X65 Y72.5 E108.62622
G1 X135 Y72.5 E112.11853
G1 X135.605 Y72.54 E112.14878
G1 X136.199 Y72.659 E112.17901
G1 X136.773 Y72.855 E112.20927
G1 X137.316 Y73.126 E112.23954
G1 X137.819 Y73.465 E112.26981
G1 X138.272 Y73.867 E112.30002
G1 X138.669 Y74.325 E112.33026
G1 X139.002 Y74.832 E112.36052
G1 X139.266 Y75.378 E112.39078
G1 X139.455 Y75.954 E112.42102
G1 X139.567 Y76.55 E112.45128
G1 X139.6 Y77.1 E112.47877
G1 X139.6 Y122.9 E114.76374
G1 X139.56 Y123.505 E114.79399
G1 X139.441 Y124.099 E114.82421
G1 X139.245 Y124.673 E114.85447
G1 X138.974 Y125.216 E114.88475
G1 X138.635 Y125.719 E114.91501
G1 X138.233 Y126.172 E114.94523
G1 X137.775 Y126.569 E114.97547
G1 X137.268 Y126.902 E115.00573
G1 X136.722 Y127.166 E115.03599
G1 X136.146 Y127.355 E115.06623
G1 X135.55 Y127.467 E115.09649
G1 X135 Y127.5 E115.12398
G1 X65 Y127.5 E118.61629
G1 X64.395 Y127.46 E118.64654
G1 X63.801 Y127.341 E118.67676
G1 X63.227 Y127.145 E118.70702
G1 X62.684 Y126.874 E118.7373
