;FLAVOR:Marlin
;TIME:5473
;Filament used: 7.50493m
;Layer height: 0.3
;MINX:18.959
;MINY:15.94
;MINZ:0.2
;MAXX:146.959
;MAXY:151.539
;MAXZ:5
;Generated with Cura_SteamEngine 4.4.0
M82 ;absolute extrusion mode
G21 ; set units to millimeters
G90 ; use absolute positioning
M82 ; absolute extrusion mode
M104 S210 ; set extruder temp
M140 S60 ; set bed temp
M190 S60 ; wait for bed temp
M109 S210 ; wait for extruder temp
G28 W ; home all without mesh bed level
G80 ; mesh bed leveling
G92 E0.0 ; reset extruder distance position
G1 Y-3.0 F1000.0 ; go outside print area
G1 X60.0 E9.0 F1000.0 ; intro line
G1 X100.0 E21.5 F1000.0 ; intro line
G92 E0.0 ; reset extruder distance position
G92 E0
G92 E0
G1 F2100 E-0.8
;LAYER_COUNT:17
;LAYER:0
M107
G0 F3600 X22.77 Y20.219 Z0.2
;TYPE:SKIRT
G1 F2100 E0
G1 F1800 X23.523 Y19.486 E0.03495
G1 X24.33 Y18.813 E0.0699
G1 X25.185 Y18.204 E0.10482
G1 X26.085 Y17.661 E0.13978
G1 X27.023 Y17.188 E0.17472
G1 X27.995 Y16.789 E0.20966
G1 X28.994 Y16.464 E0.2446
G1 X30.014 Y16.216 E0.27952
G1 X31.051 Y16.046 E0.31447
G1 X32.098 Y15.956 E0.34942
G1 X32.759 Y15.94 E0.37141
G1 X133.159 Y15.94 E3.71073
G1 X134.209 Y15.98 E3.74568
G1 X135.252 Y16.1 E3.7806
G1 X136.284 Y16.298 E3.81555
G1 X137.297 Y16.575 E3.85048
G1 X138.287 Y16.928 E3.88543
G1 X139.247 Y17.355 E3.92038
G1 X140.171 Y17.854 E3.95531
G1 X141.055 Y18.422 E3.99026
G1 X141.893 Y19.056 E4.02521
G1 X142.68 Y19.751 E4.06013
G1 X143.413 Y20.504 E4.09508
G1 X144.086 Y21.311 E4.13003
G1 X144.695 Y22.166 E4.16494
G1 X145.238 Y23.066 E4.1999
G1 X145.711 Y24.004 E4.23484
G1 X146.11 Y24.976 E4.26979
G1 X146.435 Y25.975 E4.30473
G1 X146.683 Y26.995 E4.33964
G1 X146.853 Y28.032 E4.3746
G1 X146.943 Y29.079 E4.40955
G1 X146.959 Y29.74 E4.43154
G1 X146.959 Y87.739 E6.36059
G1 X146.919 Y88.789 E6.39554
G1 X146.799 Y89.832 E6.43046
G1 X146.601 Y90.864 E6.46541
G1 X146.324 Y91.877 E6.50034
G1 X145.971 Y92.867 E6.5353
G1 X145.544 Y93.827 E6.57024
G1 X145.045 Y94.751 E6.60517
G1 X144.477 Y95.635 E6.64012
G1 X143.843 Y96.473 E6.67507
G1 X143.148 Y97.26 E6.70999
G1 X142.395 Y97.993 E6.74494
G1 X141.588 Y98.666 E6.77989
G1 X140.733 Y99.275 E6.81481
G1 X139.833 Y99.818 E6.84977
G1 X138.895 Y100.291 E6.88471
G1 X137.923 Y100.69 E6.91965
G1 X136.924 Y101.015 E6.95459
G1 X135.904 Y101.263 E6.98951
G1 X134.867 Y101.433 E7.02446
G1 X133.82 Y101.523 E7.05941
G1 X133.159 Y101.539 E7.0814
G1 X111.559 Y101.539 E7.79982
G1 X111.559 Y137.739 E9.00384
G1 X111.519 Y138.789 E9.03879
G1 X111.399 Y139.832 E9.07371
G1 X111.201 Y140.864 E9.10866
G1 X110.924 Y141.877 E9.14359
G1 X110.571 Y142.867 E9.17854
G1 X110.144 Y143.827 E9.21349
G1 X109.645 Y144.751 E9.24842
G1 X109.077 Y145.635 E9.28337
G1 X108.443 Y146.473 E9.31832
G1 X107.748 Y147.26 E9.35324
G1 X106.995 Y147.993 E9.38819
G1 X106.188 Y148.666 E9.42314
G1 X105.333 Y149.275 E9.45805
G1 X104.433 Y149.818 E9.49301
G1 X103.495 Y150.291 E9.52795
G1 X102.523 Y150.69 E9.5629
G1 X101.524 Y151.015 E9.59784
G1 X100.504 Y151.263 E9.63275
G1 X99.467 Y151.433 E9.66771
G1 X98.42 Y151.523 E9.70266
G1 X97.759 Y151.539 E9.72465
G1 X67.759 Y151.539 E10.72245
G1 X66.709 Y151.499 E10.7574
G1 X65.666 Y151.379 E10.79232
G1 X64.634 Y151.181 E10.82727
G1 X63.621 Y150.904 E10.8622
G1 X62.631 Y150.551 E10.89716
G1 X61.671 Y150.124 E10.9321
G1 X60.747 Y149.625 E10.96703
G1 X59.863 Y149.057 E11.00198
G1 X59.025 Y148.423 E11.03693
G1 X58.238 Y147.728 E11.07185
G1 X57.505 Y146.975 E11.1068
G1 X56.832 Y146.168 E11.14175
G1 X56.223 Y145.313 E11.17667
G1 X55.68 Y144.413 E11.21163
G1 X55.207 Y143.475 E11.24657
G1 X54.808 Y142.503 E11.28151
G1 X54.483 Y141.504 E11.31645
G1 X54.235 Y140.484 E11.35137
G1 X54.065 Y139.447 E11.38632
G1 X53.975 Y138.4 E11.42127
G1 X53.959 Y137.739 E11.44326
G1 X53.959 Y101.539 E12.64728
G1 X32.759 Y101.539 E13.35239
G1 X31.709 Y101.499 E13.38734
G1 X30.666 Y101.379 E13.42226
G1 X29.634 Y101.181 E13.45721
G1 X28.621 Y100.904 E13.49214
G1 X27.631 Y100.551 E13.5271
G1 X26.671 Y100.124 E13.56205
G1 X25.747 Y99.625 E13.59697
G1 X24.863 Y99.057 E13.63192
G1 X24.025 Y98.423 E13.66687
G1 X23.238 Y97.728 E13.70179
G1 X22.505 Y96.975 E13.73674
G1 X21.832 Y96.168 E13.77169
G1 X21.223 Y95.313 E13.80661
G1 X20.68 Y94.413 E13.84157
G1 X20.207 Y93.475 E13.87651
G1 X19.808 Y92.503 E13.91145
G1 X19.483 Y91.504 E13.9464
G1 X19.235 Y90.484 E13.98131
G1 X19.065 Y89.447 E14.01626
G1 X18.975 Y88.4 E14.05121
G1 X18.959 Y87.739 E14.0732
G1 X18.959 Y29.74 E16.00226
G1 X18.999 Y28.69 E16.03721
G1 X19.119 Y27.647 E16.07213
G1 X19.317 Y26.615 E16.10708
G1 X19.594 Y25.602 E16.14201
G1 X19.947 Y24.612 E16.17696
G1 X20.374 Y23.652 E16.21191
G1 X20.873 Y22.728 E16.24684
G1 X21.441 Y21.844 E16.28179
G1 X22.075 Y21.006 E16.31674
G1 X22.77 Y20.219 E16.35166
G0 F3600 X23.164 Y20.386
G1 F1800 X23.915 Y19.673 E16.3861
G1 X24.719 Y19.02 E16.42055
G1 X25.57 Y18.432 E16.45495
G1 X26.465 Y17.91 E16.48941
G1 X27.396 Y17.46 E16.52381
G1 X28.36 Y17.082 E16.55825
G1 X29.351 Y16.781 E16.59269
G1 X30.361 Y16.556 E16.62711
G1 X31.386 Y16.411 E16.66154
G1 X32.759 Y16.34 E16.70727
G1 X133.159 Y16.34 E20.04659
G1 X134.193 Y16.38 E20.081
G1 X135.222 Y16.5 E20.11546
G1 X136.238 Y16.698 E20.14989
G1 X137.235 Y16.975 E20.1843
G1 X138.208 Y17.328 E20.21873
G1 X139.151 Y17.755 E20.25316
G1 X140.059 Y18.253 E20.2876
G1 X140.925 Y18.82 E20.32203
G1 X141.745 Y19.452 E20.35647
G1 X142.513 Y20.145 E20.39087
G1 X143.226 Y20.896 E20.42531
G1 X143.879 Y21.7 E20.45976
G1 X144.467 Y22.551 E20.49417
G1 X144.989 Y23.446 E20.52863
G1 X145.439 Y24.377 E20.56302
G1 X145.817 Y25.341 E20.59746
G1 X146.118 Y26.332 E20.63191
G1 X146.343 Y27.342 E20.66632
G1 X146.488 Y28.367 E20.70076
G1 X146.559 Y29.74 E20.74648
G1 X146.559 Y87.739 E22.67554
G1 X146.519 Y88.773 E22.70995
G1 X146.399 Y89.802 E22.74441
G1 X146.201 Y90.818 E22.77884
G1 X145.924 Y91.815 E22.81326
G1 X145.571 Y92.788 E22.84768
G1 X145.144 Y93.731 E22.88211
G1 X144.646 Y94.639 E22.91656
G1 X144.079 Y95.505 E22.95098
G1 X143.447 Y96.325 E22.98542
G1 X142.754 Y97.093 E23.01982
G1 X142.003 Y97.806 E23.05427
G1 X141.199 Y98.459 E23.08872
G1 X140.348 Y99.047 E23.12312
G1 X139.453 Y99.569 E23.15758
G1 X138.522 Y100.019 E23.19197
G1 X137.558 Y100.397 E23.22641
G1 X136.567 Y100.698 E23.26086
G1 X135.557 Y100.923 E23.29528
G1 X134.532 Y101.068 E23.32971
G1 X133.159 Y101.139 E23.37543
G1 X111.159 Y101.139 E24.10716
G1 X111.159 Y137.739 E25.32448
G1 X111.119 Y138.773 E25.3589
G1 X110.999 Y139.802 E25.39335
G1 X110.801 Y140.818 E25.42778
G1 X110.524 Y141.815 E25.4622
G1 X110.171 Y142.788 E25.49662
G1 X109.744 Y143.731 E25.53105
G1 X109.246 Y144.639 E25.5655
G1 X108.679 Y145.505 E25.59992
G1 X108.047 Y146.325 E25.63436
G1 X107.354 Y147.093 E25.66876
G1 X106.603 Y147.806 E25.70321
G1 X105.799 Y148.459 E25.73766
G1 X104.948 Y149.047 E25.77206
G1 X104.053 Y149.569 E25.80652
G1 X103.122 Y150.019 E25.84091
G1 X102.158 Y150.397 E25.87535
G1 X101.167 Y150.698 E25.9098
G1 X100.157 Y150.923 E25.94422
G1 X99.132 Y151.068 E25.97865
G1 X97.759 Y151.139 E26.02438
G1 X67.759 Y151.139 E27.02218
G1 X66.725 Y151.099 E27.0566
G1 X65.696 Y150.979 E27.09105
G1 X64.68 Y150.781 E27.12548
G1 X63.683 Y150.504 E27.1599
G1 X62.71 Y150.151 E27.19432
G1 X61.767 Y149.724 E27.22875
G1 X60.859 Y149.226 E27.2632
G1 X59.993 Y148.659 E27.29762
G1 X59.173 Y148.027 E27.33206
G1 X58.405 Y147.334 E27.36646
G1 X57.692 Y146.583 E27.40091
G1 X57.039 Y145.779 E27.43536
G1 X56.451 Y144.928 E27.46976
G1 X55.929 Y144.033 E27.50422
G1 X55.479 Y143.102 E27.53861
G1 X55.101 Y142.138 E27.57305
G1 X54.8 Y141.147 E27.6075
G1 X54.575 Y140.137 E27.64192
G1 X54.43 Y139.112 E27.67635
G1 X54.359 Y137.739 E27.72208
G1 X54.359 Y101.139 E28.9394
G1 X32.759 Y101.139 E29.65782
G1 X31.725 Y101.099 E29.69223
G1 X30.696 Y100.979 E29.72669
G1 X29.68 Y100.781 E29.76112
G1 X28.683 Y100.504 E29.79553
G1 X27.71 Y100.151 E29.82996
G1 X26.767 Y99.724 E29.86439
G1 X25.859 Y99.226 E29.89883
G1 X24.993 Y98.659 E29.93326
G1 X24.173 Y98.027 E29.9677
G1 X23.405 Y97.334 E30.0021
G1 X22.692 Y96.583 E30.03654
G1 X22.039 Y95.779 E30.07099
G1 X21.451 Y94.928 E30.1054
G1 X20.929 Y94.033 E30.13986
G1 X20.479 Y93.102 E30.17425
G1 X20.101 Y92.138 E30.20869
G1 X19.8 Y91.147 E30.24314
G1 X19.575 Y90.137 E30.27755
G1 X19.43 Y89.112 E30.31199
G1 X19.359 Y87.739 E30.35771
G1 X19.359 Y29.74 E32.28677
G1 X19.399 Y28.706 E32.32118
G1 X19.519 Y27.677 E32.35564
G1 X19.717 Y26.661 E32.39007
G1 X19.994 Y25.664 E32.42448
G1 X20.347 Y24.691 E32.45891
G1 X20.774 Y23.748 E32.49334
G1 X21.272 Y22.84 E32.52779
G1 X21.839 Y21.974 E32.56221
G1 X22.471 Y21.154 E32.59665
G1 X23.164 Y20.386 E32.63105
G0 F3600 X23.558 Y20.556
G1 F1800 X24.307 Y19.863 E32.66499
G1 X25.107 Y19.231 E32.6989
G1 X25.954 Y18.663 E32.73282
G1 X26.843 Y18.164 E32.76673
G1 X27.768 Y17.736 E32.80063
G1 X28.724 Y17.382 E32.83453
G1 X29.705 Y17.104 E32.86845
G1 X30.705 Y16.903 E32.90237
G1 X31.717 Y16.782 E32.93627
G1 X32.759 Y16.74 E32.97096
G1 X133.159 Y16.74 E36.31027
G1 X134.178 Y16.78 E36.34419
G1 X135.19 Y16.9 E36.37809
G1 X136.19 Y17.098 E36.41199
G1 X137.172 Y17.375 E36.44593
G1 X138.129 Y17.727 E36.47984
G1 X139.055 Y18.154 E36.51376
G1 X139.945 Y18.651 E36.54766
G1 X140.793 Y19.217 E36.58157
G1 X141.594 Y19.848 E36.61549
G1 X142.343 Y20.539 E36.64938
G1 X143.036 Y21.288 E36.68332
G1 X143.668 Y22.088 E36.71723
G1 X144.236 Y22.935 E36.75115
G1 X144.735 Y23.824 E36.78506
G1 X145.163 Y24.749 E36.81896
G1 X145.517 Y25.705 E36.85286
G1 X145.795 Y26.686 E36.88678
G1 X145.996 Y27.686 E36.9207
G1 X146.117 Y28.698 E36.9546
G1 X146.159 Y29.74 E36.98929
G1 X146.159 Y87.739 E38.91834
G1 X146.119 Y88.758 E38.95226
G1 X145.999 Y89.77 E38.98616
G1 X145.801 Y90.77 E39.02006
G1 X145.524 Y91.752 E39.054
G1 X145.172 Y92.709 E39.08791
G1 X144.745 Y93.635 E39.12183
G1 X144.248 Y94.525 E39.15573
G1 X143.682 Y95.373 E39.18964
G1 X143.051 Y96.174 E39.22356
G1 X142.36 Y96.923 E39.25745
G1 X141.611 Y97.616 E39.29139
G1 X140.811 Y98.248 E39.3253
G1 X139.964 Y98.816 E39.35922
G1 X139.075 Y99.315 E39.39313
G1 X138.15 Y99.743 E39.42703
G1 X137.194 Y100.097 E39.46093
G1 X136.213 Y100.375 E39.49485
G1 X135.213 Y100.576 E39.52877
G1 X134.201 Y100.697 E39.56267
G1 X133.159 Y100.739 E39.59736
G1 X110.759 Y100.739 E40.34238
G1 X110.759 Y137.739 E41.57301
G1 X110.719 Y138.758 E41.60693
G1 X110.599 Y139.77 E41.64082
G1 X110.401 Y140.77 E41.67473
G1 X110.124 Y141.752 E41.70866
G1 X109.772 Y142.709 E41.74258
G1 X109.345 Y143.635 E41.77649
G1 X108.848 Y144.525 E41.8104
G1 X108.282 Y145.373 E41.84431
G1 X107.651 Y146.174 E41.87822
G1 X106.96 Y146.923 E41.91212
G1 X106.211 Y147.616 E41.94606
G1 X105.411 Y148.248 E41.97996
G1 X104.564 Y148.816 E42.01388
G1 X103.675 Y149.315 E42.04779
G1 X102.75 Y149.743 E42.08169
G1 X101.794 Y150.097 E42.1156
G1 X100.813 Y150.375 E42.14951
G1 X99.813 Y150.576 E42.18344
G1 X98.801 Y150.697 E42.21733
G1 X97.759 Y150.739 E42.25202
G1 X67.759 Y150.739 E43.24982
G1 X66.74 Y150.699 E43.28374
G1 X65.728 Y150.579 E43.31764
G1 X64.728 Y150.381 E43.35154
G1 X63.746 Y150.104 E43.38548
G1 X62.789 Y149.752 E43.41939
G1 X61.863 Y149.325 E43.45331
G1 X60.973 Y148.828 E43.48721
G1 X60.125 Y148.262 E43.52112
G1 X59.324 Y147.631 E43.55504
G1 X58.575 Y146.94 E43.58893
G1 X57.882 Y146.191 E43.62287
G1 X57.25 Y145.391 E43.65678
G1 X56.682 Y144.544 E43.6907
G1 X56.183 Y143.655 E43.72461
G1 X55.755 Y142.73 E43.75851
G1 X55.401 Y141.774 E43.79241
G1 X55.123 Y140.793 E43.82633
G1 X54.922 Y139.793 E43.86025
G1 X54.801 Y138.781 E43.89415
G1 X54.759 Y137.739 E43.92884
G1 X54.759 Y100.739 E45.15946
G1 X32.759 Y100.739 E45.89119
G1 X31.74 Y100.699 E45.9251
G1 X30.728 Y100.579 E45.959
G1 X29.728 Y100.381 E45.9929
G1 X28.746 Y100.104 E46.02684
G1 X27.789 Y99.752 E46.06076
G1 X26.863 Y99.325 E46.09467
G1 X25.973 Y98.828 E46.12857
G1 X25.125 Y98.262 E46.16248
G1 X24.324 Y97.631 E46.1964
G1 X23.575 Y96.94 E46.23029
G1 X22.882 Y96.191 E46.26423
G1 X22.25 Y95.391 E46.29814
G1 X21.682 Y94.544 E46.33206
G1 X21.183 Y93.655 E46.36597
G1 X20.755 Y92.73 E46.39987
G1 X20.401 Y91.774 E46.43378
G1 X20.123 Y90.793 E46.46769
G1 X19.922 Y89.793 E46.50161
G1 X19.801 Y88.781 E46.53551
G1 X19.759 Y87.739 E46.5702
G1 X19.759 Y29.74 E48.49925
G1 X19.799 Y28.721 E48.53317
G1 X19.919 Y27.709 E48.56707
G1 X20.117 Y26.709 E48.60097
G1 X20.394 Y25.727 E48.63491
G1 X20.746 Y24.77 E48.66882
G1 X21.173 Y23.844 E48.70274
G1 X21.67 Y22.954 E48.73664
G1 X22.236 Y22.106 E48.77055
G1 X22.867 Y21.305 E48.80447
G1 X23.558 Y20.556 E48.83836
G0 F3600 X23.952 Y20.729
G1 F1800 X24.698 Y20.056 E48.87178
G1 X25.494 Y19.445 E48.90515
G1 X26.336 Y18.9 E48.93851
G1 X27.22 Y18.423 E48.97192
G1 X28.138 Y18.018 E49.00529
G1 X29.086 Y17.687 E49.03869
G1 X30.057 Y17.433 E49.07207
G1 X31.045 Y17.257 E49.10545
G1 X32.044 Y17.16 E49.13884
G1 X32.759 Y17.14 E49.16263
G1 X133.159 Y17.14 E52.50194
G1 X134.162 Y17.18 E52.53533
G1 X135.159 Y17.3 E52.56873
G1 X136.143 Y17.498 E52.60211
G1 X137.108 Y17.775 E52.63551
G1 X138.048 Y18.127 E52.66889
G1 X138.956 Y18.553 E52.70225
G1 X139.829 Y19.05 E52.73566
G1 X140.658 Y19.615 E52.76903
G1 X141.441 Y20.244 E52.80243
G1 X142.17 Y20.933 E52.8358
G1 X142.843 Y21.679 E52.86921
G1 X143.454 Y22.475 E52.90259
G1 X143.999 Y23.317 E52.93595
G1 X144.476 Y24.201 E52.96936
G1 X144.881 Y25.119 E53.00273
G1 X145.212 Y26.067 E53.03613
G1 X145.466 Y27.038 E53.06951
G1 X145.642 Y28.026 E53.10289
G1 X145.739 Y29.025 E53.13627
G1 X145.759 Y29.74 E53.16006
G1 X145.759 Y87.739 E55.08912
G1 X145.719 Y88.742 E55.1225
G1 X145.599 Y89.739 E55.1559
G1 X145.401 Y90.723 E55.18929
G1 X145.124 Y91.688 E55.22268
G1 X144.772 Y92.628 E55.25606
G1 X144.346 Y93.536 E55.28942
G1 X143.849 Y94.409 E55.32283
G1 X143.284 Y95.238 E55.3562
G1 X142.655 Y96.021 E55.3896
G1 X141.966 Y96.75 E55.42297
G1 X141.22 Y97.423 E55.45638
G1 X140.424 Y98.034 E55.48976
G1 X139.582 Y98.579 E55.52312
G1 X138.698 Y99.056 E55.55653
G1 X137.78 Y99.461 E55.5899
G1 X136.832 Y99.792 E55.6233
G1 X135.861 Y100.046 E55.65668
G1 X134.873 Y100.222 E55.69006
G1 X133.874 Y100.319 E55.72344
G1 X133.159 Y100.339 E55.74723
G1 X110.359 Y100.339 E56.50556
G1 X110.359 Y137.739 E57.74949
G1 X110.319 Y138.742 E57.78288
G1 X110.199 Y139.739 E57.81628
G1 X110.001 Y140.723 E57.84966
G1 X109.724 Y141.688 E57.88305
G1 X109.372 Y142.628 E57.91644
G1 X108.946 Y143.536 E57.9498
G1 X108.449 Y144.409 E57.98321
G1 X107.884 Y145.238 E58.01658
G1 X107.255 Y146.021 E58.04998
G1 X106.566 Y146.75 E58.08334
G1 X105.82 Y147.423 E58.11676
G1 X105.024 Y148.034 E58.15014
G1 X104.182 Y148.579 E58.1835
G1 X103.298 Y149.056 E58.21691
G1 X102.38 Y149.461 E58.25028
G1 X101.432 Y149.792 E58.28367
G1 X100.461 Y150.046 E58.31706
G1 X99.473 Y150.222 E58.35044
G1 X98.474 Y150.319 E58.38382
G1 X97.759 Y150.339 E58.40761
G1 X67.759 Y150.339 E59.40541
G1 X66.756 Y150.299 E59.4388
G1 X65.759 Y150.179 E59.4722
G1 X64.775 Y149.981 E59.50558
G1 X63.81 Y149.704 E59.53898
G1 X62.87 Y149.352 E59.57236
G1 X61.962 Y148.926 E59.60572
G1 X61.089 Y148.429 E59.63913
G1 X60.26 Y147.864 E59.6725
G1 X59.477 Y147.235 E59.7059
G1 X58.748 Y146.546 E59.73927
G1 X58.075 Y145.8 E59.77268
G1 X57.464 Y145.004 E59.80606
G1 X56.919 Y144.162 E59.83942
G1 X56.442 Y143.278 E59.87283
G1 X56.037 Y142.36 E59.9062
G1 X55.706 Y141.412 E59.9396
G1 X55.452 Y140.441 E59.97298
G1 X55.276 Y139.453 E60.00636
G1 X55.179 Y138.454 E60.03974
G1 X55.159 Y137.739 E60.06353
G1 X55.159 Y100.339 E61.30746
G1 X32.759 Y100.339 E62.05249
G1 X31.756 Y100.299 E62.08587
G1 X30.759 Y100.179 E62.11927
G1 X29.775 Y99.981 E62.15266
G1 X28.81 Y99.704 E62.18605
G1 X27.87 Y99.352 E62.21943
G1 X26.962 Y98.926 E62.25279
G1 X26.089 Y98.429 E62.2862
G1 X25.26 Y97.864 E62.31957
G1 X24.477 Y97.235 E62.35298
G1 X23.748 Y96.546 E62.38634
G1 X23.075 Y95.8 E62.41976
G1 X22.464 Y95.004 E62.45313
G1 X21.919 Y94.162 E62.48649
G1 X21.442 Y93.278 E62.5199
G1 X21.037 Y92.36 E62.55327
G1 X20.706 Y91.412 E62.58667
G1 X20.452 Y90.441 E62.62005
G1 X20.276 Y89.453 E62.65343
G1 X20.179 Y88.454 E62.68681
G1 X20.159 Y87.739 E62.7106
G1 X20.159 Y29.74 E64.63966
G1 X20.199 Y28.737 E64.67304
G1 X20.319 Y27.74 E64.70644
G1 X20.517 Y26.756 E64.73983
G1 X20.794 Y25.791 E64.77322
G1 X21.146 Y24.851 E64.8066
