;FLAVOR:Marlin
;TIME:2212
;Filament used: 3.5994m
;Layer height: 0.3
;MINX:58.804
;MINY:37.482
;MINZ:0.2
;MAXX:98.622
;MAXY:78.788
;MAXZ:17.3
;Generated with Cura_SteamEngine 4.4.0
M82 ;absolute extrusion mode
G21 ; set units to millimeters
G90 ; use absolute positioning
M82 ; absolute extrusion mode
M104 S210 ; set extruder temp
M140 S60 ; set bed temp
M190 S60 ; wait for bed temp
M109 S210 ; wait for extruder temp
G28 W ; home all without mesh bed level
G80 ; mesh bed leveling
G92 E0.0 ; reset extruder distance position
G1 Y-3.0 F1000.0 ; go outside print area
G1 X60.0 E9.0 F1000.0 ; intro line
G1 X100.0 E21.5 F1000.0 ; intro line
G92 E0.0 ; reset extruder distance position
G92 E0
G92 E0
G1 F2100 E-0.8
;LAYER_COUNT:58
;LAYER:0
M107
;MESH:valvemountplate_screwattach_smallersyringe_vertical_attach.stl
G0 F3600 X89.669 Y67.935 Z0.2
;TYPE:WALL-OUTER
G1 F2100 E0
G1 F1800 X70.769 Y67.935 E0.62862
G1 X70.769 Y77.935 E0.96122
G1 X59.669 Y77.935 E1.33041
G1 X59.669 Y38.335 E2.64751
G1 X70.769 Y38.335 E3.01669
G1 X70.769 Y48.335 E3.3493
G1 X89.669 Y48.335 E3.97791
G1 X89.669 Y38.335 E4.31051
G1 X97.769 Y38.335 E4.57992
G1 X97.769 Y77.935 E5.89702
G1 X89.669 Y77.935 E6.16643
G1 X89.669 Y67.935 E6.49903
G0 F3600 X89.469 Y67.935
G0 X90.069 Y67.535
;TYPE:WALL-INNER
G1 F1800 X70.369 Y67.535 E7.15426
G1 X70.369 Y77.535 E7.48686
G1 X60.069 Y77.535 E7.82944
G1 X60.069 Y38.735 E9.11993
G1 X70.369 Y38.735 E9.46251
G1 X70.369 Y48.735 E9.79511
G1 X90.069 Y48.735 E10.45033
G1 X90.069 Y38.735 E10.78294
G1 X97.369 Y38.735 E11.02573
G1 X97.369 Y77.535 E12.31623
G1 X90.069 Y77.535 E12.55903
G1 X90.069 Y67.535 E12.89163
G0 F3600 X90.459 Y67.145
;TYPE:SKIN
G1 F1800 X69.979 Y67.145 E13.5728
G1 X69.979 Y77.145 E13.9054
G1 X60.459 Y77.145 E14.22203
G1 X60.459 Y39.125 E15.48658
G1 X69.979 Y39.125 E15.80322
G1 X69.979 Y49.125 E16.13582
G1 X90.459 Y49.125 E16.81699
G1 X90.459 Y39.125 E17.14959
G1 X96.979 Y39.125 E17.36645
G1 X96.979 Y77.145 E18.631
G1 X90.459 Y77.145 E18.84785
G1 X90.459 Y67.145 E19.18045
G0 F3600 X96.798 Y39.664
G1 F1800 X96.439 Y39.305 E19.19734
G0 F3600 X95.873 Y39.305
G1 F1800 X96.798 Y40.23 E19.24085
G0 F3600 X96.798 Y40.795
G1 F1800 X95.308 Y39.305 E19.31094
G0 F3600 X94.742 Y39.305
G1 F1800 X96.798 Y41.361 E19.40764
G0 F3600 X96.798 Y41.927
G1 F1800 X94.176 Y39.305 E19.53097
G0 F3600 X93.611 Y39.305
G1 F1800 X96.798 Y42.492 E19.68088
G0 F3600 X96.798 Y43.058
G1 F1800 X93.045 Y39.305 E19.85741
G0 F3600 X92.479 Y39.305
G1 F1800 X96.798 Y43.624 E20.06056
G0 F3600 X96.798 Y44.189
G1 F1800 X91.913 Y39.305 E20.29031
G0 F3600 X91.348 Y39.305
G1 F1800 X96.798 Y44.755 E20.54667
G0 F3600 X96.798 Y45.321
G1 F1800 X90.782 Y39.305 E20.82964
G0 F3600 X90.638 Y39.726
G1 F1800 X96.798 Y45.886 E21.11939
G0 F3600 X96.798 Y46.452
G1 F1800 X90.638 Y40.292 E21.40914
G0 F3600 X90.638 Y40.858
G1 F1800 X96.798 Y47.018 E21.69888
G0 F3600 X96.798 Y47.584
G1 F1800 X90.638 Y41.423 E21.98865
G0 F3600 X90.638 Y41.989
G1 F1800 X96.798 Y48.149 E22.2784
G0 F3600 X96.798 Y48.715
G1 F1800 X90.638 Y42.555 E22.56815
G0 F3600 X90.638 Y43.12
G1 F1800 X96.798 Y49.281 E22.85792
G0 F3600 X96.798 Y49.846
G1 F1800 X90.638 Y43.686 E23.14767
G0 F3600 X90.638 Y44.252
G1 F1800 X96.798 Y50.412 E23.43741
G0 F3600 X96.798 Y50.978
G1 F1800 X90.638 Y44.817 E23.72719
G0 F3600 X90.638 Y45.383
G1 F1800 X96.798 Y51.543 E24.01693
G0 F3600 X96.798 Y52.109
G1 F1800 X90.638 Y45.949 E24.30668
G0 F3600 X90.638 Y46.514
G1 F1800 X96.798 Y52.675 E24.59645
G0 F3600 X96.798 Y53.24
G1 F1800 X90.638 Y47.08 E24.8862
G0 F3600 X90.638 Y47.646
G1 F1800 X96.798 Y53.806 E25.17595
G0 F3600 X96.798 Y54.372
G1 F1800 X90.638 Y48.211 E25.46572
G0 F3600 X90.638 Y48.777
G1 F1800 X96.798 Y54.937 E25.75547
G0 F3600 X96.798 Y55.503
G1 F1800 X90.6 Y49.305 E26.047
G0 F3600 X90.034 Y49.305
G1 F1800 X96.798 Y56.069 E26.36516
G0 F3600 X96.798 Y56.635
G1 F1800 X89.468 Y49.305 E26.70994
G0 F3600 X88.903 Y49.305
G1 F1800 X96.798 Y57.2 E27.0813
G0 F3600 X96.798 Y57.766
G1 F1800 X88.337 Y49.305 E27.47928
G0 F3600 X87.771 Y49.305
G1 F1800 X96.798 Y58.332 E27.90388
G0 F3600 X96.798 Y58.897
G1 F1800 X87.206 Y49.305 E28.35506
G0 F3600 X86.64 Y49.305
G1 F1800 X96.798 Y59.463 E28.83286
G0 F3600 X96.798 Y60.029
G1 F1800 X86.074 Y49.305 E29.33728
G0 F3600 X85.509 Y49.305
G1 F1800 X96.798 Y60.594 E29.86828
G0 F3600 X96.798 Y61.16
G1 F1800 X84.943 Y49.305 E30.4259
G0 F3600 X84.377 Y49.305
G1 F1800 X96.798 Y61.726 E31.01015
G0 F3600 X96.798 Y62.291
G1 F1800 X83.811 Y49.305 E31.62099
G0 F3600 X83.246 Y49.305
G1 F1800 X96.798 Y62.857 E32.25844
G0 F3600 X96.798 Y63.423
G1 F1800 X82.68 Y49.305 E32.92251
G0 F3600 X82.114 Y49.305
G1 F1800 X96.798 Y63.988 E33.61317
G0 F3600 X96.798 Y64.554
G1 F1800 X81.549 Y49.305 E34.33044
G0 F3600 X80.983 Y49.305
G1 F1800 X96.798 Y65.12 E35.07433
G0 F3600 X96.798 Y65.685
G1 F1800 X80.417 Y49.305 E35.84482
G0 F3600 X79.852 Y49.305
G1 F1800 X96.798 Y66.251 E36.64191
G0 F3600 X96.798 Y66.817
G1 F1800 X79.286 Y49.305 E37.46562
G0 F3600 X78.72 Y49.305
G1 F1800 X96.798 Y67.383 E38.31595
G0 F3600 X96.798 Y67.948
G1 F1800 X78.155 Y49.305 E39.19286
G0 F3600 X77.589 Y49.305
G1 F1800 X96.798 Y68.514 E40.09639
G0 F3600 X96.798 Y69.08
G1 F1800 X77.023 Y49.305 E41.02655
G0 F3600 X76.458 Y49.305
G1 F1800 X96.798 Y69.645 E41.98328
G0 F3600 X96.798 Y70.211
G1 F1800 X75.892 Y49.305 E42.96663
G0 F3600 X75.326 Y49.305
G1 F1800 X96.798 Y70.777 E43.97661
G0 F3600 X96.798 Y71.342
G1 F1800 X74.76 Y49.305 E45.01319
G0 F3600 X74.195 Y49.305
G1 F1800 X96.798 Y71.908 E46.07636
G0 F3600 X96.798 Y72.474
G1 F1800 X73.629 Y49.305 E47.16616
G0 F3600 X73.063 Y49.305
G1 F1800 X96.798 Y73.039 E48.28256
G0 F3600 X96.798 Y73.605
G1 F1800 X90.637 Y67.444 E48.57235
G0 F3600 X90.637 Y68.01
G1 F1800 X96.798 Y74.171 E48.86215
G0 F3600 X96.798 Y74.736
G1 F1800 X90.637 Y68.575 E49.15194
G0 F3600 X90.637 Y69.141
G1 F1800 X96.798 Y75.302 E49.44174
G0 F3600 X96.798 Y75.868
G1 F1800 X90.637 Y69.707 E49.73153
G0 F3600 X90.637 Y70.272
G1 F1800 X96.798 Y76.434 E50.02135
G0 F3600 X96.764 Y76.965
G1 F1800 X90.637 Y70.838 E50.30954
G0 F3600 X90.637 Y71.404
G1 F1800 X96.198 Y76.965 E50.57112
G0 F3600 X95.632 Y76.965
G1 F1800 X90.637 Y71.97 E50.80607
G0 F3600 X90.637 Y72.535
G1 F1800 X95.066 Y76.965 E51.01442
G0 F3600 X94.501 Y76.965
G1 F1800 X90.637 Y73.101 E51.19617
G0 F3600 X90.637 Y73.667
G1 F1800 X93.935 Y76.965 E51.3513
G0 F3600 X93.369 Y76.965
G1 F1800 X90.637 Y74.232 E51.47982
G0 F3600 X90.637 Y74.798
G1 F1800 X92.804 Y76.965 E51.58175
G0 F3600 X92.238 Y76.965
G1 F1800 X90.637 Y75.364 E51.65706
G0 F3600 X90.637 Y75.929
G1 F1800 X91.672 Y76.965 E51.70577
G0 F3600 X91.107 Y76.965
G1 F1800 X90.637 Y76.495 E51.72787
G0 F3600 X90.157 Y66.964
G1 F1800 X72.498 Y49.305 E52.5585
G0 F3600 X71.932 Y49.305
G1 F1800 X89.591 Y66.964 E53.38912
G0 F3600 X89.026 Y66.964
G1 F1800 X71.366 Y49.305 E54.21977
G0 F3600 X70.801 Y49.305
G1 F1800 X88.46 Y66.964 E55.0504
G0 F3600 X87.894 Y66.964
G1 F1800 X70.235 Y49.305 E55.88102
G0 F3600 X69.798 Y48.868
G1 F1800 X60.638 Y39.708 E56.31188
G0 F3600 X60.801 Y39.305
G1 F1800 X69.798 Y48.302 E56.73507
G0 F3600 X69.798 Y47.736
G1 F1800 X61.366 Y39.305 E57.13166
G0 F3600 X61.932 Y39.305
G1 F1800 X69.798 Y47.171 E57.50166
G0 F3600 X69.798 Y46.605
G1 F1800 X62.498 Y39.305 E57.84503
G0 F3600 X63.064 Y39.305
G1 F1800 X69.798 Y46.039 E58.16177
G0 F3600 X69.798 Y45.474
G1 F1800 X63.629 Y39.305 E58.45194
G0 F3600 X64.195 Y39.305
G1 F1800 X69.798 Y44.908 E58.71549
G0 F3600 X69.798 Y44.342
G1 F1800 X64.761 Y39.305 E58.95242
G0 F3600 X65.326 Y39.305
G1 F1800 X69.798 Y43.776 E59.16274
G0 F3600 X69.798 Y43.211
G1 F1800 X65.892 Y39.305 E59.34647
G0 F3600 X66.458 Y39.305
G1 F1800 X69.798 Y42.645 E59.50357
G0 F3600 X69.798 Y42.079
G1 F1800 X67.023 Y39.305 E59.63408
G0 F3600 X67.589 Y39.305
G1 F1800 X69.798 Y41.514 E59.73798
G0 F3600 X69.798 Y40.948
G1 F1800 X68.155 Y39.305 E59.81526
G0 F3600 X68.72 Y39.305
G1 F1800 X69.798 Y40.382 E59.86594
G0 F3600 X69.798 Y39.817
G1 F1800 X69.286 Y39.305 E59.89003
G0 F3600 X60.638 Y40.273
G1 F1800 X87.329 Y66.964 E61.14549
G0 F3600 X86.763 Y66.964
G1 F1800 X60.638 Y40.839 E62.37433
G0 F3600 X60.638 Y41.405
G1 F1800 X86.197 Y66.964 E63.57655
G0 F3600 X85.632 Y66.964
G1 F1800 X60.638 Y41.971 E64.75216
G0 F3600 X60.638 Y42.536
G1 F1800 X85.066 Y66.964 E65.90118
G0 F3600 X84.5 Y66.964
G1 F1800 X60.638 Y43.102 E67.02358
G0 F3600 X60.638 Y43.668
G1 F1800 X83.934 Y66.964 E68.11935
G0 F3600 X83.369 Y66.964
G1 F1800 X60.638 Y44.233 E69.18855
G0 F3600 X60.638 Y44.799
G1 F1800 X82.803 Y66.964 E70.23112
G0 F3600 X82.237 Y66.964
G1 F1800 X60.638 Y45.365 E71.24707
G0 F3600 X60.638 Y45.93
G1 F1800 X81.672 Y66.964 E72.23645
G0 F3600 X81.106 Y66.964
G1 F1800 X60.638 Y46.496 E73.1992
G0 F3600 X60.638 Y47.062
G1 F1800 X80.54 Y66.964 E74.13533
G0 F3600 X79.975 Y66.964
G1 F1800 X60.638 Y47.627 E75.04488
G0 F3600 X60.638 Y48.193
G1 F1800 X79.409 Y66.964 E75.92781
G0 F3600 X78.843 Y66.964
G1 F1800 X60.638 Y48.759 E76.78412
G0 F3600 X60.638 Y49.324
G1 F1800 X78.278 Y66.964 E77.61385
G0 F3600 X77.712 Y66.964
G1 F1800 X60.638 Y49.89 E78.41696
G0 F3600 X60.638 Y50.456
G1 F1800 X77.146 Y66.964 E79.19344
G0 F3600 X76.581 Y66.964
G1 F1800 X60.638 Y51.021 E79.94335
G0 F3600 X60.638 Y51.587
G1 F1800 X76.015 Y66.964 E80.66664
G0 F3600 X75.449 Y66.964
G1 F1800 X60.638 Y52.153 E81.36331
G0 F3600 X60.638 Y52.719
G1 F1800 X74.884 Y66.964 E82.03337
G0 F3600 X74.318 Y66.964
G1 F1800 X60.638 Y53.284 E82.67683
G0 F3600 X60.638 Y53.85
G1 F1800 X73.752 Y66.964 E83.29368
G0 F3600 X73.186 Y66.964
G1 F1800 X60.638 Y54.416 E83.8839
G0 F3600 X60.638 Y54.981
G1 F1800 X72.621 Y66.964 E84.44754
G0 F3600 X72.055 Y66.964
G1 F1800 X60.638 Y55.547 E84.98456
G0 F3600 X60.638 Y56.113
G1 F1800 X71.489 Y66.964 E85.49496
G0 F3600 X70.924 Y66.964
G1 F1800 X60.638 Y56.678 E85.97878
G0 F3600 X60.638 Y57.244
G1 F1800 X70.358 Y66.964 E86.43598
G0 F3600 X69.798 Y66.97
G1 F1800 X60.638 Y57.81 E86.86684
G0 F3600 X60.638 Y58.375
G1 F1800 X69.798 Y67.535 E87.2977
G0 F3600 X69.798 Y68.101
G1 F1800 X60.638 Y58.941 E87.72855
G0 F3600 X60.638 Y59.507
G1 F1800 X69.798 Y68.667 E88.15941
G0 F3600 X69.798 Y69.232
G1 F1800 X60.638 Y60.072 E88.59027
G0 F3600 X60.638 Y60.638
G1 F1800 X69.798 Y69.798 E89.02113
G0 F3600 X69.798 Y70.364
G1 F1800 X60.638 Y61.204 E89.45199
G0 F3600 X60.638 Y61.77
G1 F1800 X69.798 Y70.929 E89.88282
G0 F3600 X69.798 Y71.495
G1 F1800 X60.638 Y62.335 E90.31368
G0 F3600 X60.638 Y62.901
G1 F1800 X69.798 Y72.061 E90.74454
G0 F3600 X69.798 Y72.626
G1 F1800 X60.638 Y63.467 E91.17537
G0 F3600 X60.638 Y64.032
G1 F1800 X69.798 Y73.192 E91.60623
G0 F3600 X69.798 Y73.758
G1 F1800 X60.638 Y64.598 E92.03709
G0 F3600 X60.638 Y65.164
G1 F1800 X69.798 Y74.323 E92.46793
G0 F3600 X69.798 Y74.889
G1 F1800 X60.638 Y65.729 E92.89878
G0 F3600 X60.638 Y66.295
G1 F1800 X69.798 Y75.455 E93.32964
G0 F3600 X69.798 Y76.021
G1 F1800 X60.638 Y66.861 E93.7605
G0 F3600 X60.638 Y67.426
G1 F1800 X69.798 Y76.586 E94.19136
G0 F3600 X69.61 Y76.964
G1 F1800 X60.638 Y67.992 E94.61337
G0 F3600 X60.638 Y68.558
G1 F1800 X69.044 Y76.964 E95.00877
G0 F3600 X68.479 Y76.964
G1 F1800 X60.638 Y69.123 E95.37758
G0 F3600 X60.638 Y69.689
G1 F1800 X67.913 Y76.964 E95.71978
G0 F3600 X67.347 Y76.964
G1 F1800 X60.638 Y70.255 E96.03535
G0 F3600 X60.638 Y70.82
G1 F1800 X66.781 Y76.964 E96.32432
G0 F3600 X66.216 Y76.964
G1 F1800 X60.638 Y71.386 E96.58669
G0 F3600 X60.638 Y71.952
G1 F1800 X65.65 Y76.964 E96.82244
G0 F3600 X65.084 Y76.964
G1 F1800 X60.638 Y72.518 E97.03157
G0 F3600 X60.638 Y73.083
G1 F1800 X64.519 Y76.964 E97.21412
G0 F3600 X63.953 Y76.964
G1 F1800 X60.638 Y73.649 E97.37004
G0 F3600 X60.638 Y74.215
G1 F1800 X63.387 Y76.964 E97.49935
G0 F3600 X62.822 Y76.964
G1 F1800 X60.638 Y74.78 E97.60208
G0 F3600 X60.638 Y75.346
G1 F1800 X62.256 Y76.964 E97.67818
G0 F3600 X61.69 Y76.964
G1 F1800 X60.638 Y75.912 E97.72767
G0 F3600 X60.638 Y76.477
M104 S210
G1 F1800 X61.125 Y76.964 E97.75057
;MESH:NONMESH
G0 F600 X61.125 Y76.964 Z0.5
G0 F3600 X70.341 Y67.507
G0 X90.139 Y67.465
G0 X90.069 Y67.535
;TIME_ELAPSED:112.425666
;LAYER:1
M140 S60
M106 S255
;TYPE:WALL-INNER
;MESH:valvemountplate_screwattach_smallersyringe_vertical_attach.stl
G1 F2700 X70.369 Y67.535 E98.73341
G1 X70.369 Y77.535 E99.23231
G1 X60.069 Y77.535 E99.74618
G1 X60.069 Y38.735 E101.68192
G1 X70.369 Y38.735 E102.19579
G1 X70.369 Y48.735 E102.69469
G1 X90.069 Y48.735 E103.67753
G1 X90.069 Y38.735 E104.17643
G1 X97.369 Y38.735 E104.54063
G1 X97.369 Y77.535 E106.47637
G1 X90.069 Y77.535 E106.84057
G1 X90.069 Y67.535 E107.33947
G0 F5400 X89.669 Y67.935
;TYPE:WALL-OUTER
G1 F1800 X70.769 Y67.935 E108.28239
G1 X70.769 Y77.935 E108.7813
G1 X59.669 Y77.935 E109.33508
G1 X59.669 Y38.335 E111.31073
G1 X70.769 Y38.335 E111.86451
G1 X70.769 Y48.335 E112.36341
G1 X89.669 Y48.335 E113.30634
G1 X89.669 Y38.335 E113.80524
G1 X97.769 Y38.335 E114.20935
G1 X97.769 Y77.935 E116.185
G1 X89.669 Y77.935 E116.58911
G1 X89.669 Y67.935 E117.08802
G0 F5400 X89.469 Y67.935
G0 X89.469 Y67.435
G0 X90.459 Y67.145
;TYPE:SKIN
G1 F1800 X69.979 Y67.145 E118.10977
G1 X69.979 Y77.145 E118.60867
G1 X60.459 Y77.145 E119.08362
G1 X60.459 Y39.125 E120.98045
G1 X69.979 Y39.125 E121.4554
G1 X69.979 Y49.125 E121.95431
G1 X90.459 Y49.125 E122.97606
G1 X90.459 Y39.125 E123.47496
G1 X96.979 Y39.125 E123.80024
G1 X96.979 Y77.145 E125.69707
G1 X90.459 Y77.145 E126.02235
G1 X90.459 Y67.145 E126.52126
G0 F5400 X96.797 Y76.867
G1 F1800 X96.7 Y76.965 E126.52813
G0 F5400 X96.134 Y76.965
G1 F1800 X96.797 Y76.301 E126.57495
G0 F5400 X96.797 Y75.736
G1 F1800 X95.569 Y76.965 E126.66163
G0 F5400 X95.003 Y76.965
G1 F1800 X96.797 Y75.17 E126.78824
G0 F5400 X96.797 Y74.604
G1 F1800 X94.437 Y76.965 E126.95478
G0 F5400 X93.871 Y76.965
G1 F1800 X96.797 Y74.039 E127.16123
G0 F5400 X96.797 Y73.473
G1 F1800 X93.306 Y76.965 E127.40757
G0 F5400 X92.74 Y76.965
G1 F1800 X96.797 Y72.907 E127.69385
G0 F5400 X96.797 Y72.341
G1 F1800 X92.174 Y76.965 E128.02006
G0 F5400 X91.609 Y76.965
G1 F1800 X96.797 Y71.776 E128.38614
G0 F5400 X96.797 Y71.21
G1 F1800 X91.043 Y76.965 E128.79215
G0 F5400 X90.638 Y76.804
G1 F1800 X96.797 Y70.644 E129.22674
G0 F5400 X96.797 Y70.079
G1 F1800 X90.638 Y76.238 E129.66129
G0 F5400 X90.638 Y75.673
G1 F1800 X96.797 Y69.513 E130.09587
G0 F5400 X96.797 Y68.947
G1 F1800 X90.638 Y75.107 E130.53046
G0 F5400 X90.638 Y74.541
G1 F1800 X96.797 Y68.382 E130.96501
G0 F5400 X96.797 Y67.816
G1 F1800 X90.638 Y73.976 E131.3996
G0 F5400 X90.638 Y73.41
G1 F1800 X96.797 Y67.25 E131.83418
G0 F5400 X96.797 Y66.685
G1 F1800 X90.638 Y72.844 E132.26873
G0 F5400 X90.638 Y72.279
G1 F1800 X96.797 Y66.119 E132.70332
G0 F5400 X96.797 Y65.553
G1 F1800 X90.638 Y71.713 E133.13791
G0 F5400 X90.638 Y71.147
G1 F1800 X96.797 Y64.988 E133.57246
G0 F5400 X96.797 Y64.422
G1 F1800 X90.638 Y70.581 E134.00701
G0 F5400 X90.638 Y70.016
G1 F1800 X96.797 Y63.856 E134.44159
G0 F5400 X96.797 Y63.291
G1 F1800 X90.638 Y69.45 E134.87614
G0 F5400 X90.638 Y68.884
G1 F1800 X96.797 Y62.725 E135.31069
G0 F5400 X96.797 Y62.159
G1 F1800 X90.638 Y68.319 E135.74528
G0 F5400 X90.638 Y67.753
G1 F1800 X96.797 Y61.593 E136.17987
G0 F5400 X96.797 Y61.028
G1 F1800 X90.638 Y67.187 E136.61442
G0 F5400 X90.295 Y66.965
G1 F1800 X96.797 Y60.462 E137.0732
G0 F5400 X96.797 Y59.896
G1 F1800 X89.729 Y66.965 E137.57192
G0 F5400 X89.164 Y66.965
G1 F1800 X96.797 Y59.331 E138.11051
G0 F5400 X96.797 Y58.765
G1 F1800 X88.598 Y66.965 E138.68903
G0 F5400 X88.032 Y66.965
G1 F1800 X96.797 Y58.199 E139.30748
G0 F5400 X96.797 Y57.634
G1 F1800 X87.466 Y66.965 E139.96583
G0 F5400 X86.901 Y66.965
G1 F1800 X96.797 Y57.068 E140.66409
G0 F5400 X96.797 Y56.502
G1 F1800 X86.335 Y66.965 E141.40227
G0 F5400 X85.769 Y66.965
G1 F1800 X96.797 Y55.937 E142.18036
G0 F5400 X96.797 Y55.371
G1 F1800 X85.204 Y66.965 E142.99834
G0 F5400 X84.638 Y66.965
G1 F1800 X96.797 Y54.805 E143.85626
G0 F5400 X96.797 Y54.24
G1 F1800 X84.072 Y66.965 E144.75408
G0 F5400 X83.507 Y66.965
G1 F1800 X96.797 Y53.674 E145.69179
G0 F5400 X96.797 Y53.108
G1 F1800 X82.941 Y66.965 E146.66944
G0 F5400 X82.375 Y66.965
G1 F1800 X96.797 Y52.542 E147.68703
G0 F5400 X96.797 Y51.977
G1 F1800 X81.81 Y66.965 E148.74448
