;FLAVOR:Marlin
;TIME:2156
;Filament used: 1.38556m
;Layer height: 0.15
;MINX:48.578
;MINY:30.951
;MINZ:0.2
;MAXX:96.317
;MAXY:56.439
;MAXZ:26
;Generated with Cura_SteamEngine 4.4.0
M82 ;absolute extrusion mode
G21 ; set units to millimeters
G90 ; use absolute positioning
M82 ; absolute extrusion mode
M104 S200 ; set extruder temp
M140 S60 ; set bed temp
M190 S60 ; wait for bed temp
M109 S200 ; wait for extruder temp
G28 W ; home all without mesh bed level
G80 ; mesh bed leveling
G92 E0.0 ; reset extruder distance position
G1 Y-3.0 F1000.0 ; go outside print area
G1 X60.0 E9.0 F1000.0 ; intro line
G1 X100.0 E21.5 F1000.0 ; intro line
G92 E0.0 ; reset extruder distance position
G92 E0
G92 E0
G1 F2100 E-0.8
;LAYER_COUNT:173
;LAYER:0
M107
G0 F3600 X50.92 Y36.329 Z0.2
;TYPE:SKIRT
G1 F2100 E0
G1 F1800 X51.088 Y36.095 E0.00958
G1 X51.302 Y35.819 E0.0212
G1 X51.395 Y35.703 E0.02614
G1 X51.738 Y35.293 E0.04392
G1 X51.879 Y35.133 E0.05101
G1 X52.097 Y34.899 E0.06165
G1 X52.235 Y34.759 E0.06819
G1 X52.677 Y34.329 E0.0887
G1 X52.874 Y34.15 E0.09755
G1 X53.129 Y33.933 E0.10869
G1 X53.247 Y33.836 E0.11377
G1 X53.689 Y33.488 E0.13248
G1 X53.864 Y33.358 E0.13973
G1 X54.059 Y33.221 E0.14766
G1 X54.215 Y33.117 E0.15389
G1 X54.798 Y32.747 E0.17686
G1 X54.992 Y32.631 E0.18438
G1 X55.182 Y32.525 E0.19161
G1 X55.354 Y32.435 E0.19807
G1 X55.975 Y32.127 E0.22113
G1 X56.192 Y32.027 E0.22907
G1 X56.395 Y31.941 E0.23641
G1 X56.551 Y31.878 E0.242
G1 X57.194 Y31.637 E0.26484
G1 X57.473 Y31.544 E0.27462
G1 X57.804 Y31.447 E0.28609
G1 X57.945 Y31.409 E0.29095
G1 X58.52 Y31.263 E0.31068
G1 X58.753 Y31.211 E0.31862
G1 X58.999 Y31.164 E0.32695
G1 X59.169 Y31.135 E0.33269
G1 X59.789 Y31.044 E0.35353
G1 X59.994 Y31.02 E0.3604
G1 X60.206 Y31 E0.36748
G1 X60.409 Y30.986 E0.37425
G1 X61.15 Y30.954 E0.39892
G1 X61.4 Y30.951 E0.40723
G1 X61.661 Y30.956 E0.41591
G1 X61.837 Y30.963 E0.42177
G1 X62.499 Y31.005 E0.44383
G1 X62.788 Y31.034 E0.45349
G1 X63.146 Y31.083 E0.46551
G1 X63.281 Y31.104 E0.47006
G1 X63.782 Y31.19 E0.48696
G1 X64.007 Y31.235 E0.4946
G1 X64.249 Y31.291 E0.50286
G1 X64.418 Y31.334 E0.50866
G1 X65.084 Y31.519 E0.53165
G1 X65.379 Y31.613 E0.54195
G1 X65.712 Y31.734 E0.55373
G1 X65.827 Y31.778 E0.55782
G1 X66.349 Y31.986 E0.57651
G1 X66.572 Y32.083 E0.5846
G1 X66.761 Y32.172 E0.59155
G1 X66.903 Y32.242 E0.59682
G1 X67.524 Y32.565 E0.6201
G1 X67.738 Y32.685 E0.62826
G1 X68.414 Y33.091 E0.65449
G1 X70.756 Y34.454 E0.74461
G1 X73.155 Y35.762 E0.83549
G1 X75.585 Y36.998 E0.92617
G1 X78.009 Y38.146 E1.01538
G1 X80.515 Y39.247 E1.10641
G1 X83.058 Y40.281 E1.19772
G1 X85.538 Y41.205 E1.28574
G1 X88.156 Y42.099 E1.37776
G1 X90.744 Y42.902 E1.46788
G1 X92.428 Y43.381 E1.52611
G1 X93.365 Y43.638 E1.55843
G1 X93.898 Y43.826 E1.57723
G1 X94.4 Y44.087 E1.59605
G1 X94.859 Y44.416 E1.61483
G1 X95.268 Y44.807 E1.63365
G1 X95.618 Y45.251 E1.65245
G1 X95.901 Y45.74 E1.67124
G1 X96.113 Y46.265 E1.69008
G1 X96.248 Y46.813 E1.70885
G1 X96.305 Y47.372 E1.72754
G1 X96.315 Y47.695 E1.73828
G1 X96.317 Y47.819 E1.74241
G1 X96.317 Y51.758 E1.87342
G1 X96.307 Y52.484 E1.89757
G1 X96.259 Y53.047 E1.91636
G1 X96.132 Y53.598 E1.93517
G1 X95.929 Y54.126 E1.95398
G1 X95.654 Y54.62 E1.97279
G1 X95.312 Y55.07 E1.99159
G1 X94.909 Y55.467 E2.0104
G1 X94.455 Y55.803 E2.02919
G1 X93.958 Y56.072 E2.04799
G1 X93.428 Y56.269 E2.06679
G1 X92.875 Y56.388 E2.08561
G1 X92.432 Y56.427 E2.1004
G1 X92.112 Y56.437 E2.11105
G1 X91.987 Y56.439 E2.1152
G1 X62.024 Y56.439 E3.11178
G1 X61.948 Y56.438 E3.1143
G1 X60.899 Y56.418 E3.1492
G1 X60.712 Y56.41 E3.15543
G1 X60.151 Y56.373 E3.17413
G1 X59.928 Y56.352 E3.18158
G1 X59.675 Y56.321 E3.19005
G1 X59.496 Y56.295 E3.19607
G1 X58.844 Y56.185 E3.21806
G1 X58.561 Y56.127 E3.22767
G1 X58.233 Y56.047 E3.2389
G1 X58.098 Y56.012 E3.24354
G1 X57.536 Y55.854 E3.26295
G1 X57.256 Y55.763 E3.27275
G1 X56.925 Y55.643 E3.28446
G1 X56.805 Y55.598 E3.28872
G1 X56.279 Y55.388 E3.30756
G1 X56.063 Y55.294 E3.31539
G1 X55.869 Y55.203 E3.32252
G1 X55.722 Y55.13 E3.32798
G1 X55.107 Y54.81 E3.35104
G1 X54.838 Y54.657 E3.36133
G1 X54.525 Y54.462 E3.37359
G1 X54.421 Y54.395 E3.37771
G1 X53.974 Y54.097 E3.39558
G1 X53.772 Y53.953 E3.40383
G1 X53.534 Y53.772 E3.41377
G1 X53.396 Y53.662 E3.41964
G1 X52.919 Y53.265 E3.44028
G1 X52.749 Y53.115 E3.44782
G1 X52.599 Y52.975 E3.45465
G1 X52.477 Y52.857 E3.46029
G1 X51.979 Y52.351 E3.48391
G1 X51.806 Y52.164 E3.49238
G1 X51.625 Y51.955 E3.50158
G1 X51.511 Y51.817 E3.50753
G1 X51.103 Y51.301 E3.52941
G1 X50.929 Y51.063 E3.53921
G1 X50.734 Y50.775 E3.55078
G1 X50.665 Y50.67 E3.55496
G1 X50.364 Y50.194 E3.57369
G1 X50.207 Y49.922 E3.58414
G1 X50.025 Y49.577 E3.59711
G1 X49.97 Y49.469 E3.60114
G1 X49.745 Y49.009 E3.61818
G1 X49.654 Y48.809 E3.62548
G1 X49.536 Y48.53 E3.63556
G1 X49.468 Y48.359 E3.64168
G1 X49.251 Y47.772 E3.66249
G1 X49.158 Y47.489 E3.6724
G1 X49.05 Y47.113 E3.68541
G1 X49.018 Y46.992 E3.68958
G1 X48.891 Y46.491 E3.70677
G1 X48.833 Y46.226 E3.71579
G1 X48.771 Y45.886 E3.72728
G1 X48.746 Y45.735 E3.73238
G1 X48.665 Y45.169 E3.75139
G1 X48.64 Y44.951 E3.75869
G1 X48.621 Y44.734 E3.76594
G1 X48.609 Y44.551 E3.77204
G1 X48.58 Y43.851 E3.79534
G1 X48.578 Y43.611 E3.80332
G1 X48.582 Y43.395 E3.81051
G1 X48.589 Y43.216 E3.81646
G1 X48.633 Y42.522 E3.83959
G1 X48.656 Y42.281 E3.84764
G1 X48.683 Y42.064 E3.85492
G1 X48.707 Y41.898 E3.8605
G1 X48.818 Y41.234 E3.88289
G1 X48.867 Y40.988 E3.89123
G1 X48.924 Y40.743 E3.8996
G1 X48.968 Y40.57 E3.90553
G1 X49.154 Y39.906 E3.92847
G1 X49.239 Y39.639 E3.93779
G1 X49.358 Y39.306 E3.94955
G1 X49.413 Y39.161 E3.95471
G1 X49.617 Y38.653 E3.97292
G1 X49.707 Y38.447 E3.98039
G1 X49.811 Y38.225 E3.98855
G1 X49.887 Y38.072 E3.99423
G1 X50.2 Y37.472 E4.01674
G1 X50.317 Y37.262 E4.02473
G1 X50.445 Y37.049 E4.033
G1 X50.545 Y36.892 E4.03919
G1 X50.92 Y36.329 E4.06169
G0 F3600 X51.253 Y36.55
G1 F1800 X51.404 Y36.34 E4.07029
G1 X51.618 Y36.064 E4.08191
G1 X51.702 Y35.96 E4.08635
G1 X52.045 Y35.55 E4.10413
G1 X52.172 Y35.406 E4.11052
G1 X52.39 Y35.172 E4.12116
G1 X52.514 Y35.046 E4.12704
G1 X52.956 Y34.616 E4.14755
G1 X53.133 Y34.454 E4.15553
G1 X53.388 Y34.237 E4.16666
G1 X53.494 Y34.15 E4.17122
G1 X53.936 Y33.802 E4.18993
G1 X54.093 Y33.685 E4.19645
G1 X54.288 Y33.548 E4.20437
G1 X54.429 Y33.454 E4.21001
G1 X55.012 Y33.084 E4.23298
G1 X55.187 Y32.98 E4.23975
G1 X55.377 Y32.874 E4.24698
G1 X55.531 Y32.793 E4.25277
G1 X56.152 Y32.485 E4.27582
G1 X56.348 Y32.395 E4.283
G1 X56.551 Y32.309 E4.29033
G1 X56.692 Y32.253 E4.29538
G1 X57.335 Y32.012 E4.31822
G1 X57.586 Y31.928 E4.32702
G1 X57.917 Y31.831 E4.33849
G1 X58.043 Y31.797 E4.34283
G1 X58.618 Y31.651 E4.36256
G1 X58.828 Y31.604 E4.36972
G1 X59.074 Y31.557 E4.37805
G1 X59.227 Y31.531 E4.38321
G1 X59.847 Y31.44 E4.40406
G1 X60.032 Y31.418 E4.41025
G1 X60.244 Y31.398 E4.41733
G1 X60.427 Y31.385 E4.42344
G1 X61.168 Y31.353 E4.4481
G1 X61.392 Y31.351 E4.45556
G1 X61.653 Y31.356 E4.46424
G1 X61.812 Y31.362 E4.46953
G1 X62.474 Y31.404 E4.49159
G1 X62.734 Y31.43 E4.50028
G1 X63.092 Y31.479 E4.5123
G1 X63.213 Y31.498 E4.51638
G1 X63.714 Y31.584 E4.53328
G1 X63.917 Y31.625 E4.54017
G1 X64.159 Y31.681 E4.54843
G1 X64.311 Y31.719 E4.55364
G1 X64.977 Y31.904 E4.57663
G1 X65.242 Y31.989 E4.58589
G1 X65.575 Y32.11 E4.59767
G1 X65.679 Y32.15 E4.60138
G1 X66.201 Y32.358 E4.62007
G1 X66.402 Y32.445 E4.62735
G1 X66.591 Y32.534 E4.6343
G1 X66.718 Y32.597 E4.63902
G1 X67.339 Y32.92 E4.6623
G1 X67.532 Y33.028 E4.66965
G1 X68.211 Y33.436 E4.696
G1 X70.558 Y34.802 E4.78632
G1 X72.96 Y36.111 E4.87731
G1 X75.397 Y37.351 E4.96825
G1 X77.856 Y38.515 E5.05874
G1 X80.339 Y39.606 E5.14894
G1 X82.905 Y40.65 E5.24108
G1 X85.45 Y41.598 E5.33141
G1 X88.024 Y42.477 E5.42188
G1 X90.63 Y43.286 E5.51263
G1 X92.322 Y43.767 E5.57114
G1 X93.259 Y44.024 E5.60345
G1 X93.764 Y44.204 E5.62129
G1 X94.237 Y44.457 E5.63913
G1 X94.667 Y44.778 E5.65697
G1 X95.045 Y45.158 E5.6748
G1 X95.362 Y45.591 E5.69265
G1 X95.611 Y46.066 E5.71049
G1 X95.787 Y46.573 E5.72834
G1 X95.885 Y47.1 E5.74617
G1 X95.905 Y47.385 E5.75567
G1 X95.915 Y47.708 E5.76642
G1 X95.917 Y47.819 E5.77011
G1 X95.917 Y51.753 E5.90095
G1 X95.907 Y52.479 E5.9251
G1 X95.859 Y53.013 E5.94294
G1 X95.733 Y53.534 E5.96076
G1 X95.531 Y54.031 E5.97861
G1 X95.257 Y54.492 E5.99644
G1 X94.918 Y54.907 E6.01427
G1 X94.521 Y55.268 E6.03211
G1 X94.075 Y55.565 E6.04994
G1 X93.589 Y55.793 E6.06779
G1 X93.075 Y55.946 E6.08563
G1 X92.419 Y56.027 E6.10761
G1 X92.099 Y56.037 E6.11826
G1 X91.987 Y56.039 E6.12199
G1 X62.024 Y56.039 E7.11856
G1 X61.955 Y56.038 E7.12086
G1 X60.906 Y56.018 E7.15575
G1 X60.738 Y56.011 E7.16134
G1 X60.177 Y55.974 E7.18004
G1 X59.976 Y55.955 E7.18676
G1 X59.723 Y55.924 E7.19524
G1 X59.562 Y55.901 E7.20065
G1 X58.91 Y55.791 E7.22264
G1 X58.656 Y55.738 E7.23127
G1 X58.328 Y55.658 E7.2425
G1 X58.207 Y55.627 E7.24665
G1 X57.645 Y55.469 E7.26607
G1 X57.392 Y55.387 E7.27491
G1 X57.061 Y55.267 E7.28662
G1 X56.953 Y55.226 E7.29047
G1 X56.427 Y55.016 E7.3093
G1 X56.233 Y54.932 E7.31634
G1 X56.039 Y54.841 E7.32346
G1 X55.906 Y54.776 E7.32839
G1 X55.291 Y54.456 E7.35144
G1 X55.049 Y54.318 E7.36071
G1 X54.736 Y54.123 E7.37298
G1 X54.643 Y54.062 E7.37667
G1 X54.196 Y53.764 E7.39454
G1 X54.014 Y53.634 E7.40198
G1 X53.776 Y53.453 E7.41193
G1 X53.652 Y53.355 E7.41718
G1 X53.175 Y52.958 E7.43782
G1 X53.022 Y52.823 E7.44461
G1 X52.872 Y52.683 E7.45144
G1 X52.762 Y52.576 E7.45654
G1 X52.264 Y52.07 E7.48015
G1 X52.109 Y51.902 E7.48776
G1 X51.928 Y51.693 E7.49695
G1 X51.825 Y51.569 E7.50231
G1 X51.417 Y51.053 E7.52419
G1 X51.26 Y50.838 E7.53305
G1 X51.065 Y50.55 E7.54461
G1 X51.003 Y50.456 E7.54836
G1 X50.702 Y49.98 E7.56709
G1 X50.561 Y49.736 E7.57646
G1 X50.379 Y49.391 E7.58944
G1 X50.329 Y49.293 E7.5931
G1 X50.104 Y48.833 E7.61013
G1 X50.022 Y48.653 E7.61671
G1 X49.904 Y48.374 E7.62678
G1 X49.843 Y48.22 E7.63229
G1 X49.626 Y47.633 E7.65311
G1 X49.543 Y47.379 E7.662
G1 X49.435 Y47.003 E7.67501
G1 X49.405 Y46.894 E7.67877
G1 X49.278 Y46.393 E7.69596
G1 X49.226 Y46.154 E7.70409
G1 X49.164 Y45.814 E7.71559
G1 X49.142 Y45.678 E7.72017
G1 X49.061 Y45.112 E7.73919
G1 X49.039 Y44.916 E7.74575
G1 X49.02 Y44.699 E7.75299
G1 X49.009 Y44.534 E7.75849
G1 X48.98 Y43.834 E7.78179
G1 X48.978 Y43.618 E7.78898
G1 X48.982 Y43.402 E7.79616
G1 X48.988 Y43.241 E7.80152
G1 X49.032 Y42.547 E7.82465
G1 X49.053 Y42.331 E7.83187
G1 X49.08 Y42.114 E7.83914
G1 X49.101 Y41.964 E7.84418
G1 X49.212 Y41.3 E7.86657
G1 X49.257 Y41.078 E7.87411
G1 X49.314 Y40.833 E7.88247
G1 X49.353 Y40.678 E7.88779
G1 X49.539 Y40.014 E7.91072
G1 X49.616 Y39.774 E7.91911
G1 X49.735 Y39.441 E7.93087
G1 X49.784 Y39.31 E7.93552
G1 X49.988 Y38.802 E7.95373
G1 X50.069 Y38.617 E7.96044
G1 X50.173 Y38.395 E7.9686
G1 X50.241 Y38.257 E7.97371
G1 X50.554 Y37.657 E7.99622
G1 X50.66 Y37.468 E8.00343
G1 X50.788 Y37.255 E8.0117
G1 X50.878 Y37.113 E8.01729
G1 X51.253 Y36.55 E8.03979
G0 F3600 X51.586 Y36.772
G1 F1800 X51.72 Y36.585 E8.04744
G1 X51.934 Y36.309 E8.05905
G1 X52.009 Y36.217 E8.063
G1 X52.352 Y35.807 E8.08078
G1 X52.465 Y35.679 E8.08646
G1 X52.683 Y35.445 E8.0971
G1 X52.793 Y35.332 E8.10234
G1 X53.235 Y34.902 E8.12285
G1 X53.392 Y34.759 E8.12991
G1 X53.647 Y34.542 E8.14105
G1 X53.741 Y34.465 E8.14509
G1 X54.183 Y34.117 E8.1638
G1 X54.323 Y34.013 E8.1696
G1 X54.518 Y33.876 E8.17753
G1 X54.643 Y33.792 E8.18254
G1 X55.226 Y33.422 E8.20551
G1 X55.382 Y33.329 E8.21155
G1 X55.572 Y33.223 E8.21878
G1 X55.709 Y33.151 E8.22393
G1 X56.33 Y32.843 E8.24699
G1 X56.504 Y32.764 E8.25334
G1 X56.707 Y32.678 E8.26067
G1 X56.832 Y32.628 E8.26515
G1 X57.475 Y32.387 E8.28799
G1 X57.698 Y32.312 E8.29582
G1 X58.029 Y32.215 E8.30729
G1 X58.141 Y32.184 E8.31115
G1 X58.716 Y32.038 E8.33089
G1 X58.903 Y31.997 E8.33725
G1 X59.149 Y31.95 E8.34558
G1 X59.285 Y31.927 E8.35017
G1 X59.905 Y31.836 E8.37101
G1 X60.069 Y31.816 E8.37651
G1 X60.281 Y31.796 E8.38359
G1 X60.444 Y31.785 E8.38902
G1 X61.185 Y31.753 E8.41369
G1 X61.384 Y31.751 E8.42031
G1 X61.645 Y31.756 E8.42899
G1 X61.787 Y31.761 E8.43372
G1 X62.449 Y31.803 E8.45578
G1 X62.68 Y31.827 E8.46351
G1 X63.038 Y31.876 E8.47552
G1 X63.145 Y31.892 E8.47912
G1 X63.646 Y31.978 E8.49603
G1 X63.826 Y32.014 E8.50214
G1 X64.068 Y32.07 E8.5104
G1 X64.203 Y32.105 E8.51504
G1 X64.869 Y32.29 E8.53803
G1 X65.106 Y32.365 E8.54629
G1 X65.439 Y32.486 E8.55808
G1 X65.531 Y32.521 E8.56135
G1 X66.053 Y32.729 E8.58004
G1 X66.231 Y32.807 E8.58651
G1 X66.42 Y32.896 E8.59345
G1 X66.534 Y32.952 E8.59768
G1 X67.155 Y33.275 E8.62096
G1 X67.326 Y33.371 E8.62748
G1 X67.967 Y33.756 E8.65235
G1 X70.372 Y35.156 E8.74491
G1 X72.794 Y36.476 E8.83665
G1 X75.224 Y37.712 E8.92733
G1 X77.673 Y38.872 E9.01746
G1 X80.207 Y39.985 E9.10951
G1 X82.751 Y41.02 E9.20086
G1 X85.317 Y41.976 E9.29193
G1 X87.882 Y42.851 E9.38207
G1 X90.502 Y43.664 E9.47331
G1 X92.246 Y44.161 E9.53363
G1 X93.153 Y44.41 E9.56491
G1 X93.629 Y44.582 E9.58175
G1 X94.071 Y44.826 E9.59854
G1 X94.47 Y45.138 E9.61538
G1 X94.814 Y45.508 E9.63219
G1 X95.096 Y45.927 E9.64899
G1 X95.308 Y46.386 E9.6658
G1 X95.446 Y46.873 E9.68264
G1 X95.505 Y47.397 E9.70018
G1 X95.515 Y47.72 E9.71092
G1 X95.517 Y47.819 E9.71422
G1 X95.517 Y51.747 E9.84486
G1 X95.507 Y52.473 E9.86901
G1 X95.46 Y52.976 E9.88582
G1 X95.334 Y53.466 E9.90264
G1 X95.133 Y53.93 E9.91946
G1 X94.861 Y54.356 E9.93627
G1 X94.526 Y54.735 E9.9531
G1 X94.135 Y55.055 E9.9699
G1 X93.699 Y55.311 E9.98672
G1 X93.228 Y55.494 E10.00352
G1 X92.733 Y55.6 E10.02036
G1 X92.407 Y55.627 E10.03124
G1 X92.087 Y55.637 E10.04189
G1 X91.987 Y55.639 E10.04522
G1 X62.024 Y55.639 E11.04179
G1 X61.963 Y55.638 E11.04382
G1 X60.914 Y55.618 E11.07871
G1 X60.764 Y55.612 E11.08371
G1 X60.203 Y55.575 E11.10241
G1 X60.025 Y55.558 E11.10835
G1 X59.772 Y55.527 E11.11683
G1 X59.629 Y55.506 E11.12164
G1 X58.977 Y55.396 E11.14363
G1 X58.751 Y55.35 E11.1513
G1 X58.423 Y55.27 E11.16253
G1 X58.315 Y55.242 E11.16624
G1 X57.753 Y55.084 E11.18566
G1 X57.528 Y55.011 E11.19353
G1 X57.197 Y54.891 E11.20524
G1 X57.101 Y54.855 E11.20865
G1 X56.575 Y54.645 E11.22748
G1 X56.403 Y54.57 E11.23373
G1 X56.209 Y54.479 E11.24085
G1 X56.091 Y54.421 E11.24523
G1 X55.476 Y54.101 E11.26828
G1 X55.261 Y53.978 E11.27652
G1 X54.948 Y53.783 E11.28879
G1 X54.865 Y53.73 E11.29206
G1 X54.418 Y53.432 E11.30993
G1 X54.256 Y53.316 E11.31656
G1 X54.018 Y53.135 E11.3265
G1 X53.908 Y53.048 E11.33117
G1 X53.431 Y52.651 E11.35181
G1 X53.295 Y52.53 E11.35786
G1 X53.145 Y52.39 E11.36469
G1 X53.047 Y52.296 E11.36921
G1 X52.549 Y51.79 E11.39282
G1 X52.411 Y51.64 E11.3996
G1 X52.23 Y51.431 E11.40879
G1 X52.139 Y51.321 E11.41354
G1 X51.731 Y50.805 E11.43542
G1 X51.591 Y50.614 E11.4433
G1 X51.396 Y50.326 E11.45487
G1 X51.341 Y50.242 E11.4582
G1 X51.04 Y49.766 E11.47694
G1 X50.915 Y49.549 E11.48527
G1 X50.733 Y49.204 E11.49824
G1 X50.688 Y49.117 E11.5015
G1 X50.463 Y48.657 E11.51853
G1 X50.391 Y48.498 E11.52433
G1 X50.273 Y48.219 E11.53441
G1 X50.219 Y48.082 E11.53931
G1 X50.002 Y47.495 E11.56012
G1 X49.927 Y47.268 E11.56807
G1 X49.819 Y46.892 E11.58109
G1 X49.793 Y46.795 E11.58443
G1 X49.666 Y46.294 E11.60162
G1 X49.62 Y46.082 E11.60883
G1 X49.558 Y45.742 E11.62033
G1 X49.538 Y45.621 E11.6244
G1 X49.457 Y45.055 E11.64342
G1 X49.437 Y44.881 E11.64925
G1 X49.418 Y44.664 E11.65649
G1 X49.409 Y44.517 E11.66139
G1 X49.38 Y43.817 E11.68469
G1 X49.378 Y43.626 E11.69105
G1 X49.382 Y43.41 E11.69823
G1 X49.387 Y43.267 E11.70299
G1 X49.431 Y42.573 E11.72612
G1 X49.449 Y42.38 E11.73257
G1 X49.476 Y42.163 E11.73984
G1 X49.496 Y42.03 E11.74431
G1 X49.607 Y41.366 E11.7667
G1 X49.646 Y41.169 E11.77338
G1 X49.703 Y40.924 E11.78175
G1 X49.739 Y40.786 E11.78649
G1 X49.925 Y40.122 E11.80943
G1 X49.993 Y39.908 E11.8169
G1 X50.112 Y39.575 E11.82866
G1 X50.155 Y39.46 E11.83274
G1 X50.359 Y38.952 E11.85095
G1 X50.431 Y38.786 E11.85697
G1 X50.535 Y38.564 E11.86512
G1 X50.596 Y38.442 E11.86966
G1 X50.909 Y37.842 E11.89217
G1 X51.003 Y37.674 E11.89857
G1 X51.131 Y37.461 E11.90683
G1 X51.211 Y37.335 E11.9118
G1 X51.586 Y36.772 E11.9343
G1 F2100 E11.1343
;MESH:oneml_syringe_stepper_linear_m8nut_coupler.stl
G0 F3600 X53.667 Y38.205
G0 X54.745 Y38.904
G0 X56.568 Y45.231
G0 X56.994 Y46.186
