;FLAVOR:Marlin
;TIME:941
;Filament used: 1.21517m
;Layer height: 0.3
;MINX:83.258
;MINY:95.729
;MINZ:0.2
;MAXX:166.742
;MAXY:114.271
;MAXZ:3.9
;Generated with Cura_SteamEngine 4.4.0
M82 ;absolute extrusion mode
G21 ; set units to millimeters
G90 ; use absolute positioning
M82 ; absolute extrusion mode
M104 S200 ; set extruder temp
M140 S60 ; set bed temp
M190 S60 ; wait for bed temp
M109 S200 ; wait for extruder temp
G28 W ; home all without mesh bed level
G80 ; mesh bed leveling
G92 E0.0 ; reset extruder distance position
G1 Y-3.0 F1000.0 ; go outside print area
G1 X60.0 E9.0 F1000.0 ; intro line
G1 X100.0 E21.5 F1000.0 ; intro line
G92 E0.0 ; reset extruder distance position
G92 E0
G92 E0
G1 F2100 E-0.8
;LAYER_COUNT:10
;LAYER:0
M107
G1 F600 Z1.2
;MESH:label_base.stl
G0 F3600 X166.302 Y97.736 Z1.2
;TYPE:WALL-OUTER
G1 F600 Z0.2
G1 F2100 E0
G1 F1800 X166.718 Y99.43 E0.05802
G1 X166.742 Y110.477 E0.42544
G1 X166.302 Y112.262 E0.48659
G1 X165.142 Y113.57 E0.54474
G1 X165.031 Y113.647 E0.54923
G1 X163.387 Y114.271 E0.60772
G1 X87.44 Y114.271 E3.13372
G1 X85.596 Y114.047 E3.19551
G1 X84.102 Y113.014 E3.25592
G1 X83.258 Y111.408 E3.31626
G1 X83.258 Y98.592 E3.74252
G1 X84.102 Y96.986 E3.80287
G1 X85.596 Y95.953 E3.86328
G1 X87.44 Y95.729 E3.92506
G1 X163.387 Y95.729 E6.45107
G1 X165.096 Y96.377 E6.51186
G1 X166.302 Y97.736 E6.57229
G0 F3600 X166.349 Y97.93
G0 X165.938 Y97.927
;TYPE:WALL-INNER
G1 F1800 X166.318 Y99.477 E6.62537
G1 X166.342 Y110.43 E6.98967
G1 X165.937 Y112.071 E7.04589
G1 X164.877 Y113.267 E7.09904
G1 X164.842 Y113.291 E7.10045
G1 X163.314 Y113.871 E7.15481
G1 X87.463 Y113.871 E9.67763
G1 X85.742 Y113.662 E9.73529
G1 X84.41 Y112.741 E9.78915
G1 X83.658 Y111.31 E9.84292
G1 X83.658 Y98.69 E10.26266
G1 X84.41 Y97.259 E10.31643
G1 X85.742 Y96.338 E10.37029
G1 X87.463 Y96.129 E10.42795
G1 X163.314 Y96.129 E12.95076
G1 X164.863 Y96.717 E13.00587
G1 X165.938 Y97.927 E13.0597
G0 F3600 X165.582 Y98.114
;TYPE:SKIN
G1 F1800 X165.928 Y99.526 E13.10806
G1 X165.952 Y110.385 E13.46923
G1 X165.582 Y111.883 E13.52055
G1 X164.634 Y112.953 E13.5681
G1 X163.242 Y113.481 E13.61761
G1 X87.494 Y113.481 E16.137
G1 X85.884 Y113.285 E16.19095
G1 X84.71 Y112.473 E16.23842
G1 X84.048 Y111.215 E16.2857
G1 X84.048 Y98.785 E16.69913
G1 X84.71 Y97.527 E16.74641
G1 X85.884 Y96.715 E16.79389
G1 X87.494 Y96.519 E16.84783
G1 X163.242 Y96.519 E19.36722
G1 X164.635 Y97.048 E19.41678
G1 X165.582 Y98.114 E19.4642
G0 F3600 X164.51 Y97.193
G1 F1800 X164.618 Y97.302 E19.46931
G0 F3600 X163.598 Y96.847
G1 F1800 X165.568 Y98.817 E19.56197
G0 F3600 X165.747 Y99.562
G1 F1800 X162.884 Y96.698 E19.69666
G0 F3600 X162.318 Y96.698
G1 F1800 X165.748 Y100.129 E19.85802
G0 F3600 X165.75 Y100.696
G1 F1800 X161.752 Y96.698 E20.04607
G0 F3600 X161.187 Y96.698
G1 F1800 X165.751 Y101.263 E20.26077
G0 F3600 X165.752 Y101.83
G1 F1800 X160.621 Y96.698 E20.50214
G0 F3600 X160.055 Y96.698
G1 F1800 X165.753 Y102.396 E20.77016
G0 F3600 X165.755 Y102.963
G1 F1800 X159.49 Y96.698 E21.06485
G0 F3600 X158.924 Y96.698
G1 F1800 X165.756 Y103.531 E21.38623
G0 F3600 X165.757 Y104.098
G1 F1800 X158.358 Y96.698 E21.73428
G0 F3600 X157.792 Y96.698
G1 F1800 X165.759 Y104.665 E22.10902
G0 F3600 X165.759 Y105.231
G1 F1800 X157.227 Y96.698 E22.51036
G0 F3600 X156.661 Y96.698
G1 F1800 X165.761 Y105.798 E22.9384
G0 F3600 X165.762 Y106.365
G1 F1800 X156.095 Y96.698 E23.39311
G0 F3600 X155.53 Y96.698
G1 F1800 X165.764 Y106.932 E23.87448
G0 F3600 X165.764 Y107.499
G1 F1800 X154.964 Y96.698 E24.3825
G0 F3600 X154.398 Y96.698
G1 F1800 X165.766 Y108.066 E24.91722
G0 F3600 X165.767 Y108.633
G1 F1800 X153.833 Y96.698 E25.47858
G0 F3600 X153.267 Y96.698
G1 F1800 X165.769 Y109.2 E26.06664
G0 F3600 X165.77 Y109.767
G1 F1800 X152.701 Y96.698 E26.68136
G0 F3600 X152.136 Y96.698
G1 F1800 X165.771 Y110.334 E27.32274
G0 F3600 X165.665 Y110.793
G1 F1800 X151.57 Y96.698 E27.98572
G0 F3600 X151.004 Y96.698
G1 F1800 X165.552 Y111.246 E28.67001
G0 F3600 X165.441 Y111.7
G1 F1800 X150.439 Y96.698 E29.37566
G0 F3600 X149.873 Y96.698
G1 F1800 X165.207 Y112.033 E30.09695
G0 F3600 X164.941 Y112.333
G1 F1800 X149.307 Y96.698 E30.83235
G0 F3600 X148.742 Y96.698
G1 F1800 X164.676 Y112.633 E31.58186
G0 F3600 X164.346 Y112.869
G1 F1800 X148.176 Y96.698 E32.34247
G0 F3600 X147.61 Y96.698
G1 F1800 X163.936 Y113.024 E33.1104
G0 F3600 X163.526 Y113.18
G1 F1800 X147.044 Y96.698 E33.88566
G0 F3600 X146.479 Y96.698
G1 F1800 X163.08 Y113.3 E34.66654
G0 F3600 X162.515 Y113.3
G1 F1800 X145.913 Y96.698 E35.44745
G0 F3600 X145.347 Y96.698
G1 F1800 X161.949 Y113.3 E36.22836
G0 F3600 X161.383 Y113.3
G1 F1800 X144.782 Y96.698 E37.00924
G0 F3600 X144.216 Y96.698
G1 F1800 X160.818 Y113.3 E37.79015
G0 F3600 X160.252 Y113.3
G1 F1800 X143.65 Y96.698 E38.57105
G0 F3600 X143.085 Y96.698
G1 F1800 X159.686 Y113.3 E39.35194
G0 F3600 X159.12 Y113.3
G1 F1800 X142.519 Y96.698 E40.13282
G0 F3600 X141.953 Y96.698
G1 F1800 X158.555 Y113.3 E40.91373
G0 F3600 X157.989 Y113.3
G1 F1800 X141.388 Y96.698 E41.69461
G0 F3600 X140.822 Y96.698
G1 F1800 X157.423 Y113.3 E42.4755
G0 F3600 X156.858 Y113.3
G1 F1800 X140.256 Y96.698 E43.2564
G0 F3600 X139.691 Y96.698
G1 F1800 X156.292 Y113.3 E44.03729
G0 F3600 X155.726 Y113.3
G1 F1800 X139.125 Y96.698 E44.81817
G0 F3600 X138.559 Y96.698
G1 F1800 X155.161 Y113.3 E45.59908
G0 F3600 X154.595 Y113.3
G1 F1800 X137.994 Y96.698 E46.37996
G0 F3600 X137.428 Y96.698
G1 F1800 X154.029 Y113.3 E47.16084
G0 F3600 X153.464 Y113.3
G1 F1800 X136.862 Y96.698 E47.94175
G0 F3600 X136.296 Y96.698
G1 F1800 X152.898 Y113.3 E48.72266
G0 F3600 X152.332 Y113.3
G1 F1800 X135.731 Y96.698 E49.50354
G0 F3600 X135.165 Y96.698
G1 F1800 X151.767 Y113.3 E50.28445
G0 F3600 X151.201 Y113.3
G1 F1800 X134.599 Y96.698 E51.06536
G0 F3600 X134.034 Y96.698
G1 F1800 X150.635 Y113.3 E51.84624
G0 F3600 X150.069 Y113.3
G1 F1800 X133.468 Y96.698 E52.62712
G0 F3600 X132.902 Y96.698
G1 F1800 X149.504 Y113.3 E53.40803
G0 F3600 X148.938 Y113.3
G1 F1800 X132.337 Y96.698 E54.18892
G0 F3600 X131.771 Y96.698
G1 F1800 X148.372 Y113.3 E54.9698
G0 F3600 X147.807 Y113.3
G1 F1800 X131.205 Y96.698 E55.75071
G0 F3600 X130.64 Y96.698
G1 F1800 X147.241 Y113.3 E56.53159
G0 F3600 X146.675 Y113.3
G1 F1800 X130.074 Y96.698 E57.31247
G0 F3600 X129.508 Y96.698
G1 F1800 X146.11 Y113.3 E58.09338
G0 F3600 X145.544 Y113.3
G1 F1800 X128.943 Y96.698 E58.87426
G0 F3600 X128.377 Y96.698
G1 F1800 X144.978 Y113.3 E59.65515
G0 F3600 X144.413 Y113.3
G1 F1800 X127.811 Y96.698 E60.43606
G0 F3600 X127.245 Y96.698
G1 F1800 X143.847 Y113.3 E61.21696
G0 F3600 X143.281 Y113.3
G1 F1800 X126.68 Y96.698 E61.99785
G0 F3600 X126.114 Y96.698
G1 F1800 X142.716 Y113.3 E62.77875
G0 F3600 X142.15 Y113.3
G1 F1800 X125.548 Y96.698 E63.55966
G0 F3600 X124.983 Y96.698
G1 F1800 X141.584 Y113.3 E64.34054
G0 F3600 X141.019 Y113.3
G1 F1800 X124.417 Y96.698 E65.12145
G0 F3600 X123.851 Y96.698
G1 F1800 X140.453 Y113.3 E65.90236
G0 F3600 X139.887 Y113.3
G1 F1800 X123.286 Y96.698 E66.68324
G0 F3600 X122.72 Y96.698
G1 F1800 X139.321 Y113.3 E67.46413
G0 F3600 X138.756 Y113.3
G1 F1800 X122.154 Y96.698 E68.24503
G0 F3600 X121.589 Y96.698
G1 F1800 X138.19 Y113.3 E69.02592
G0 F3600 X137.624 Y113.3
G1 F1800 X121.023 Y96.698 E69.8068
G0 F3600 X120.457 Y96.698
G1 F1800 X137.059 Y113.3 E70.58771
G0 F3600 X136.493 Y113.3
G1 F1800 X119.892 Y96.698 E71.36859
G0 F3600 X119.326 Y96.698
G1 F1800 X135.927 Y113.3 E72.14947
G0 F3600 X135.362 Y113.3
G1 F1800 X118.76 Y96.698 E72.93038
G0 F3600 X118.195 Y96.698
G1 F1800 X134.796 Y113.3 E73.71127
G0 F3600 X134.23 Y113.3
G1 F1800 X117.629 Y96.698 E74.49215
G0 F3600 X117.063 Y96.698
G1 F1800 X133.665 Y113.3 E75.27306
G0 F3600 X133.099 Y113.3
G1 F1800 X116.497 Y96.698 E76.05396
G0 F3600 X115.932 Y96.698
G1 F1800 X132.533 Y113.3 E76.83485
G0 F3600 X131.968 Y113.3
G1 F1800 X115.366 Y96.698 E77.61575
G0 F3600 X114.8 Y96.698
G1 F1800 X131.402 Y113.3 E78.39666
G0 F3600 X130.836 Y113.3
G1 F1800 X114.235 Y96.698 E79.17755
G0 F3600 X113.669 Y96.698
G1 F1800 X130.27 Y113.3 E79.95843
G0 F3600 X129.705 Y113.3
G1 F1800 X113.103 Y96.698 E80.73934
G0 F3600 X112.538 Y96.698
G1 F1800 X129.139 Y113.3 E81.52022
G0 F3600 X128.573 Y113.3
G1 F1800 X111.972 Y96.698 E82.3011
G0 F3600 X111.406 Y96.698
G1 F1800 X128.008 Y113.3 E83.08201
G0 F3600 X127.442 Y113.3
G1 F1800 X110.841 Y96.698 E83.86289
G0 F3600 X110.275 Y96.698
G1 F1800 X126.876 Y113.3 E84.64378
G0 F3600 X126.311 Y113.3
G1 F1800 X109.709 Y96.698 E85.42468
G0 F3600 X109.144 Y96.698
G1 F1800 X125.745 Y113.3 E86.20557
G0 F3600 X125.179 Y113.3
G1 F1800 X108.578 Y96.698 E86.98645
G0 F3600 X108.012 Y96.698
G1 F1800 X124.614 Y113.3 E87.76736
G0 F3600 X124.048 Y113.3
G1 F1800 X107.446 Y96.698 E88.54827
G0 F3600 X106.881 Y96.698
G1 F1800 X123.482 Y113.3 E89.32915
G0 F3600 X122.917 Y113.3
G1 F1800 X106.315 Y96.698 E90.11006
G0 F3600 X105.749 Y96.698
G1 F1800 X122.351 Y113.3 E90.89096
G0 F3600 X121.785 Y113.3
G1 F1800 X105.184 Y96.698 E91.67185
G0 F3600 X104.618 Y96.698
G1 F1800 X121.22 Y113.3 E92.45276
G0 F3600 X120.654 Y113.3
G1 F1800 X104.052 Y96.698 E93.23366
G0 F3600 X103.487 Y96.698
G1 F1800 X120.088 Y113.3 E94.01455
G0 F3600 X119.522 Y113.3
G1 F1800 X102.921 Y96.698 E94.79543
G0 F3600 X102.355 Y96.698
G1 F1800 X118.957 Y113.3 E95.57634
G0 F3600 X118.391 Y113.3
G1 F1800 X101.79 Y96.698 E96.35722
G0 F3600 X101.224 Y96.698
G1 F1800 X117.825 Y113.3 E97.1381
G0 F3600 X117.26 Y113.3
G1 F1800 X100.658 Y96.698 E97.91901
G0 F3600 X100.093 Y96.698
G1 F1800 X116.694 Y113.3 E98.6999
G0 F3600 X116.128 Y113.3
G1 F1800 X99.527 Y96.698 E99.48078
G0 F3600 X98.961 Y96.698
G1 F1800 X115.563 Y113.3 E100.26169
G0 F3600 X114.997 Y113.3
G1 F1800 X98.396 Y96.698 E101.04257
G0 F3600 X97.83 Y96.698
G1 F1800 X114.431 Y113.3 E101.82345
G0 F3600 X113.866 Y113.3
G1 F1800 X97.264 Y96.698 E102.60436
G0 F3600 X96.698 Y96.698
G1 F1800 X113.3 Y113.3 E103.38527
G0 F3600 X112.734 Y113.3
G1 F1800 X96.133 Y96.698 E104.16615
G0 F3600 X95.567 Y96.698
G1 F1800 X112.169 Y113.3 E104.94706
G0 F3600 X111.603 Y113.3
G1 F1800 X95.001 Y96.698 E105.72797
G0 F3600 X94.436 Y96.698
G1 F1800 X111.037 Y113.3 E106.50885
G0 F3600 X110.471 Y113.3
G1 F1800 X93.87 Y96.698 E107.28973
G0 F3600 X93.304 Y96.698
G1 F1800 X109.906 Y113.3 E108.07064
G0 F3600 X109.34 Y113.3
G1 F1800 X92.739 Y96.698 E108.85152
G0 F3600 X92.173 Y96.698
G1 F1800 X108.774 Y113.3 E109.63241
G0 F3600 X108.209 Y113.3
G1 F1800 X91.607 Y96.698 E110.41331
G0 F3600 X91.042 Y96.698
G1 F1800 X107.643 Y113.3 E111.1942
G0 F3600 X107.077 Y113.3
G1 F1800 X90.476 Y96.698 E111.97508
G0 F3600 X89.91 Y96.698
G1 F1800 X106.512 Y113.3 E112.75599
G0 F3600 X105.946 Y113.3
G1 F1800 X89.345 Y96.698 E113.53687
G0 F3600 X88.779 Y96.698
G1 F1800 X105.38 Y113.3 E114.31776
G0 F3600 X104.815 Y113.3
G1 F1800 X88.213 Y96.698 E115.09866
G0 F3600 X87.648 Y96.698
G1 F1800 X104.249 Y113.3 E115.87955
G0 F3600 X103.683 Y113.3
G1 F1800 X87.128 Y96.744 E116.65827
G0 F3600 X86.624 Y96.806
G1 F1800 X103.118 Y113.3 E117.43409
G0 F3600 X102.552 Y113.3
G1 F1800 X86.119 Y96.867 E118.20705
G0 F3600 X85.727 Y97.041
G1 F1800 X101.986 Y113.3 E118.97183
G0 F3600 X101.421 Y113.3
G1 F1800 X85.393 Y97.272 E119.72573
G0 F3600 X85.058 Y97.503
G1 F1800 X100.855 Y113.3 E120.46878
G0 F3600 X100.289 Y113.3
G1 F1800 X84.775 Y97.786 E121.19851
G0 F3600 X84.58 Y98.157
G1 F1800 X99.723 Y113.3 E121.91079
G0 F3600 X99.158 Y113.3
G1 F1800 X84.385 Y98.527 E122.60566
G0 F3600 X84.227 Y98.935
G1 F1800 X98.592 Y113.3 E123.28135
G0 F3600 X98.026 Y113.3
G1 F1800 X84.227 Y99.501 E123.93041
G0 F3600 X84.227 Y100.066
G1 F1800 X97.461 Y113.3 E124.5529
G0 F3600 X96.895 Y113.3
G1 F1800 X84.227 Y100.632 E125.14876
G0 F3600 X84.227 Y101.198
G1 F1800 X96.329 Y113.3 E125.718
G0 F3600 X95.764 Y113.3
G1 F1800 X84.227 Y101.763 E126.26067
G0 F3600 X84.227 Y102.329
G1 F1800 X95.198 Y113.3 E126.77671
G0 F3600 X94.632 Y113.3
G1 F1800 X84.227 Y102.895 E127.26613
G0 F3600 X84.227 Y103.461
G1 F1800 X94.067 Y113.3 E127.72895
G0 F3600 X93.501 Y113.3
G1 F1800 X84.227 Y104.026 E128.16517
G0 F3600 X84.227 Y104.592
G1 F1800 X92.935 Y113.3 E128.57477
G0 F3600 X92.37 Y113.3
G1 F1800 X84.227 Y105.158 E128.95777
G0 F3600 X84.227 Y105.723
G1 F1800 X91.804 Y113.3 E129.31417
G0 F3600 X91.238 Y113.3
G1 F1800 X84.227 Y106.289 E129.64394
G0 F3600 X84.227 Y106.855
G1 F1800 X90.673 Y113.3 E129.94712
G0 F3600 X90.107 Y113.3
G1 F1800 X84.227 Y107.42 E130.2237
G0 F3600 X84.227 Y107.986
G1 F1800 X89.541 Y113.3 E130.47365
G0 F3600 X88.975 Y113.3
G1 F1800 X84.227 Y108.552 E130.69698
G0 F3600 X84.227 Y109.117
G1 F1800 X88.41 Y113.3 E130.89374
G0 F3600 X87.844 Y113.3
G1 F1800 X84.227 Y109.683 E131.06387
G0 F3600 X84.227 Y110.249
G1 F1800 X87.246 Y113.267 E131.20585
G0 F3600 X86.602 Y113.189
G1 F1800 X84.227 Y110.814 E131.31756
G1 X84.157 Y110.744
G0 F3600 X84.461 Y111.614
G1 F1800 X85.958 Y113.11 E131.38795
M104 S200
G1 X86.028 Y113.18
;MESH:NONMESH
G0 F600 X86.028 Y113.18 Z0.5
G0 F3600 X165.572 Y98.12
;TIME_ELAPSED:147.190242
;LAYER:1
M140 S60
M106 S255
;TYPE:WALL-INNER
;MESH:label_base.stl
G1 F2700 X165.942 Y99.618 E131.46494
G1 X165.942 Y110.382 E132.00195
G1 X165.572 Y111.88 E132.07894
G1 X164.63 Y112.944 E132.14983
G1 X163.24 Y113.471 E132.224
G1 X87.486 Y113.471 E136.00338
G1 X85.888 Y113.277 E136.08369
G1 X84.718 Y112.468 E136.15466
G1 X84.058 Y111.212 E136.22544
G1 X84.058 Y98.788 E136.84528
G1 X84.718 Y97.532 E136.91607
G1 X85.888 Y96.723 E136.98703
G1 X87.486 Y96.529 E137.06734
G1 X163.24 Y96.529 E140.84672
G1 X164.63 Y97.056 E140.92089
G1 X165.572 Y98.12 E140.99179
G0 F5400 X165.937 Y97.929
G1 F2700 X166.342 Y99.571 E141.07616
G1 X166.342 Y110.429 E141.61787
G1 X165.937 Y112.071 E141.70224
G1 X164.863 Y113.283 E141.78304
G1 X163.314 Y113.871 E141.8657
G1 X87.463 Y113.871 E145.64992
G1 X85.742 Y113.662 E145.73641
G1 X84.41 Y112.741 E145.8172
G1 X83.658 Y111.31 E145.89785
G1 X83.658 Y98.69 E146.52747
G1 X84.409 Y97.259 E146.60809
G1 X85.742 Y96.338 E146.68893
G1 X87.463 Y96.129 E146.77542
G1 X163.314 Y96.129 E150.55964
G1 X164.863 Y96.717 E150.6423
G1 X165.937 Y97.929 E150.72309
G0 F5400 X166.302 Y97.738
;TYPE:WALL-OUTER
G1 F1800 X166.742 Y99.524 E150.81486
G1 X166.742 Y110.476 E151.36126
G1 X166.302 Y112.262 E151.45303
G1 X165.096 Y113.623 E151.54375
G1 X163.387 Y114.271 E151.63494
G1 X87.44 Y114.271 E155.42395
G1 X85.596 Y114.047 E155.51662
G1 X84.102 Y113.014 E155.60724
G1 X83.258 Y111.408 E155.69775
G1 X83.258 Y98.592 E156.33715
G1 X84.101 Y96.986 E156.42764
G1 X85.596 Y95.953 E156.5183
G1 X87.44 Y95.729 E156.61097
G1 X163.387 Y95.729 E160.39998
G1 X165.096 Y96.377 E160.49117
G1 X166.302 Y97.738 E160.58189
G0 F5400 X166.349 Y97.932
G0 X165.864 Y98.05
G0 X165.217 Y98.308
;TYPE:SKIN
G1 F1800 X165.552 Y99.664 E160.65157
G1 X165.552 Y110.336 E161.184
G1 X165.217 Y111.692 E161.25369
G1 X164.401 Y112.614 E161.31511
G1 X163.168 Y113.081 E161.38089
G1 X87.517 Y113.081 E165.15514
G1 X86.03 Y112.9 E165.22987
G1 X85.018 Y112.2 E165.29126
G1 X84.448 Y111.117 E165.35232
G1 X84.448 Y98.883 E165.96268
G1 X85.018 Y97.8 E166.02373
G1 X86.03 Y97.1 E166.08512
G1 X87.517 Y96.919 E166.15986
G1 X163.168 Y96.919 E169.9341
G1 X164.401 Y97.386 E169.99988
G1 X165.217 Y98.308 E170.06131
G0 F5400 X164.075 Y112.544
G1 F1800 X165.064 Y111.555 E170.13109
G0 F5400 X165.249 Y110.805
G1 F1800 X163.165 Y112.888 E170.27809
G0 F5400 X162.587 Y112.9
G1 F1800 X165.371 Y110.117 E170.47448
G0 F5400 X165.371 Y109.552
G1 F1800 X162.022 Y112.9 E170.71073
G0 F5400 X161.456 Y112.9
G1 F1800 X165.371 Y108.986 E170.98692
G0 F5400 X165.371 Y108.42
G1 F1800 X160.89 Y112.9 E171.30305
G0 F5400 X160.325 Y112.9
G1 F1800 X165.371 Y107.854 E171.65907
G0 F5400 X165.371 Y107.289
G1 F1800 X159.759 Y112.9 E172.05499
G0 F5400 X159.193 Y112.9
G1 F1800 X165.371 Y106.723 E172.49085
G0 F5400 X165.371 Y106.157
G1 F1800 X158.628 Y112.9 E172.9666
G0 F5400 X158.062 Y112.9
G1 F1800 X165.371 Y105.592 E173.48226
G0 F5400 X165.371 Y105.026
G1 F1800 X157.496 Y112.9 E174.03784
G0 F5400 X156.931 Y112.9
G1 F1800 X165.371 Y104.46 E174.63333
G0 F5400 X165.371 Y103.895
G1 F1800 X156.365 Y112.9 E175.26872
G0 F5400 X155.799 Y112.9
G1 F1800 X165.371 Y103.329 E175.94404
G0 F5400 X165.371 Y102.763
