; generated by Slic3r 1.2.9 on 2017-09-28 at 22:09:41

; external perimeters extrusion width = 0.35mm
; perimeters extrusion width = 0.39mm
; infill extrusion width = 0.39mm
; solid infill extrusion width = 0.39mm
; top infill extrusion width = 0.39mm

M107
M190 S65 ; set bed temperature
M104 S215 ; set temperature
G28 ; home all axes
G1 Z5 F5000 ; lift nozzle

M109 S215 ; wait for temperature to be reached
G21 ; set units to millimeters
G90 ; use absolute coordinates
M82 ; use absolute distances for extrusion
G92 E0
G1 Z0.350 F7800.000
G1 E-2.00000 F2400.00000
G92 E0
G1 X56.976 Y75.793 F7800.000
G1 E2.00000 F2400.00000
G1 X58.137 Y75.039 E2.12591 F1800.000
G1 X60.131 Y74.029 E2.32920
G1 X109.350 Y51.477 E7.25210
G1 X112.110 Y50.875 E7.50893
G1 X129.610 Y50.875 E9.10020
G1 X131.869 Y51.272 E9.30874
G1 X133.857 Y52.415 E9.51728 F1800.000
G1 X135.761 Y55.040 E9.81209
G1 X149.761 Y90.040 E13.23979
G1 X150.235 Y92.500 E13.46762
G1 X150.235 Y142.500 E18.01410
G1 X149.838 Y144.759 E18.22264
G1 X148.695 Y146.747 E18.43119
G1 X146.942 Y148.226 E18.63973
G1 X144.790 Y149.019 E18.84827
G1 X143.610 Y149.125 E18.95598
G1 X82.610 Y149.125 E24.50269
G1 X81.105 Y148.952 E24.64049
G1 X62.254 Y144.553 E26.40057
G1 X61.386 Y144.286 E26.48314
G1 X59.507 Y143.565 E26.66615
G1 X58.272 Y142.936 E26.79219
G1 X56.585 Y141.840 E26.97514
G1 X55.510 Y140.969 E27.10095
G1 X54.087 Y139.546 E27.28393
G1 X53.215 Y138.470 E27.40987
G1 X52.119 Y136.782 E27.59284
G1 X51.490 Y135.548 E27.71884
G1 X50.769 Y133.669 E27.90182
G1 X50.411 Y132.332 E28.02764
G1 X50.096 Y130.345 E28.21063
G1 X50.015 Y129.390 E28.29772
G1 X49.767 Y109.156 E30.13777
G1 X50.266 Y89.130 E31.95930
G1 X50.375 Y86.993 E32.15387
G1 X50.592 Y85.621 E32.28021
G1 X51.100 Y83.727 E32.45845
G1 X51.595 Y82.439 E32.58394
G1 X52.484 Y80.692 E32.76214
G1 X53.240 Y79.528 E32.88842
G1 X54.475 Y78.005 E33.06667
G1 X55.453 Y77.027 E33.19243
G1 X56.935 Y75.826 E33.36586
G1 E31.36586 F2400.00000
G92 E0
G1 X130.560 Y108.850 F7800.000
G1 E2.00000 F2400.00000
G1 X126.760 Y108.850 E2.34553 F1800.000
G1 X126.760 Y86.150 E4.40963
G1 X130.560 Y86.150 E4.75517
G1 X130.560 Y108.797 E6.81449
G1 X130.560 Y109.200 F7800.000
G1 X126.110 Y109.500 F7800.000
G1 X124.077 Y118.981 F7800.000
G1 X125.491 Y123.779 F7800.000
G1 X124.652 Y124.892 F7800.000
G1 X122.610 Y137.050 F7800.000
G1 X117.217 Y135.532 F7800.000
G1 X115.619 Y134.811 F7800.000
G1 X115.085 Y134.638 F7800.000
G1 X113.888 Y136.287 F7800.000
G1 X113.875 Y136.309 F7800.000
G1 X114.303 Y136.620 E6.86259 F1800.000
G1 X114.657 Y137.013 E6.91071
G1 X114.922 Y137.471 E6.95881
G1 X115.085 Y137.974 E7.00689
G1 X115.140 Y138.500 E7.05500
G1 X115.085 Y139.026 E7.10310
G1 X114.922 Y139.529 E7.15118
G1 X114.657 Y139.987 E7.19928
G1 X114.303 Y140.381 E7.24744
G1 X113.875 Y140.691 E7.29551
G1 X113.393 Y140.906 E7.34347
G1 X112.875 Y141.017 E7.39161
G1 X112.345 Y141.017 E7.43987
G1 X111.827 Y140.906 E7.48802
G1 X111.345 Y140.691 E7.53598
G1 X110.917 Y140.381 E7.58404
G1 X110.563 Y139.987 E7.63221
G1 X110.299 Y139.529 E7.68030
G1 X110.135 Y139.026 E7.72838
G1 X110.080 Y138.500 E7.77649
G1 X110.135 Y137.974 E7.82459
G1 X110.299 Y137.471 E7.87267
G1 X110.563 Y137.013 E7.92078
G1 X110.917 Y136.620 E7.96889
G1 X111.345 Y136.309 E8.01699
G1 X111.816 Y136.099 E8.06389
G1 X112.342 Y135.984 E8.11288
G1 X112.875 Y135.984 E8.16126 F1800.000
G1 X113.392 Y136.094 E8.20936
G1 X113.827 Y136.287 E8.25267
G1 X113.561 Y136.853 F7800.000
G1 X113.883 Y137.087 E8.28883 F1800.000
G1 X114.149 Y137.382 E8.32499
G1 X114.348 Y137.726 E8.36115
G1 X114.470 Y138.105 E8.39729
G1 X114.512 Y138.500 E8.43345
G1 X114.470 Y138.895 E8.46961
G1 X114.348 Y139.274 E8.50575
G1 X114.149 Y139.618 E8.54191
G1 X113.883 Y139.914 E8.57809
G1 X113.561 Y140.147 E8.61422
G1 X113.198 Y140.309 E8.65033
G1 X112.809 Y140.392 E8.68651
G1 X112.411 Y140.392 E8.72272
G1 X112.022 Y140.309 E8.75890
G1 X111.659 Y140.147 E8.79501
G1 X111.337 Y139.914 E8.83114
G1 X111.071 Y139.618 E8.86732
G1 X110.873 Y139.274 E8.90347
G1 X110.750 Y138.895 E8.93962
G1 X110.708 Y138.500 E8.97578
G1 X110.750 Y138.105 E9.01194
G1 X110.873 Y137.726 E9.04808
G1 X111.071 Y137.382 E9.08424
G1 X111.337 Y137.087 E9.12040
G1 X111.659 Y136.853 E9.15655
G1 X112.012 Y136.696 E9.19169
G1 X112.410 Y136.609 E9.22874
G1 X112.809 Y136.609 E9.26499 F1800.000
G1 X113.198 Y136.691 E9.30115
G1 X113.513 Y136.832 E9.33253
G1 X113.870 Y136.689 F7800.000
G1 X110.900 Y136.601 F7800.000
G1 X106.210 Y136.701 F7800.000
G1 X96.440 Y133.697 F7800.000
G1 X97.110 Y132.600 F7800.000
G1 X100.484 Y129.226 F7800.000
G1 X100.484 Y127.000 F7800.000
G1 X100.427 Y126.975 F7800.000
G1 X94.735 Y126.975 E9.85012 F1800.000
G1 X94.735 Y118.025 E10.66392
G1 X99.583 Y118.025 E11.10474
G1 X98.401 Y120.072 E11.31964
G1 X98.206 Y120.672 E11.37705
G1 X98.140 Y121.300 E11.43444
G1 X98.193 Y121.800 E11.48016
G1 X98.140 Y122.300 E11.52588
G1 X98.193 Y122.800 E11.57159
G1 X98.140 Y123.300 E11.61732
G1 X98.206 Y123.928 E11.67471
G1 X98.401 Y124.528 E11.73211
G1 X98.717 Y125.075 E11.78952
G1 X100.392 Y126.936 E12.01720
G1 X99.024 Y126.350 F7800.000
G1 X95.360 Y126.350 E12.35037 F1800.000
G1 X95.360 Y118.650 E13.05053
G1 X98.501 Y118.650 E13.33611
G1 X97.827 Y119.816 E13.45855
G1 X97.592 Y120.542 E13.52791
G1 X97.512 Y121.300 E13.59725
G1 X97.565 Y121.800 E13.64297
G1 X97.512 Y122.300 E13.68868
G1 X97.565 Y122.800 E13.73440
G1 X97.512 Y123.300 E13.78011
G1 X97.592 Y124.058 E13.84946
G1 X97.827 Y124.784 E13.91880
G1 X98.209 Y125.444 E13.98815
G1 X98.989 Y126.311 E14.09420
G1 X99.109 Y126.690 F7800.000
G1 X89.922 Y131.471 F7800.000
G1 X90.085 Y131.974 E14.14228 F1800.000
G1 X90.140 Y132.500 E14.19038
G1 X90.085 Y133.026 E14.23849
G1 X89.922 Y133.529 E14.28657
G1 X89.657 Y133.987 E14.33467
G1 X89.303 Y134.380 E14.38279
G1 X88.875 Y134.691 E14.43089
G1 X88.392 Y134.906 E14.47897
G1 X87.875 Y135.016 E14.52707
G1 X87.346 Y135.016 E14.57517
G1 X86.828 Y134.906 E14.62328
G1 X86.345 Y134.691 E14.67136
G1 X85.917 Y134.380 E14.71946
G1 X85.563 Y133.987 E14.76758
G1 X85.299 Y133.529 E14.81568
G1 X85.135 Y133.026 E14.86376
G1 X85.080 Y132.500 E14.91186
G1 X85.135 Y131.974 E14.95997
G1 X85.299 Y131.471 E15.00805
G1 X85.563 Y131.013 E15.05615
G1 X85.917 Y130.620 E15.10427
G1 X86.345 Y130.309 E15.15237
G1 X86.828 Y130.094 E15.20045
G1 X87.346 Y129.984 E15.24855
G1 X87.875 Y129.984 E15.29665 F1800.000
G1 X88.392 Y130.094 E15.34476
G1 X88.875 Y130.309 E15.39284
G1 X89.303 Y130.620 E15.44094
G1 X89.657 Y131.013 E15.48906
G1 X89.895 Y131.426 E15.53239
G1 X89.348 Y131.726 F7800.000
G1 X89.470 Y132.105 E15.56853 F1800.000
G1 X89.512 Y132.500 E15.60469
G1 X89.470 Y132.895 E15.64085
G1 X89.348 Y133.274 E15.67699
G1 X89.149 Y133.618 E15.71315
G1 X88.883 Y133.913 E15.74931
G1 X88.561 Y134.147 E15.78546
G1 X88.198 Y134.309 E15.82161
G1 X87.809 Y134.391 E15.85777
G1 X87.411 Y134.391 E15.89392
G1 X87.022 Y134.309 E15.93008
G1 X86.659 Y134.147 E15.96623
G1 X86.337 Y133.913 E16.00239
G1 X86.071 Y133.618 E16.03855
G1 X85.873 Y133.274 E16.07471
G1 X85.750 Y132.895 E16.11085
G1 X85.708 Y132.500 E16.14701
G1 X85.750 Y132.105 E16.18317
G1 X85.873 Y131.726 E16.21931
G1 X86.071 Y131.382 E16.25547
G1 X86.337 Y131.087 E16.29163
G1 X86.659 Y130.853 E16.32778
G1 X87.022 Y130.691 E16.36393
G1 X87.411 Y130.609 E16.40009
G1 X87.809 Y130.609 E16.43624 F1800.000
G1 X88.198 Y130.691 E16.47240
G1 X88.561 Y130.853 E16.50855
G1 X88.883 Y131.087 E16.54470
G1 X89.149 Y131.382 E16.58086
G1 X89.321 Y131.681 E16.61225
G1 X89.694 Y131.775 F7800.000
G1 X87.343 Y129.959 F7800.000
G1 X93.710 Y123.500 F7800.000
G1 X94.010 Y105.500 F7800.000
G1 X89.055 Y105.089 F7800.000
G1 X87.295 Y105.268 F7800.000
G1 X86.165 Y105.089 F7800.000
G1 X86.077 Y105.065 F7800.000
G1 X85.543 Y104.892 F7800.000
G1 X85.544 Y104.900 F7800.000
G1 X84.210 Y104.900 E16.73358 F1800.000
G1 X84.210 Y103.251 E16.88350
G1 X84.521 Y103.198 E16.91226
G1 X84.735 Y103.802 E16.97050
G1 X85.055 Y104.356 E17.02870
G1 X85.509 Y104.861 E17.09046
G1 X85.920 Y104.383 F7800.000
G1 X85.563 Y103.987 E17.13890 F1800.000
G1 X85.305 Y103.540 E17.18589
G1 X85.140 Y103.073 E17.23087
G1 X85.080 Y102.500 E17.28328
G1 X85.135 Y101.974 E17.33138
G1 X85.299 Y101.471 E17.37946
G1 X85.563 Y101.013 E17.42756
G1 X85.917 Y100.620 E17.47568
G1 X86.345 Y100.309 E17.52378
G1 X86.828 Y100.094 E17.57186
G1 X87.346 Y99.984 E17.61997
G1 X87.875 Y99.984 E17.66807 F1800.000
G1 X88.392 Y100.094 E17.71617
G1 X88.875 Y100.309 E17.76426
G1 X89.303 Y100.620 E17.81235
G1 X89.657 Y101.013 E17.86047
G1 X89.915 Y101.460 E17.90745
G1 X90.080 Y101.927 E17.95244
G1 X90.140 Y102.500 E18.00484
G1 X90.085 Y103.026 E18.05295
G1 X89.922 Y103.529 E18.10103
G1 X89.657 Y103.987 E18.14913
G1 X89.303 Y104.380 E18.19724
G1 X88.875 Y104.691 E18.24534
G1 X88.392 Y104.906 E18.29343
G1 X87.875 Y105.016 E18.34153
G1 X87.346 Y105.016 E18.38963
G1 X86.828 Y104.906 E18.43774
G1 X86.345 Y104.691 E18.48582
G1 X85.962 Y104.413 E18.52881
G1 X86.337 Y103.913 F7800.000
G1 X86.071 Y103.618 E18.56497 F1800.000
G1 X85.875 Y103.277 E18.60073
G1 X85.754 Y102.935 E18.63377
G1 X85.708 Y102.500 E18.67351
G1 X85.750 Y102.105 E18.70967
G1 X85.873 Y101.726 E18.74581
G1 X86.071 Y101.382 E18.78197
G1 X86.337 Y101.087 E18.81813
G1 X86.659 Y100.853 E18.85429
G1 X87.022 Y100.691 E18.89043
G1 X87.411 Y100.608 E18.92659
G1 X87.809 Y100.608 E18.96275 F1800.000
G1 X88.198 Y100.691 E18.99891
G1 X88.561 Y100.853 E19.03505
G1 X88.883 Y101.087 E19.07121
G1 X89.149 Y101.382 E19.10737
G1 X89.345 Y101.723 E19.14312
G1 X89.466 Y102.065 E19.17617
G1 X89.512 Y102.500 E19.21591
G1 X89.470 Y102.895 E19.25207
G1 X89.348 Y103.274 E19.28821
G1 X89.149 Y103.618 E19.32437
G1 X88.883 Y103.913 E19.36053
G1 X88.561 Y104.147 E19.39668
G1 X88.198 Y104.309 E19.43283
G1 X87.809 Y104.391 E19.46899
G1 X87.411 Y104.391 E19.50514
G1 X87.022 Y104.309 E19.54130
G1 X86.659 Y104.147 E19.57745
G1 X86.380 Y103.944 E19.60883
G1 X86.001 Y104.010 F7800.000
G1 E17.60883 F2400.00000
G92 E0
G1 X88.400 Y100.070 F7800.000
G1 X90.195 Y96.364 F7800.000
G1 X91.610 Y95.200 F7800.000
G1 X91.610 Y92.500 F7800.000
G1 X91.010 Y93.100 F7800.000
G1 E2.00000 F2400.00000
G1 X93.710 Y93.100 E2.24551 F1800.000
G1 X93.710 Y104.900 E3.31852
G1 X89.676 Y104.900 E3.68536
G1 X90.166 Y104.356 E3.75188
G1 X90.496 Y103.785 E3.81193
G1 X90.700 Y103.157 E3.87195
G1 X90.769 Y102.500 E3.93200
G1 X90.694 Y101.788 E3.99707
G1 X90.486 Y101.198 E4.05399
G1 X90.166 Y100.644 E4.11220
G1 X89.723 Y100.153 E4.17227
G1 X89.189 Y99.765 E4.23232
G1 X88.586 Y99.496 E4.29233
G1 X87.940 Y99.359 E4.35239
G1 X87.280 Y99.359 E4.41243
G1 X86.634 Y99.496 E4.47248
G1 X86.031 Y99.765 E4.53250
G1 X85.497 Y100.153 E4.59255
G1 X85.055 Y100.644 E4.65262
G1 X84.724 Y101.215 E4.71266
G1 X84.526 Y101.826 E4.77104
G1 X84.210 Y101.776 E4.80016
G1 X84.210 Y84.100 E6.40744
G1 X91.010 Y84.100 E7.02580
G1 X91.010 Y93.047 E7.83939
G1 X92.232 Y102.717 F7800.000
G1 X93.710 Y104.900 F7800.000
G1 X94.010 Y109.250 F7800.000
G1 X98.335 Y113.625 F7800.000
G1 X100.541 Y111.100 F7800.000
G1 X102.710 Y111.100 F7800.000
G1 X102.110 Y110.500 F7800.000
G1 X123.210 Y110.500 E9.75797 F1800.000
G1 X123.210 Y118.563 E10.49112
G1 X121.714 Y119.229 E10.63997
G1 X121.310 Y119.523 E10.68543
G1 X121.090 Y119.768 E10.71538
G1 X121.268 Y120.013 E10.74299
G1 X121.704 Y119.819 E10.78639
G1 X122.238 Y119.706 E10.83600
G1 X122.782 Y119.706 E10.88553
G1 X123.316 Y119.819 E10.93514
G1 X123.815 Y120.041 E10.98477
G1 X124.255 Y120.361 E11.03432
G1 X124.620 Y120.767 E11.08391
G1 X124.893 Y121.239 E11.13352
G1 X125.062 Y121.757 E11.18307
G1 X125.119 Y122.300 E11.23267
G1 X125.062 Y122.843 E11.28228
G1 X124.892 Y123.365 E11.33222
G1 X124.614 Y123.841 E11.38233
G1 X124.255 Y124.239 E11.43102
G1 X123.815 Y124.559 E11.48056
G1 X123.316 Y124.781 E11.53019
G1 X122.782 Y124.894 E11.57980
G1 X122.238 Y124.894 E11.62934
G1 X121.704 Y124.781 E11.67894
G1 X121.268 Y124.587 E11.72234
G1 X121.090 Y124.832 E11.74995
G1 X121.310 Y125.077 E11.77990
G1 X121.714 Y125.371 E11.82536
G1 X123.210 Y126.037 E11.97421
G1 X123.210 Y133.200 E12.62553
G1 X102.110 Y133.200 E14.54410
G1 X102.110 Y125.926 E15.20553
G1 X103.356 Y125.371 E15.32950
G1 X103.764 Y125.074 E15.37539
G1 X103.641 Y124.797 E15.40300
G1 X103.182 Y124.894 E15.44559
G1 X102.638 Y124.894 E15.49512
G1 X102.104 Y124.781 E15.54473
G1 X101.605 Y124.559 E15.59436
G1 X101.165 Y124.239 E15.64391
G1 X100.800 Y123.833 E15.69350
G1 X100.527 Y123.361 E15.74311
G1 X100.359 Y122.843 E15.79266
G1 X100.301 Y122.296 E15.84266
G1 X100.362 Y121.748 E15.89276
G1 X100.527 Y121.239 E15.94141
G1 X100.800 Y120.767 E15.99101
G1 X101.165 Y120.361 E16.04061
G1 X101.605 Y120.041 E16.09015
G1 X102.104 Y119.819 E16.13978
G1 X102.638 Y119.706 E16.18939
G1 X103.182 Y119.706 E16.23893
G1 X103.641 Y119.803 E16.28152
G1 X103.764 Y119.526 E16.30912
G1 X103.356 Y119.229 E16.35501
G1 X102.110 Y118.674 E16.47898
G1 X102.110 Y110.553 E17.21748
G1 X102.735 Y111.125 F7800.000
G1 X122.585 Y111.125 E19.02241 F1800.000
G1 X122.585 Y118.157 E19.66184
G1 X121.400 Y118.685 E19.77976
G1 X120.889 Y119.056 E19.83717
G1 X120.467 Y119.525 E19.89458
G1 X120.151 Y120.072 E19.95197
G1 X119.956 Y120.672 E20.00938
G1 X119.890 Y121.300 E20.06678
G1 X119.943 Y121.800 E20.11250
G1 X119.890 Y122.300 E20.15822
G1 X119.943 Y122.800 E20.20393
G1 X119.890 Y123.300 E20.24965
G1 X119.956 Y123.928 E20.30705
G1 X120.151 Y124.528 E20.36445
G1 X120.467 Y125.075 E20.42186
G1 X120.889 Y125.544 E20.47927
G1 X121.400 Y125.915 E20.53667
G1 X122.585 Y126.443 E20.65459
G1 X122.585 Y132.575 E21.21219
G1 X102.735 Y132.575 E23.01712
G1 X102.735 Y126.331 E23.58483
G1 X103.670 Y125.915 E23.67787
G1 X104.181 Y125.544 E23.73528
G1 X104.603 Y125.075 E23.79269
G1 X104.919 Y124.528 E23.85009
G1 X105.114 Y123.928 E23.90750
G1 X105.180 Y123.300 E23.96489
G1 X105.128 Y122.808 E24.00990
G1 X104.826 Y122.776 E24.03750
G1 X104.719 Y123.105 E24.06898
G1 X104.512 Y123.464 E24.10664
G1 X104.235 Y123.772 E24.14428
G1 X103.900 Y124.015 E24.18190
G1 X103.522 Y124.183 E24.21957
G1 X103.117 Y124.269 E24.25722
G1 X102.703 Y124.269 E24.29483
G1 X102.298 Y124.183 E24.33249
G1 X101.920 Y124.015 E24.37016
G1 X101.585 Y123.772 E24.40778
G1 X101.308 Y123.464 E24.44542
G1 X101.101 Y123.105 E24.48308
G1 X100.973 Y122.712 E24.52070
G1 X100.929 Y122.297 E24.55859
G1 X100.976 Y121.880 E24.59675
G1 X101.101 Y121.495 E24.63362
G1 X101.308 Y121.136 E24.67127
G1 X101.585 Y120.828 E24.70892
G1 X101.920 Y120.585 E24.74654
G1 X102.298 Y120.417 E24.78420
G1 X102.703 Y120.331 E24.82186
G1 X103.117 Y120.331 E24.85947
G1 X103.522 Y120.417 E24.89713
G1 X103.900 Y120.585 E24.93480
G1 X104.235 Y120.828 E24.97241
G1 X104.512 Y121.136 E25.01006
G1 X104.719 Y121.495 E25.04772
G1 X104.826 Y121.824 E25.07919
G1 X105.128 Y121.792 E25.10680
G1 X105.180 Y121.300 E25.15180
G1 X105.114 Y120.672 E25.20920
G1 X104.919 Y120.072 E25.26661
G1 X104.603 Y119.525 E25.32400
G1 X104.181 Y119.056 E25.38142
G1 X103.670 Y118.685 E25.43882
G1 X102.735 Y118.269 E25.53186
G1 X102.735 Y111.178 E26.17664
G1 X103.360 Y111.750 F7800.000
G1 X121.960 Y111.750 E27.86793 F1800.000
G1 X121.960 Y117.751 E28.41364
G1 X121.086 Y118.141 E28.50064
G1 X120.469 Y118.589 E28.56999
G1 X119.959 Y119.156 E28.63934
G1 X119.577 Y119.816 E28.70868
G1 X119.342 Y120.542 E28.77804
G1 X119.262 Y121.300 E28.84738
G1 X119.315 Y121.800 E28.89310
G1 X119.262 Y122.300 E28.93881
G1 X119.315 Y122.800 E28.98453
G1 X119.262 Y123.300 E29.03025
G1 X119.342 Y124.058 E29.09959
G1 X119.577 Y124.784 E29.16894
G1 X119.959 Y125.444 E29.23828
G1 X120.469 Y126.011 E29.30764
G1 X121.086 Y126.459 E29.37698
G1 X121.960 Y126.849 E29.46398
