; generated by Slic3r Prusa Edition 1.39.2+win64 on 2018-12-25 at 20:42:25

; 

; external perimeters extrusion width = 0.45mm
; perimeters extrusion width = 0.45mm
; infill extrusion width = 0.45mm
; solid infill extrusion width = 0.45mm
; top infill extrusion width = 0.45mm
; first layer extrusion width = 0.42mm

M107
M115 U3.1.0 ; tell printer latest fw version
M83  ; extruder relative mode
M104 S205 ; set extruder temp
M140 S55 ; set bed temp
M190 S55 ; wait for bed temp
M109 S205 ; wait for extruder temp
G28 W ; home all without mesh bed level
G80 ; mesh bed leveling
G1 Y-3.0 F1000.0 ; go outside print area
G92 E0.0
G1 X60.0 E9.0  F1000.0 ; intro line
G1 X100.0 E12.5  F1000.0 ; intro line
G92 E0.0
M900 K30; Filament gcode
G21 ; set units to millimeters
G90 ; use absolute coordinates
M83 ; use relative distances for extrusion
;BEFORE_LAYER_CHANGE
;0.2


G1 E-0.80000 F2100.00000
G1 Z0.600 F7200.000
;AFTER_LAYER_CHANGE
;0.2
G1 X71.703 Y90.760
G1 Z0.200
G1 E0.80000 F2100.00000
M204 S1000
G1 F1800
G1 X72.495 Y90.623 E0.02520
G1 X132.504 Y90.623 E1.88153
G1 X133.392 Y90.797 E0.02837
G1 X134.153 Y91.292 E0.02849
G1 X134.672 Y92.034 E0.02837
G1 X134.876 Y92.919 E0.02849
G1 X134.871 Y112.175 E0.60376
G1 X134.723 Y112.842 E0.02142
G1 X134.392 Y113.440 E0.02142
G1 X133.904 Y113.918 E0.02142
G1 X133.300 Y114.238 E0.02142
G1 X132.505 Y114.377 E0.02532
G1 X72.447 Y114.376 E1.88308
G1 X71.744 Y114.254 E0.02237
G1 X71.109 Y113.928 E0.02237
G1 X70.600 Y113.428 E0.02237
G1 X70.260 Y112.797 E0.02249
G1 X70.123 Y112.016 E0.02484
G1 X70.128 Y92.844 E0.60114
G1 X70.272 Y92.172 E0.02154
G1 X70.604 Y91.566 E0.02166
G1 X71.093 Y91.084 E0.02154
G1 X71.650 Y90.789 E0.01978
G1 F5760
G1 X72.495 Y90.623 E-0.29817
G1 X73.829 Y90.623 E-0.46183
G1 E-0.04000 F2100.00000
G1 Z0.800 F7200.000
G1 X119.110 Y102.279
G1 Z0.200
G1 E0.80000 F2100.00000
G1 F1800
G1 X119.204 Y101.929 E0.01137
G1 X119.334 Y101.590 E0.01141
G1 X119.503 Y101.261 E0.01159
G1 X119.696 Y100.963 E0.01113
G1 X119.925 Y100.681 E0.01137
G1 X120.181 Y100.425 E0.01138
G1 X120.463 Y100.196 E0.01137
G1 X120.767 Y99.999 E0.01138
G1 X121.091 Y99.834 E0.01138
G1 X121.429 Y99.704 E0.01137
G1 X121.779 Y99.610 E0.01137
G1 X122.138 Y99.554 E0.01138
G1 X122.492 Y99.535 E0.01113
G1 X122.861 Y99.553 E0.01157
G1 X123.221 Y99.610 E0.01142
G1 X123.571 Y99.704 E0.01137
G1 X123.909 Y99.834 E0.01137
G1 X124.233 Y99.999 E0.01138
G1 X124.537 Y100.196 E0.01138
G1 X124.819 Y100.425 E0.01137
G1 X125.075 Y100.681 E0.01138
G1 X125.304 Y100.963 E0.01137
G1 X125.501 Y101.267 E0.01138
G1 X125.666 Y101.591 E0.01138
G1 X125.796 Y101.929 E0.01137
G1 X125.890 Y102.279 E0.01137
G1 X125.946 Y102.638 E0.01138
G1 X125.965 Y103.000 E0.01137
G1 X125.946 Y103.362 E0.01137
G1 X125.890 Y103.721 E0.01138
G1 X125.796 Y104.071 E0.01137
G1 X125.666 Y104.409 E0.01137
G1 X125.501 Y104.733 E0.01138
G1 X125.304 Y105.037 E0.01138
G1 X125.075 Y105.319 E0.01137
G1 X124.819 Y105.575 E0.01138
G1 X124.537 Y105.804 E0.01137
G1 X124.233 Y106.001 E0.01138
G1 X123.909 Y106.166 E0.01138
G1 X123.571 Y106.296 E0.01137
G1 X123.221 Y106.390 E0.01137
G1 X122.862 Y106.446 E0.01138
G1 X122.500 Y106.465 E0.01137
G1 X122.138 Y106.446 E0.01137
G1 X121.779 Y106.390 E0.01138
G1 X121.429 Y106.296 E0.01137
G1 X121.091 Y106.166 E0.01137
G1 X120.767 Y106.001 E0.01138
G1 X120.462 Y105.803 E0.01141
G1 X120.176 Y105.570 E0.01157
G1 X119.925 Y105.319 E0.01113
G1 X119.696 Y105.037 E0.01137
G1 X119.499 Y104.733 E0.01138
G1 X119.334 Y104.409 E0.01138
G1 X119.204 Y104.071 E0.01137
G1 X119.110 Y103.721 E0.01137
G1 X119.054 Y103.362 E0.01138
G1 X119.035 Y103.000 E0.01137
G1 X119.054 Y102.638 E0.01137
G1 X119.101 Y102.339 E0.00950
G1 X119.473 Y102.398 F7200.000
G1 F1800
G1 X119.563 Y102.046 E0.01138
G1 X119.679 Y101.743 E0.01015
G1 X119.830 Y101.450 E0.01034
G1 X120.002 Y101.185 E0.00991
G1 X120.205 Y100.934 E0.01013
G1 X120.434 Y100.705 E0.01014
G1 X120.685 Y100.502 E0.01013
G1 X120.956 Y100.326 E0.01014
G1 X121.244 Y100.179 E0.01014
G1 X121.546 Y100.063 E0.01013
G1 X121.858 Y99.980 E0.01013
G1 X122.177 Y99.929 E0.01014
G1 X122.493 Y99.912 E0.00990
G1 X122.822 Y99.929 E0.01034
G1 X123.142 Y99.980 E0.01016
G1 X123.454 Y100.063 E0.01013
G1 X123.756 Y100.179 E0.01013
G1 X124.044 Y100.326 E0.01014
G1 X124.315 Y100.502 E0.01014
G1 X124.566 Y100.705 E0.01013
G1 X124.795 Y100.934 E0.01014
G1 X124.998 Y101.185 E0.01013
G1 X125.174 Y101.456 E0.01014
G1 X125.321 Y101.744 E0.01014
G1 X125.437 Y102.046 E0.01013
G1 X125.520 Y102.358 E0.01013
G1 X125.571 Y102.677 E0.01014
G1 X125.588 Y103.000 E0.01013
G1 X125.571 Y103.323 E0.01013
G1 X125.520 Y103.642 E0.01014
G1 X125.437 Y103.954 E0.01013
G1 X125.321 Y104.256 E0.01013
G1 X125.174 Y104.544 E0.01014
G1 X124.998 Y104.815 E0.01014
G1 X124.795 Y105.066 E0.01013
G1 X124.566 Y105.295 E0.01014
G1 X124.315 Y105.498 E0.01013
G1 X124.044 Y105.674 E0.01014
G1 X123.756 Y105.821 E0.01014
G1 X123.454 Y105.937 E0.01013
G1 X123.142 Y106.020 E0.01013
G1 X122.823 Y106.071 E0.01014
G1 X122.500 Y106.088 E0.01013
G1 X122.177 Y106.071 E0.01013
G1 X121.858 Y106.020 E0.01014
G1 X121.546 Y105.937 E0.01013
G1 X121.244 Y105.821 E0.01013
G1 X120.956 Y105.674 E0.01014
G1 X120.684 Y105.498 E0.01016
G1 X120.429 Y105.290 E0.01033
G1 X120.205 Y105.066 E0.00991
G1 X120.002 Y104.815 E0.01013
G1 X119.826 Y104.544 E0.01014
G1 X119.679 Y104.256 E0.01014
G1 X119.563 Y103.954 E0.01013
G1 X119.480 Y103.642 E0.01013
G1 X119.429 Y103.323 E0.01014
G1 X119.412 Y103.000 E0.01013
G1 X119.429 Y102.677 E0.01013
G1 X119.464 Y102.457 E0.00700
G1 X119.836 Y102.516 F7200.000
G1 F1800
G1 X119.922 Y102.163 E0.01140
G1 X120.024 Y101.897 E0.00890
G1 X120.157 Y101.639 E0.00910
G1 X120.307 Y101.407 E0.00868
G1 X120.486 Y101.186 E0.00889
G1 X120.686 Y100.986 E0.00890
G1 X120.907 Y100.807 E0.00889
G1 X121.145 Y100.653 E0.00890
G1 X121.398 Y100.524 E0.00890
G1 X121.663 Y100.422 E0.00889
G1 X121.936 Y100.349 E0.00889
G1 X122.217 Y100.305 E0.00890
G1 X122.493 Y100.290 E0.00868
G1 X122.783 Y100.305 E0.00910
G1 X123.064 Y100.349 E0.00891
G1 X123.337 Y100.422 E0.00889
G1 X123.602 Y100.524 E0.00889
G1 X123.855 Y100.653 E0.00890
G1 X124.093 Y100.807 E0.00890
G1 X124.314 Y100.986 E0.00889
G1 X124.514 Y101.186 E0.00890
G1 X124.693 Y101.407 E0.00889
G1 X124.847 Y101.645 E0.00890
G1 X124.976 Y101.898 E0.00890
G1 X125.078 Y102.163 E0.00889
G1 X125.151 Y102.436 E0.00889
G1 X125.195 Y102.717 E0.00890
G1 X125.210 Y103.000 E0.00889
G1 X125.195 Y103.283 E0.00889
G1 X125.151 Y103.564 E0.00890
G1 X125.078 Y103.837 E0.00889
G1 X124.976 Y104.102 E0.00889
G1 X124.847 Y104.355 E0.00890
G1 X124.693 Y104.593 E0.00890
G1 X124.514 Y104.814 E0.00889
G1 X124.314 Y105.014 E0.00890
G1 X124.093 Y105.193 E0.00889
G1 X123.855 Y105.347 E0.00890
G1 X123.602 Y105.476 E0.00890
G1 X123.337 Y105.578 E0.00889
G1 X123.064 Y105.651 E0.00889
G1 X122.783 Y105.695 E0.00890
G1 X122.500 Y105.710 E0.00889
G1 X122.217 Y105.695 E0.00889
G1 X121.936 Y105.651 E0.00890
G1 X121.663 Y105.578 E0.00889
G1 X121.398 Y105.476 E0.00889
G1 X121.145 Y105.347 E0.00890
G1 X120.907 Y105.192 E0.00891
G1 X120.682 Y105.009 E0.00910
G1 X120.486 Y104.814 E0.00868
G1 X120.307 Y104.593 E0.00889
G1 X120.153 Y104.355 E0.00890
G1 X120.024 Y104.102 E0.00890
G1 X119.922 Y103.837 E0.00889
G1 X119.849 Y103.564 E0.00889
G1 X119.805 Y103.283 E0.00890
G1 X119.790 Y103.000 E0.00889
G1 X119.827 Y102.575 E0.01338
G1 X119.558 Y102.282 F7200.000
G1 F5760
G1 X119.922 Y102.163 E-0.14665
G1 X120.024 Y101.897 E-0.09833
G1 X120.157 Y101.639 E-0.10054
G1 X120.307 Y101.407 E-0.09592
G1 X120.486 Y101.186 E-0.09822
G1 X120.686 Y100.986 E-0.09830
G1 X120.907 Y100.807 E-0.09822
G1 X120.965 Y100.770 E-0.02383
G1 E-0.04000 F2100.00000
G1 Z0.800 F7200.000
G1 X85.965 Y103.000
G1 Z0.200
G1 E0.80000 F2100.00000
G1 F1800
G1 X85.946 Y103.362 E0.01137
G1 X85.890 Y103.721 E0.01138
G1 X85.796 Y104.071 E0.01137
G1 X85.666 Y104.409 E0.01137
G1 X85.501 Y104.733 E0.01138
G1 X85.304 Y105.037 E0.01138
G1 X85.075 Y105.319 E0.01137
G1 X84.819 Y105.575 E0.01138
G1 X84.537 Y105.804 E0.01137
G1 X84.233 Y106.001 E0.01138
G1 X83.909 Y106.166 E0.01138
G1 X83.571 Y106.296 E0.01137
G1 X83.221 Y106.390 E0.01137
G1 X82.862 Y106.446 E0.01138
G1 X82.500 Y106.465 E0.01137
G1 X82.138 Y106.446 E0.01137
G1 X81.779 Y106.390 E0.01138
G1 X81.429 Y106.296 E0.01137
G1 X81.091 Y106.166 E0.01137
G1 X80.767 Y106.001 E0.01138
G1 X80.463 Y105.804 E0.01137
G1 X80.181 Y105.575 E0.01137
G1 X79.925 Y105.319 E0.01138
G1 X79.696 Y105.037 E0.01137
G1 X79.499 Y104.733 E0.01138
G1 X79.334 Y104.409 E0.01137
G1 X79.204 Y104.071 E0.01137
G1 X79.110 Y103.721 E0.01137
G1 X79.054 Y103.362 E0.01138
G1 X79.035 Y103.000 E0.01137
G1 X79.054 Y102.638 E0.01137
G1 X79.110 Y102.278 E0.01141
G1 X79.207 Y101.922 E0.01158
G1 X79.334 Y101.591 E0.01113
G1 X79.499 Y101.267 E0.01137
G1 X79.696 Y100.963 E0.01138
G1 X79.925 Y100.681 E0.01137
G1 X80.181 Y100.425 E0.01138
G1 X80.463 Y100.196 E0.01137
G1 X80.767 Y99.999 E0.01137
G1 X81.091 Y99.834 E0.01138
G1 X81.429 Y99.704 E0.01137
G1 X81.779 Y99.610 E0.01137
G1 X82.138 Y99.554 E0.01138
G1 X82.492 Y99.535 E0.01113
G1 X82.861 Y99.553 E0.01157
G1 X83.221 Y99.610 E0.01142
G1 X83.571 Y99.704 E0.01137
G1 X83.909 Y99.834 E0.01137
G1 X84.233 Y99.999 E0.01138
G1 X84.537 Y100.196 E0.01138
G1 X84.819 Y100.425 E0.01137
G1 X85.075 Y100.681 E0.01138
G1 X85.304 Y100.963 E0.01137
G1 X85.501 Y101.267 E0.01138
G1 X85.666 Y101.591 E0.01138
G1 X85.796 Y101.929 E0.01137
G1 X85.890 Y102.279 E0.01137
G1 X85.946 Y102.638 E0.01138
G1 X85.962 Y102.940 E0.00949
G1 X85.586 Y102.960 F7200.000
G1 F1800
G1 X85.571 Y103.323 E0.01139
G1 X85.520 Y103.642 E0.01014
G1 X85.437 Y103.954 E0.01013
G1 X85.321 Y104.256 E0.01013
G1 X85.174 Y104.544 E0.01014
G1 X84.998 Y104.815 E0.01014
G1 X84.795 Y105.066 E0.01013
G1 X84.566 Y105.295 E0.01014
G1 X84.315 Y105.498 E0.01013
G1 X84.044 Y105.674 E0.01014
G1 X83.756 Y105.821 E0.01014
G1 X83.454 Y105.937 E0.01013
G1 X83.142 Y106.020 E0.01013
G1 X82.823 Y106.071 E0.01014
G1 X82.500 Y106.088 E0.01013
G1 X82.177 Y106.071 E0.01013
G1 X81.858 Y106.020 E0.01014
G1 X81.546 Y105.937 E0.01013
G1 X81.244 Y105.821 E0.01013
G1 X80.956 Y105.674 E0.01014
G1 X80.685 Y105.498 E0.01013
G1 X80.434 Y105.295 E0.01013
G1 X80.205 Y105.066 E0.01014
G1 X80.002 Y104.815 E0.01013
G1 X79.826 Y104.544 E0.01014
G1 X79.679 Y104.256 E0.01013
G1 X79.563 Y103.954 E0.01013
G1 X79.480 Y103.642 E0.01013
G1 X79.429 Y103.323 E0.01014
G1 X79.412 Y103.000 E0.01013
G1 X79.429 Y102.677 E0.01013
G1 X79.480 Y102.357 E0.01016
G1 X79.566 Y102.039 E0.01034
G1 X79.679 Y101.744 E0.00990
G1 X79.826 Y101.456 E0.01013
G1 X80.002 Y101.185 E0.01014
G1 X80.205 Y100.934 E0.01013
G1 X80.434 Y100.705 E0.01014
G1 X80.685 Y100.502 E0.01013
G1 X80.956 Y100.326 E0.01013
G1 X81.244 Y100.179 E0.01014
G1 X81.546 Y100.063 E0.01013
G1 X81.858 Y99.980 E0.01013
G1 X82.177 Y99.929 E0.01014
G1 X82.493 Y99.912 E0.00990
G1 X82.822 Y99.929 E0.01034
G1 X83.142 Y99.980 E0.01016
G1 X83.454 Y100.063 E0.01013
G1 X83.756 Y100.179 E0.01013
G1 X84.044 Y100.326 E0.01014
G1 X84.315 Y100.502 E0.01014
G1 X84.566 Y100.705 E0.01013
G1 X84.795 Y100.934 E0.01014
G1 X84.998 Y101.185 E0.01013
G1 X85.174 Y101.456 E0.01014
G1 X85.321 Y101.744 E0.01014
G1 X85.437 Y102.046 E0.01013
G1 X85.520 Y102.358 E0.01013
G1 X85.571 Y102.677 E0.01014
G1 X85.583 Y102.900 E0.00699
G1 X85.206 Y102.920 F7200.000
G1 F1800
G1 X85.195 Y103.283 E0.01141
G1 X85.151 Y103.564 E0.00890
G1 X85.078 Y103.837 E0.00889
G1 X84.976 Y104.102 E0.00889
G1 X84.847 Y104.355 E0.00890
G1 X84.693 Y104.593 E0.00890
G1 X84.514 Y104.814 E0.00889
G1 X84.314 Y105.014 E0.00890
G1 X84.093 Y105.193 E0.00889
G1 X83.855 Y105.347 E0.00890
G1 X83.602 Y105.476 E0.00890
G1 X83.337 Y105.578 E0.00889
G1 X83.064 Y105.651 E0.00889
G1 X82.783 Y105.695 E0.00890
G1 X82.500 Y105.710 E0.00889
G1 X82.217 Y105.695 E0.00889
G1 X81.936 Y105.651 E0.00890
G1 X81.662 Y105.578 E0.00890
G1 X81.398 Y105.476 E0.00889
G1 X81.145 Y105.347 E0.00890
G1 X80.907 Y105.193 E0.00890
G1 X80.686 Y105.014 E0.00889
G1 X80.486 Y104.814 E0.00890
G1 X80.307 Y104.593 E0.00889
G1 X80.153 Y104.355 E0.00890
G1 X80.024 Y104.102 E0.00890
G1 X79.922 Y103.837 E0.00889
G1 X79.849 Y103.564 E0.00889
G1 X79.805 Y103.283 E0.00890
G1 X79.790 Y103.000 E0.00889
G1 X79.805 Y102.717 E0.00889
G1 X79.849 Y102.436 E0.00890
G1 X79.925 Y102.156 E0.00910
G1 X80.024 Y101.898 E0.00868
G1 X80.153 Y101.645 E0.00890
G1 X80.307 Y101.407 E0.00890
G1 X80.486 Y101.186 E0.00889
G1 X80.686 Y100.986 E0.00890
G1 X80.907 Y100.807 E0.00889
G1 X81.145 Y100.653 E0.00890
G1 X81.398 Y100.524 E0.00890
G1 X81.662 Y100.422 E0.00889
G1 X81.936 Y100.349 E0.00890
G1 X82.217 Y100.305 E0.00890
G1 X82.493 Y100.290 E0.00868
G1 X82.783 Y100.305 E0.00910
G1 X83.064 Y100.349 E0.00891
G1 X83.337 Y100.422 E0.00889
G1 X83.602 Y100.524 E0.00889
G1 X83.855 Y100.653 E0.00890
G1 X84.093 Y100.807 E0.00890
G1 X84.314 Y100.986 E0.00889
G1 X84.514 Y101.186 E0.00890
G1 X84.693 Y101.407 E0.00889
G1 X84.847 Y101.645 E0.00890
G1 X84.976 Y101.898 E0.00890
G1 X85.078 Y102.163 E0.00889
G1 X85.151 Y102.436 E0.00889
G1 X85.203 Y102.860 E0.01337
G1 X85.528 Y103.090 F7200.000
G1 F5760
G1 X85.195 Y103.283 E-0.14672
G1 X85.151 Y103.564 E-0.09828
G1 X85.078 Y103.837 E-0.09824
G1 X84.976 Y104.102 E-0.09823
G1 X84.847 Y104.355 E-0.09829
G1 X84.693 Y104.593 E-0.09828
G1 X84.514 Y104.814 E-0.09822
G1 X84.466 Y104.862 E-0.02374
G1 E-0.04000 F2100.00000
G1 Z0.800 F7200.000
G1 X73.464 Y111.036
G1 Z0.200
G1 E0.80000 F2100.00000
G1 F1800
G1 X73.464 Y93.964 E0.53527
G1 X131.536 Y93.964 E1.82080
G1 X131.536 Y111.036 E0.53527
G1 X73.524 Y111.036 E1.81892
G1 X73.087 Y111.413 F7200.000
G1 F1800
G1 X73.087 Y93.587 E0.55892
G1 X131.913 Y93.587 E1.84444
G1 X131.913 Y111.413 E0.55892
G1 X73.147 Y111.413 E1.84256
G1 X72.710 Y111.790 F7200.000
G1 F1800
G1 X72.710 Y93.210 E0.58256
G1 X132.290 Y93.210 E1.86809
G1 X132.290 Y111.790 E0.58256
G1 X72.770 Y111.790 E1.86621
G1 X72.874 Y111.425 F7200.000
G1 F5760
G1 X72.763 Y109.596 E-0.76000
G1 E-0.04000 F2100.00000
G1 Z0.800 F7200.000
G1 X73.577 Y110.159
G1 Z0.200
G1 E0.80000 F2100.00000
G1 F1800
G1 X74.171 Y110.753 E0.02636
G1 X74.705 Y110.753 E0.01677
G1 X73.747 Y109.795 E0.04254
G1 X73.747 Y109.261 E0.01677
G1 X75.239 Y110.753 E0.06626
G1 X75.773 Y110.753 E0.01677
G1 X73.747 Y108.727 E0.08997
G1 X73.747 Y108.193 E0.01677
G1 X76.307 Y110.753 E0.11369
G1 X76.841 Y110.753 E0.01677
G1 X73.747 Y107.659 E0.13740
G1 X73.747 Y107.125 E0.01677
G1 X77.375 Y110.753 E0.16112
G1 X77.909 Y110.753 E0.01677
G1 X73.747 Y106.591 E0.18483
G1 X73.747 Y106.057 E0.01677
G1 X78.443 Y110.753 E0.20855
G1 X78.977 Y110.753 E0.01677
G1 X73.747 Y105.523 E0.23226
G1 X73.747 Y104.989 E0.01677
G1 X79.511 Y110.753 E0.25597
G1 X80.045 Y110.753 E0.01677
G1 X73.747 Y104.455 E0.27969
G1 X73.747 Y103.921 E0.01677
G1 X80.579 Y110.753 E0.30340
G1 X81.113 Y110.753 E0.01677
G1 X73.747 Y103.387 E0.32712
G1 X73.747 Y102.852 E0.01677
G1 X81.648 Y110.753 E0.35083
G1 X82.182 Y110.753 E0.01677
G1 X73.747 Y102.318 E0.37455
G1 X73.747 Y101.784 E0.01677
G1 X82.716 Y110.753 E0.39826
G1 X83.250 Y110.753 E0.01677
G1 X73.747 Y101.250 E0.42198
G1 X73.747 Y100.716 E0.01677
G1 X83.784 Y110.753 E0.44569
G1 X84.318 Y110.753 E0.01677
G1 X73.747 Y100.182 E0.46941
G1 X73.747 Y99.648 E0.01677
G1 X85.021 Y110.923 E0.50066
G1 F5760
G1 X83.470 Y109.371 E-0.76000
G1 E-0.04000 F2100.00000
G1 Z0.800 F7200.000
G1 X81.109 Y106.476
G1 Z0.200
G1 E0.80000 F2100.00000
G1 F1800
G1 X85.386 Y110.753 E0.18994
G1 X85.920 Y110.753 E0.01677
G1 X81.855 Y106.688 E0.18051
G1 X82.108 Y106.728 E0.00805
G1 X82.447 Y106.746 E0.01064
G1 X86.454 Y110.753 E0.17794
G1 X86.988 Y110.753 E0.01677
G1 X82.953 Y106.718 E0.17916
G1 X83.403 Y106.634 E0.01436
G1 X87.522 Y110.753 E0.18292
G1 X88.056 Y110.753 E0.01677
G1 X83.810 Y106.507 E0.18855
G1 X84.182 Y106.345 E0.01274
G1 X88.590 Y110.753 E0.19576
G1 X89.124 Y110.753 E0.01677
G1 X84.522 Y106.151 E0.20437
G1 X84.833 Y105.928 E0.01202
G1 X89.658 Y110.753 E0.21427
G1 X90.192 Y110.753 E0.01677
G1 X85.117 Y105.677 E0.22539
G1 X85.373 Y105.400 E0.01187
G1 X90.726 Y110.753 E0.23770
G1 X91.260 Y110.753 E0.01677
G1 X85.603 Y105.095 E0.25123
G1 X85.804 Y104.762 E0.01222
