; generated by Slic3r Prusa Edition 1.39.2+win64 on 2018-12-25 at 22:01:52

; 

; external perimeters extrusion width = 0.45mm
; perimeters extrusion width = 0.45mm
; infill extrusion width = 0.45mm
; solid infill extrusion width = 0.45mm
; top infill extrusion width = 0.45mm
; first layer extrusion width = 0.42mm

M107
M115 U3.1.0 ; tell printer latest fw version
M83  ; extruder relative mode
M104 S205 ; set extruder temp
M140 S55 ; set bed temp
M190 S55 ; wait for bed temp
M109 S205 ; wait for extruder temp
G28 W ; home all without mesh bed level
G80 ; mesh bed leveling
G1 Y-3.0 F1000.0 ; go outside print area
G92 E0.0
G1 X60.0 E9.0  F1000.0 ; intro line
G1 X100.0 E12.5  F1000.0 ; intro line
G92 E0.0
M900 K30; Filament gcode
G21 ; set units to millimeters
G90 ; use absolute coordinates
M83 ; use relative distances for extrusion
;BEFORE_LAYER_CHANGE
;0.2


G1 E-0.80000 F2100.00000
G1 Z0.600 F7200.000
;AFTER_LAYER_CHANGE
;0.2
G1 X94.688 Y93.646
G1 Z0.200
G1 E0.80000 F2100.00000
M204 S1000
G1 F1800
G1 X95.294 Y93.042 E0.02684
G1 X125.698 Y72.818 E1.14491
G1 X126.620 Y72.623 E0.02954
G1 X144.646 Y72.623 E0.56521
G1 X145.534 Y72.796 E0.02837
G1 X146.296 Y73.292 E0.02849
G1 X146.816 Y74.037 E0.02849
G1 X147.018 Y74.923 E0.02849
G1 X147.019 Y145.004 E2.19734
G1 X146.949 Y145.573 E0.01799
G1 X146.663 Y146.251 E0.02308
G1 X146.184 Y146.809 E0.02308
G1 X145.556 Y147.194 E0.02308
G1 X144.841 Y147.369 E0.02308
G1 X126.635 Y147.377 E0.57085
G1 X126.069 Y147.307 E0.01787
G1 X125.330 Y146.982 E0.02532
G1 X95.321 Y126.976 E1.13085
G1 X94.919 Y126.638 E0.01645
G1 X94.604 Y126.223 E0.01633
G1 X94.354 Y125.644 E0.01977
G1 X94.265 Y125.020 E0.01977
G1 X94.265 Y94.996 E0.94138
G1 X94.335 Y94.427 E0.01799
G1 X94.663 Y93.701 E0.02496
G1 F5760
G1 X95.294 Y93.042 E-0.31605
G1 X96.362 Y92.332 E-0.44395
G1 E-0.04000 F2100.00000
G1 Z0.800 F7200.000
G1 X128.576 Y133.705
G1 Z0.200
G1 E0.80000 F2100.00000
G1 F1800
G1 X128.827 Y133.501 E0.01015
G1 X129.099 Y133.326 E0.01013
G1 X129.386 Y133.179 E0.01011
G1 X129.689 Y133.062 E0.01017
G1 X130.001 Y132.980 E0.01013
G1 X130.319 Y132.929 E0.01010
G1 X130.637 Y132.912 E0.00999
G1 X130.965 Y132.929 E0.01028
G1 X131.284 Y132.980 E0.01012
G1 X131.596 Y133.062 E0.01013
G1 X131.899 Y133.179 E0.01017
G1 X132.186 Y133.326 E0.01011
G1 X132.457 Y133.501 E0.01013
G1 X132.709 Y133.705 E0.01015
G1 X132.937 Y133.934 E0.01014
G1 X133.141 Y134.185 E0.01014
G1 X133.316 Y134.455 E0.01010
G1 X133.463 Y134.744 E0.01014
G1 X133.579 Y135.045 E0.01013
G1 X133.663 Y135.358 E0.01015
G1 X133.713 Y135.677 E0.01015
G1 X133.730 Y136.000 E0.01012
G1 X133.713 Y136.322 E0.01012
G1 X133.663 Y136.642 E0.01015
G1 X133.579 Y136.955 E0.01015
G1 X133.463 Y137.256 E0.01013
G1 X133.316 Y137.544 E0.01014
G1 X133.140 Y137.815 E0.01012
G1 X132.934 Y138.069 E0.01028
G1 X132.709 Y138.295 E0.00999
G1 X132.457 Y138.499 E0.01015
G1 X132.186 Y138.674 E0.01013
G1 X131.899 Y138.821 E0.01011
G1 X131.596 Y138.937 E0.01017
G1 X131.284 Y139.020 E0.01013
G1 X130.966 Y139.070 E0.01010
G1 X130.642 Y139.088 E0.01015
G1 X130.319 Y139.070 E0.01015
G1 X130.001 Y139.020 E0.01010
G1 X129.689 Y138.937 E0.01013
G1 X129.386 Y138.821 E0.01017
G1 X129.099 Y138.674 E0.01011
G1 X128.827 Y138.499 E0.01013
G1 X128.576 Y138.295 E0.01015
G1 X128.347 Y138.066 E0.01014
G1 X128.144 Y137.814 E0.01014
G1 X127.968 Y137.544 E0.01010
G1 X127.821 Y137.256 E0.01014
G1 X127.706 Y136.955 E0.01013
G1 X127.622 Y136.642 E0.01015
G1 X127.571 Y136.322 E0.01015
G1 X127.554 Y136.000 E0.01012
G1 X127.571 Y135.677 E0.01012
G1 X127.622 Y135.357 E0.01017
G1 X127.707 Y135.041 E0.01028
G1 X127.821 Y134.744 E0.00997
G1 X127.968 Y134.455 E0.01014
G1 X128.144 Y134.185 E0.01010
G1 X128.347 Y133.934 E0.01014
G1 X128.534 Y133.748 E0.00826
G1 X128.800 Y134.014 F7200.000
G1 F1800
G1 X129.049 Y133.807 E0.01017
G1 X129.287 Y133.653 E0.00889
G1 X129.540 Y133.524 E0.00889
G1 X129.805 Y133.422 E0.00891
G1 X130.079 Y133.349 E0.00889
G1 X130.359 Y133.305 E0.00888
G1 X130.638 Y133.290 E0.00876
G1 X130.926 Y133.305 E0.00904
G1 X131.206 Y133.349 E0.00889
G1 X131.480 Y133.422 E0.00889
G1 X131.745 Y133.524 E0.00891
G1 X131.997 Y133.653 E0.00889
G1 X132.235 Y133.807 E0.00889
G1 X132.456 Y133.986 E0.00890
G1 X132.657 Y134.186 E0.00890
G1 X132.835 Y134.407 E0.00891
G1 X132.990 Y134.645 E0.00888
G1 X133.118 Y134.897 E0.00889
G1 X133.220 Y135.162 E0.00889
G1 X133.293 Y135.436 E0.00890
G1 X133.338 Y135.717 E0.00891
G1 X133.353 Y136.000 E0.00888
G1 X133.338 Y136.283 E0.00888
G1 X133.293 Y136.563 E0.00891
G1 X133.220 Y136.838 E0.00890
G1 X133.118 Y137.102 E0.00889
G1 X132.990 Y137.355 E0.00889
G1 X132.835 Y137.593 E0.00888
G1 X132.653 Y137.817 E0.00904
G1 X132.456 Y138.014 E0.00876
G1 X132.235 Y138.193 E0.00890
G1 X131.997 Y138.347 E0.00889
G1 X131.745 Y138.476 E0.00889
G1 X131.480 Y138.578 E0.00891
G1 X131.206 Y138.651 E0.00889
G1 X130.926 Y138.695 E0.00888
G1 X130.642 Y138.710 E0.00890
G1 X130.359 Y138.695 E0.00890
G1 X130.079 Y138.651 E0.00888
G1 X129.805 Y138.578 E0.00889
G1 X129.540 Y138.476 E0.00891
G1 X129.287 Y138.347 E0.00889
G1 X129.049 Y138.193 E0.00889
G1 X128.829 Y138.014 E0.00890
G1 X128.628 Y137.813 E0.00890
G1 X128.450 Y137.592 E0.00891
G1 X128.295 Y137.355 E0.00888
G1 X128.166 Y137.102 E0.00889
G1 X128.065 Y136.838 E0.00889
G1 X127.991 Y136.563 E0.00890
G1 X127.947 Y136.283 E0.00891
G1 X127.932 Y136.000 E0.00888
G1 X127.947 Y135.717 E0.00888
G1 X127.991 Y135.436 E0.00892
G1 X128.066 Y135.158 E0.00904
G1 X128.166 Y134.897 E0.00874
G1 X128.295 Y134.645 E0.00889
G1 X128.450 Y134.407 E0.00888
G1 X128.758 Y134.057 E0.01463
G1 X128.724 Y133.699 F7200.000
G1 F5760
G1 X129.049 Y133.807 E-0.13303
G1 X129.287 Y133.653 E-0.09819
G1 X129.540 Y133.524 E-0.09821
G1 X129.805 Y133.422 E-0.09840
G1 X130.079 Y133.349 E-0.09820
G1 X130.359 Y133.305 E-0.09813
G1 X130.638 Y133.290 E-0.09673
G1 X130.751 Y133.296 E-0.03911
G1 E-0.04000 F2100.00000
G1 Z0.800 F7200.000
G1 X131.234 Y131.896
G1 Z0.200
G1 E0.80000 F2100.00000
G1 F1800
G1 X130.747 Y131.408 E0.02162
G1 X130.313 Y130.872 E0.02162
G1 X129.937 Y130.294 E0.02163
G1 X129.624 Y129.679 E0.02163
G1 X129.377 Y129.035 E0.02162
G1 X129.197 Y128.358 E0.02196
G1 X129.091 Y127.688 E0.02127
G1 X129.054 Y127.000 E0.02162
G1 X129.091 Y126.311 E0.02162
G1 X129.198 Y125.631 E0.02161
G1 X129.377 Y124.964 E0.02163
G1 X129.624 Y124.321 E0.02161
G1 X129.937 Y123.706 E0.02163
G1 X130.313 Y123.127 E0.02163
G1 X130.747 Y122.591 E0.02162
G1 X131.234 Y122.104 E0.02162
G1 X131.770 Y121.670 E0.02162
G1 X132.348 Y121.295 E0.02162
G1 X132.963 Y120.982 E0.02162
G1 X133.606 Y120.735 E0.02161
G1 X134.273 Y120.556 E0.02163
G1 X134.954 Y120.448 E0.02162
G1 X135.631 Y120.413 E0.02128
G1 X136.330 Y120.448 E0.02195
G1 X137.012 Y120.556 E0.02164
G1 X137.678 Y120.735 E0.02163
G1 X138.322 Y120.982 E0.02161
G1 X138.936 Y121.295 E0.02162
G1 X139.515 Y121.670 E0.02162
G1 X140.050 Y122.104 E0.02162
G1 X140.538 Y122.591 E0.02162
G1 X140.972 Y123.127 E0.02162
G1 X141.348 Y123.706 E0.02163
G1 X141.661 Y124.321 E0.02163
G1 X141.908 Y124.964 E0.02161
G1 X142.086 Y125.631 E0.02163
G1 X142.194 Y126.311 E0.02161
G1 X142.230 Y127.000 E0.02162
G1 X142.194 Y127.688 E0.02162
G1 X142.086 Y128.370 E0.02163
G1 X141.904 Y129.046 E0.02196
G1 X141.661 Y129.679 E0.02126
G1 X141.348 Y130.294 E0.02163
G1 X140.972 Y130.872 E0.02163
G1 X140.538 Y131.408 E0.02162
G1 X140.050 Y131.896 E0.02162
G1 X139.515 Y132.329 E0.02162
G1 X138.936 Y132.705 E0.02162
G1 X138.322 Y133.018 E0.02162
G1 X137.678 Y133.265 E0.02161
G1 X137.012 Y133.444 E0.02163
G1 X136.331 Y133.551 E0.02162
G1 X135.642 Y133.588 E0.02162
G1 X134.954 Y133.551 E0.02162
G1 X134.273 Y133.444 E0.02162
G1 X133.606 Y133.265 E0.02163
G1 X132.963 Y133.018 E0.02161
G1 X132.348 Y132.705 E0.02162
G1 X131.770 Y132.329 E0.02162
G1 X131.281 Y131.934 E0.01974
G1 X131.518 Y131.640 F7200.000
G1 F1800
G1 X131.027 Y131.156 E0.02163
G1 X130.618 Y130.650 E0.02038
G1 X130.264 Y130.105 E0.02039
G1 X129.969 Y129.525 E0.02039
G1 X129.736 Y128.919 E0.02038
G1 X129.566 Y128.280 E0.02072
G1 X129.466 Y127.649 E0.02004
G1 X129.432 Y127.000 E0.02038
G1 X129.466 Y126.351 E0.02038
G1 X129.568 Y125.709 E0.02037
G1 X129.736 Y125.081 E0.02039
G1 X129.969 Y124.474 E0.02037
G1 X130.264 Y123.895 E0.02039
G1 X130.618 Y123.349 E0.02039
G1 X131.027 Y122.844 E0.02038
G1 X131.487 Y122.385 E0.02038
G1 X131.992 Y121.976 E0.02038
G1 X132.537 Y121.622 E0.02038
G1 X133.116 Y121.327 E0.02038
G1 X133.723 Y121.094 E0.02038
G1 X134.351 Y120.925 E0.02039
G1 X134.993 Y120.824 E0.02038
G1 X135.632 Y120.790 E0.02005
G1 X136.291 Y120.824 E0.02071
G1 X136.934 Y120.925 E0.02039
G1 X137.562 Y121.094 E0.02039
G1 X138.168 Y121.327 E0.02038
G1 X138.747 Y121.622 E0.02038
G1 X139.293 Y121.976 E0.02038
G1 X139.798 Y122.385 E0.02038
G1 X140.258 Y122.844 E0.02038
G1 X140.667 Y123.349 E0.02038
G1 X141.021 Y123.895 E0.02039
G1 X141.316 Y124.474 E0.02039
G1 X141.549 Y125.081 E0.02037
G1 X141.717 Y125.709 E0.02039
G1 X141.819 Y126.351 E0.02037
G1 X141.853 Y127.000 E0.02038
G1 X141.819 Y127.649 E0.02038
G1 X141.717 Y128.291 E0.02038
G1 X141.545 Y128.929 E0.02072
G1 X141.316 Y129.525 E0.02004
G1 X141.021 Y130.105 E0.02039
G1 X140.667 Y130.650 E0.02039
G1 X140.258 Y131.156 E0.02038
G1 X139.798 Y131.615 E0.02038
G1 X139.293 Y132.024 E0.02038
G1 X138.747 Y132.378 E0.02038
G1 X138.168 Y132.673 E0.02038
G1 X137.562 Y132.906 E0.02038
G1 X136.934 Y133.075 E0.02039
G1 X136.292 Y133.176 E0.02038
G1 X135.642 Y133.210 E0.02038
G1 X134.993 Y133.176 E0.02038
G1 X134.351 Y133.075 E0.02038
G1 X133.723 Y132.906 E0.02039
G1 X133.116 Y132.673 E0.02038
G1 X132.537 Y132.378 E0.02038
G1 X131.992 Y132.024 E0.02038
G1 X131.565 Y131.678 E0.01724
G1 X131.138 Y131.766 F7200.000
G1 F5760
G1 X131.027 Y131.156 E-0.25968
G1 X130.618 Y130.650 E-0.22512
G1 X130.264 Y130.105 E-0.22526
G1 X130.199 Y129.976 E-0.04994
G1 E-0.04000 F2100.00000
G1 Z0.800 F7200.000
G1 X130.644 Y113.915
G1 Z0.200
G1 E0.80000 F2100.00000
G1 F1800
G1 X130.234 Y113.894 E0.01287
G1 X129.829 Y113.830 E0.01286
G1 X129.432 Y113.724 E0.01288
G1 X129.050 Y113.577 E0.01284
G1 X128.685 Y113.391 E0.01282
G1 X128.340 Y113.168 E0.01288
G1 X128.022 Y112.909 E0.01286
G1 X127.733 Y112.620 E0.01282
G1 X127.475 Y112.301 E0.01286
G1 X127.252 Y111.958 E0.01285
G1 X127.065 Y111.593 E0.01285
G1 X126.918 Y111.210 E0.01285
G1 X126.812 Y110.813 E0.01288
G1 X126.748 Y110.409 E0.01284
G1 X126.727 Y110.000 E0.01284
G1 X126.748 Y109.591 E0.01284
G1 X126.812 Y109.186 E0.01284
G1 X126.918 Y108.790 E0.01288
G1 X127.065 Y108.407 E0.01285
G1 X127.252 Y108.042 E0.01285
G1 X127.475 Y107.698 E0.01285
G1 X127.733 Y107.379 E0.01286
G1 X128.022 Y107.091 E0.01282
G1 X128.340 Y106.832 E0.01286
G1 X128.685 Y106.608 E0.01288
G1 X129.050 Y106.423 E0.01282
G1 X129.432 Y106.276 E0.01284
G1 X129.829 Y106.169 E0.01288
G1 X130.234 Y106.106 E0.01286
G1 X130.633 Y106.085 E0.01255
G1 X131.050 Y106.105 E0.01307
G1 X131.456 Y106.169 E0.01290
G1 X131.853 Y106.276 E0.01288
G1 X132.235 Y106.423 E0.01284
G1 X132.600 Y106.608 E0.01282
G1 X132.944 Y106.832 E0.01288
G1 X133.263 Y107.091 E0.01286
G1 X133.552 Y107.379 E0.01282
G1 X133.810 Y107.698 E0.01286
G1 X134.033 Y108.042 E0.01285
G1 X134.219 Y108.407 E0.01285
G1 X134.366 Y108.790 E0.01285
G1 X134.472 Y109.186 E0.01288
G1 X134.536 Y109.591 E0.01284
G1 X134.558 Y110.000 E0.01284
G1 X134.536 Y110.409 E0.01284
G1 X134.472 Y110.813 E0.01284
G1 X134.366 Y111.210 E0.01288
G1 X134.219 Y111.593 E0.01285
G1 X134.033 Y111.958 E0.01285
G1 X133.810 Y112.301 E0.01285
G1 X133.552 Y112.620 E0.01286
G1 X133.263 Y112.909 E0.01282
G1 X132.944 Y113.168 E0.01286
G1 X132.600 Y113.391 E0.01288
G1 X132.235 Y113.577 E0.01282
G1 X131.853 Y113.724 E0.01284
G1 X131.456 Y113.830 E0.01288
G1 X131.051 Y113.894 E0.01286
G1 X130.704 Y113.912 E0.01091
G1 X130.684 Y113.536 F7200.000
G1 F1800
G1 X130.273 Y113.519 E0.01290
G1 X129.907 Y113.461 E0.01161
G1 X129.549 Y113.365 E0.01163
G1 X129.203 Y113.232 E0.01161
G1 X128.874 Y113.064 E0.01159
G1 X128.562 Y112.862 E0.01163
G1 X128.275 Y112.628 E0.01162
G1 X128.013 Y112.367 E0.01159
G1 X127.780 Y112.079 E0.01162
G1 X127.578 Y111.769 E0.01161
G1 X127.410 Y111.439 E0.01161
G1 X127.278 Y111.093 E0.01161
G1 X127.182 Y110.735 E0.01163
G1 X127.124 Y110.369 E0.01160
G1 X127.104 Y110.000 E0.01160
G1 X127.124 Y109.630 E0.01160
G1 X127.182 Y109.265 E0.01160
G1 X127.278 Y108.906 E0.01163
G1 X127.410 Y108.561 E0.01161
G1 X127.578 Y108.231 E0.01161
G1 X127.780 Y107.920 E0.01161
G1 X128.013 Y107.632 E0.01162
G1 X128.275 Y107.371 E0.01159
G1 X128.562 Y107.137 E0.01162
G1 X128.874 Y106.936 E0.01163
G1 X129.203 Y106.768 E0.01159
G1 X129.549 Y106.635 E0.01161
G1 X129.907 Y106.539 E0.01163
G1 X130.273 Y106.481 E0.01161
G1 X130.634 Y106.462 E0.01133
G1 X131.011 Y106.481 E0.01184
G1 X131.378 Y106.539 E0.01164
G1 X131.736 Y106.635 E0.01163
G1 X132.082 Y106.768 E0.01161
G1 X132.411 Y106.936 E0.01159
G1 X132.722 Y107.137 E0.01163
G1 X133.010 Y107.371 E0.01162
G1 X133.271 Y107.632 E0.01159
G1 X133.505 Y107.920 E0.01162
G1 X133.706 Y108.231 E0.01161
G1 X133.874 Y108.561 E0.01161
G1 X134.007 Y108.906 E0.01161
G1 X134.103 Y109.265 E0.01163
G1 X134.161 Y109.630 E0.01160
G1 X134.180 Y110.000 E0.01160
G1 X134.161 Y110.369 E0.01160
G1 X134.103 Y110.735 E0.01160
G1 X134.007 Y111.093 E0.01163
G1 X133.874 Y111.439 E0.01161
G1 X133.706 Y111.769 E0.01161
G1 X133.505 Y112.079 E0.01161
G1 X133.271 Y112.367 E0.01162
G1 X133.010 Y112.628 E0.01159
G1 X132.722 Y112.862 E0.01162
G1 X132.411 Y113.064 E0.01163
G1 X132.082 Y113.232 E0.01159
G1 X131.736 Y113.365 E0.01161
G1 X131.378 Y113.461 E0.01163
G1 X131.012 Y113.519 E0.01161
G1 X130.744 Y113.532 E0.00841
G1 X130.724 Y113.156 F7200.000
G1 F1800
G1 X130.312 Y113.143 E0.01293
G1 X129.985 Y113.092 E0.01037
G1 X129.666 Y113.006 E0.01038
G1 X129.357 Y112.887 E0.01037
G1 X129.062 Y112.737 E0.01036
G1 X128.785 Y112.557 E0.01038
G1 X128.528 Y112.348 E0.01038
G1 X128.294 Y112.115 E0.01036
G1 X128.086 Y111.857 E0.01038
G1 X127.905 Y111.580 E0.01037
G1 X127.755 Y111.285 E0.01037
G1 X127.637 Y110.977 E0.01037
G1 X127.551 Y110.656 E0.01039
G1 X127.499 Y110.330 E0.01037
G1 X127.482 Y110.000 E0.01036
G1 X127.499 Y109.670 E0.01036
G1 X127.551 Y109.343 E0.01037
G1 X127.637 Y109.023 E0.01039
G1 X127.755 Y108.714 E0.01037
G1 X127.905 Y108.420 E0.01037
G1 X128.086 Y108.142 E0.01037
G1 X128.294 Y107.885 E0.01038
G1 X128.528 Y107.652 E0.01036
G1 X128.785 Y107.443 E0.01038
G1 X129.062 Y107.263 E0.01038
G1 X129.357 Y107.113 E0.01036
G1 X129.666 Y106.994 E0.01037
G1 X129.985 Y106.908 E0.01038
G1 X130.312 Y106.857 E0.01037
G1 X130.634 Y106.840 E0.01012
G1 X130.972 Y106.857 E0.01061
G1 X131.299 Y106.908 E0.01038
G1 X131.619 Y106.994 E0.01038
G1 X131.928 Y107.113 E0.01037
G1 X132.222 Y107.263 E0.01036
G1 X132.500 Y107.443 E0.01038
G1 X132.757 Y107.652 E0.01038
G1 X132.991 Y107.885 E0.01036
G1 X133.199 Y108.142 E0.01038
G1 X133.379 Y108.420 E0.01037
G1 X133.529 Y108.714 E0.01037
G1 X133.648 Y109.023 E0.01037
G1 X133.734 Y109.343 E0.01039
G1 X133.785 Y109.670 E0.01037
G1 X133.803 Y110.000 E0.01036
G1 X133.785 Y110.330 E0.01036
G1 X133.734 Y110.656 E0.01037
G1 X133.648 Y110.977 E0.01039
G1 X133.529 Y111.285 E0.01037
G1 X133.379 Y111.580 E0.01037
G1 X133.199 Y111.857 E0.01037
G1 X132.991 Y112.115 E0.01038
G1 X132.757 Y112.348 E0.01036
G1 X132.500 Y112.557 E0.01038
G1 X132.222 Y112.737 E0.01038
G1 X131.928 Y112.887 E0.01036
G1 X131.619 Y113.006 E0.01037
G1 X131.299 Y113.092 E0.01038
G1 X130.973 Y113.143 E0.01037
G1 X130.784 Y113.153 E0.00591
G1 X130.530 Y113.505 F7200.000
G1 F5760
G1 X130.312 Y113.143 E-0.16358
G1 X129.985 Y113.092 E-0.11456
G1 X129.666 Y113.006 E-0.11466
G1 X129.357 Y112.887 E-0.11460
G1 X129.062 Y112.737 E-0.11448
G1 X128.785 Y112.557 E-0.11463
G1 X128.732 Y112.514 E-0.02349
G1 E-0.04000 F2100.00000
G1 Z0.800 F7200.000
G1 X110.089 Y110.362
G1 Z0.200
G1 E0.80000 F2100.00000
G1 F1800
G1 X110.032 Y110.720 E0.01139
G1 X109.938 Y111.071 E0.01139
G1 X109.808 Y111.410 E0.01137
G1 X109.643 Y111.733 E0.01138
G1 X109.446 Y112.036 E0.01133
G1 X109.218 Y112.318 E0.01138
G1 X108.962 Y112.575 E0.01138
G1 X108.679 Y112.804 E0.01140
G1 X108.375 Y113.001 E0.01137
G1 X108.053 Y113.166 E0.01134
