; generated by Slic3r Prusa Edition 1.39.2+win64 on 2018-12-25 at 22:03:33

; 

; external perimeters extrusion width = 0.45mm
; perimeters extrusion width = 0.45mm
; infill extrusion width = 0.45mm
; solid infill extrusion width = 0.45mm
; top infill extrusion width = 0.45mm
; first layer extrusion width = 0.42mm

M107
M115 U3.1.0 ; tell printer latest fw version
M83  ; extruder relative mode
M104 S205 ; set extruder temp
M140 S55 ; set bed temp
M190 S55 ; wait for bed temp
M109 S205 ; wait for extruder temp
G28 W ; home all without mesh bed level
G80 ; mesh bed leveling
G1 Y-3.0 F1000.0 ; go outside print area
G92 E0.0
G1 X60.0 E9.0  F1000.0 ; intro line
G1 X100.0 E12.5  F1000.0 ; intro line
G92 E0.0
M900 K30; Filament gcode
G21 ; set units to millimeters
G90 ; use absolute coordinates
M83 ; use relative distances for extrusion
;BEFORE_LAYER_CHANGE
;0.2


G1 E-0.80000 F2100.00000
G1 Z0.600 F7200.000
;AFTER_LAYER_CHANGE
;0.2
G1 X80.034 Y63.328
G1 Z0.200
G1 E0.80000 F2100.00000
M204 S1000
G1 F1800
G1 X80.756 Y63.136 E0.02343
G1 X97.004 Y63.123 E0.50945
G1 X97.570 Y63.192 E0.01787
G1 X98.106 Y63.396 E0.01799
G1 X125.135 Y77.911 E0.96194
G1 X125.727 Y78.367 E0.02343
G1 X126.150 Y78.987 E0.02355
G1 X126.319 Y79.476 E0.01621
G1 X126.377 Y79.990 E0.01621
G1 X126.377 Y125.004 E1.41139
G1 X126.326 Y125.488 E0.01526
G1 X126.172 Y125.965 E0.01574
G1 X125.921 Y126.400 E0.01574
G1 X125.584 Y126.772 E0.01574
G1 X125.177 Y127.065 E0.01574
G1 X97.798 Y141.739 E0.97398
G1 X97.014 Y141.877 E0.02496
G1 X80.512 Y141.826 E0.51739
G1 X79.775 Y141.537 E0.02484
G1 X79.173 Y141.021 E0.02484
G1 X78.775 Y140.336 E0.02484
G1 X78.624 Y139.558 E0.02484
G1 X78.623 Y65.500 E2.32204
G1 X78.674 Y65.012 E0.01538
G1 X78.940 Y64.314 E0.02343
G1 X79.407 Y63.736 E0.02331
G1 X79.983 Y63.361 E0.02155
G1 F5760
G1 X80.756 Y63.136 E-0.27865
G1 X82.145 Y63.134 E-0.48135
G1 E-0.04000 F2100.00000
G1 Z0.800 F7200.000
G1 X92.864 Y125.506
G1 Z0.200
G1 E0.80000 F2100.00000
G1 F1800
G1 X93.180 Y125.457 E0.01003
G1 X93.495 Y125.440 E0.00988
G1 X93.820 Y125.457 E0.01020
G1 X94.136 Y125.506 E0.01004
G1 X94.446 Y125.589 E0.01005
G1 X94.745 Y125.704 E0.01005
G1 X95.030 Y125.850 E0.01005
G1 X95.299 Y126.024 E0.01003
G1 X95.548 Y126.226 E0.01005
G1 X95.774 Y126.452 E0.01005
G1 X95.976 Y126.701 E0.01005
G1 X96.150 Y126.970 E0.01004
G1 X96.296 Y127.255 E0.01005
G1 X96.410 Y127.554 E0.01003
G1 X96.493 Y127.863 E0.01004
G1 X96.544 Y128.180 E0.01006
G1 X96.560 Y128.500 E0.01005
G1 X96.544 Y128.820 E0.01005
G1 X96.493 Y129.137 E0.01006
G1 X96.410 Y129.446 E0.01004
G1 X96.296 Y129.745 E0.01003
G1 X96.150 Y130.030 E0.01005
G1 X95.976 Y130.299 E0.01004
G1 X95.774 Y130.548 E0.01005
G1 X95.551 Y130.771 E0.00988
G1 X95.299 Y130.976 E0.01021
G1 X95.030 Y131.150 E0.01004
G1 X94.745 Y131.296 E0.01005
G1 X94.446 Y131.411 E0.01005
G1 X94.136 Y131.494 E0.01005
G1 X93.820 Y131.543 E0.01003
G1 X93.500 Y131.560 E0.01004
G1 X93.180 Y131.543 E0.01004
G1 X92.864 Y131.494 E0.01003
G1 X92.554 Y131.411 E0.01005
G1 X92.255 Y131.296 E0.01005
G1 X91.970 Y131.150 E0.01005
G1 X91.701 Y130.976 E0.01003
G1 X91.452 Y130.774 E0.01005
G1 X91.226 Y130.548 E0.01005
G1 X91.024 Y130.299 E0.01005
G1 X90.850 Y130.030 E0.01004
G1 X90.704 Y129.745 E0.01005
G1 X90.590 Y129.446 E0.01003
G1 X90.507 Y129.137 E0.01004
G1 X90.456 Y128.820 E0.01006
G1 X90.440 Y128.500 E0.01005
G1 X90.456 Y128.180 E0.01005
G1 X90.507 Y127.863 E0.01006
G1 X90.590 Y127.554 E0.01004
G1 X90.704 Y127.255 E0.01003
G1 X90.850 Y126.970 E0.01005
G1 X91.024 Y126.701 E0.01004
G1 X91.226 Y126.452 E0.01005
G1 X91.452 Y126.226 E0.01005
G1 X91.701 Y126.024 E0.01005
G1 X91.970 Y125.850 E0.01003
G1 X92.255 Y125.704 E0.01005
G1 X92.554 Y125.589 E0.01005
G1 X92.806 Y125.522 E0.00817
G1 X92.963 Y125.202 F7200.000
G1 F5760
G1 X93.180 Y125.457 E-0.13151
G1 X93.495 Y125.440 E-0.10913
G1 X93.820 Y125.457 E-0.11263
G1 X94.136 Y125.506 E-0.11089
G1 X94.446 Y125.589 E-0.11103
G1 X94.745 Y125.704 E-0.11105
G1 X94.935 Y125.801 E-0.07376
G1 E-0.04000 F2100.00000
G1 Z0.800 F7200.000
G1 X98.392 Y116.151
G1 Z0.200
G1 E0.80000 F2100.00000
G1 F1800
G1 X98.022 Y115.910 E0.01386
G1 X97.680 Y115.633 E0.01379
G1 X97.367 Y115.321 E0.01384
G1 X97.089 Y114.977 E0.01386
G1 X96.849 Y114.608 E0.01381
G1 X96.649 Y114.215 E0.01385
G1 X96.491 Y113.802 E0.01384
G1 X96.377 Y113.377 E0.01381
G1 X96.308 Y112.941 E0.01384
G1 X96.285 Y112.500 E0.01384
G1 X96.308 Y112.059 E0.01384
G1 X96.377 Y111.623 E0.01384
G1 X96.491 Y111.198 E0.01381
G1 X96.649 Y110.785 E0.01384
G1 X96.849 Y110.392 E0.01385
G1 X97.089 Y110.023 E0.01381
G1 X97.367 Y109.679 E0.01386
G1 X97.680 Y109.367 E0.01384
G1 X98.022 Y109.090 E0.01379
G1 X98.392 Y108.849 E0.01386
G1 X98.786 Y108.649 E0.01385
G1 X99.197 Y108.491 E0.01382
G1 X99.624 Y108.377 E0.01385
G1 X100.059 Y108.308 E0.01382
G1 X100.487 Y108.285 E0.01343
G1 X100.939 Y108.308 E0.01419
G1 X101.376 Y108.377 E0.01387
G1 X101.803 Y108.491 E0.01385
G1 X102.214 Y108.649 E0.01382
G1 X102.608 Y108.849 E0.01385
G1 X102.978 Y109.090 E0.01386
G1 X103.320 Y109.367 E0.01379
G1 X103.633 Y109.679 E0.01384
G1 X103.911 Y110.023 E0.01386
G1 X104.151 Y110.392 E0.01381
G1 X104.351 Y110.785 E0.01385
G1 X104.509 Y111.198 E0.01384
G1 X104.623 Y111.623 E0.01381
G1 X104.692 Y112.059 E0.01384
G1 X104.715 Y112.500 E0.01384
G1 X104.692 Y112.941 E0.01384
G1 X104.623 Y113.377 E0.01384
G1 X104.509 Y113.802 E0.01381
G1 X104.351 Y114.215 E0.01384
G1 X104.151 Y114.608 E0.01385
G1 X103.911 Y114.977 E0.01381
G1 X103.633 Y115.321 E0.01386
G1 X103.320 Y115.633 E0.01384
G1 X102.978 Y115.910 E0.01379
G1 X102.608 Y116.151 E0.01386
G1 X102.214 Y116.351 E0.01385
G1 X101.803 Y116.509 E0.01382
G1 X101.376 Y116.623 E0.01385
G1 X100.941 Y116.692 E0.01382
G1 X100.500 Y116.716 E0.01383
G1 X100.059 Y116.692 E0.01383
G1 X99.624 Y116.623 E0.01382
G1 X99.197 Y116.509 E0.01385
G1 X98.786 Y116.351 E0.01382
G1 X98.445 Y116.178 E0.01197
G1 X98.616 Y115.842 F7200.000
G1 F1800
G1 X98.244 Y115.604 E0.01385
G1 X97.932 Y115.352 E0.01257
G1 X97.648 Y115.068 E0.01259
G1 X97.395 Y114.755 E0.01262
G1 X97.176 Y114.419 E0.01258
G1 X96.994 Y114.061 E0.01260
G1 X96.850 Y113.686 E0.01260
G1 X96.746 Y113.298 E0.01257
G1 X96.683 Y112.901 E0.01260
G1 X96.662 Y112.500 E0.01260
G1 X96.683 Y112.099 E0.01260
G1 X96.746 Y111.702 E0.01260
G1 X96.850 Y111.314 E0.01257
G1 X96.994 Y110.939 E0.01260
G1 X97.176 Y110.581 E0.01260
G1 X97.395 Y110.245 E0.01258
G1 X97.648 Y109.932 E0.01262
G1 X97.932 Y109.648 E0.01259
G1 X98.244 Y109.396 E0.01257
G1 X98.581 Y109.176 E0.01262
G1 X98.939 Y108.994 E0.01260
G1 X99.314 Y108.850 E0.01259
G1 X99.702 Y108.746 E0.01260
G1 X100.099 Y108.683 E0.01259
G1 X100.488 Y108.663 E0.01221
G1 X100.900 Y108.683 E0.01295
G1 X101.298 Y108.746 E0.01262
G1 X101.686 Y108.850 E0.01260
G1 X102.061 Y108.994 E0.01259
G1 X102.419 Y109.176 E0.01260
G1 X102.756 Y109.396 E0.01262
G1 X103.068 Y109.648 E0.01257
G1 X103.352 Y109.932 E0.01259
G1 X103.605 Y110.245 E0.01262
G1 X103.824 Y110.581 E0.01258
G1 X104.006 Y110.939 E0.01260
G1 X104.150 Y111.314 E0.01260
G1 X104.254 Y111.702 E0.01257
G1 X104.317 Y112.099 E0.01260
G1 X104.338 Y112.500 E0.01260
G1 X104.317 Y112.901 E0.01260
G1 X104.254 Y113.298 E0.01260
G1 X104.150 Y113.686 E0.01257
G1 X104.006 Y114.061 E0.01260
G1 X103.824 Y114.419 E0.01260
G1 X103.605 Y114.755 E0.01258
G1 X103.352 Y115.068 E0.01262
G1 X103.068 Y115.352 E0.01259
G1 X102.756 Y115.604 E0.01257
G1 X102.419 Y115.824 E0.01262
G1 X102.061 Y116.006 E0.01260
G1 X101.686 Y116.150 E0.01259
G1 X101.298 Y116.254 E0.01260
G1 X100.901 Y116.317 E0.01259
G1 X100.500 Y116.338 E0.01259
G1 X100.099 Y116.317 E0.01259
G1 X99.702 Y116.254 E0.01259
G1 X99.314 Y116.150 E0.01260
G1 X98.939 Y116.006 E0.01259
G1 X98.670 Y115.869 E0.00948
G1 X98.841 Y115.533 F7200.000
G1 F1800
G1 X98.466 Y115.299 E0.01385
G1 X98.185 Y115.071 E0.01135
G1 X97.929 Y114.816 E0.01135
G1 X97.701 Y114.534 E0.01137
G1 X97.503 Y114.230 E0.01135
G1 X97.339 Y113.908 E0.01136
G1 X97.209 Y113.569 E0.01137
G1 X97.115 Y113.220 E0.01134
G1 X97.059 Y112.862 E0.01136
G1 X97.040 Y112.500 E0.01136
G1 X97.059 Y112.138 E0.01136
G1 X97.115 Y111.780 E0.01136
G1 X97.209 Y111.431 E0.01134
G1 X97.339 Y111.093 E0.01137
G1 X97.503 Y110.770 E0.01136
G1 X97.701 Y110.466 E0.01135
G1 X97.929 Y110.184 E0.01137
G1 X98.185 Y109.929 E0.01135
G1 X98.466 Y109.701 E0.01135
G1 X98.770 Y109.503 E0.01137
G1 X99.093 Y109.339 E0.01135
G1 X99.431 Y109.209 E0.01135
G1 X99.781 Y109.115 E0.01136
G1 X100.138 Y109.059 E0.01135
G1 X100.488 Y109.040 E0.01099
G1 X100.861 Y109.059 E0.01171
G1 X101.219 Y109.115 E0.01136
G1 X101.569 Y109.209 E0.01136
G1 X101.907 Y109.339 E0.01135
G1 X102.230 Y109.503 E0.01135
G1 X102.534 Y109.701 E0.01137
G1 X102.815 Y109.929 E0.01135
G1 X103.071 Y110.184 E0.01135
G1 X103.299 Y110.466 E0.01137
G1 X103.497 Y110.770 E0.01135
G1 X103.661 Y111.093 E0.01136
G1 X103.791 Y111.431 E0.01137
G1 X103.885 Y111.780 E0.01134
G1 X103.941 Y112.138 E0.01136
G1 X103.960 Y112.500 E0.01136
G1 X103.941 Y112.862 E0.01136
G1 X103.885 Y113.220 E0.01136
G1 X103.791 Y113.569 E0.01134
G1 X103.661 Y113.908 E0.01137
G1 X103.497 Y114.230 E0.01136
G1 X103.299 Y114.534 E0.01135
G1 X103.071 Y114.816 E0.01137
G1 X102.815 Y115.071 E0.01135
G1 X102.534 Y115.299 E0.01135
G1 X102.230 Y115.497 E0.01137
G1 X101.907 Y115.661 E0.01135
G1 X101.569 Y115.791 E0.01135
G1 X101.219 Y115.885 E0.01136
G1 X100.862 Y115.941 E0.01135
G1 X100.500 Y115.960 E0.01136
G1 X100.138 Y115.941 E0.01136
G1 X99.781 Y115.885 E0.01135
G1 X99.431 Y115.791 E0.01136
G1 X99.093 Y115.661 E0.01135
G1 X98.894 Y115.560 E0.00699
G1 X98.497 Y115.738 F7200.000
G1 F5760
G1 X98.466 Y115.299 E-0.17368
G1 X98.185 Y115.071 E-0.12533
G1 X97.929 Y114.816 E-0.12535
G1 X97.701 Y114.534 E-0.12564
G1 X97.503 Y114.230 E-0.12532
G1 X97.392 Y114.012 E-0.08467
G1 E-0.04000 F2100.00000
G1 Z0.800 F7200.000
G1 X105.107 Y104.418
G1 Z0.200
G1 E0.80000 F2100.00000
G1 F1800
G1 X104.739 Y104.085 E0.01557
G1 X104.448 Y103.685 E0.01551
G1 X104.246 Y103.233 E0.01552
G1 X104.144 Y102.747 E0.01556
G1 X104.144 Y102.253 E0.01549
G1 X104.246 Y101.767 E0.01556
G1 X104.448 Y101.315 E0.01553
G1 X104.739 Y100.914 E0.01553
G1 X105.107 Y100.582 E0.01555
G1 X105.537 Y100.335 E0.01555
G1 X105.984 Y100.191 E0.01471
G1 X106.252 Y100.148 E0.00851
G1 X106.525 Y100.133 E0.00858
G1 X106.993 Y100.183 E0.01475
G1 X107.463 Y100.335 E0.01549
G1 X107.893 Y100.583 E0.01556
G1 X108.261 Y100.915 E0.01556
G1 X108.552 Y101.315 E0.01551
G1 X108.754 Y101.767 E0.01552
G1 X108.856 Y102.253 E0.01556
G1 X108.856 Y102.747 E0.01550
G1 X108.753 Y103.233 E0.01557
G1 X108.552 Y103.685 E0.01551
G1 X108.261 Y104.086 E0.01553
G1 X107.893 Y104.418 E0.01555
G1 X107.463 Y104.665 E0.01555
G1 X107.016 Y104.809 E0.01471
G1 X106.749 Y104.852 E0.00850
G1 X106.475 Y104.867 E0.00859
G1 X106.007 Y104.817 E0.01475
G1 X105.537 Y104.665 E0.01549
G1 X105.159 Y104.447 E0.01368
G1 X105.348 Y104.121 F7200.000
G1 F1800
G1 X105.021 Y103.832 E0.01369
G1 X104.776 Y103.495 E0.01303
G1 X104.607 Y103.115 E0.01304
G1 X104.521 Y102.707 E0.01307
G1 X104.521 Y102.293 E0.01301
G1 X104.607 Y101.885 E0.01307
G1 X104.776 Y101.505 E0.01304
G1 X105.021 Y101.168 E0.01305
G1 X105.330 Y100.889 E0.01306
G1 X105.691 Y100.681 E0.01306
G1 X106.072 Y100.558 E0.01254
G1 X106.515 Y100.511 E0.01398
G1 X106.914 Y100.554 E0.01257
G1 X107.309 Y100.681 E0.01302
G1 X107.670 Y100.889 E0.01306
G1 X107.979 Y101.168 E0.01307
G1 X108.224 Y101.505 E0.01303
G1 X108.393 Y101.885 E0.01304
G1 X108.479 Y102.292 E0.01307
G1 X108.479 Y102.708 E0.01302
G1 X108.393 Y103.116 E0.01308
G1 X108.224 Y103.495 E0.01303
G1 X107.979 Y103.832 E0.01305
G1 X107.670 Y104.111 E0.01305
G1 X107.309 Y104.319 E0.01306
G1 X106.928 Y104.442 E0.01254
G1 X106.485 Y104.489 E0.01398
G1 X106.086 Y104.446 E0.01257
G1 X105.691 Y104.319 E0.01302
G1 X105.400 Y104.151 E0.01055
G1 F5760
G1 X105.021 Y103.832 E-0.17161
G1 X104.776 Y103.495 E-0.14396
G1 X104.607 Y103.115 E-0.14401
G1 X104.521 Y102.707 E-0.14443
G1 X104.521 Y102.293 E-0.14373
G1 X104.528 Y102.258 E-0.01225
G1 E-0.04000 F2100.00000
G1 Z0.800 F7200.000
G1 X106.669 Y104.101
G1 Z0.200
G1 E0.80000 F2100.00000
G1 F1800
G1 X106.495 Y104.111 E0.00546
G1 X106.165 Y104.076 E0.01039
G1 X105.845 Y103.972 E0.01055
G1 X105.553 Y103.804 E0.01056
G1 X105.302 Y103.578 E0.01058
G1 X105.105 Y103.306 E0.01055
G1 X104.968 Y102.998 E0.01055
G1 X104.898 Y102.668 E0.01058
G1 X104.898 Y102.332 E0.01053
G1 X104.968 Y102.002 E0.01058
G1 X105.105 Y101.694 E0.01055
G1 X105.303 Y101.422 E0.01057
G1 X105.553 Y101.196 E0.01056
G1 X105.845 Y101.028 E0.01056
G1 X106.160 Y100.926 E0.01038
G1 X106.331 Y100.899 E0.00545
G1 X106.505 Y100.889 E0.00546
G1 X106.835 Y100.924 E0.01039
G1 X107.155 Y101.028 E0.01055
G1 X107.447 Y101.196 E0.01056
G1 X107.698 Y101.422 E0.01058
G1 X107.895 Y101.694 E0.01056
G1 X108.032 Y102.002 E0.01055
G1 X108.102 Y102.332 E0.01058
G1 X108.102 Y102.668 E0.01054
G1 X108.032 Y102.998 E0.01059
G1 X107.895 Y103.306 E0.01054
G1 X107.697 Y103.578 E0.01057
G1 X107.447 Y103.804 E0.01056
G1 X107.155 Y103.972 E0.01056
G1 X106.840 Y104.074 E0.01038
G1 X106.728 Y104.092 E0.00357
G1 X106.601 Y104.262 F7200.000
G1 F5760
G1 X106.495 Y104.111 E-0.08106
G1 X106.165 Y104.076 E-0.11479
G1 X105.845 Y103.972 E-0.11651
G1 X105.553 Y103.804 E-0.11668
G1 X105.302 Y103.578 E-0.11683
G1 X105.105 Y103.306 E-0.11659
G1 X104.990 Y103.048 E-0.09753
G1 E-0.04000 F2100.00000
G1 Z0.800 F7200.000
G1 X116.144 Y102.747
G1 Z0.200
G1 E0.80000 F2100.00000
G1 F1800
G1 X116.144 Y102.253 E0.01550
G1 X116.247 Y101.767 E0.01557
G1 X116.448 Y101.315 E0.01551
G1 X116.739 Y100.914 E0.01553
G1 X117.107 Y100.582 E0.01555
G1 X117.537 Y100.335 E0.01555
G1 X117.984 Y100.191 E0.01471
G1 X118.251 Y100.148 E0.00850
G1 X118.525 Y100.133 E0.00858
G1 X118.993 Y100.183 E0.01475
G1 X119.463 Y100.335 E0.01549
G1 X119.893 Y100.583 E0.01556
G1 X120.261 Y100.915 E0.01556
G1 X120.552 Y101.315 E0.01551
G1 X120.754 Y101.767 E0.01552
G1 X120.856 Y102.253 E0.01556
G1 X120.856 Y102.747 E0.01550
G1 X120.753 Y103.233 E0.01557
G1 X120.552 Y103.685 E0.01552
G1 X120.261 Y104.086 E0.01553
G1 X119.893 Y104.418 E0.01555
G1 X119.463 Y104.665 E0.01555
G1 X119.016 Y104.809 E0.01471
G1 X118.749 Y104.852 E0.00850
G1 X118.475 Y104.867 E0.00859
G1 X118.007 Y104.817 E0.01475
G1 X117.537 Y104.665 E0.01549
G1 X117.107 Y104.417 E0.01556
G1 X116.739 Y104.085 E0.01556
G1 X116.448 Y103.685 E0.01551
G1 X116.246 Y103.233 E0.01552
G1 X116.156 Y102.806 E0.01368
G1 X116.525 Y102.728 F7200.000
G1 F1800
G1 X116.521 Y102.292 E0.01364
G1 X116.607 Y101.884 E0.01308
G1 X116.776 Y101.505 E0.01303
G1 X117.021 Y101.168 E0.01305
G1 X117.330 Y100.889 E0.01305
G1 X117.691 Y100.681 E0.01306
G1 X118.072 Y100.558 E0.01254
G1 X118.291 Y100.523 E0.00697
G1 X118.515 Y100.511 E0.00702
G1 X118.914 Y100.554 E0.01257
G1 X119.309 Y100.681 E0.01302
G1 X119.670 Y100.889 E0.01306
G1 X119.979 Y101.168 E0.01307
G1 X120.224 Y101.505 E0.01303
G1 X120.393 Y101.885 E0.01304
G1 X120.479 Y102.292 E0.01307
G1 X120.479 Y102.708 E0.01302
G1 X120.393 Y103.116 E0.01308
G1 X120.224 Y103.495 E0.01303
G1 X119.979 Y103.832 E0.01305
G1 X119.670 Y104.111 E0.01305
G1 X119.309 Y104.319 E0.01306
G1 X118.928 Y104.442 E0.01254
G1 X118.709 Y104.477 E0.00697
G1 X118.485 Y104.489 E0.00703
G1 X118.086 Y104.446 E0.01257
G1 X117.691 Y104.319 E0.01302
G1 X117.330 Y104.111 E0.01306
G1 X117.021 Y103.832 E0.01307
G1 X116.776 Y103.495 E0.01303
G1 X116.607 Y103.115 E0.01304
G1 X116.537 Y102.786 E0.01055
G1 F5760
G1 X116.521 Y102.292 E-0.17114
G1 X116.607 Y101.884 E-0.14449
G1 X116.776 Y101.505 E-0.14392
G1 X117.021 Y101.168 E-0.14415
G1 X117.330 Y100.889 E-0.14421
G1 X117.360 Y100.872 E-0.01208
G1 E-0.04000 F2100.00000
G1 Z0.800 F7200.000
G1 X118.669 Y104.101
G1 Z0.200
G1 E0.80000 F2100.00000
G1 F1800
G1 X118.495 Y104.111 E0.00546
G1 X118.165 Y104.076 E0.01039
G1 X117.845 Y103.972 E0.01055
G1 X117.553 Y103.804 E0.01056
G1 X117.302 Y103.578 E0.01058
G1 X117.105 Y103.306 E0.01056
G1 X116.968 Y102.998 E0.01055
G1 X116.898 Y102.668 E0.01058
G1 X116.898 Y102.332 E0.01054
G1 X116.968 Y102.002 E0.01059
G1 X117.105 Y101.694 E0.01054
G1 X117.303 Y101.422 E0.01057
G1 X117.553 Y101.196 E0.01056
