;FLAVOR:Marlin
;TIME:7667
;Filament used: 9.60999m
;Layer height: 0.3
;MINX:33.679
;MINY:32.052
;MINZ:0.2
;MAXX:206.792
;MAXY:163.348
;MAXZ:11
;Generated with Cura_SteamEngine 4.4.0
M82 ;absolute extrusion mode
G21 ; set units to millimeters
G90 ; use absolute positioning
M82 ; absolute extrusion mode
M104 S210 ; set extruder temp
M140 S60 ; set bed temp
M190 S60 ; wait for bed temp
M109 S210 ; wait for extruder temp
G28 W ; home all without mesh bed level
G80 ; mesh bed leveling
G92 E0.0 ; reset extruder distance position
G1 Y-3.0 F1000.0 ; go outside print area
G1 X60.0 E9.0 F1000.0 ; intro line
G1 X100.0 E21.5 F1000.0 ; intro line
G92 E0.0 ; reset extruder distance position
G92 E0
G92 E0
G1 F2100 E-0.8
;LAYER_COUNT:37
;LAYER:0
M107
G0 F3600 X37.773 Y37.127 Z0.2
;TYPE:SKIRT
G1 F2100 E0
G1 F1800 X38.887 Y36.135 E0.04961
G1 X40.231 Y35.063 E0.10679
G1 X41.076 Y34.44 E0.14171
G1 X41.967 Y33.883 E0.17666
G1 X42.897 Y33.395 E0.21159
G1 X43.862 Y32.979 E0.24654
G1 X44.856 Y32.638 E0.28149
G1 X45.873 Y32.374 E0.31644
G1 X46.906 Y32.188 E0.35135
G1 X47.951 Y32.08 E0.38629
G1 X48.836 Y32.052 E0.41574
G1 X190.549 Y32.052 E5.12914
G1 X191.599 Y32.092 E5.16408
G1 X192.642 Y32.212 E5.199
G1 X193.622 Y32.398 E5.23218
G1 X195.312 Y32.784 E5.28984
G1 X196.326 Y33.057 E5.32476
G1 X197.317 Y33.406 E5.35971
G1 X198.279 Y33.83 E5.39468
G1 X199.205 Y34.325 E5.4296
G1 X200.091 Y34.89 E5.46455
G1 X200.931 Y35.52 E5.49947
G1 X201.722 Y36.212 E5.53443
G1 X202.457 Y36.962 E5.56935
G1 X203.133 Y37.767 E5.60432
G1 X203.746 Y38.62 E5.63925
G1 X204.292 Y39.517 E5.67418
G1 X204.672 Y40.25 E5.70164
G1 X205.417 Y41.797 E5.75875
G1 X205.837 Y42.761 E5.79373
G1 X206.182 Y43.753 E5.82866
G1 X206.45 Y44.768 E5.86357
G1 X206.641 Y45.802 E5.89855
G1 X206.752 Y46.846 E5.93347
G1 X206.784 Y47.717 E5.96245
G1 X206.792 Y49.344 E6.01657
G1 X206.792 Y147.598 E9.28451
G1 X206.752 Y148.648 E9.31946
G1 X206.632 Y149.691 E9.35438
G1 X206.434 Y150.723 E9.38933
G1 X206.157 Y151.736 E9.42426
G1 X205.804 Y152.726 E9.45922
G1 X205.427 Y153.582 E9.49033
G1 X204.682 Y155.13 E9.54747
G1 X204.191 Y156.059 E9.58241
G1 X203.63 Y156.948 E9.61738
G1 X203.004 Y157.791 E9.6523
G1 X202.315 Y158.584 E9.68724
G1 X201.568 Y159.323 E9.72219
G1 X200.767 Y160.002 E9.75712
G1 X199.916 Y160.619 E9.79208
G1 X199.021 Y161.169 E9.82702
G1 X198.087 Y161.649 E9.86194
G1 X197.119 Y162.057 E9.89688
G1 X196.123 Y162.391 E9.93182
G1 X195.424 Y162.575 E9.95586
G1 X193.725 Y162.977 E10.01393
G1 X192.695 Y163.18 E10.04885
G1 X191.652 Y163.304 E10.08378
G1 X190.548 Y163.348 E10.12053
G1 X48.836 Y163.348 E14.83389
G1 X47.786 Y163.308 E14.86884
G1 X46.743 Y163.188 E14.90376
G1 X45.711 Y162.99 E14.93871
G1 X44.698 Y162.713 E14.97364
G1 X43.708 Y162.36 E15.0086
G1 X42.748 Y161.933 E15.04354
G1 X41.824 Y161.434 E15.07847
G1 X40.94 Y160.866 E15.11342
G1 X40.233 Y160.338 E15.14277
G1 X38.876 Y159.256 E15.20049
G1 X38.08 Y158.57 E15.23544
G1 X37.338 Y157.826 E15.27039
G1 X36.656 Y157.027 E15.30533
G1 X36.036 Y156.179 E15.34027
G1 X35.482 Y155.286 E15.37522
G1 X34.998 Y154.354 E15.41015
G1 X34.586 Y153.388 E15.44508
G1 X34.249 Y152.393 E15.48002
G1 X33.989 Y151.375 E15.51497
G1 X33.807 Y150.34 E15.54992
G1 X33.704 Y149.295 E15.58485
G1 X33.679 Y148.466 E15.61243
G1 X33.679 Y47.389 E18.97427
G1 X33.684 Y47.003 E18.9871
G1 X33.697 Y46.538 E19.00258
G1 X33.767 Y45.49 E19.03751
G1 X33.916 Y44.45 E19.07245
G1 X34.143 Y43.425 E19.10737
G1 X34.448 Y42.419 E19.14234
G1 X34.828 Y41.44 E19.17726
G1 X35.282 Y40.493 E19.21219
G1 X35.807 Y39.582 E19.24717
G1 X36.399 Y38.715 E19.28208
G1 X37.056 Y37.895 E19.31703
G1 X37.773 Y37.127 E19.35198
G0 F3600 X38.163 Y37.305
G1 F1800 X39.136 Y36.448 E19.3951
G1 X40.48 Y35.376 E19.45228
G1 X41.314 Y34.762 E19.48673
G1 X42.192 Y34.215 E19.52113
G1 X43.111 Y33.737 E19.55559
G1 X44.063 Y33.331 E19.59001
G1 X45.044 Y33 E19.62444
G1 X46.047 Y32.745 E19.65887
G1 X47.067 Y32.569 E19.69329
G1 X48.098 Y32.472 E19.72774
G1 X48.836 Y32.452 E19.75229
G1 X190.549 Y32.452 E24.46568
G1 X191.583 Y32.492 E24.5001
G1 X192.612 Y32.612 E24.53456
G1 X193.533 Y32.788 E24.56574
G1 X195.223 Y33.174 E24.6234
G1 X196.222 Y33.444 E24.65782
G1 X197.198 Y33.789 E24.69225
G1 X198.144 Y34.209 E24.72668
G1 X199.055 Y34.701 E24.76111
G1 X199.925 Y35.262 E24.79554
G1 X200.75 Y35.888 E24.82999
G1 X201.523 Y36.576 E24.86441
G1 X202.242 Y37.321 E24.89884
G1 X202.9 Y38.12 E24.93327
G1 X203.495 Y38.967 E24.9677
G1 X204.023 Y39.858 E25.00214
G1 X204.312 Y40.424 E25.02328
G1 X205.057 Y41.971 E25.08039
G1 X205.47 Y42.92 E25.11481
G1 X205.808 Y43.899 E25.14926
G1 X206.07 Y44.9 E25.18368
G1 X206.253 Y45.919 E25.21811
G1 X206.358 Y46.949 E25.25255
G1 X206.384 Y47.719 E25.27817
G1 X206.392 Y49.346 E25.33229
G1 X206.392 Y147.598 E28.60016
G1 X206.352 Y148.632 E28.63458
G1 X206.232 Y149.661 E28.66903
G1 X206.034 Y150.677 E28.70346
G1 X205.757 Y151.674 E28.73788
G1 X205.404 Y152.647 E28.7723
G1 X205.066 Y153.409 E28.80003
G1 X204.321 Y154.957 E28.85717
G1 X203.837 Y155.872 E28.8916
G1 X203.283 Y156.746 E28.92602
G1 X202.663 Y157.576 E28.96047
G1 X201.982 Y158.355 E28.99489
G1 X201.242 Y159.079 E29.02932
G1 X200.448 Y159.743 E29.06375
G1 X199.606 Y160.345 E29.09817
G1 X198.719 Y160.879 E29.13261
G1 X197.794 Y161.344 E29.16704
G1 X196.836 Y161.736 E29.20147
G1 X195.85 Y162.052 E29.23591
G1 X195.332 Y162.186 E29.2537
G1 X193.633 Y162.588 E29.31177
G1 X192.618 Y162.787 E29.34617
G1 X191.589 Y162.907 E29.38063
G1 X190.548 Y162.948 E29.41528
G1 X48.836 Y162.948 E34.12864
G1 X47.802 Y162.908 E34.16306
G1 X46.773 Y162.788 E34.19752
G1 X45.757 Y162.59 E34.23194
G1 X44.76 Y162.313 E34.26636
G1 X43.787 Y161.96 E34.30079
G1 X42.844 Y161.533 E34.33522
G1 X41.936 Y161.035 E34.36966
G1 X41.07 Y160.468 E34.40409
G1 X40.482 Y160.025 E34.42857
G1 X39.125 Y158.943 E34.4863
G1 X38.341 Y158.267 E34.52073
G1 X37.612 Y157.532 E34.55516
G1 X36.941 Y156.744 E34.58958
G1 X36.334 Y155.906 E34.624
G1 X35.793 Y155.023 E34.65844
G1 X35.322 Y154.101 E34.69288
G1 X34.923 Y153.146 E34.7273
G1 X34.599 Y152.163 E34.76173
G1 X34.352 Y151.157 E34.79618
G1 X34.183 Y150.136 E34.8306
G1 X34.094 Y149.105 E34.86502
G1 X34.079 Y148.466 E34.88628
G1 X34.079 Y47.389 E38.24811
G1 X34.084 Y47.015 E38.26055
G1 X34.097 Y46.55 E38.27603
G1 X34.166 Y45.517 E38.31046
G1 X34.315 Y44.492 E38.34491
G1 X34.542 Y43.482 E38.37934
G1 X34.846 Y42.493 E38.41375
G1 X35.226 Y41.53 E38.44819
G1 X35.679 Y40.599 E38.48262
G1 X36.202 Y39.706 E38.51704
G1 X36.793 Y38.856 E38.55148
G1 X37.448 Y38.054 E38.58592
G1 X38.163 Y37.305 E38.62036
G0 F3600 X38.552 Y37.486
G1 F1800 X39.386 Y36.761 E38.65711
G1 X40.73 Y35.689 E38.71429
G1 X41.551 Y35.085 E38.74819
G1 X42.417 Y34.547 E38.7821
G1 X43.323 Y34.079 E38.81602
G1 X44.263 Y33.683 E38.84994
G1 X45.231 Y33.362 E38.88386
G1 X46.22 Y33.118 E38.91774
G1 X47.226 Y32.952 E38.95166
G1 X48.242 Y32.866 E38.98557
G1 X48.836 Y32.852 E39.00533
G1 X190.549 Y32.852 E43.71872
G1 X191.568 Y32.892 E43.75264
G1 X192.58 Y33.012 E43.78654
G1 X193.444 Y33.178 E43.8158
G1 X195.134 Y33.564 E43.87346
G1 X196.118 Y33.83 E43.90736
G1 X197.079 Y34.172 E43.94129
G1 X198.009 Y34.589 E43.97519
G1 X198.904 Y35.077 E44.00909
G1 X199.759 Y35.634 E44.04303
G1 X200.567 Y36.255 E44.07693
G1 X201.323 Y36.939 E44.11083
G1 X202.024 Y37.679 E44.14474
G1 X202.665 Y38.473 E44.17868
G1 X203.241 Y39.314 E44.21258
G1 X203.952 Y40.597 E44.26137
G1 X204.697 Y42.144 E44.31848
G1 X205.103 Y43.08 E44.35241
G1 X205.434 Y44.044 E44.38631
G1 X205.689 Y45.031 E44.42022
G1 X205.866 Y46.035 E44.45412
G1 X205.963 Y47.05 E44.48804
G1 X205.984 Y47.721 E44.51037
G1 X205.992 Y49.348 E44.56448
G1 X205.992 Y147.598 E47.83229
G1 X205.952 Y148.617 E47.86621
G1 X205.832 Y149.629 E47.9001
G1 X205.634 Y150.629 E47.93401
G1 X205.357 Y151.611 E47.96794
G1 X205.005 Y152.568 E48.00186
G1 X204.706 Y153.236 E48.0262
G1 X203.961 Y154.784 E48.08334
G1 X203.483 Y155.684 E48.11723
G1 X202.936 Y156.545 E48.15116
G1 X202.323 Y157.36 E48.18508
G1 X201.649 Y158.124 E48.21897
G1 X200.916 Y158.833 E48.25288
G1 X200.13 Y159.483 E48.28681
G1 X199.296 Y160.069 E48.32071
G1 X198.418 Y160.588 E48.35463
G1 X197.503 Y161.036 E48.38852
G1 X196.555 Y161.412 E48.42244
G1 X195.24 Y161.797 E48.46801
G1 X193.541 Y162.199 E48.52608
G1 X192.541 Y162.394 E48.55997
G1 X191.528 Y162.511 E48.59388
G1 X190.548 Y162.548 E48.6265
G1 X48.836 Y162.548 E53.33986
G1 X47.817 Y162.508 E53.37378
G1 X46.805 Y162.388 E53.40767
G1 X45.805 Y162.19 E53.44158
G1 X44.823 Y161.913 E53.47552
G1 X43.866 Y161.561 E53.50943
G1 X42.94 Y161.134 E53.54335
G1 X42.05 Y160.637 E53.57725
G1 X41.202 Y160.071 E53.61116
G1 X40.731 Y159.712 E53.63086
G1 X39.374 Y158.63 E53.68858
G1 X38.603 Y157.964 E53.72247
G1 X37.886 Y157.239 E53.75638
G1 X37.228 Y156.46 E53.7903
G1 X36.633 Y155.632 E53.82421
G1 X36.104 Y154.76 E53.85813
G1 X35.646 Y153.849 E53.89205
G1 X35.261 Y152.906 E53.92593
G1 X34.95 Y151.934 E53.95987
G1 X34.717 Y150.942 E53.99376
G1 X34.562 Y149.934 E54.02768
G1 X34.479 Y148.466 E54.07658
G1 X34.479 Y47.389 E57.43842
G1 X34.484 Y47.026 E57.45049
G1 X34.497 Y46.561 E57.46597
G1 X34.566 Y45.543 E57.4999
G1 X34.713 Y44.535 E57.53378
G1 X34.94 Y43.54 E57.56773
G1 X35.244 Y42.567 E57.60163
G1 X35.623 Y41.621 E57.63553
G1 X36.075 Y40.707 E57.66944
G1 X36.597 Y39.831 E57.70336
G1 X37.187 Y38.999 E57.73728
G1 X37.84 Y38.216 E57.77119
G1 X38.552 Y37.486 E57.80511
G0 F3600 X38.941 Y37.67
G1 F1800 X39.635 Y37.074 E57.83554
G1 X40.979 Y36.002 E57.89272
G1 X41.788 Y35.407 E57.92612
G1 X42.642 Y34.88 E57.95949
G1 X43.535 Y34.421 E57.99289
G1 X44.462 Y34.036 E58.02627
G1 X45.416 Y33.725 E58.05965
G1 X46.393 Y33.491 E58.09306
G1 X47.384 Y33.336 E58.12642
G1 X48.836 Y33.252 E58.1748
G1 X190.549 Y33.252 E62.88819
G1 X191.552 Y33.292 E62.92158
G1 X192.549 Y33.412 E62.95498
G1 X193.355 Y33.568 E62.98228
G1 X195.045 Y33.954 E63.03994
G1 X196.014 Y34.217 E63.07333
G1 X196.958 Y34.555 E63.10668
G1 X197.873 Y34.968 E63.14007
G1 X198.753 Y35.452 E63.17348
G1 X199.591 Y36.005 E63.20687
G1 X200.382 Y36.623 E63.24026
G1 X201.121 Y37.301 E63.27361
G1 X201.805 Y38.037 E63.30703
G1 X202.427 Y38.824 E63.3404
G1 X202.985 Y39.659 E63.3738
G1 X203.591 Y40.771 E63.41592
G1 X204.336 Y42.318 E63.47303
G1 X204.735 Y43.239 E63.50641
G1 X205.06 Y44.189 E63.53981
G1 X205.308 Y45.162 E63.5732
G1 X205.478 Y46.151 E63.60658
G1 X205.568 Y47.151 E63.63998
G1 X205.584 Y47.723 E63.65901
G1 X205.592 Y49.35 E63.71312
G1 X205.592 Y147.598 E66.98086
G1 X205.552 Y148.601 E67.01425
G1 X205.432 Y149.598 E67.04765
G1 X205.234 Y150.582 E67.08104
G1 X204.957 Y151.547 E67.11443
G1 X204.605 Y152.487 E67.14781
G1 X204.346 Y153.062 E67.16879
G1 X203.601 Y154.61 E67.22593
G1 X203.13 Y155.497 E67.25933
G1 X202.59 Y156.343 E67.29271
G1 X201.984 Y157.143 E67.32609
G1 X201.316 Y157.893 E67.3595
G1 X200.591 Y158.587 E67.39288
G1 X199.813 Y159.221 E67.42626
G1 X198.987 Y159.792 E67.45965
G1 X198.118 Y160.294 E67.49303
G1 X197.212 Y160.726 E67.52642
G1 X196.275 Y161.085 E67.55979
G1 X195.148 Y161.407 E67.59878
G1 X193.449 Y161.809 E67.65685
G1 X192.464 Y162.001 E67.69022
G1 X191.467 Y162.114 E67.7236
G1 X190.548 Y162.148 E67.75418
G1 X48.836 Y162.148 E72.46754
G1 X47.833 Y162.108 E72.50093
G1 X46.836 Y161.988 E72.53433
G1 X45.852 Y161.79 E72.56771
G1 X44.887 Y161.513 E72.60111
G1 X43.947 Y161.161 E72.63449
G1 X43.039 Y160.735 E72.66785
G1 X42.166 Y160.238 E72.70126
G1 X40.981 Y159.4 E72.74953
G1 X39.624 Y158.318 E72.80726
G1 X38.864 Y157.661 E72.84067
G1 X38.16 Y156.946 E72.87405
G1 X37.514 Y156.177 E72.90745
G1 X36.932 Y155.36 E72.94081
G1 X36.417 Y154.498 E72.97421
G1 X35.972 Y153.599 E73.00757
G1 X35.6 Y152.666 E73.04098
G1 X35.303 Y151.707 E73.07437
G1 X35.084 Y150.728 E73.10774
G1 X34.943 Y149.734 E73.14113
G1 X34.879 Y148.466 E73.18336
G1 X34.879 Y47.389 E76.54519
G1 X34.884 Y47.037 E76.5569
G1 X34.897 Y46.572 E76.57237
G1 X34.965 Y45.57 E76.60578
G1 X35.112 Y44.577 E76.63916
G1 X35.338 Y43.599 E76.67255
G1 X35.642 Y42.643 E76.70591
G1 X36.02 Y41.713 E76.7393
G1 X36.471 Y40.816 E76.7727
G1 X36.993 Y39.958 E76.8061
G1 X37.58 Y39.145 E76.83945
G1 X38.231 Y38.38 E76.87286
G1 X38.941 Y37.67 E76.90626
G0 F3600 X38.622 Y38.548
G1 F1800 X39.329 Y37.857 E76.93914
G1 X39.885 Y37.386 E76.96338
G1 X41.229 Y36.314 E77.02056
G1 X42.025 Y35.73 E77.05339
G1 X42.866 Y35.212 E77.08624
G1 X43.746 Y34.764 E77.11909
G1 X44.66 Y34.389 E77.15195
G1 X45.601 Y34.089 E77.1848
G1 X46.563 Y33.866 E77.21764
G1 X47.54 Y33.721 E77.25049
G1 X48.836 Y33.652 E77.29366
G1 X190.549 Y33.652 E82.00705
G1 X191.536 Y33.692 E82.03991
G1 X192.516 Y33.812 E82.07274
G1 X193.266 Y33.958 E82.09816
G1 X194.956 Y34.344 E82.15582
G1 X195.909 Y34.603 E82.18866
G1 X196.838 Y34.938 E82.22151
G1 X197.737 Y35.347 E82.25436
G1 X198.6 Y35.828 E82.28722
G1 X199.421 Y36.376 E82.32005
G1 X200.196 Y36.99 E82.35294
G1 X200.918 Y37.664 E82.38579
G1 X201.583 Y38.394 E82.41863
G1 X202.187 Y39.175 E82.45147
G1 X202.725 Y40.003 E82.48431
G1 X203.231 Y40.945 E82.51988
G1 X203.976 Y42.492 E82.57698
G1 X204.368 Y43.398 E82.60982
G1 X204.686 Y44.333 E82.64267
G1 X204.926 Y45.291 E82.67551
G1 X205.089 Y46.266 E82.70839
G1 X205.184 Y47.725 E82.75702
G1 X205.192 Y49.352 E82.81114
G1 X205.192 Y147.598 E86.07881
G1 X205.152 Y148.585 E86.11167
G1 X205.032 Y149.565 E86.1445
G1 X204.834 Y150.533 E86.17737
G1 X204.557 Y151.481 E86.21022
G1 X204.205 Y152.404 E86.24307
G1 X203.985 Y152.889 E86.26079
G1 X203.24 Y154.437 E86.31792
G1 X202.776 Y155.309 E86.35078
G1 X202.243 Y156.14 E86.38361
G1 X201.645 Y156.926 E86.41646
G1 X200.984 Y157.661 E86.44934
G1 X200.267 Y158.339 E86.48216
G1 X199.497 Y158.958 E86.51502
G1 X198.679 Y159.512 E86.54788
G1 X197.82 Y159.999 E86.58072
G1 X196.924 Y160.414 E86.61356
G1 X195.997 Y160.755 E86.64642
G1 X195.056 Y161.018 E86.67891
G1 X193.357 Y161.42 E86.73698
G1 X192.387 Y161.609 E86.76985
G1 X191.406 Y161.718 E86.80268
G1 X190.548 Y161.748 E86.83124
G1 X48.836 Y161.748 E91.5446
G1 X47.849 Y161.708 E91.57745
G1 X46.869 Y161.588 E91.61029
G1 X45.901 Y161.39 E91.64315
G1 X44.953 Y161.113 E91.676
G1 X44.03 Y160.761 E91.70886
G1 X43.139 Y160.336 E91.74169
G1 X42.285 Y159.84 E91.77454
G1 X41.23 Y159.087 E91.81765
G1 X39.873 Y158.005 E91.87537
G1 X39.126 Y157.358 E91.90824
G1 X38.434 Y156.654 E91.94107
G1 X37.802 Y155.895 E91.97392
G1 X37.233 Y155.088 E92.00677
G1 X36.73 Y154.237 E92.03965
G1 X36.299 Y153.349 E92.07248
G1 X35.94 Y152.428 E92.10535
G1 X35.658 Y151.482 E92.13819
G1 X35.452 Y150.516 E92.17104
G1 X35.326 Y149.536 E92.2039
G1 X35.279 Y148.466 E92.23952
G1 X35.279 Y47.389 E95.60136
G1 X35.284 Y47.048 E95.6127
G1 X35.297 Y46.583 E95.62817
G1 X35.364 Y45.598 E95.66101
G1 X35.511 Y44.621 E95.69387
G1 X35.737 Y43.659 E95.72674
G1 X36.04 Y42.719 E95.75959
G1 X36.417 Y41.806 E95.79244
G1 X36.868 Y40.927 E95.8253
G1 X37.387 Y40.087 E95.85814
G1 X37.974 Y39.292 E95.89101
G1 X38.622 Y38.548 E95.92382
G0 F3600 X39.013 Y38.718
G1 F1800 X39.717 Y38.048 E95.95615
G1 X40.134 Y37.699 E95.97423
G1 X41.478 Y36.627 E96.03141
G1 X42.262 Y36.053 E96.06373
G1 X43.09 Y35.546 E96.09602
G1 X43.957 Y35.108 E96.12833
G1 X44.857 Y34.743 E96.16063
G1 X45.785 Y34.453 E96.19297
G1 X46.733 Y34.241 E96.22528
G1 X47.695 Y34.107 E96.25759
G1 X48.836 Y34.052 E96.29558
G1 X190.549 Y34.052 E101.00897
G1 X191.52 Y34.092 E101.0413
G1 X192.484 Y34.212 E101.07361
G1 X193.176 Y34.348 E101.09706
G1 X194.866 Y34.734 E101.15472
G1 X195.804 Y34.989 E101.18705
G1 X196.717 Y35.321 E101.21936
G1 X197.6 Y35.726 E101.25167
G1 X198.446 Y36.203 E101.28397
G1 X199.251 Y36.747 E101.31629
G1 X200.007 Y37.356 E101.34858
G1 X200.712 Y38.025 E101.3809
G1 X201.359 Y38.75 E101.41322
G1 X201.944 Y39.525 E101.44552
G1 X202.463 Y40.346 E101.47782
G1 X202.87 Y41.118 E101.50685
G1 X203.615 Y42.665 E101.56396
G1 X204.001 Y43.557 E101.59629
G1 X204.311 Y44.477 E101.62858
G1 X204.545 Y45.42 E101.66089
G1 X204.7 Y46.379 E101.6932
G1 X204.784 Y47.727 E101.73812
G1 X204.792 Y49.354 E101.79224
G1 X204.792 Y147.598 E105.05985
G1 X204.752 Y148.569 E105.09217
G1 X204.632 Y149.533 E105.12448
G1 X204.434 Y150.483 E105.15676
G1 X204.158 Y151.415 E105.18909
G1 X203.625 Y152.715 E105.23582
G1 X202.88 Y154.263 E105.29296
