;FLAVOR:Marlin
;TIME:1684
;Filament used: 1.21023m
;Layer height: 0.15
;MINX:38.723
;MINY:50.715
;MINZ:0.2
;MAXX:119.805
;MAXY:76.857
;MAXZ:2.9
;Generated with Cura_SteamEngine 4.4.0
M82 ;absolute extrusion mode
G21 ; set units to millimeters
G90 ; use absolute positioning
M82 ; absolute extrusion mode
M104 S200 ; set extruder temp
M140 S60 ; set bed temp
M190 S60 ; wait for bed temp
M109 S200 ; wait for extruder temp
G28 W ; home all without mesh bed level
G80 ; mesh bed leveling
G92 E0.0 ; reset extruder distance position
G1 Y-3.0 F1000.0 ; go outside print area
G1 X60.0 E9.0 F1000.0 ; intro line
G1 X100.0 E21.5 F1000.0 ; intro line
G92 E0.0 ; reset extruder distance position
G92 E0
G92 E0
G1 F2100 E-0.8
;LAYER_COUNT:19
;LAYER:0
M107
G0 F3600 X41.115 Y52.725 Z0.2
;TYPE:SKIRT
G1 F2100 E0
G1 F1800 X41.765 Y52.258 E0.02662
G1 X41.824 Y52.217 E0.02901
G1 X42.129 Y52.007 E0.04133
G1 X42.166 Y51.982 E0.04281
G1 X42.785 Y51.567 E0.0676
G1 X43.252 Y51.302 E0.08546
G1 X43.752 Y51.11 E0.10327
G1 X44.3 Y50.99 E0.12193
G1 X45.021 Y50.891 E0.14614
G1 X45.078 Y50.884 E0.14805
G1 X45.565 Y50.825 E0.16436
G1 X45.616 Y50.819 E0.16607
G1 X46.235 Y50.753 E0.18677
G1 X46.551 Y50.734 E0.1973
G1 X47.537 Y50.716 E0.2301
G1 X47.603 Y50.715 E0.2323
G1 X112.034 Y50.715 E2.37528
G1 X112.732 Y50.725 E2.3985
G1 X113.266 Y50.773 E2.41633
G1 X113.881 Y50.931 E2.43745
G1 X114.387 Y51.11 E2.4553
G1 X114.46 Y51.137 E2.45789
G1 X115.105 Y51.381 E2.48083
G1 X115.158 Y51.402 E2.48273
G1 X115.796 Y51.655 E2.50555
G1 X116.278 Y51.889 E2.52337
G1 X116.721 Y52.192 E2.54122
G1 X117.123 Y52.569 E2.55955
G1 X117.606 Y53.096 E2.58333
G1 X117.644 Y53.138 E2.58521
G1 X117.976 Y53.512 E2.60185
G1 X118.012 Y53.554 E2.60369
G1 X118.457 Y54.071 E2.62638
G1 X118.776 Y54.502 E2.64421
G1 X119.027 Y54.976 E2.66205
G1 X119.206 Y55.487 E2.68006
G1 X119.422 Y56.293 E2.70781
G1 X119.441 Y56.367 E2.71035
G1 X119.51 Y56.648 E2.71998
G1 X119.52 Y56.69 E2.72141
G1 X119.667 Y57.322 E2.74299
G1 X119.76 Y58.057 E2.76764
G1 X119.784 Y59.117 E2.8029
G1 X119.785 Y59.19 E2.80533
G1 X119.805 Y68.57 E3.11731
G1 X119.805 Y68.619 E3.11894
G1 X119.797 Y69.317 E3.14216
G1 X119.724 Y69.998 E3.16494
G1 X119.671 Y70.257 E3.17373
G1 X119.647 Y70.365 E3.17741
G1 X119.593 Y70.593 E3.1852
G1 X119.585 Y70.626 E3.18633
G1 X119.352 Y71.57 E3.21867
G1 X119.334 Y71.639 E3.22104
G1 X119.227 Y72.038 E3.23478
G1 X119.05 Y72.545 E3.25264
G1 X118.8 Y73.019 E3.27047
G1 X118.549 Y73.37 E3.28482
G1 X118.202 Y73.799 E3.30317
G1 X118.095 Y73.925 E3.30867
G1 X117.676 Y74.397 E3.32966
G1 X117.645 Y74.432 E3.33122
G1 X117.235 Y74.882 E3.35146
G1 X116.691 Y75.369 E3.37575
G1 X116.475 Y75.526 E3.38463
G1 X116.019 Y75.808 E3.40246
G1 X115.743 Y75.937 E3.4126
G1 X115.491 Y76.042 E3.42168
G1 X115.385 Y76.084 E3.42547
G1 X114.627 Y76.372 E3.45244
G1 X114.58 Y76.39 E3.45411
G1 X113.921 Y76.63 E3.47744
G1 X113.405 Y76.775 E3.49527
G1 X112.753 Y76.846 E3.51708
G1 X112.192 Y76.856 E3.53574
G1 X112.128 Y76.857 E3.53787
G1 X47.344 Y76.857 E5.69259
G1 X46.715 Y76.848 E5.71352
G1 X46.4 Y76.829 E5.72401
G1 X45.405 Y76.727 E5.75728
G1 X45.337 Y76.72 E5.75955
G1 X45.025 Y76.682 E5.77001
G1 X44.974 Y76.675 E5.77172
G1 X44.321 Y76.586 E5.79364
G1 X43.796 Y76.474 E5.81149
G1 X43.294 Y76.286 E5.82932
G1 X42.825 Y76.024 E5.84719
G1 X42.167 Y75.59 E5.87341
G1 X42.101 Y75.546 E5.87605
G1 X41.77 Y75.317 E5.88943
G1 X41.733 Y75.291 E5.89094
G1 X41.139 Y74.869 E5.91517
G1 X40.726 Y74.526 E5.93303
G1 X40.369 Y74.127 E5.95084
G1 X40.063 Y73.657 E5.96949
G1 X39.699 Y72.989 E5.99479
G1 X39.672 Y72.938 E5.99671
G1 X39.436 Y72.488 E6.01361
G1 X39.41 Y72.437 E6.01551
G1 X39.12 Y71.862 E6.03693
G1 X38.915 Y71.367 E6.05475
G1 X38.785 Y70.846 E6.07261
G1 X38.734 Y70.294 E6.09105
G1 X38.723 Y69.544 E6.116
G1 X38.723 Y57.984 E6.50049
G1 X38.733 Y57.286 E6.5237
G1 X38.781 Y56.752 E6.54154
G1 X38.907 Y56.231 E6.55937
G1 X39.117 Y55.721 E6.57771
G1 X39.462 Y55.035 E6.60325
G1 X39.49 Y54.98 E6.6053
G1 X39.673 Y54.631 E6.61841
G1 X39.697 Y54.586 E6.6201
G1 X40.052 Y53.932 E6.64485
G1 X40.342 Y53.481 E6.66269
G1 X40.696 Y53.078 E6.68053
G1 X41.115 Y52.725 E6.69875
G0 F3600 X41.349 Y53.05
G1 F1800 X41.999 Y52.583 E6.72537
G1 X42.051 Y52.546 E6.72749
G1 X42.356 Y52.336 E6.73981
G1 X42.389 Y52.314 E6.74113
G1 X43.008 Y51.899 E6.76592
G1 X43.449 Y51.652 E6.78273
G1 X43.923 Y51.477 E6.79953
G1 X44.355 Y51.387 E6.81421
G1 X45.076 Y51.288 E6.83842
G1 X45.126 Y51.281 E6.8401
G1 X45.613 Y51.222 E6.85641
G1 X45.659 Y51.217 E6.85795
G1 X46.278 Y51.151 E6.87866
G1 X46.559 Y51.134 E6.88802
G1 X47.545 Y51.116 E6.92082
G1 X47.603 Y51.115 E6.92275
G1 X112.028 Y51.115 E9.06553
G1 X112.726 Y51.125 E9.08875
G1 X113.229 Y51.172 E9.10555
G1 X113.747 Y51.308 E9.12337
G1 X114.253 Y51.487 E9.14122
G1 X114.318 Y51.511 E9.14352
G1 X114.963 Y51.755 E9.16646
G1 X115.011 Y51.773 E9.16816
G1 X115.649 Y52.026 E9.19099
G1 X116.102 Y52.249 E9.20778
G1 X116.515 Y52.541 E9.22461
G1 X116.828 Y52.839 E9.23898
G1 X117.311 Y53.366 E9.26276
G1 X117.345 Y53.404 E9.26445
G1 X117.677 Y53.778 E9.28109
G1 X117.709 Y53.814 E9.28269
G1 X118.154 Y54.331 E9.30538
G1 X118.453 Y54.739 E9.3222
G1 X118.683 Y55.189 E9.33901
G1 X118.82 Y55.591 E9.35314
G1 X119.036 Y56.397 E9.38089
G1 X119.053 Y56.462 E9.38312
G1 X119.122 Y56.743 E9.39275
G1 X119.131 Y56.781 E9.39405
G1 X119.278 Y57.413 E9.41563
G1 X119.36 Y58.066 E9.43752
G1 X119.384 Y59.126 E9.47278
G1 X119.385 Y59.191 E9.47494
G1 X119.405 Y68.571 E9.78693
G1 X119.405 Y68.615 E9.78839
G1 X119.397 Y69.313 E9.81161
G1 X119.332 Y69.918 E9.83184
G1 X119.279 Y70.177 E9.84064
G1 X119.258 Y70.272 E9.84387
G1 X119.204 Y70.5 E9.85167
G1 X119.197 Y70.53 E9.85269
G1 X118.964 Y71.474 E9.88503
G1 X118.948 Y71.536 E9.88716
G1 X118.841 Y71.935 E9.9009
G1 X118.672 Y72.411 E9.9177
G1 X118.43 Y72.855 E9.93452
G1 X118.238 Y73.118 E9.94535
G1 X117.891 Y73.547 E9.9637
G1 X117.796 Y73.659 E9.96859
G1 X117.377 Y74.131 E9.98958
G1 X117.349 Y74.162 E9.99097
G1 X116.939 Y74.612 E10.01121
G1 X116.455 Y75.045 E10.03281
G1 X116.239 Y75.202 E10.0417
G1 X115.589 Y75.568 E10.06651
G1 X115.337 Y75.673 E10.07559
G1 X115.243 Y75.71 E10.07895
G1 X114.485 Y75.998 E10.10592
G1 X114.443 Y76.014 E10.10741
G1 X113.784 Y76.254 E10.13074
G1 X113.297 Y76.389 E10.14755
G1 X112.746 Y76.446 E10.16597
G1 X112.185 Y76.456 E10.18463
G1 X112.128 Y76.457 E10.18653
G1 X47.35 Y76.457 E12.34105
G1 X46.721 Y76.448 E12.36198
G1 X46.441 Y76.431 E12.37131
G1 X45.446 Y76.329 E12.40457
G1 X45.385 Y76.323 E12.40661
G1 X45.073 Y76.285 E12.41707
G1 X45.028 Y76.279 E12.41858
G1 X44.375 Y76.19 E12.4405
G1 X43.881 Y76.082 E12.45731
G1 X43.41 Y75.898 E12.47413
G1 X43.045 Y75.69 E12.48811
G1 X42.387 Y75.256 E12.51432
G1 X42.328 Y75.217 E12.51667
G1 X41.997 Y74.988 E12.53006
G1 X41.965 Y74.965 E12.53137
G1 X41.371 Y74.543 E12.55561
G1 X40.983 Y74.218 E12.57244
G1 X40.651 Y73.837 E12.58925
G1 X40.414 Y73.465 E12.60392
G1 X40.05 Y72.797 E12.62922
G1 X40.026 Y72.752 E12.63092
G1 X39.79 Y72.302 E12.64782
G1 X39.767 Y72.257 E12.6495
G1 X39.477 Y71.682 E12.67092
G1 X39.286 Y71.214 E12.68773
G1 X39.17 Y70.722 E12.70454
G1 X39.134 Y70.288 E12.71903
G1 X39.123 Y69.538 E12.74398
G1 X39.123 Y57.99 E13.12806
G1 X39.133 Y57.292 E13.15128
G1 X39.18 Y56.789 E13.16808
G1 X39.306 Y56.299 E13.18491
G1 X39.474 Y55.9 E13.19931
G1 X39.819 Y55.214 E13.22485
G1 X39.844 Y55.166 E13.22665
G1 X40.027 Y54.817 E13.23976
G1 X40.049 Y54.776 E13.24131
G1 X40.404 Y54.122 E13.26606
G1 X40.679 Y53.699 E13.28284
G1 X41.018 Y53.323 E13.29967
G1 X41.349 Y53.05 E13.31394
G1 F2100 E12.51394
;MESH:cytokinetics_banner.stl
G0 F3600 X46.574 Y53.66
G0 X46.729 Y54.934
G0 X114.475 Y57.099
;TYPE:WALL-INNER
G1 F2100 E13.31394
G1 F1800 X114.783 Y58.355 E13.35696
G1 X114.807 Y69.122 E13.71507
G1 X114.472 Y70.475 E13.76143
G1 X113.662 Y71.391 E13.8021
G1 X112.432 Y71.857 E13.84585
G1 X46.774 Y71.857 E16.02964
G1 X45.299 Y71.678 E16.07906
G1 X44.291 Y70.981 E16.11982
G1 X43.723 Y69.9 E16.16044
G1 X43.723 Y57.672 E16.56714
G1 X44.291 Y56.59 E16.60779
G1 X45.299 Y55.894 E16.64853
G1 X46.774 Y55.715 E16.69795
G1 X112.432 Y55.715 E18.88174
G1 X113.66 Y56.181 E18.92542
G1 X114.475 Y57.099 E18.96625
G0 F3600 X114.839 Y56.906
G1 F1800 X115.183 Y58.309 E19.0143
G1 X115.207 Y69.169 E19.37551
G1 X114.837 Y70.666 E19.42679
G1 X113.895 Y71.73 E19.47406
G1 X112.505 Y72.257 E19.5235
G1 X46.751 Y72.257 E21.71049
G1 X45.153 Y72.063 E21.76403
G1 X43.983 Y71.254 E21.81134
G1 X43.323 Y69.998 E21.85853
G1 X43.323 Y57.574 E22.27176
G1 X43.983 Y56.317 E22.31898
G1 X45.153 Y55.509 E22.36627
G1 X46.751 Y55.315 E22.41981
G1 X112.505 Y55.315 E24.6068
G1 X113.894 Y55.842 E24.65621
G1 X114.839 Y56.906 E24.70354
G0 F3600 X115.203 Y56.713
G1 F1800 X115.583 Y58.263 E24.75662
G1 X115.607 Y69.216 E25.12092
G1 X115.202 Y70.857 E25.17714
G1 X114.142 Y72.053 E25.23029
G1 X114.107 Y72.077 E25.2317
G1 X112.579 Y72.657 E25.28606
G1 X46.728 Y72.657 E27.47627
G1 X45.007 Y72.448 E27.53393
G1 X43.675 Y71.527 E27.5878
G1 X42.923 Y70.096 E27.64156
G1 X42.923 Y57.476 E28.06131
G1 X43.675 Y56.044 E28.1151
G1 X45.007 Y55.124 E28.16895
G1 X46.728 Y54.915 E28.22661
G1 X112.579 Y54.915 E30.41682
G1 X114.128 Y55.503 E30.47193
G1 X115.203 Y56.713 E30.52576
G0 F3600 X115.567 Y56.522
;TYPE:WALL-OUTER
G1 F1800 X115.983 Y58.216 E30.58378
G1 X116.007 Y69.263 E30.9512
G1 X115.567 Y71.048 E31.01235
G1 X114.407 Y72.356 E31.0705
G1 X114.296 Y72.433 E31.07499
G1 X112.652 Y73.057 E31.13348
G1 X46.705 Y73.057 E33.32688
G1 X44.861 Y72.833 E33.38866
G1 X43.367 Y71.8 E33.44908
G1 X42.523 Y70.194 E33.50942
G1 X42.523 Y57.378 E33.93568
G1 X43.367 Y55.771 E33.99605
G1 X44.861 Y54.739 E34.05645
G1 X46.705 Y54.515 E34.11823
G1 X112.652 Y54.515 E36.31164
G1 X114.361 Y55.163 E36.37243
G1 X115.567 Y56.522 E36.43286
G0 F3600 X115.614 Y56.716
G0 X115.129 Y56.833
G0 X114.119 Y57.286
;TYPE:SKIN
G1 F1800 X114.393 Y58.404 E36.47114
G1 X114.417 Y69.076 E36.8261
G1 X114.117 Y70.288 E36.86762
G1 X113.434 Y71.06 E36.90191
G1 X112.36 Y71.467 E36.94011
G1 X46.805 Y71.467 E39.12048
G1 X45.441 Y71.301 E39.16618
G1 X44.591 Y70.713 E39.20055
G1 X44.113 Y69.805 E39.23468
G1 X44.113 Y57.767 E39.63507
G1 X44.591 Y56.858 E39.66923
G1 X45.44 Y56.271 E39.70356
G1 X46.805 Y56.105 E39.74929
G1 X112.36 Y56.105 E41.92966
G1 X113.432 Y56.512 E41.9678
G1 X114.119 Y57.286 E42.00222
G0 F3600 X113.175 Y56.607
G1 F1800 X113.958 Y57.39 E42.03905
G0 F3600 X114.142 Y58.139
G1 F1800 X112.287 Y56.284 E42.1263
G0 F3600 X111.722 Y56.284
G1 F1800 X114.214 Y58.776 E42.24352
G0 F3600 X114.214 Y59.343
G1 F1800 X111.156 Y56.284 E42.38738
G0 F3600 X110.59 Y56.284
G1 F1800 X114.216 Y59.91 E42.55794
G0 F3600 X114.217 Y60.477
G1 F1800 X110.025 Y56.284 E42.75514
G0 F3600 X109.459 Y56.284
G1 F1800 X114.218 Y61.044 E42.97901
G0 F3600 X114.22 Y61.611
G1 F1800 X108.893 Y56.284 E43.22958
G0 F3600 X108.328 Y56.284
G1 F1800 X114.221 Y62.178 E43.50679
G0 F3600 X114.222 Y62.745
G1 F1800 X107.762 Y56.284 E43.81067
G0 F3600 X107.196 Y56.284
G1 F1800 X114.223 Y63.312 E44.14122
G0 F3600 X114.225 Y63.879
G1 F1800 X106.63 Y56.284 E44.49847
G0 F3600 X106.065 Y56.284
G1 F1800 X114.226 Y64.446 E44.88236
G0 F3600 X114.228 Y65.013
G1 F1800 X105.499 Y56.284 E45.29295
G0 F3600 X104.933 Y56.284
G1 F1800 X114.228 Y65.579 E45.73016
G0 F3600 X114.23 Y66.147
G1 F1800 X104.368 Y56.284 E46.19406
G0 F3600 X103.802 Y56.284
G1 F1800 X114.231 Y66.714 E46.68463
G0 F3600 X114.233 Y67.281
G1 F1800 X103.236 Y56.284 E47.20189
G0 F3600 X102.671 Y56.284
G1 F1800 X114.234 Y67.848 E47.74581
G0 F3600 X114.235 Y68.414
G1 F1800 X102.105 Y56.284 E48.31636
G0 F3600 X101.539 Y56.284
G1 F1800 X114.236 Y68.981 E48.91359
G0 F3600 X114.139 Y69.449
G1 F1800 X100.974 Y56.284 E49.53283
G0 F3600 X100.408 Y56.284
G1 F1800 X114.026 Y69.903 E50.17341
G0 F3600 X113.861 Y70.304
G1 F1800 X99.842 Y56.284 E50.83284
G0 F3600 X99.277 Y56.284
G1 F1800 X113.596 Y70.604 E51.50638
G0 F3600 X113.33 Y70.904
G1 F1800 X98.711 Y56.284 E52.19404
G0 F3600 X98.145 Y56.284
G1 F1800 X112.921 Y71.06 E52.88906
G0 F3600 X112.511 Y71.216
G1 F1800 X97.58 Y56.284 E53.59139
G0 F3600 X97.014 Y56.284
G1 F1800 X112.015 Y71.286 E54.29702
G0 F3600 X111.449 Y71.286
G1 F1800 X96.448 Y56.284 E55.00264
G0 F3600 X95.882 Y56.284
G1 F1800 X110.884 Y71.286 E55.70829
G0 F3600 X110.318 Y71.286
G1 F1800 X95.317 Y56.284 E56.41391
G0 F3600 X94.751 Y56.284
G1 F1800 X109.752 Y71.286 E57.11954
G0 F3600 X109.187 Y71.286
G1 F1800 X94.185 Y56.284 E57.82519
G0 F3600 X93.62 Y56.284
G1 F1800 X108.621 Y71.286 E58.53081
G0 F3600 X108.055 Y71.286
G1 F1800 X93.054 Y56.284 E59.23643
G0 F3600 X92.488 Y56.284
G1 F1800 X107.49 Y71.286 E59.94208
G0 F3600 X106.924 Y71.286
G1 F1800 X91.923 Y56.284 E60.64771
G0 F3600 X91.357 Y56.284
G1 F1800 X106.358 Y71.286 E61.35333
G0 F3600 X105.793 Y71.286
G1 F1800 X90.791 Y56.284 E62.05898
G0 F3600 X90.226 Y56.284
G1 F1800 X105.227 Y71.286 E62.7646
G0 F3600 X104.661 Y71.286
G1 F1800 X89.66 Y56.284 E63.47023
G0 F3600 X89.094 Y56.284
G1 F1800 X104.096 Y71.286 E64.17588
G0 F3600 X103.53 Y71.286
G1 F1800 X88.529 Y56.284 E64.8815
G0 F3600 X87.963 Y56.284
G1 F1800 X102.964 Y71.286 E65.58713
G0 F3600 X102.398 Y71.286
G1 F1800 X87.397 Y56.284 E66.29275
G0 F3600 X86.832 Y56.284
G1 F1800 X101.833 Y71.286 E66.99838
G0 F3600 X101.267 Y71.286
G1 F1800 X86.266 Y56.284 E67.704
G0 F3600 X85.7 Y56.284
G1 F1800 X100.701 Y71.286 E68.40962
G0 F3600 X100.136 Y71.286
G1 F1800 X85.134 Y56.284 E69.11527
G0 F3600 X84.569 Y56.284
G1 F1800 X99.57 Y71.286 E69.8209
G0 F3600 X99.004 Y71.286
G1 F1800 X84.003 Y56.284 E70.52652
G0 F3600 X83.437 Y56.284
G1 F1800 X98.439 Y71.286 E71.23217
G0 F3600 X97.873 Y71.286
G1 F1800 X82.872 Y56.284 E71.93779
G0 F3600 X82.306 Y56.284
G1 F1800 X97.307 Y71.286 E72.64342
G0 F3600 X96.742 Y71.286
G1 F1800 X81.74 Y56.284 E73.34907
G0 F3600 X81.175 Y56.284
G1 F1800 X96.176 Y71.286 E74.05469
G0 F3600 X95.61 Y71.286
G1 F1800 X80.609 Y56.284 E74.76032
G0 F3600 X80.043 Y56.284
G1 F1800 X95.045 Y71.286 E75.46596
G0 F3600 X94.479 Y71.286
G1 F1800 X79.478 Y56.284 E76.17159
G0 F3600 X78.912 Y56.284
G1 F1800 X93.913 Y71.286 E76.87721
G0 F3600 X93.347 Y71.286
G1 F1800 X78.346 Y56.284 E77.58284
G0 F3600 X77.781 Y56.284
G1 F1800 X92.782 Y71.286 E78.28846
G0 F3600 X92.216 Y71.286
G1 F1800 X77.215 Y56.284 E78.99409
G0 F3600 X76.649 Y56.284
G1 F1800 X91.65 Y71.286 E79.69971
G0 F3600 X91.085 Y71.286
G1 F1800 X76.083 Y56.284 E80.40536
G0 F3600 X75.518 Y56.284
G1 F1800 X90.519 Y71.286 E81.11098
G0 F3600 X89.953 Y71.286
G1 F1800 X74.952 Y56.284 E81.81661
G0 F3600 X74.386 Y56.284
G1 F1800 X89.388 Y71.286 E82.52226
G0 F3600 X88.822 Y71.286
G1 F1800 X73.821 Y56.284 E83.22788
G0 F3600 X73.255 Y56.284
G1 F1800 X88.256 Y71.286 E83.93351
G0 F3600 X87.691 Y71.286
G1 F1800 X72.689 Y56.284 E84.63915
G0 F3600 X72.124 Y56.284
G1 F1800 X87.125 Y71.286 E85.34478
G0 F3600 X86.559 Y71.286
G1 F1800 X71.558 Y56.284 E86.0504
G0 F3600 X70.992 Y56.284
G1 F1800 X85.994 Y71.286 E86.75605
G0 F3600 X85.428 Y71.286
G1 F1800 X70.427 Y56.284 E87.46168
G0 F3600 X69.861 Y56.284
G1 F1800 X84.862 Y71.286 E88.1673
G0 F3600 X84.297 Y71.286
G1 F1800 X69.295 Y56.284 E88.87295
G0 F3600 X68.73 Y56.284
G1 F1800 X83.731 Y71.286 E89.57857
G0 F3600 X83.165 Y71.286
G1 F1800 X68.164 Y56.284 E90.2842
G0 F3600 X67.598 Y56.284
G1 F1800 X82.599 Y71.286 E90.98982
G0 F3600 X82.034 Y71.286
G1 F1800 X67.033 Y56.284 E91.69545
G0 F3600 X66.467 Y56.284
G1 F1800 X81.468 Y71.286 E92.40107
G0 F3600 X80.902 Y71.286
G1 F1800 X65.901 Y56.284 E93.1067
G0 F3600 X65.335 Y56.284
G1 F1800 X80.337 Y71.286 E93.81234
G0 F3600 X79.771 Y71.286
G1 F1800 X64.77 Y56.284 E94.51797
G0 F3600 X64.204 Y56.284
G1 F1800 X79.205 Y71.286 E95.22359
G0 F3600 X78.64 Y71.286
G1 F1800 X63.638 Y56.284 E95.92924
G0 F3600 X63.073 Y56.284
G1 F1800 X78.074 Y71.286 E96.63487
G0 F3600 X77.508 Y71.286
G1 F1800 X62.507 Y56.284 E97.34049
G0 F3600 X61.941 Y56.284
G1 F1800 X76.943 Y71.286 E98.04614
G0 F3600 X76.377 Y71.286
G1 F1800 X61.376 Y56.284 E98.75176
G0 F3600 X60.81 Y56.284
G1 F1800 X75.811 Y71.286 E99.45739
G0 F3600 X75.246 Y71.286
G1 F1800 X60.244 Y56.284 E100.16304
G0 F3600 X59.679 Y56.284
G1 F1800 X74.68 Y71.286 E100.86866
G0 F3600 X74.114 Y71.286
