;FLAVOR:Marlin
;TIME:2607
;Filament used: 1.89743m
;Layer height: 0.15
;MINX:54.739
;MINY:38.021
;MINZ:0.2
;MAXX:125.822
;MAXY:84.163
;MAXZ:2.9
;Generated with Cura_SteamEngine 4.4.0
M82 ;absolute extrusion mode
G21 ; set units to millimeters
G90 ; use absolute positioning
M82 ; absolute extrusion mode
M104 S200 ; set extruder temp
M140 S60 ; set bed temp
M190 S60 ; wait for bed temp
M109 S200 ; wait for extruder temp
G28 W ; home all without mesh bed level
G80 ; mesh bed leveling
G92 E0.0 ; reset extruder distance position
G1 Y-3.0 F1000.0 ; go outside print area
G1 X60.0 E9.0 F1000.0 ; intro line
G1 X100.0 E21.5 F1000.0 ; intro line
G92 E0.0 ; reset extruder distance position
G92 E0
G92 E0
G1 F2100 E-0.8
;LAYER_COUNT:19
;LAYER:0
M107
G0 F3600 X56.361 Y40.784 Z0.2
;TYPE:SKIRT
G1 F2100 E0
G1 F1800 X56.715 Y40.382 E0.01782
G1 X57.14 Y40.024 E0.0363
G1 X57.817 Y39.54 E0.06398
G1 X57.865 Y39.507 E0.06592
G1 X58.172 Y39.295 E0.07832
G1 X58.216 Y39.265 E0.0801
G1 X58.799 Y38.875 E0.10342
G1 X59.266 Y38.611 E0.12127
G1 X59.767 Y38.419 E0.13911
G1 X60.296 Y38.303 E0.15712
G1 X61.023 Y38.2 E0.18155
G1 X61.094 Y38.19 E0.18393
G1 X61.58 Y38.131 E0.20021
G1 X61.632 Y38.125 E0.20196
G1 X62.251 Y38.059 E0.22266
G1 X62.567 Y38.04 E0.23319
G1 X63.553 Y38.022 E0.26599
G1 X63.619 Y38.021 E0.26818
G1 X118.05 Y38.021 E2.07857
G1 X118.748 Y38.031 E2.10178
G1 X119.282 Y38.079 E2.11962
G1 X119.897 Y38.237 E2.14074
G1 X120.403 Y38.416 E2.15859
G1 X120.476 Y38.443 E2.16118
G1 X121.121 Y38.687 E2.18411
G1 X121.174 Y38.708 E2.18601
G1 X121.812 Y38.961 E2.20884
G1 X122.294 Y39.195 E2.22666
G1 X122.737 Y39.498 E2.24451
G1 X123.139 Y39.875 E2.26284
G1 X123.622 Y40.402 E2.28662
G1 X123.66 Y40.444 E2.2885
G1 X123.992 Y40.818 E2.30513
G1 X124.028 Y40.86 E2.30697
G1 X124.473 Y41.377 E2.32966
G1 X124.792 Y41.808 E2.3475
G1 X125.043 Y42.282 E2.36533
G1 X125.222 Y42.793 E2.38334
G1 X125.438 Y43.599 E2.4111
G1 X125.457 Y43.673 E2.41364
G1 X125.526 Y43.954 E2.42326
G1 X125.537 Y43.997 E2.42474
G1 X125.682 Y44.621 E2.44604
G1 X125.774 Y45.356 E2.47068
G1 X125.799 Y46.482 E2.50814
G1 X125.8 Y46.559 E2.5107
G1 X125.822 Y75.879 E3.48589
G1 X125.822 Y75.928 E3.48752
G1 X125.813 Y76.63 E3.51087
G1 X125.736 Y77.323 E3.53406
G1 X125.675 Y77.614 E3.54395
G1 X125.649 Y77.729 E3.54787
G1 X125.375 Y78.851 E3.58629
G1 X125.352 Y78.942 E3.58941
G1 X125.232 Y79.383 E3.60461
G1 X125.053 Y79.889 E3.62246
G1 X124.801 Y80.362 E3.64029
G1 X124.513 Y80.755 E3.65649
G1 X124.174 Y81.158 E3.67401
G1 X124.111 Y81.231 E3.67722
G1 X123.692 Y81.703 E3.69821
G1 X123.661 Y81.738 E3.69976
G1 X123.251 Y82.188 E3.72001
G1 X122.707 Y82.675 E3.74429
G1 X122.491 Y82.832 E3.75318
G1 X122.035 Y83.114 E3.77101
G1 X121.759 Y83.243 E3.78114
G1 X121.507 Y83.348 E3.79022
G1 X121.401 Y83.39 E3.79401
G1 X120.638 Y83.68 E3.82116
G1 X120.59 Y83.698 E3.82287
G1 X119.936 Y83.936 E3.84602
G1 X119.42 Y84.081 E3.86384
G1 X118.769 Y84.152 E3.88562
G1 X118.208 Y84.162 E3.90428
G1 X118.144 Y84.163 E3.90641
G1 X63.36 Y84.163 E5.72854
G1 X62.731 Y84.154 E5.74946
G1 X62.416 Y84.135 E5.75996
G1 X61.421 Y84.033 E5.79322
G1 X61.353 Y84.026 E5.7955
G1 X61.041 Y83.988 E5.80595
G1 X60.99 Y83.981 E5.80766
G1 X60.337 Y83.892 E5.82958
G1 X59.812 Y83.78 E5.84744
G1 X59.31 Y83.592 E5.86527
G1 X58.841 Y83.33 E5.88313
G1 X58.183 Y82.896 E5.90935
G1 X58.121 Y82.855 E5.91182
G1 X57.757 Y82.604 E5.92653
G1 X57.715 Y82.574 E5.92825
G1 X57.155 Y82.176 E5.9511
G1 X56.743 Y81.834 E5.96891
G1 X56.385 Y81.434 E5.98676
G1 X56.08 Y80.965 E6.00537
G1 X55.706 Y80.279 E6.03135
G1 X55.679 Y80.229 E6.03324
G1 X55.467 Y79.825 E6.04842
G1 X55.44 Y79.773 E6.05037
G1 X55.135 Y79.168 E6.0729
G1 X54.93 Y78.672 E6.09075
G1 X54.801 Y78.152 E6.10857
G1 X54.75 Y77.6 E6.12701
G1 X54.739 Y76.85 E6.15196
G1 X54.739 Y45.29 E7.20165
G1 X54.749 Y44.592 E7.22487
G1 X54.797 Y44.058 E7.2427
G1 X54.923 Y43.537 E7.26053
G1 X55.134 Y43.025 E7.27895
G1 X55.484 Y42.33 E7.30483
G1 X55.511 Y42.277 E7.3068
G1 X55.673 Y41.968 E7.31841
G1 X55.697 Y41.922 E7.32013
G1 X56.07 Y41.235 E7.34614
G1 X56.361 Y40.784 E7.36399
G0 F3600 X56.697 Y41.002
G1 F1800 X57.036 Y40.627 E7.3808
G1 X57.373 Y40.35 E7.39531
G1 X58.05 Y39.866 E7.42299
G1 X58.093 Y39.836 E7.42473
G1 X58.4 Y39.624 E7.43714
G1 X58.439 Y39.597 E7.43872
G1 X59.022 Y39.207 E7.46205
G1 X59.463 Y38.96 E7.47886
G1 X59.937 Y38.786 E7.49565
G1 X60.352 Y38.699 E7.50976
G1 X61.079 Y38.596 E7.53418
G1 X61.142 Y38.587 E7.5363
G1 X61.628 Y38.528 E7.55258
G1 X61.675 Y38.523 E7.55415
G1 X62.294 Y38.457 E7.57486
G1 X62.575 Y38.44 E7.58422
G1 X63.561 Y38.422 E7.61702
G1 X63.619 Y38.421 E7.61895
G1 X118.044 Y38.421 E9.42913
G1 X118.742 Y38.431 E9.45235
G1 X119.245 Y38.478 E9.46915
G1 X119.763 Y38.614 E9.48696
G1 X120.269 Y38.793 E9.50482
G1 X120.334 Y38.817 E9.50712
G1 X120.979 Y39.061 E9.53006
G1 X121.027 Y39.079 E9.53176
G1 X121.665 Y39.332 E9.55459
G1 X122.118 Y39.555 E9.57138
G1 X122.531 Y39.847 E9.58821
G1 X122.844 Y40.145 E9.60258
G1 X123.327 Y40.672 E9.62636
G1 X123.361 Y40.71 E9.62805
G1 X123.693 Y41.084 E9.64469
G1 X123.725 Y41.12 E9.64629
G1 X124.17 Y41.637 E9.66898
G1 X124.469 Y42.045 E9.6858
G1 X124.699 Y42.495 E9.70261
G1 X124.836 Y42.897 E9.71673
G1 X125.052 Y43.703 E9.74449
G1 X125.069 Y43.768 E9.74672
G1 X125.138 Y44.049 E9.75635
G1 X125.147 Y44.088 E9.75768
G1 X125.292 Y44.712 E9.77898
G1 X125.374 Y45.365 E9.80087
G1 X125.399 Y46.491 E9.83833
G1 X125.4 Y46.56 E9.84063
G1 X125.422 Y75.88 E10.81582
G1 X125.422 Y75.923 E10.81725
G1 X125.413 Y76.625 E10.8406
G1 X125.345 Y77.241 E10.86121
G1 X125.284 Y77.532 E10.8711
G1 X125.261 Y77.634 E10.87458
G1 X124.987 Y78.756 E10.91299
G1 X124.966 Y78.837 E10.91577
G1 X124.846 Y79.278 E10.93098
G1 X124.675 Y79.754 E10.9478
G1 X124.431 Y80.197 E10.96462
G1 X124.207 Y80.498 E10.9771
G1 X123.868 Y80.901 E10.99461
G1 X123.812 Y80.965 E10.99744
G1 X123.393 Y81.437 E11.01844
G1 X123.365 Y81.468 E11.01982
G1 X122.955 Y81.918 E11.04007
G1 X122.471 Y82.351 E11.06167
G1 X122.255 Y82.508 E11.07055
G1 X121.605 Y82.874 E11.09536
G1 X121.353 Y82.979 E11.10444
G1 X121.259 Y83.016 E11.1078
G1 X120.496 Y83.306 E11.13495
G1 X120.453 Y83.322 E11.13648
G1 X119.799 Y83.56 E11.15963
G1 X119.312 Y83.695 E11.17643
G1 X118.762 Y83.752 E11.19483
G1 X118.201 Y83.762 E11.21349
G1 X118.144 Y83.763 E11.21538
G1 X63.366 Y83.763 E13.03731
G1 X62.737 Y83.754 E13.05823
G1 X62.457 Y83.737 E13.06756
G1 X61.462 Y83.635 E13.10083
G1 X61.401 Y83.629 E13.10287
G1 X61.089 Y83.591 E13.11332
G1 X61.044 Y83.585 E13.11483
G1 X60.391 Y83.496 E13.13675
G1 X59.897 Y83.388 E13.15357
G1 X59.426 Y83.204 E13.17039
G1 X59.061 Y82.996 E13.18436
G1 X58.403 Y82.562 E13.21058
G1 X58.348 Y82.525 E13.21278
G1 X57.984 Y82.274 E13.22749
G1 X57.947 Y82.248 E13.22899
G1 X57.387 Y81.85 E13.25184
G1 X57 Y81.526 E13.26863
G1 X56.668 Y81.144 E13.28546
G1 X56.431 Y80.774 E13.30008
G1 X56.057 Y80.088 E13.32606
G1 X56.033 Y80.043 E13.32776
G1 X55.821 Y79.639 E13.34293
G1 X55.798 Y79.593 E13.34465
G1 X55.493 Y78.988 E13.36718
G1 X55.301 Y78.52 E13.384
G1 X55.186 Y78.027 E13.40084
G1 X55.15 Y77.594 E13.41529
G1 X55.139 Y76.844 E13.44024
G1 X55.139 Y45.296 E14.48953
G1 X55.149 Y44.598 E14.51275
G1 X55.196 Y44.095 E14.52955
G1 X55.322 Y43.605 E14.54638
G1 X55.491 Y43.205 E14.56082
G1 X55.841 Y42.51 E14.5867
G1 X55.865 Y42.463 E14.58846
G1 X56.027 Y42.154 E14.60006
G1 X56.049 Y42.113 E14.60161
G1 X56.422 Y41.426 E14.62761
G1 X56.697 Y41.002 E14.64442
G1 F2100 E13.84442
;MESH:cytokinetics_12v_5v.stl
G0 F3600 X58.596 Y42.717
G0 X59.705 Y43.364
G0 X79.034 Y47.508
;TYPE:WALL-INNER
G1 F2100 E14.64442
G1 F1800 X77.573 Y46.855 E14.69765
G1 X76.018 Y46.526 E14.75051
G1 X74.428 Y46.526 E14.80339
G1 X72.873 Y46.855 E14.85626
G1 X71.419 Y47.505 E14.90923
G1 X70.132 Y48.439 E14.96212
G1 X69.117 Y49.566 E15.01257
G1 X68.311 Y50.927 E15.06518
G1 X67.804 Y52.432 E15.118
G1 X67.624 Y54.012 E15.17089
G1 X67.771 Y55.593 E15.2237
G1 X68.246 Y57.111 E15.2766
G1 X69.026 Y58.494 E15.32941
G1 X70.078 Y59.687 E15.38232
G1 X71.413 Y60.676 E15.43758
G1 X72.873 Y61.329 E15.49077
G1 X74.428 Y61.658 E15.54364
G1 X76.018 Y61.658 E15.59652
G1 X77.573 Y61.329 E15.64938
G1 X79.027 Y60.679 E15.70236
G1 X80.313 Y59.746 E15.7552
G1 X81.329 Y58.618 E15.80569
G1 X82.135 Y57.256 E15.85833
G1 X82.641 Y55.752 E15.91111
G1 X82.822 Y54.172 E15.964
G1 X82.674 Y52.591 E16.01682
G1 X82.2 Y51.073 E16.06971
G1 X81.42 Y49.689 E16.12255
G1 X80.367 Y48.498 E16.17542
G1 X79.034 Y47.508 E16.23065
G0 F3600 X105.938 Y47.287
G0 X109.034 Y47.508
G1 F1800 X107.573 Y46.855 E16.28388
G1 X106.018 Y46.526 E16.33674
G1 X104.428 Y46.526 E16.38962
G1 X102.873 Y46.855 E16.44249
G1 X101.419 Y47.505 E16.49546
G1 X100.132 Y48.439 E16.54835
G1 X99.117 Y49.566 E16.5988
G1 X98.311 Y50.927 E16.65141
G1 X97.804 Y52.432 E16.70423
G1 X97.624 Y54.012 E16.75712
G1 X97.771 Y55.593 E16.80993
G1 X98.246 Y57.111 E16.86283
G1 X99.026 Y58.494 E16.91564
G1 X100.078 Y59.687 E16.96854
G1 X101.413 Y60.676 E17.0238
G1 X102.873 Y61.329 E17.077
G1 X104.428 Y61.658 E17.12986
G1 X106.018 Y61.658 E17.18275
G1 X107.573 Y61.329 E17.23561
G1 X109.027 Y60.679 E17.28858
G1 X110.313 Y59.746 E17.34143
G1 X111.329 Y58.618 E17.39192
G1 X112.135 Y57.256 E17.44456
G1 X112.641 Y55.752 E17.49734
G1 X112.822 Y54.172 E17.55023
G1 X112.674 Y52.591 E17.60305
G1 X112.2 Y51.073 E17.65594
G1 X111.42 Y49.689 E17.70878
G1 X110.367 Y48.498 E17.76165
G1 X109.034 Y47.508 E17.81688
G0 F3600 X120.491 Y44.405
G1 F1800 X120.799 Y45.66 E17.85986
G1 X120.823 Y76.427 E18.88317
G1 X120.488 Y77.781 E18.92957
G1 X119.678 Y78.697 E18.97024
G1 X118.448 Y79.163 E19.01398
G1 X62.79 Y79.163 E20.86518
G1 X61.315 Y78.984 E20.91459
G1 X60.307 Y78.288 E20.95534
G1 X59.739 Y77.206 E20.99598
G1 X59.739 Y44.978 E22.06789
G1 X60.307 Y43.897 E22.1085
G1 X61.315 Y43.2 E22.14926
G1 X62.79 Y43.021 E22.19868
G1 X118.448 Y43.021 E24.04988
G1 X119.676 Y43.487 E24.09356
G1 X120.491 Y44.405 E24.13439
G0 F3600 X120.855 Y44.212
G1 F1800 X121.199 Y45.614 E24.1824
G1 X121.223 Y76.474 E25.20881
G1 X120.853 Y77.972 E25.26013
G1 X119.911 Y79.036 E25.3074
G1 X118.521 Y79.563 E25.35684
G1 X62.767 Y79.563 E27.21123
G1 X61.169 Y79.369 E27.26477
G1 X59.999 Y78.561 E27.31206
G1 X59.339 Y77.304 E27.35928
G1 X59.339 Y44.88 E28.43771
G1 X59.999 Y43.624 E28.4849
G1 X61.169 Y42.815 E28.53221
G1 X62.767 Y42.621 E28.58575
G1 X118.521 Y42.621 E30.44013
G1 X119.91 Y43.148 E30.48955
G1 X120.855 Y44.212 E30.53688
G0 F3600 X108.831 Y47.855
G1 F1800 X107.449 Y47.238 E30.58722
G1 X105.976 Y46.926 E30.6373
G1 X104.47 Y46.926 E30.68738
G1 X102.997 Y47.238 E30.73746
G1 X101.62 Y47.853 E30.78762
G1 X100.401 Y48.738 E30.83773
G1 X99.441 Y49.804 E30.88544
G1 X98.677 Y51.095 E30.93533
G1 X98.197 Y52.52 E30.98535
G1 X98.026 Y54.016 E31.03543
G1 X98.165 Y55.514 E31.08547
G1 X98.615 Y56.951 E31.13555
G1 X99.354 Y58.261 E31.18557
G1 X100.35 Y59.391 E31.23567
G1 X101.616 Y60.329 E31.28808
G1 X102.997 Y60.946 E31.33839
G1 X104.47 Y61.258 E31.38847
G1 X105.976 Y61.258 E31.43856
G1 X107.449 Y60.946 E31.48864
G1 X108.826 Y60.331 E31.53879
G1 X110.044 Y59.447 E31.58885
G1 X111.005 Y58.38 E31.63661
G1 X111.769 Y57.089 E31.68651
G1 X112.248 Y55.664 E31.73651
G1 X112.42 Y54.168 E31.78659
G1 X112.28 Y52.67 E31.83663
G1 X111.831 Y51.233 E31.88671
G1 X111.092 Y49.922 E31.93676
G1 X110.095 Y48.794 E31.98683
G1 X108.831 Y47.855 E32.0392
G0 F3600 X105.938 Y47.287
G0 X78.831 Y47.855
G1 F1800 X77.449 Y47.238 E32.08954
G1 X75.976 Y46.926 E32.13962
G1 X74.47 Y46.926 E32.18971
G1 X72.997 Y47.238 E32.23979
G1 X71.62 Y47.853 E32.28995
G1 X70.401 Y48.738 E32.34005
G1 X69.441 Y49.804 E32.38777
G1 X68.677 Y51.095 E32.43766
G1 X68.197 Y52.52 E32.48767
G1 X68.026 Y54.016 E32.53775
G1 X68.165 Y55.514 E32.58779
G1 X68.615 Y56.951 E32.63788
G1 X69.354 Y58.261 E32.6879
G1 X70.35 Y59.391 E32.738
G1 X71.616 Y60.329 E32.79041
G1 X72.997 Y60.946 E32.84071
G1 X74.47 Y61.258 E32.89079
G1 X75.976 Y61.258 E32.94088
G1 X77.449 Y60.946 E32.99096
G1 X78.826 Y60.331 E33.04112
G1 X80.044 Y59.447 E33.09118
G1 X81.005 Y58.38 E33.13894
G1 X81.769 Y57.089 E33.18883
G1 X82.248 Y55.664 E33.23883
G1 X82.42 Y54.168 E33.28892
G1 X82.28 Y52.67 E33.33896
G1 X81.831 Y51.233 E33.38903
G1 X81.092 Y49.922 E33.43909
G1 X80.095 Y48.794 E33.48916
G1 X78.831 Y47.855 E33.54153
G0 F3600 X78.628 Y48.202
G1 F1800 X77.325 Y47.621 E33.58898
G1 X75.934 Y47.326 E33.63628
G1 X74.512 Y47.326 E33.68357
G1 X73.121 Y47.621 E33.73087
G1 X71.821 Y48.201 E33.77821
G1 X70.67 Y49.037 E33.82553
G1 X69.765 Y50.042 E33.87051
G1 X69.043 Y51.262 E33.91766
G1 X68.59 Y52.608 E33.9649
G1 X68.428 Y54.02 E34.01217
G1 X68.559 Y55.435 E34.05943
G1 X68.984 Y56.791 E34.1067
G1 X69.682 Y58.028 E34.15394
G1 X70.622 Y59.095 E34.20123
G1 X71.819 Y59.982 E34.25078
G1 X73.121 Y60.563 E34.2982
G1 X74.512 Y60.858 E34.3455
G1 X75.934 Y60.858 E34.39279
G1 X77.325 Y60.563 E34.44009
G1 X78.625 Y59.983 E34.48743
G1 X79.775 Y59.148 E34.5347
G1 X80.681 Y58.142 E34.57973
G1 X81.403 Y56.922 E34.62688
G1 X81.855 Y55.576 E34.67411
G1 X82.018 Y54.164 E34.72138
G1 X81.886 Y52.749 E34.76865
G1 X81.462 Y51.393 E34.8159
G1 X80.764 Y50.155 E34.86317
G1 X79.823 Y49.09 E34.91044
G1 X78.628 Y48.202 E34.95996
G0 F3600 X78.678 Y48.116
G0 X104.508 Y47.287
G0 X105.938 Y47.287
G0 X107.071 Y47.526
G0 X108.678 Y48.116
G0 X108.628 Y48.202
G1 F1800 X107.325 Y47.621 E35.00741
G1 X105.934 Y47.326 E35.0547
G1 X104.512 Y47.326 E35.102
G1 X103.121 Y47.621 E35.14929
G1 X101.821 Y48.201 E35.19664
G1 X100.67 Y49.037 E35.24396
G1 X99.765 Y50.042 E35.28894
G1 X99.043 Y51.262 E35.33609
G1 X98.59 Y52.608 E35.38332
G1 X98.428 Y54.02 E35.4306
G1 X98.559 Y55.435 E35.47786
G1 X98.984 Y56.791 E35.52512
G1 X99.682 Y58.028 E35.57236
G1 X100.622 Y59.095 E35.61966
G1 X101.819 Y59.982 E35.66921
G1 X103.121 Y60.563 E35.71663
G1 X104.512 Y60.858 E35.76393
G1 X105.934 Y60.858 E35.81122
G1 X107.325 Y60.563 E35.85852
G1 X108.625 Y59.983 E35.90586
G1 X109.775 Y59.148 E35.95313
G1 X110.681 Y58.142 E35.99816
G1 X111.403 Y56.922 E36.04531
G1 X111.855 Y55.576 E36.09254
G1 X112.018 Y54.164 E36.13981
G1 X111.886 Y52.749 E36.18708
G1 X111.462 Y51.393 E36.23433
G1 X110.764 Y50.155 E36.2816
G1 X109.823 Y49.09 E36.32887
G1 X108.628 Y48.202 E36.37839
G0 F3600 X108.678 Y48.116
G0 X121.131 Y44.065
G0 X121.219 Y44.019
G1 F1800 X121.599 Y45.568 E36.43144
G1 X121.623 Y76.521 E37.46094
G1 X121.218 Y78.163 E37.51719
G1 X120.158 Y79.359 E37.57034
G1 X120.123 Y79.383 E37.57175
G1 X118.595 Y79.963 E37.62611
G1 X62.744 Y79.963 E39.48372
G1 X61.023 Y79.754 E39.54138
G1 X59.691 Y78.834 E39.59523
G1 X58.939 Y77.402 E39.64902
G1 X58.939 Y44.782 E40.73397
G1 X59.691 Y43.351 E40.78774
G1 X61.023 Y42.43 E40.8416
G1 X62.744 Y42.221 E40.89926
G1 X118.595 Y42.221 E42.75687
G1 X120.144 Y42.809 E42.81198
G1 X121.219 Y44.019 E42.86581
G0 F3600 X121.583 Y43.828
;TYPE:WALL-OUTER
G1 F1800 X121.999 Y45.522 E42.92383
G1 X122.023 Y76.568 E43.95642
G1 X121.583 Y78.354 E44.0176
G1 X120.423 Y79.662 E44.07575
G1 X120.312 Y79.739 E44.08024
G1 X118.668 Y80.363 E44.13873
G1 X62.721 Y80.363 E45.99953
G1 X60.877 Y80.139 E46.06132
G1 X59.383 Y79.107 E46.12171
G1 X58.539 Y77.5 E46.18208
G1 X58.539 Y44.684 E47.27355
G1 X59.383 Y43.078 E47.33389
G1 X60.877 Y42.045 E47.3943
G1 X62.721 Y41.821 E47.45608
G1 X118.668 Y41.821 E49.31689
G1 X120.377 Y42.469 E49.37768
G1 X121.583 Y43.828 E49.43811
G0 F3600 X121.63 Y44.022
G0 X121.146 Y44.139
G0 X108.628 Y48.094
G0 X108.425 Y48.549
G1 F1800 X107.201 Y48.004 E49.48267
G1 X105.892 Y47.726 E49.52718
G1 X104.554 Y47.726 E49.57168
G1 X103.245 Y48.004 E49.61619
G1 X102.022 Y48.549 E49.66073
G1 X100.939 Y49.336 E49.70525
G1 X100.089 Y50.28 E49.7475
G1 X99.409 Y51.429 E49.79191
G1 X98.983 Y52.696 E49.83637
G1 X98.83 Y54.025 E49.88086
G1 X98.953 Y55.356 E49.92532
G1 X99.353 Y56.631 E49.96977
G1 X100.01 Y57.795 E50.01422
G1 X100.894 Y58.799 E50.05872
G1 X102.022 Y59.635 E50.10541
G1 X103.245 Y60.18 E50.14995
G1 X104.554 Y60.458 E50.19445
G1 X105.892 Y60.458 E50.23896
G1 X107.201 Y60.18 E50.28347
G1 X108.424 Y59.635 E50.328
G1 X109.506 Y58.849 E50.37248
G1 X110.357 Y57.904 E50.41478
G1 X111.037 Y56.755 E50.45918
G1 X111.462 Y55.488 E50.50363
G1 X111.616 Y54.159 E50.54813
