;FLAVOR:Marlin
;TIME:5032
;Filament used: 3.17974m
;Layer height: 0.15
;MINX:35.541
;MINY:46.735
;MINZ:0.2
;MAXX:168.541
;MAXY:99.386
;MAXZ:6.95
;Generated with Cura_SteamEngine 4.4.0
M82 ;absolute extrusion mode
G21 ; set units to millimeters
G90 ; use absolute positioning
M82 ; absolute extrusion mode
M104 S200 ; set extruder temp
M140 S60 ; set bed temp
M190 S60 ; wait for bed temp
M109 S200 ; wait for extruder temp
G28 W ; home all without mesh bed level
G80 ; mesh bed leveling
G92 E0.0 ; reset extruder distance position
G1 Y-3.0 F1000.0 ; go outside print area
G1 X60.0 E9.0 F1000.0 ; intro line
G1 X100.0 E21.5 F1000.0 ; intro line
G92 E0.0 ; reset extruder distance position
G92 E0
G92 E0
G1 F2100 E-0.8
;LAYER_COUNT:46
;LAYER:0
M107
G0 F3600 X37.377 Y47.864 Z0.2
;TYPE:SKIRT
G1 F2100 E0
G1 F1800 X37.891 Y47.495 E0.02104
G1 X38.447 Y47.195 E0.04206
G1 X39.036 Y46.967 E0.06306
G1 X39.65 Y46.815 E0.0841
G1 X40.541 Y46.735 E0.11386
G1 X163.541 Y46.735 E4.20485
G1 X164.172 Y46.775 E4.22588
G1 X164.793 Y46.894 E4.24691
G1 X165.393 Y47.091 E4.26792
G1 X165.965 Y47.362 E4.28897
G1 X166.497 Y47.702 E4.30997
G1 X166.982 Y48.108 E4.33101
G1 X167.412 Y48.571 E4.35202
G1 X167.781 Y49.085 E4.37307
G1 X168.081 Y49.641 E4.39408
G1 X168.309 Y50.23 E4.41509
G1 X168.461 Y50.844 E4.43612
G1 X168.541 Y51.735 E4.46588
G1 X168.541 Y69.235 E5.04793
G1 X168.501 Y69.866 E5.06896
G1 X168.382 Y70.487 E5.08999
G1 X168.185 Y71.087 E5.11099
G1 X167.914 Y71.659 E5.13205
G1 X167.574 Y72.191 E5.15305
G1 X167.168 Y72.676 E5.17408
G1 X166.705 Y73.106 E5.1951
G1 X166.191 Y73.475 E5.21614
G1 X165.635 Y73.775 E5.23716
G1 X165.046 Y74.003 E5.25816
G1 X164.432 Y74.155 E5.2792
G1 X163.541 Y74.235 E5.30896
G1 X40.541 Y74.235 E9.39995
G1 X39.91 Y74.195 E9.42098
G1 X39.289 Y74.076 E9.44201
G1 X38.689 Y73.879 E9.46302
G1 X38.117 Y73.608 E9.48407
G1 X37.585 Y73.268 E9.50507
G1 X37.1 Y72.862 E9.52611
G1 X36.67 Y72.399 E9.54712
G1 X36.301 Y71.885 E9.56817
G1 X36.001 Y71.329 E9.58918
G1 X35.773 Y70.74 E9.61019
G1 X35.621 Y70.126 E9.63122
G1 X35.541 Y69.235 E9.66098
G1 X35.541 Y51.735 E10.24303
G1 X35.581 Y51.104 E10.26406
G1 X35.7 Y50.483 E10.28509
G1 X35.897 Y49.883 E10.30609
G1 X36.168 Y49.311 E10.32715
G1 X36.508 Y48.779 E10.34815
G1 X36.914 Y48.294 E10.36918
G1 X37.377 Y47.864 E10.3902
G0 F3600 X37.766 Y48.066
G1 F1800 X38.273 Y47.733 E10.41037
G1 X38.819 Y47.469 E10.43055
G1 X39.395 Y47.28 E10.45071
G1 X39.991 Y47.168 E10.47088
G1 X40.541 Y47.135 E10.4892
G1 X163.541 Y47.135 E14.5802
G1 X164.146 Y47.175 E14.60037
G1 X164.74 Y47.294 E14.62052
G1 X165.314 Y47.49 E14.64069
G1 X165.857 Y47.761 E14.66087
G1 X166.36 Y48.1 E14.68105
G1 X166.813 Y48.502 E14.70119
G1 X167.21 Y48.96 E14.72135
G1 X167.543 Y49.467 E14.74153
G1 X167.807 Y50.013 E14.7617
G1 X167.996 Y50.589 E14.78186
G1 X168.108 Y51.185 E14.80203
G1 X168.141 Y51.735 E14.82036
G1 X168.141 Y69.235 E15.40241
G1 X168.101 Y69.84 E15.42258
G1 X167.982 Y70.434 E15.44273
G1 X167.786 Y71.008 E15.4629
G1 X167.515 Y71.551 E15.48308
G1 X167.176 Y72.054 E15.50326
G1 X166.774 Y72.507 E15.5234
G1 X166.316 Y72.904 E15.54356
G1 X165.809 Y73.237 E15.56374
G1 X165.263 Y73.501 E15.58391
G1 X164.687 Y73.69 E15.60407
G1 X164.091 Y73.802 E15.62424
G1 X163.541 Y73.835 E15.64257
G1 X40.541 Y73.835 E19.73356
G1 X39.936 Y73.795 E19.75373
G1 X39.342 Y73.676 E19.77388
G1 X38.768 Y73.48 E19.79405
G1 X38.225 Y73.209 E19.81424
G1 X37.722 Y72.87 E19.83441
G1 X37.269 Y72.468 E19.85456
G1 X36.872 Y72.01 E19.87472
G1 X36.539 Y71.503 E19.89489
G1 X36.275 Y70.957 E19.91506
G1 X36.086 Y70.381 E19.93522
G1 X35.974 Y69.785 E19.95539
G1 X35.941 Y69.235 E19.97372
G1 X35.941 Y51.735 E20.55577
G1 X35.981 Y51.13 E20.57594
G1 X36.1 Y50.536 E20.59609
G1 X36.296 Y49.962 E20.61626
G1 X36.567 Y49.419 E20.63645
G1 X36.906 Y48.916 E20.65662
G1 X37.308 Y48.463 E20.67677
G1 X37.766 Y48.066 E20.69692
G0 F3600 X37.701 Y48.641
G1 F1800 X38.154 Y48.279 E20.71621
G1 X38.652 Y47.984 E20.73546
G1 X39.186 Y47.759 E20.75474
G1 X39.746 Y47.611 E20.774
G1 X40.541 Y47.535 E20.80056
G1 X163.541 Y47.535 E24.89156
G1 X164.119 Y47.575 E24.91083
G1 X164.686 Y47.694 E24.9301
G1 X165.231 Y47.89 E24.94936
G1 X165.744 Y48.159 E24.96863
G1 X166.215 Y48.496 E24.98789
G1 X166.635 Y48.895 E25.00716
G1 X166.997 Y49.348 E25.02645
G1 X167.292 Y49.846 E25.0457
G1 X167.517 Y50.38 E25.06497
G1 X167.665 Y50.94 E25.08424
G1 X167.741 Y51.735 E25.1108
G1 X167.741 Y69.235 E25.69285
G1 X167.701 Y69.813 E25.71212
G1 X167.582 Y70.38 E25.73139
G1 X167.386 Y70.925 E25.75065
G1 X167.117 Y71.438 E25.76992
G1 X166.78 Y71.909 E25.78918
G1 X166.381 Y72.329 E25.80845
G1 X165.928 Y72.691 E25.82774
G1 X165.43 Y72.986 E25.84699
G1 X164.896 Y73.211 E25.86626
G1 X164.336 Y73.359 E25.88553
G1 X163.541 Y73.435 E25.91209
G1 X40.541 Y73.435 E30.00309
G1 X39.963 Y73.395 E30.02236
G1 X39.396 Y73.276 E30.04163
G1 X38.851 Y73.08 E30.06089
G1 X38.338 Y72.811 E30.08015
G1 X37.867 Y72.474 E30.09942
G1 X37.447 Y72.075 E30.11868
G1 X37.085 Y71.622 E30.13797
G1 X36.79 Y71.124 E30.15722
G1 X36.565 Y70.59 E30.1765
G1 X36.417 Y70.03 E30.19576
G1 X36.341 Y69.235 E30.22232
G1 X36.341 Y51.735 E30.80438
G1 X36.381 Y51.157 E30.82365
G1 X36.5 Y50.59 E30.84292
G1 X36.696 Y50.045 E30.86218
G1 X36.965 Y49.532 E30.88145
G1 X37.302 Y49.061 E30.90071
G1 X37.701 Y48.641 E30.91998
G0 F3600 X38.093 Y48.829
G1 F1800 X38.539 Y48.505 E30.93831
G1 X39.027 Y48.25 E30.95662
G1 X39.547 Y48.067 E30.97496
G1 X40.088 Y47.962 E30.99329
G1 X40.541 Y47.935 E31.00838
G1 X163.541 Y47.935 E35.09938
G1 X164.091 Y47.975 E35.11772
G1 X164.629 Y48.094 E35.13605
G1 X165.144 Y48.29 E35.15437
G1 X165.625 Y48.558 E35.17269
G1 X166.063 Y48.892 E35.19101
G1 X166.447 Y49.287 E35.20933
G1 X166.771 Y49.733 E35.22767
G1 X167.026 Y50.221 E35.24598
G1 X167.209 Y50.741 E35.26431
G1 X167.314 Y51.282 E35.28264
G1 X167.341 Y51.735 E35.29774
G1 X167.341 Y69.235 E35.87979
G1 X167.301 Y69.785 E35.89813
G1 X167.182 Y70.323 E35.91646
G1 X166.986 Y70.838 E35.93478
G1 X166.718 Y71.319 E35.9531
G1 X166.384 Y71.757 E35.97142
G1 X165.989 Y72.141 E35.98974
G1 X165.543 Y72.465 E36.00808
G1 X165.055 Y72.72 E36.02639
G1 X164.535 Y72.903 E36.04473
G1 X163.994 Y73.008 E36.06305
G1 X163.541 Y73.035 E36.07815
G1 X40.541 Y73.035 E40.16914
G1 X39.991 Y72.995 E40.18749
G1 X39.453 Y72.876 E40.20581
G1 X38.938 Y72.68 E40.22414
G1 X38.457 Y72.412 E40.24245
G1 X38.019 Y72.078 E40.26077
G1 X37.635 Y71.683 E40.2791
G1 X37.311 Y71.237 E40.29743
G1 X37.056 Y70.749 E40.31575
G1 X36.873 Y70.229 E40.33408
G1 X36.768 Y69.688 E40.35241
G1 X36.741 Y69.235 E40.3675
G1 X36.741 Y51.735 E40.94956
G1 X36.781 Y51.185 E40.9679
G1 X36.9 Y50.647 E40.98622
G1 X37.096 Y50.132 E41.00455
G1 X37.364 Y49.651 E41.02287
G1 X37.698 Y49.213 E41.04119
G1 X38.093 Y48.829 E41.05951
G0 F3600 X38.483 Y49.029
G1 F1800 X38.921 Y48.746 E41.07685
G1 X39.396 Y48.533 E41.09417
G1 X39.899 Y48.396 E41.11151
G1 X40.541 Y48.335 E41.13295
G1 X163.541 Y48.335 E45.22395
G1 X164.061 Y48.375 E45.2413
G1 X164.568 Y48.494 E45.25862
G1 X165.051 Y48.689 E45.27594
G1 X165.499 Y48.955 E45.29327
G1 X165.901 Y49.287 E45.31061
G1 X166.247 Y49.677 E45.32795
G1 X166.53 Y50.115 E45.3453
G1 X166.743 Y50.59 E45.36261
G1 X166.88 Y51.093 E45.37995
G1 X166.941 Y51.735 E45.4014
G1 X166.941 Y69.235 E45.98345
G1 X166.901 Y69.755 E46.0008
G1 X166.782 Y70.262 E46.01812
G1 X166.587 Y70.745 E46.03545
G1 X166.321 Y71.193 E46.05277
G1 X165.989 Y71.595 E46.07012
G1 X165.599 Y71.941 E46.08746
G1 X165.161 Y72.224 E46.1048
G1 X164.686 Y72.437 E46.12211
G1 X164.183 Y72.574 E46.13945
G1 X163.541 Y72.635 E46.1609
G1 X40.541 Y72.635 E50.2519
G1 X40.021 Y72.595 E50.26925
G1 X39.514 Y72.476 E50.28657
G1 X39.031 Y72.281 E50.30389
G1 X38.583 Y72.015 E50.32122
G1 X38.181 Y71.683 E50.33856
G1 X37.835 Y71.293 E50.3559
G1 X37.552 Y70.855 E50.37325
G1 X37.339 Y70.38 E50.39056
G1 X37.202 Y69.877 E50.4079
G1 X37.141 Y69.235 E50.42935
G1 X37.141 Y51.735 E51.0114
G1 X37.181 Y51.215 E51.02875
G1 X37.3 Y50.708 E51.04607
G1 X37.495 Y50.225 E51.06339
G1 X37.761 Y49.777 E51.08072
G1 X38.093 Y49.375 E51.09806
G1 X38.483 Y49.029 E51.1154
G0 F3600 X38.487 Y49.548
G1 F1800 X38.87 Y49.243 E51.13169
G1 X39.298 Y49.005 E51.14798
G1 X39.758 Y48.839 E51.16424
G1 X40.239 Y48.75 E51.18051
G1 X40.541 Y48.735 E51.19057
G1 X163.541 Y48.735 E55.28157
G1 X164.029 Y48.775 E55.29785
G1 X164.504 Y48.894 E55.31414
G1 X164.953 Y49.088 E55.33041
G1 X165.365 Y49.353 E55.3467
G1 X165.728 Y49.681 E55.36297
G1 X166.033 Y50.064 E55.37925
G1 X166.271 Y50.492 E55.39554
G1 X166.437 Y50.952 E55.41181
G1 X166.526 Y51.433 E55.42808
G1 X166.541 Y51.735 E55.43814
G1 X166.541 Y69.235 E56.02019
G1 X166.501 Y69.723 E56.03647
G1 X166.382 Y70.198 E56.05276
G1 X166.188 Y70.647 E56.06903
G1 X165.923 Y71.059 E56.08532
G1 X165.595 Y71.422 E56.10159
G1 X165.212 Y71.727 E56.11788
G1 X164.784 Y71.965 E56.13417
G1 X164.324 Y72.131 E56.15043
G1 X163.843 Y72.22 E56.1667
G1 X163.541 Y72.235 E56.17676
G1 X40.541 Y72.235 E60.26775
G1 X40.053 Y72.195 E60.28404
G1 X39.578 Y72.076 E60.30033
G1 X39.129 Y71.882 E60.31659
G1 X38.717 Y71.617 E60.33289
G1 X38.354 Y71.289 E60.34916
G1 X38.049 Y70.906 E60.36544
G1 X37.811 Y70.478 E60.38173
G1 X37.645 Y70.018 E60.398
G1 X37.556 Y69.537 E60.41427
G1 X37.541 Y69.235 E60.42432
G1 X37.541 Y51.735 E61.00638
G1 X37.581 Y51.247 E61.02266
G1 X37.7 Y50.772 E61.03895
G1 X37.894 Y50.323 E61.05522
G1 X38.159 Y49.911 E61.07151
G1 X38.487 Y49.548 E61.08778
G0 F3600 X38.879 Y49.735
G1 F1800 X39.254 Y49.476 E61.10294
G1 X39.668 Y49.286 E61.11809
G1 X40.109 Y49.171 E61.13325
G1 X40.541 Y49.135 E61.14767
G1 X163.541 Y49.135 E65.23866
G1 X163.995 Y49.175 E65.25382
G1 X164.435 Y49.293 E65.26897
G1 X164.847 Y49.487 E65.28412
G1 X165.22 Y49.75 E65.2993
G1 X165.541 Y50.073 E65.31445
G1 X165.8 Y50.448 E65.3296
G1 X165.99 Y50.862 E65.34475
G1 X166.105 Y51.303 E65.35991
G1 X166.141 Y51.735 E65.37433
G1 X166.141 Y69.235 E65.95638
G1 X166.101 Y69.689 E65.97154
G1 X165.983 Y70.129 E65.98669
G1 X165.789 Y70.541 E66.00184
G1 X165.526 Y70.914 E66.01702
G1 X165.203 Y71.235 E66.03217
G1 X164.828 Y71.494 E66.04732
G1 X164.414 Y71.684 E66.06247
G1 X163.973 Y71.799 E66.07763
G1 X163.541 Y71.835 E66.09205
G1 X40.541 Y71.835 E70.18305
G1 X40.087 Y71.795 E70.19821
G1 X39.647 Y71.677 E70.21336
G1 X39.235 Y71.483 E70.2285
G1 X38.862 Y71.22 E70.24368
G1 X38.541 Y70.897 E70.25883
G1 X38.282 Y70.522 E70.27399
G1 X38.092 Y70.108 E70.28914
G1 X37.977 Y69.667 E70.3043
G1 X37.941 Y69.235 E70.31872
G1 X37.941 Y51.735 E70.90077
G1 X37.981 Y51.281 E70.91593
G1 X38.099 Y50.841 E70.93108
G1 X38.293 Y50.429 E70.94622
G1 X38.556 Y50.056 E70.9614
G1 X38.879 Y49.735 E70.97655
G0 F3600 X39.268 Y49.941
G1 F1800 X39.631 Y49.732 E70.99048
G1 X40.028 Y49.596 E71.00444
G1 X40.541 Y49.535 E71.02162
G1 X163.541 Y49.535 E75.11262
G1 X163.958 Y49.575 E75.12655
G1 X164.36 Y49.693 E75.14049
G1 X164.732 Y49.886 E75.15443
G1 X165.061 Y50.145 E75.16835
G1 X165.335 Y50.462 E75.18229
G1 X165.544 Y50.825 E75.19622
G1 X165.68 Y51.222 E75.21018
G1 X165.741 Y51.735 E75.22736
G1 X165.741 Y69.235 E75.80941
G1 X165.701 Y69.652 E75.82335
G1 X165.583 Y70.054 E75.83728
G1 X165.39 Y70.426 E75.85122
G1 X165.131 Y70.755 E75.86515
G1 X164.814 Y71.029 E75.87908
G1 X164.451 Y71.238 E75.89301
G1 X164.054 Y71.374 E75.90697
G1 X163.541 Y71.435 E75.92415
G1 X40.541 Y71.435 E80.01515
G1 X40.124 Y71.395 E80.02908
G1 X39.722 Y71.277 E80.04302
G1 X39.35 Y71.084 E80.05696
G1 X39.021 Y70.825 E80.07088
G1 X38.747 Y70.508 E80.08482
G1 X38.538 Y70.145 E80.09875
G1 X38.402 Y69.748 E80.11271
G1 X38.341 Y69.235 E80.12989
G1 X38.341 Y51.735 E80.71194
G1 X38.381 Y51.318 E80.72588
G1 X38.499 Y50.916 E80.73981
G1 X38.692 Y50.544 E80.75375
G1 X38.951 Y50.215 E80.76768
G1 X39.268 Y49.941 E80.78161
G0 F3600 X39.344 Y50.39
G1 F1800 X39.653 Y50.17 E80.79423
G1 X40 Y50.018 E80.80683
G1 X40.541 Y49.935 E80.82503
G1 X163.541 Y49.935 E84.91603
G1 X163.918 Y49.975 E84.92864
G1 X164.278 Y50.093 E84.94124
G1 X164.605 Y50.283 E84.95382
G1 X164.886 Y50.538 E84.96644
G1 X165.106 Y50.847 E84.97905
G1 X165.258 Y51.194 E84.99165
G1 X165.341 Y51.735 E85.00986
G1 X165.341 Y69.235 E85.59191
G1 X165.301 Y69.612 E85.60452
G1 X165.183 Y69.972 E85.61712
G1 X164.993 Y70.299 E85.6297
G1 X164.738 Y70.58 E85.64232
G1 X164.429 Y70.8 E85.65494
G1 X164.082 Y70.952 E85.66754
G1 X163.541 Y71.035 E85.68574
G1 X40.541 Y71.035 E89.77674
G1 X40.164 Y70.995 E89.78935
G1 X39.804 Y70.877 E89.80195
G1 X39.477 Y70.687 E89.81453
G1 X39.196 Y70.432 E89.82715
G1 X38.976 Y70.123 E89.83976
G1 X38.824 Y69.776 E89.85236
G1 X38.741 Y69.235 E89.87057
G1 X38.741 Y51.735 E90.45262
G1 X38.781 Y51.358 E90.46523
G1 X38.899 Y50.998 E90.47783
G1 X39.089 Y50.671 E90.49041
G1 X39.344 Y50.39 E90.50303
G0 F3600 X39.734 Y50.591
G1 F1800 X40.028 Y50.432 E90.51415
G1 X40.352 Y50.348 E90.52528
G1 X40.541 Y50.335 E90.53158
G1 X163.541 Y50.335 E94.62258
G1 X163.873 Y50.375 E94.6337
G1 X164.185 Y50.492 E94.64478
G1 X164.462 Y50.68 E94.65592
G1 X164.685 Y50.928 E94.66701
G1 X164.844 Y51.222 E94.67813
G1 X164.928 Y51.546 E94.68926
G1 X164.941 Y51.735 E94.69556
G1 X164.941 Y69.235 E95.27761
G1 X164.901 Y69.567 E95.28873
G1 X164.784 Y69.879 E95.29982
G1 X164.596 Y70.156 E95.31095
G1 X164.348 Y70.379 E95.32204
G1 X164.054 Y70.538 E95.33316
G1 X163.73 Y70.622 E95.34429
G1 X163.541 Y70.635 E95.35059
G1 X40.541 Y70.635 E99.44159
G1 X40.209 Y70.595 E99.45271
G1 X39.897 Y70.478 E99.4638
G1 X39.62 Y70.29 E99.47493
G1 X39.397 Y70.042 E99.48602
G1 X39.238 Y69.748 E99.49714
G1 X39.154 Y69.424 E99.50827
G1 X39.141 Y69.235 E99.51457
G1 X39.141 Y51.735 E100.09663
G1 X39.181 Y51.403 E100.10775
G1 X39.298 Y51.091 E100.11883
G1 X39.486 Y50.814 E100.12997
G1 X39.734 Y50.591 E100.14106
G0 F3600 X39.88 Y50.984
G1 F1800 X40.116 Y50.83 E100.15043
G1 X40.386 Y50.747 E100.15983
G1 X40.541 Y50.735 E100.165
G1 X163.541 Y50.735 E104.25599
G1 X163.82 Y50.775 E104.26537
G1 X164.077 Y50.891 E104.27475
G1 X164.292 Y51.074 E104.28414
G1 X164.446 Y51.31 E104.29351
G1 X164.529 Y51.58 E104.3029
G1 X164.541 Y51.735 E104.30808
G1 X164.541 Y69.235 E104.89013
G1 X164.501 Y69.514 E104.8995
G1 X164.385 Y69.771 E104.90888
G1 X164.202 Y69.986 E104.91827
G1 X163.966 Y70.14 E104.92764
G1 X163.696 Y70.223 E104.93704
G1 X163.541 Y70.235 E104.94221
G1 X40.541 Y70.235 E109.03321
G1 X40.262 Y70.195 E109.04258
G1 X40.005 Y70.079 E109.05196
G1 X39.79 Y69.896 E109.06135
G1 X39.636 Y69.66 E109.07072
G1 X39.553 Y69.39 E109.08012
G1 X39.541 Y69.235 E109.08529
G1 X39.541 Y51.735 E109.66734
G1 X39.581 Y51.456 E109.67671
G1 X39.697 Y51.199 E109.68609
G1 X39.88 Y50.984 E109.69548
G0 F3600 X40.094 Y51.334
G1 F1800 X40.267 Y51.201 E109.70274
G1 X40.541 Y51.135 E109.71212
G1 X163.541 Y51.135 E113.80311
G1 X163.756 Y51.175 E113.81039
G1 X163.942 Y51.288 E113.81762
G1 X164.075 Y51.461 E113.82488
G1 X164.141 Y51.735 E113.83426
G1 X164.141 Y69.235 E114.41631
G1 X164.101 Y69.45 E114.42358
G1 X163.988 Y69.636 E114.43082
G1 X163.815 Y69.769 E114.43808
G1 X163.541 Y69.835 E114.44745
G1 X40.541 Y69.835 E118.53845
G1 X40.326 Y69.795 E118.54572
G1 X40.14 Y69.682 E118.55296
G1 X40.007 Y69.509 E118.56022
G1 X39.941 Y69.235 E118.56959
G1 X39.941 Y51.735 E119.15165
G1 X39.981 Y51.52 E119.15892
G1 X40.094 Y51.334 E119.16616
G0 F3600 X40.38 Y51.616
G1 F1800 X40.541 Y51.535 E119.17215
G1 X163.541 Y51.535 E123.26315
G1 X163.66 Y51.574 E123.26731
G1 X163.741 Y51.735 E123.27331
G1 X163.741 Y69.235 E123.85536
G1 X163.702 Y69.354 E123.85953
G1 X163.541 Y69.435 E123.86552
G1 X40.541 Y69.435 E127.95652
G1 X40.422 Y69.396 E127.96068
G1 X40.341 Y69.235 E127.96668
G1 X40.341 Y51.735 E128.54873
G1 X40.38 Y51.616 E128.55289
G1 F2100 E127.75289
G0 F3600 X39.876 Y51.616
G0 X39.888 Y69.888
G0 X68.244 Y83.342
G1 F2100 E128.55289
G1 F1800 X68.583 Y83.071 E128.56733
G1 X69.314 Y82.536 E128.59746
G1 X69.847 Y82.196 E128.61849
G1 X70.235 Y82.003 E128.6329
G1 X71.033 Y81.648 E128.66195
G1 X71.625 Y81.428 E128.68295
G1 X72.022 Y81.326 E128.69659
G1 X72.885 Y81.142 E128.72594
G1 X73.511 Y81.049 E128.74698
G1 X73.928 Y81.032 E128.76087
G1 X76.802 Y81.032 E128.85646
G1 X77.433 Y81.072 E128.87748
G1 X77.846 Y81.142 E128.89142
G1 X78.708 Y81.326 E128.92073
