;FLAVOR:Marlin
;TIME:6190
;Filament used: 4.44277m
;Layer height: 0.15
;MINX:29.436
;MINY:36.255
;MINZ:0.2
;MAXX:170.228
;MAXY:88.279
;MAXZ:3.95
;Generated with Cura_SteamEngine 4.4.0
M82 ;absolute extrusion mode
G21 ; set units to millimeters
G90 ; use absolute positioning
M82 ; absolute extrusion mode
M104 S200 ; set extruder temp
M140 S60 ; set bed temp
M190 S60 ; wait for bed temp
M109 S200 ; wait for extruder temp
G28 W ; home all without mesh bed level
G80 ; mesh bed leveling
G92 E0.0 ; reset extruder distance position
G1 Y-3.0 F1000.0 ; go outside print area
G1 X60.0 E9.0 F1000.0 ; intro line
G1 X100.0 E21.5 F1000.0 ; intro line
G92 E0.0 ; reset extruder distance position
G92 E0
G92 E0
G1 F2100 E-0.8
;LAYER_COUNT:26
;LAYER:0
M107
G0 F3600 X31.668 Y38.184 Z0.2
;TYPE:SKIRT
G1 F2100 E0
G1 F1800 X32.316 Y37.72 E0.02651
G1 X32.364 Y37.686 E0.02846
G1 X32.669 Y37.476 E0.04078
G1 X32.702 Y37.454 E0.0421
G1 X33.321 Y37.039 E0.06689
G1 X33.762 Y36.792 E0.0837
G1 X34.236 Y36.617 E0.1005
G1 X34.668 Y36.527 E0.11518
G1 X35.389 Y36.428 E0.13939
G1 X35.439 Y36.421 E0.14107
G1 X35.926 Y36.362 E0.15738
G1 X35.972 Y36.357 E0.15892
G1 X36.591 Y36.291 E0.17963
G1 X36.872 Y36.274 E0.18899
G1 X37.858 Y36.256 E0.22179
G1 X37.916 Y36.255 E0.22372
G1 X112.341 Y36.255 E2.6991
G1 X113.039 Y36.265 E2.72232
G1 X113.656 Y36.334 E2.74297
G1 X114.183 Y36.446 E2.76089
G1 X116.908 Y36.992 E2.85333
G1 X119.602 Y37.454 E2.94424
G1 X122.283 Y37.835 E3.0343
G1 X125.024 Y38.146 E3.12605
G1 X127.762 Y38.378 E3.21745
G1 X130.486 Y38.532 E3.30819
G1 X134.597 Y38.619 E3.44495
G1 X162.849 Y38.619 E4.38462
G1 X163.548 Y38.629 E4.40787
G1 X164.051 Y38.676 E4.42467
G1 X164.568 Y38.812 E4.44245
G1 X165.066 Y38.988 E4.46002
G1 X165.134 Y39.013 E4.46243
G1 X165.786 Y39.26 E4.48562
G1 X165.828 Y39.276 E4.48712
G1 X166.468 Y39.529 E4.51001
G1 X166.922 Y39.752 E4.52683
G1 X167.336 Y40.043 E4.54366
G1 X167.656 Y40.348 E4.55836
G1 X168.137 Y40.875 E4.58209
G1 X168.166 Y40.908 E4.58356
G1 X168.498 Y41.282 E4.60019
G1 X168.53 Y41.318 E4.60179
G1 X168.975 Y41.835 E4.62448
G1 X169.274 Y42.243 E4.6413
G1 X169.504 Y42.693 E4.65811
G1 X169.641 Y43.095 E4.67224
G1 X169.857 Y43.901 E4.69999
G1 X169.874 Y43.966 E4.70223
G1 X169.943 Y44.247 E4.71185
G1 X169.952 Y44.286 E4.71318
G1 X170.097 Y44.91 E4.73449
G1 X170.179 Y45.563 E4.75638
G1 X170.204 Y46.688 E4.7938
G1 X170.205 Y46.757 E4.7961
G1 X170.228 Y79.081 E5.8712
G1 X170.228 Y79.129 E5.8728
G1 X170.218 Y79.827 E5.89601
G1 X170.149 Y80.44 E5.91653
G1 X170.084 Y80.749 E5.92703
G1 X170.061 Y80.852 E5.93054
G1 X169.793 Y81.945 E5.96797
G1 X169.774 Y82.017 E5.97045
G1 X169.652 Y82.469 E5.98602
G1 X169.483 Y82.945 E6.00282
G1 X169.24 Y83.389 E6.01966
G1 X169.014 Y83.692 E6.03223
G1 X168.675 Y84.096 E6.04977
G1 X168.617 Y84.163 E6.05272
G1 X168.198 Y84.635 E6.07371
G1 X168.17 Y84.666 E6.0751
G1 X167.76 Y85.116 E6.09535
G1 X167.276 Y85.549 E6.11695
G1 X167.06 Y85.706 E6.12583
G1 X166.41 Y86.072 E6.15064
G1 X166.158 Y86.177 E6.15972
G1 X166.064 Y86.214 E6.16308
G1 X165.301 Y86.504 E6.19023
G1 X165.258 Y86.52 E6.19175
G1 X164.604 Y86.758 E6.2149
G1 X164.117 Y86.893 E6.23171
G1 X163.567 Y86.95 E6.2501
G1 X163.006 Y86.96 E6.26876
G1 X162.949 Y86.961 E6.27066
G1 X130.172 Y86.961 E7.36083
G1 X129.465 Y86.951 E7.38434
G1 X129.285 Y86.943 E7.39034
G1 X128.443 Y86.884 E7.41841
G1 X125.677 Y86.727 E7.51056
G1 X122.928 Y86.65 E7.60202
G1 X120.21 Y86.65 E7.69243
G1 X117.454 Y86.729 E7.78413
G1 X114.706 Y86.885 E7.87567
G1 X112.032 Y87.112 E7.96493
G1 X109.262 Y87.427 E8.05766
G1 X106.57 Y87.81 E8.14809
G1 X104.138 Y88.223 E8.23014
G1 X103.665 Y88.267 E8.24594
G1 X103.099 Y88.278 E8.26477
G1 X103.037 Y88.279 E8.26683
G1 X38.26 Y88.279 E10.42132
G1 X37.622 Y88.27 E10.44255
G1 X37.337 Y88.253 E10.45204
G1 X36.391 Y88.155 E10.48367
G1 X36.336 Y88.149 E10.48551
G1 X36.031 Y88.112 E10.49573
G1 X35.987 Y88.106 E10.49721
G1 X35.278 Y88.01 E10.52101
G1 X34.784 Y87.903 E10.53782
G1 X34.313 Y87.719 E10.55464
G1 X33.93 Y87.5 E10.56931
G1 X33.259 Y87.052 E10.59615
G1 X33.217 Y87.024 E10.59782
G1 X32.871 Y86.785 E10.61181
G1 X32.836 Y86.76 E10.61324
G1 X32.279 Y86.364 E10.63597
G1 X31.891 Y86.039 E10.65281
G1 X31.56 Y85.658 E10.66959
G1 X31.324 Y85.288 E10.68419
G1 X30.969 Y84.637 E10.70885
G1 X30.943 Y84.59 E10.71064
G1 X30.712 Y84.149 E10.7272
G1 X30.692 Y84.108 E10.72871
G1 X30.388 Y83.507 E10.75111
G1 X30.196 Y83.04 E10.76791
G1 X30.08 Y82.547 E10.78475
G1 X30.043 Y82.11 E10.79934
G1 X30.032 Y81.36 E10.82429
G1 X30.032 Y69.8 E11.20877
G1 X30.058 Y67.95 E11.27031
G1 X30.058 Y65.222 E11.36105
G1 X29.98 Y62.471 E11.45258
G1 X29.824 Y59.723 E11.54413
G1 X29.583 Y56.912 E11.63796
G1 X29.463 Y55.724 E11.67768
G1 X29.447 Y55.448 E11.68687
G1 X29.436 Y54.677 E11.71252
G1 X29.436 Y43.129 E12.09661
G1 X29.446 Y42.431 E12.11983
G1 X29.493 Y41.928 E12.13663
G1 X29.619 Y41.438 E12.15346
G1 X29.789 Y41.036 E12.16797
G1 X30.146 Y40.328 E12.19435
G1 X30.168 Y40.285 E12.19595
G1 X30.323 Y39.989 E12.20707
G1 X30.346 Y39.946 E12.20869
G1 X30.719 Y39.259 E12.23469
G1 X30.994 Y38.835 E12.2515
G1 X31.333 Y38.46 E12.26831
G1 X31.668 Y38.184 E12.28275
G1 F2100 E11.48275
;MESH:cytokinetics_2d_codeimager.stl
G0 F3600 X36.887 Y38.8
G0 X37.042 Y40.074
G0 X114.788 Y42.239
;TYPE:WALL-INNER
G1 F2100 E12.28275
G1 F1800 X115.096 Y43.495 E12.32576
G1 X115.12 Y54.262 E12.68387
G1 X114.785 Y55.615 E12.73023
G1 X113.975 Y56.531 E12.7709
G1 X112.745 Y56.997 E12.81465
G1 X37.087 Y56.997 E15.33104
G1 X35.612 Y56.818 E15.38046
G1 X34.604 Y56.121 E15.42122
G1 X34.036 Y55.04 E15.46184
G1 X34.036 Y42.811 E15.86858
G1 X34.604 Y41.73 E15.90919
G1 X35.612 Y41.034 E15.94993
G1 X37.087 Y40.855 E15.99935
G1 X112.745 Y40.855 E18.51575
G1 X113.973 Y41.321 E18.55943
G1 X114.788 Y42.239 E18.60026
G0 F3600 X115.152 Y42.046
G1 F1800 X115.496 Y43.449 E18.64831
G1 X115.52 Y54.309 E19.00951
G1 X115.15 Y55.806 E19.0608
G1 X114.208 Y56.87 E19.10807
G1 X112.818 Y57.397 E19.15751
G1 X37.064 Y57.397 E21.6771
G1 X35.466 Y57.203 E21.73064
G1 X34.296 Y56.394 E21.77795
G1 X33.636 Y55.138 E21.82514
G1 X33.636 Y42.713 E22.2384
G1 X34.296 Y41.457 E22.28559
G1 X35.466 Y40.649 E22.33288
G1 X37.064 Y40.455 E22.38642
G1 X112.818 Y40.455 E24.90601
G1 X114.207 Y40.982 E24.95542
G1 X115.152 Y42.046 E25.00275
G0 F3600 X115.516 Y41.853
G1 F1800 X115.896 Y43.403 E25.05583
G1 X115.92 Y54.356 E25.42013
G1 X115.515 Y55.997 E25.47635
G1 X114.455 Y57.193 E25.5295
G1 X114.42 Y57.217 E25.53092
G1 X112.892 Y57.797 E25.58527
G1 X37.041 Y57.797 E28.10809
G1 X35.32 Y57.588 E28.16575
G1 X33.988 Y56.667 E28.21961
G1 X33.236 Y55.236 E28.27338
G1 X33.236 Y42.615 E28.69316
G1 X33.988 Y41.184 E28.74692
G1 X35.32 Y40.264 E28.80076
G1 X37.041 Y40.055 E28.85843
G1 X112.892 Y40.055 E31.38124
G1 X114.441 Y40.643 E31.43635
G1 X115.516 Y41.853 E31.49018
G0 F3600 X115.88 Y41.662
;TYPE:WALL-OUTER
G1 F1800 X116.296 Y43.356 E31.5482
G1 X116.32 Y54.403 E31.91562
G1 X115.88 Y56.188 E31.97677
G1 X114.72 Y57.496 E32.03492
G1 X114.609 Y57.573 E32.03941
G1 X112.965 Y58.197 E32.0979
G1 X37.018 Y58.197 E34.6239
G1 X35.174 Y57.973 E34.68569
G1 X33.68 Y56.94 E34.7461
G1 X32.836 Y55.334 E34.80644
G1 X32.836 Y42.517 E35.23274
G1 X33.68 Y40.911 E35.29308
G1 X35.174 Y39.879 E35.35347
G1 X37.018 Y39.655 E35.41526
G1 X112.965 Y39.655 E37.94126
G1 X114.674 Y40.303 E38.00205
G1 X115.88 Y41.662 E38.06249
G0 F3600 X115.927 Y41.856
G0 X115.442 Y41.973
G0 X114.432 Y42.426
;TYPE:SKIN
G1 F1800 X114.706 Y43.544 E38.10077
G1 X114.73 Y54.216 E38.45572
G1 X114.43 Y55.428 E38.49725
G1 X113.747 Y56.2 E38.53153
G1 X112.673 Y56.607 E38.56974
G1 X37.118 Y56.607 E41.0827
G1 X35.754 Y56.441 E41.12841
G1 X34.904 Y55.853 E41.16278
G1 X34.426 Y54.945 E41.19691
G1 X34.426 Y42.906 E41.59733
G1 X34.903 Y41.998 E41.63144
G1 X35.753 Y41.411 E41.6658
G1 X37.118 Y41.245 E41.71154
G1 X112.673 Y41.245 E44.22451
G1 X113.745 Y41.652 E44.26264
G1 X114.432 Y42.426 E44.29707
G0 F3600 X112.739 Y41.463
G1 F1800 X114.422 Y43.146 E44.37623
G0 F3600 X114.525 Y43.815
G1 F1800 X112.135 Y41.425 E44.48865
G0 F3600 X111.57 Y41.425
G1 F1800 X114.527 Y44.382 E44.62773
G0 F3600 X114.528 Y44.949
G1 F1800 X111.004 Y41.425 E44.79349
G0 F3600 X110.438 Y41.425
G1 F1800 X114.53 Y45.516 E44.98594
G0 F3600 X114.531 Y46.083
G1 F1800 X109.873 Y41.425 E45.20504
G0 F3600 X109.307 Y41.425
G1 F1800 X114.532 Y46.65 E45.45081
G0 F3600 X114.534 Y47.217
G1 F1800 X108.741 Y41.425 E45.72327
G0 F3600 X108.176 Y41.425
G1 F1800 X114.535 Y47.784 E46.02238
G0 F3600 X114.536 Y48.351
G1 F1800 X107.61 Y41.425 E46.34816
G0 F3600 X107.044 Y41.425
G1 F1800 X114.537 Y48.918 E46.70061
G0 F3600 X114.539 Y49.485
G1 F1800 X106.478 Y41.425 E47.07975
G0 F3600 X105.913 Y41.425
G1 F1800 X114.54 Y50.052 E47.48553
G0 F3600 X114.542 Y50.619
G1 F1800 X105.347 Y41.425 E47.91802
G0 F3600 X104.781 Y41.425
G1 F1800 X114.543 Y51.186 E48.37717
G0 F3600 X114.544 Y51.753
G1 F1800 X104.216 Y41.425 E48.86296
G0 F3600 X103.65 Y41.425
G1 F1800 X114.545 Y52.32 E49.37543
G0 F3600 X114.547 Y52.887
G1 F1800 X103.084 Y41.425 E49.91459
G0 F3600 X102.519 Y41.425
G1 F1800 X114.548 Y53.454 E50.4804
G0 F3600 X114.549 Y54.021
G1 F1800 X101.953 Y41.425 E51.07288
G0 F3600 X101.387 Y41.425
G1 F1800 X114.472 Y54.509 E51.68833
G0 F3600 X114.359 Y54.962
G1 F1800 X100.822 Y41.425 E52.32507
G0 F3600 X100.256 Y41.425
G1 F1800 X114.222 Y55.391 E52.98199
G0 F3600 X113.956 Y55.691
G1 F1800 X99.69 Y41.425 E53.65302
G0 F3600 X99.125 Y41.425
G1 F1800 X113.691 Y55.991 E54.33816
G0 F3600 X113.307 Y56.173
G1 F1800 X98.559 Y41.425 E55.03186
G0 F3600 X97.993 Y41.425
G1 F1800 X112.897 Y56.328 E55.73287
G0 F3600 X112.429 Y56.426
G1 F1800 X97.428 Y41.425 E56.43847
G0 F3600 X96.862 Y41.425
G1 F1800 X111.863 Y56.426 E57.14407
G0 F3600 X111.297 Y56.426
G1 F1800 X96.296 Y41.425 E57.84968
G0 F3600 X95.73 Y41.425
G1 F1800 X110.732 Y56.426 E58.5553
G0 F3600 X110.166 Y56.426
G1 F1800 X95.165 Y41.425 E59.2609
G0 F3600 X94.599 Y41.425
G1 F1800 X109.6 Y56.426 E59.9665
G0 F3600 X109.035 Y56.426
G1 F1800 X94.033 Y41.425 E60.67213
G0 F3600 X93.468 Y41.425
G1 F1800 X108.469 Y56.426 E61.37773
G0 F3600 X107.903 Y56.426
G1 F1800 X92.902 Y41.425 E62.08333
G0 F3600 X92.336 Y41.425
G1 F1800 X107.338 Y56.426 E62.78895
G0 F3600 X106.772 Y56.426
G1 F1800 X91.771 Y41.425 E63.49455
G0 F3600 X91.205 Y41.425
G1 F1800 X106.206 Y56.426 E64.20016
G0 F3600 X105.641 Y56.426
G1 F1800 X90.639 Y41.425 E64.90578
G0 F3600 X90.074 Y41.425
G1 F1800 X105.075 Y56.426 E65.61138
G0 F3600 X104.509 Y56.426
G1 F1800 X89.508 Y41.425 E66.31698
G0 F3600 X88.942 Y41.425
G1 F1800 X103.943 Y56.426 E67.02258
G0 F3600 X103.378 Y56.426
G1 F1800 X88.377 Y41.425 E67.72818
G0 F3600 X87.811 Y41.425
G1 F1800 X102.812 Y56.426 E68.43379
G0 F3600 X102.246 Y56.426
G1 F1800 X87.245 Y41.425 E69.13939
G0 F3600 X86.679 Y41.425
G1 F1800 X101.681 Y56.426 E69.84501
G0 F3600 X101.115 Y56.426
G1 F1800 X86.114 Y41.425 E70.55061
G0 F3600 X85.548 Y41.425
G1 F1800 X100.549 Y56.426 E71.25621
G0 F3600 X99.984 Y56.426
G1 F1800 X84.982 Y41.425 E71.96184
G0 F3600 X84.417 Y41.425
G1 F1800 X99.418 Y56.426 E72.66744
G0 F3600 X98.852 Y56.426
G1 F1800 X83.851 Y41.425 E73.37304
G0 F3600 X83.285 Y41.425
G1 F1800 X98.287 Y56.426 E74.07866
G0 F3600 X97.721 Y56.426
G1 F1800 X82.72 Y41.425 E74.78427
G0 F3600 X82.154 Y41.425
G1 F1800 X97.155 Y56.426 E75.48987
G0 F3600 X96.59 Y56.426
G1 F1800 X81.588 Y41.425 E76.19549
G0 F3600 X81.023 Y41.425
G1 F1800 X96.024 Y56.426 E76.90109
G0 F3600 X95.458 Y56.426
G1 F1800 X80.457 Y41.425 E77.60669
G0 F3600 X79.891 Y41.425
G1 F1800 X94.893 Y56.426 E78.31232
G0 F3600 X94.327 Y56.426
G1 F1800 X79.326 Y41.425 E79.01792
G0 F3600 X78.76 Y41.425
G1 F1800 X93.761 Y56.426 E79.72352
G0 F3600 X93.195 Y56.426
G1 F1800 X78.194 Y41.425 E80.42912
G0 F3600 X77.629 Y41.425
G1 F1800 X92.63 Y56.426 E81.13472
G0 F3600 X92.064 Y56.426
G1 F1800 X77.063 Y41.425 E81.84032
G0 F3600 X76.497 Y41.425
G1 F1800 X91.498 Y56.426 E82.54592
G0 F3600 X90.933 Y56.426
G1 F1800 X75.931 Y41.425 E83.25155
G0 F3600 X75.366 Y41.425
G1 F1800 X90.367 Y56.426 E83.95715
G0 F3600 X89.801 Y56.426
G1 F1800 X74.799 Y41.424 E84.6628
G0 F3600 X74.234 Y41.424
G1 F1800 X89.236 Y56.426 E85.36845
G0 F3600 X88.67 Y56.426
G1 F1800 X73.668 Y41.424 E86.07409
G0 F3600 X73.102 Y41.424
G1 F1800 X88.104 Y56.426 E86.77974
G0 F3600 X87.539 Y56.426
G1 F1800 X72.537 Y41.424 E87.48539
G0 F3600 X71.971 Y41.424
G1 F1800 X86.973 Y56.426 E88.19104
G0 F3600 X86.407 Y56.426
G1 F1800 X71.405 Y41.424 E88.89669
G0 F3600 X70.84 Y41.424
G1 F1800 X85.842 Y56.426 E89.60233
G0 F3600 X85.276 Y56.426
G1 F1800 X70.274 Y41.424 E90.30798
G0 F3600 X69.708 Y41.424
G1 F1800 X84.71 Y56.426 E91.01363
G0 F3600 X84.144 Y56.426
G1 F1800 X69.143 Y41.424 E91.71926
G0 F3600 X68.577 Y41.424
G1 F1800 X83.579 Y56.426 E92.4249
G0 F3600 X83.013 Y56.426
G1 F1800 X68.011 Y41.424 E93.13055
G0 F3600 X67.445 Y41.424
G1 F1800 X82.447 Y56.426 E93.8362
G0 F3600 X81.882 Y56.426
G1 F1800 X66.88 Y41.424 E94.54185
G0 F3600 X66.314 Y41.424
G1 F1800 X81.316 Y56.426 E95.2475
G0 F3600 X80.75 Y56.426
G1 F1800 X65.748 Y41.424 E95.95314
G0 F3600 X65.183 Y41.424
G1 F1800 X80.185 Y56.426 E96.65879
G0 F3600 X79.619 Y56.426
G1 F1800 X64.617 Y41.424 E97.36444
G0 F3600 X64.051 Y41.424
G1 F1800 X79.053 Y56.426 E98.07009
G0 F3600 X78.488 Y56.426
G1 F1800 X63.486 Y41.424 E98.77574
G0 F3600 X62.92 Y41.424
G1 F1800 X77.922 Y56.426 E99.48138
G0 F3600 X77.356 Y56.426
G1 F1800 X62.354 Y41.424 E100.18703
G0 F3600 X61.789 Y41.424
G1 F1800 X76.791 Y56.426 E100.89268
G0 F3600 X76.225 Y56.426
G1 F1800 X61.223 Y41.424 E101.59833
G0 F3600 X60.657 Y41.424
G1 F1800 X75.659 Y56.426 E102.30398
G0 F3600 X75.094 Y56.426
G1 F1800 X60.092 Y41.424 E103.00962
G0 F3600 X59.526 Y41.424
G1 F1800 X74.527 Y56.425 E103.71523
G0 F3600 X73.961 Y56.425
G1 F1800 X58.96 Y41.424 E104.42083
G0 F3600 X58.394 Y41.424
G1 F1800 X73.396 Y56.425 E105.12645
G0 F3600 X72.83 Y56.425
G1 F1800 X57.829 Y41.424 E105.83205
G0 F3600 X57.263 Y41.424
G1 F1800 X72.264 Y56.425 E106.53765
G0 F3600 X71.699 Y56.425
G1 F1800 X56.697 Y41.424 E107.24328
G0 F3600 X56.132 Y41.424
G1 F1800 X71.133 Y56.425 E107.94888
G0 F3600 X70.567 Y56.425
G1 F1800 X55.566 Y41.424 E108.65448
G0 F3600 X55 Y41.424
G1 F1800 X70.002 Y56.425 E109.3601
G0 F3600 X69.436 Y56.425
G1 F1800 X54.435 Y41.424 E110.06571
G0 F3600 X53.869 Y41.424
G1 F1800 X68.87 Y56.425 E110.77131
G0 F3600 X68.305 Y56.425
G1 F1800 X53.303 Y41.424 E111.47693
G0 F3600 X52.738 Y41.424
G1 F1800 X67.739 Y56.425 E112.18253
G0 F3600 X67.173 Y56.425
G1 F1800 X52.172 Y41.424 E112.88813
G0 F3600 X51.606 Y41.424
G1 F1800 X66.608 Y56.425 E113.59376
G0 F3600 X66.042 Y56.425
G1 F1800 X51.041 Y41.424 E114.29936
G0 F3600 X50.475 Y41.424
G1 F1800 X65.476 Y56.425 E115.00496
G0 F3600 X64.91 Y56.425
G1 F1800 X49.909 Y41.424 E115.71056
G0 F3600 X49.344 Y41.424
G1 F1800 X64.345 Y56.425 E116.41616
G0 F3600 X63.779 Y56.425
G1 F1800 X48.778 Y41.424 E117.12176
G0 F3600 X48.212 Y41.424
G1 F1800 X63.213 Y56.425 E117.82736
G0 F3600 X62.648 Y56.425
G1 F1800 X47.646 Y41.424 E118.53299
G0 F3600 X47.081 Y41.424
G1 F1800 X62.082 Y56.425 E119.23859
G0 F3600 X61.516 Y56.425
G1 F1800 X46.515 Y41.424 E119.94419
G0 F3600 X45.949 Y41.424
G1 F1800 X60.951 Y56.425 E120.64982
G0 F3600 X60.385 Y56.425
G1 F1800 X45.384 Y41.424 E121.35542
G0 F3600 X44.818 Y41.424
G1 F1800 X59.819 Y56.425 E122.06102
G0 F3600 X59.254 Y56.425
G1 F1800 X44.252 Y41.424 E122.76664
G0 F3600 X43.687 Y41.424
G1 F1800 X58.688 Y56.425 E123.47224
G0 F3600 X58.122 Y56.425
G1 F1800 X43.121 Y41.424 E124.17784
G0 F3600 X42.555 Y41.424
G1 F1800 X57.557 Y56.425 E124.88347
G0 F3600 X56.991 Y56.425
G1 F1800 X41.99 Y41.424 E125.58907
G0 F3600 X41.424 Y41.424
G1 F1800 X56.425 Y56.425 E126.29467
G0 F3600 X55.86 Y56.425
G1 F1800 X40.858 Y41.424 E127.0003
G0 F3600 X40.293 Y41.424
G1 F1800 X55.294 Y56.425 E127.7059
G0 F3600 X54.728 Y56.425
G1 F1800 X39.727 Y41.424 E128.4115
G0 F3600 X39.161 Y41.424
G1 F1800 X54.162 Y56.425 E129.1171
G0 F3600 X53.597 Y56.425
G1 F1800 X38.596 Y41.424 E129.8227
G0 F3600 X38.03 Y41.424
G1 F1800 X53.031 Y56.425 E130.5283
G0 F3600 X52.465 Y56.425
G1 F1800 X37.464 Y41.424 E131.2339
G0 F3600 X36.924 Y41.449
