;FLAVOR:Marlin
;TIME:2522
;Filament used: 1.86465m
;Layer height: 0.15
;MINX:121.544
;MINY:38.219
;MINZ:0.2
;MAXX:170.628
;MAXY:87.361
;MAXZ:3.95
;Generated with Cura_SteamEngine 4.4.0
M82 ;absolute extrusion mode
G21 ; set units to millimeters
G90 ; use absolute positioning
M82 ; absolute extrusion mode
M104 S200 ; set extruder temp
M140 S60 ; set bed temp
M190 S60 ; wait for bed temp
M109 S200 ; wait for extruder temp
G28 W ; home all without mesh bed level
G80 ; mesh bed leveling
G92 E0.0 ; reset extruder distance position
G1 Y-3.0 F1000.0 ; go outside print area
G1 X60.0 E9.0 F1000.0 ; intro line
G1 X100.0 E21.5 F1000.0 ; intro line
G92 E0.0 ; reset extruder distance position
G92 E0
G92 E0
G1 F2100 E-0.8
;LAYER_COUNT:26
;LAYER:0
M107
G0 F3600 X121.728 Y43.735 Z0.2
;TYPE:SKIRT
G1 F2100 E0
G1 F1800 X121.939 Y43.223 E0.01842
G1 X122.289 Y42.528 E0.0443
G1 X122.316 Y42.475 E0.04628
G1 X122.478 Y42.166 E0.05788
G1 X122.502 Y42.12 E0.05961
G1 X122.875 Y41.433 E0.08561
G1 X123.166 Y40.982 E0.10346
G1 X123.52 Y40.58 E0.12128
G1 X123.943 Y40.224 E0.13966
G1 X124.595 Y39.757 E0.16634
G1 X124.649 Y39.719 E0.16854
G1 X124.993 Y39.482 E0.18243
G1 X125.032 Y39.456 E0.18399
G1 X125.607 Y39.071 E0.207
G1 X126.074 Y38.806 E0.22486
G1 X126.574 Y38.614 E0.24268
G1 X127.118 Y38.496 E0.26119
G1 X127.864 Y38.393 E0.28624
G1 X127.921 Y38.385 E0.28815
G1 X128.397 Y38.327 E0.3041
G1 X128.452 Y38.321 E0.30594
G1 X129.055 Y38.257 E0.32611
G1 X129.369 Y38.238 E0.33657
G1 X130.354 Y38.22 E0.36934
G1 X130.42 Y38.219 E0.37154
G1 X162.855 Y38.219 E1.45033
G1 X163.553 Y38.229 E1.47355
G1 X164.087 Y38.277 E1.49138
G1 X164.702 Y38.435 E1.5125
G1 X165.208 Y38.614 E1.53035
G1 X165.281 Y38.641 E1.53294
G1 X165.926 Y38.885 E1.55587
G1 X165.979 Y38.906 E1.55777
G1 X166.617 Y39.159 E1.5806
G1 X167.099 Y39.393 E1.59842
G1 X167.542 Y39.696 E1.61627
G1 X167.944 Y40.073 E1.6346
G1 X168.427 Y40.6 E1.65838
G1 X168.465 Y40.642 E1.66026
G1 X168.797 Y41.016 E1.67689
G1 X168.833 Y41.058 E1.67873
G1 X169.278 Y41.575 E1.70142
G1 X169.597 Y42.006 E1.71926
G1 X169.848 Y42.48 E1.7371
G1 X170.027 Y42.991 E1.7551
G1 X170.243 Y43.797 E1.78286
G1 X170.262 Y43.871 E1.7854
G1 X170.331 Y44.152 E1.79502
G1 X170.342 Y44.195 E1.7965
G1 X170.487 Y44.819 E1.81781
G1 X170.579 Y45.554 E1.84244
G1 X170.604 Y46.679 E1.87987
G1 X170.605 Y46.756 E1.88243
G1 X170.628 Y79.08 E2.95753
G1 X170.628 Y79.135 E2.95936
G1 X170.618 Y79.833 E2.98258
G1 X170.541 Y80.522 E3.00564
G1 X170.476 Y80.831 E3.01614
G1 X170.449 Y80.947 E3.0201
G1 X170.181 Y82.04 E3.05753
G1 X170.164 Y82.11 E3.05993
G1 X170.043 Y82.564 E3.07556
G1 X169.866 Y83.071 E3.09342
G1 X169.617 Y83.545 E3.11122
G1 X169.313 Y83.962 E3.12839
G1 X168.973 Y84.364 E3.1459
G1 X168.916 Y84.429 E3.14877
G1 X168.497 Y84.901 E3.16977
G1 X168.466 Y84.936 E3.17132
G1 X168.056 Y85.386 E3.19157
G1 X167.512 Y85.873 E3.21585
G1 X167.296 Y86.03 E3.22474
G1 X166.84 Y86.312 E3.24257
G1 X166.564 Y86.441 E3.2527
G1 X166.312 Y86.546 E3.26178
G1 X166.206 Y86.588 E3.26557
G1 X165.443 Y86.878 E3.29272
G1 X165.395 Y86.896 E3.29443
G1 X164.741 Y87.134 E3.31757
G1 X164.225 Y87.279 E3.3354
G1 X163.574 Y87.35 E3.35718
G1 X163.013 Y87.36 E3.37584
G1 X162.949 Y87.361 E3.37797
G1 X130.166 Y87.361 E4.46834
G1 X129.528 Y87.352 E4.48956
G1 X129.208 Y87.333 E4.50022
G1 X128.262 Y87.235 E4.53186
G1 X128.199 Y87.228 E4.53397
G1 X127.894 Y87.191 E4.54418
G1 X127.842 Y87.184 E4.54593
G1 X127.13 Y87.087 E4.56983
G1 X126.606 Y86.975 E4.58765
G1 X126.103 Y86.787 E4.60551
G1 X125.621 Y86.517 E4.62389
G1 X125.023 Y86.119 E4.64778
G1 X124.971 Y86.083 E4.64988
G1 X124.553 Y85.794 E4.66678
G1 X124.515 Y85.768 E4.66832
G1 X123.966 Y85.378 E4.69071
G1 X123.553 Y85.036 E4.70855
G1 X123.196 Y84.636 E4.72638
G1 X122.895 Y84.175 E4.74469
G1 X122.514 Y83.481 E4.77102
G1 X122.483 Y83.423 E4.77321
G1 X122.276 Y83.029 E4.78802
G1 X122.249 Y82.978 E4.78993
G1 X121.941 Y82.368 E4.81266
G1 X121.736 Y81.872 E4.83051
G1 X121.607 Y81.352 E4.84833
G1 X121.555 Y80.796 E4.86691
G1 X121.544 Y80.019 E4.89275
G1 X121.544 Y45.488 E6.04126
G1 X121.554 Y44.79 E6.06448
G1 X121.602 Y44.256 E6.08231
G1 X121.728 Y43.735 E6.10014
G0 F3600 X122.127 Y43.803
G1 F1800 X122.296 Y43.403 E6.11458
G1 X122.646 Y42.708 E6.14046
G1 X122.67 Y42.661 E6.14222
G1 X122.832 Y42.352 E6.15382
G1 X122.854 Y42.311 E6.15537
G1 X123.227 Y41.624 E6.18137
G1 X123.502 Y41.2 E6.19818
G1 X123.841 Y40.825 E6.21499
G1 X124.176 Y40.549 E6.22943
G1 X124.828 Y40.082 E6.2561
G1 X124.876 Y40.049 E6.25804
G1 X125.22 Y39.812 E6.27193
G1 X125.255 Y39.788 E6.27334
G1 X125.83 Y39.403 E6.29636
G1 X126.271 Y39.156 E6.31317
G1 X126.745 Y38.981 E6.32998
G1 X127.172 Y38.892 E6.34448
G1 X127.918 Y38.789 E6.36953
G1 X127.969 Y38.782 E6.37124
G1 X128.445 Y38.724 E6.38719
G1 X128.494 Y38.719 E6.38883
G1 X129.097 Y38.655 E6.409
G1 X129.377 Y38.638 E6.41833
G1 X130.362 Y38.62 E6.4511
G1 X130.42 Y38.619 E6.45303
G1 X162.849 Y38.619 E7.53162
G1 X163.547 Y38.629 E7.55484
G1 X164.05 Y38.676 E7.57164
G1 X164.568 Y38.812 E7.58945
G1 X165.074 Y38.991 E7.6073
G1 X165.139 Y39.015 E7.60961
G1 X165.784 Y39.259 E7.63254
G1 X165.832 Y39.277 E7.63425
G1 X166.47 Y39.53 E7.65708
G1 X166.923 Y39.753 E7.67387
G1 X167.336 Y40.045 E7.69069
G1 X167.649 Y40.343 E7.70507
G1 X168.132 Y40.87 E7.72884
G1 X168.166 Y40.908 E7.73054
G1 X168.498 Y41.282 E7.74717
G1 X168.53 Y41.318 E7.74878
G1 X168.975 Y41.835 E7.77146
G1 X169.274 Y42.243 E7.78829
G1 X169.504 Y42.693 E7.8051
G1 X169.641 Y43.095 E7.81922
G1 X169.857 Y43.901 E7.84698
G1 X169.874 Y43.966 E7.84921
G1 X169.943 Y44.247 E7.85883
G1 X169.952 Y44.286 E7.86016
G1 X170.097 Y44.91 E7.88147
G1 X170.179 Y45.563 E7.90336
G1 X170.204 Y46.688 E7.94079
G1 X170.205 Y46.757 E7.94308
G1 X170.228 Y79.081 E9.01818
G1 X170.228 Y79.129 E9.01978
G1 X170.218 Y79.827 E9.043
G1 X170.149 Y80.44 E9.06352
G1 X170.084 Y80.749 E9.07402
G1 X170.061 Y80.852 E9.07753
G1 X169.793 Y81.945 E9.11496
G1 X169.777 Y82.007 E9.11709
G1 X169.656 Y82.461 E9.13272
G1 X169.488 Y82.938 E9.14954
G1 X169.246 Y83.382 E9.16635
G1 X169.007 Y83.703 E9.17967
G1 X168.667 Y84.105 E9.19718
G1 X168.617 Y84.163 E9.19972
G1 X168.198 Y84.635 E9.22072
G1 X168.17 Y84.666 E9.22211
G1 X167.76 Y85.116 E9.24235
G1 X167.276 Y85.549 E9.26395
G1 X167.06 Y85.706 E9.27283
G1 X166.41 Y86.072 E9.29764
G1 X166.158 Y86.177 E9.30672
G1 X166.064 Y86.214 E9.31008
G1 X165.301 Y86.504 E9.33723
G1 X165.258 Y86.52 E9.33876
G1 X164.604 Y86.758 E9.36191
G1 X164.117 Y86.893 E9.37872
G1 X163.567 Y86.95 E9.39711
G1 X163.006 Y86.96 E9.41577
G1 X162.949 Y86.961 E9.41766
G1 X130.172 Y86.961 E10.50783
G1 X129.534 Y86.952 E10.52905
G1 X129.249 Y86.935 E10.53855
G1 X128.303 Y86.837 E10.57018
G1 X128.248 Y86.831 E10.57202
G1 X127.943 Y86.794 E10.58224
G1 X127.896 Y86.788 E10.58382
G1 X127.184 Y86.691 E10.60772
G1 X126.69 Y86.583 E10.62454
G1 X126.219 Y86.399 E10.64135
G1 X125.843 Y86.184 E10.65576
G1 X125.245 Y85.786 E10.67965
G1 X125.198 Y85.754 E10.68154
G1 X124.78 Y85.465 E10.69845
G1 X124.747 Y85.442 E10.69978
G1 X124.198 Y85.052 E10.72218
G1 X123.81 Y84.727 E10.73902
G1 X123.478 Y84.346 E10.75582
G1 X123.246 Y83.983 E10.77015
G1 X122.865 Y83.289 E10.79648
G1 X122.837 Y83.237 E10.79845
G1 X122.63 Y82.843 E10.81325
G1 X122.606 Y82.797 E10.81498
G1 X122.298 Y82.187 E10.83771
G1 X122.107 Y81.719 E10.85452
G1 X121.992 Y81.227 E10.87132
G1 X121.955 Y80.79 E10.88591
G1 X121.944 Y80.013 E10.91176
G1 X121.944 Y45.494 E12.05986
G1 X121.954 Y44.796 E12.08308
G1 X122.001 Y44.293 E12.09988
G1 X122.127 Y43.803 E12.11671
G1 F2100 E11.31671
;MESH:cytokinetics_emblem.stl
G0 F3600 X125.374 Y42.966
G0 X126.51 Y43.562
G0 X165.296 Y44.603
;TYPE:WALL-INNER
G1 F2100 E12.11671
G1 F1800 X165.604 Y45.858 E12.15969
G1 X165.628 Y79.625 E13.28279
G1 X165.293 Y80.979 E13.32918
G1 X164.483 Y81.895 E13.36985
G1 X163.253 Y82.361 E13.4136
G1 X129.595 Y82.361 E14.53306
G1 X128.121 Y82.182 E14.58245
G1 X127.112 Y81.486 E14.62322
G1 X126.544 Y80.404 E14.66386
G1 X126.544 Y45.176 E15.83555
G1 X127.112 Y44.095 E15.87617
G1 X128.121 Y43.398 E15.91696
G1 X129.595 Y43.219 E15.96634
G1 X163.253 Y43.219 E17.08581
G1 X164.481 Y43.685 E17.1295
G1 X165.296 Y44.603 E17.17033
G0 F3600 X165.66 Y44.41
G1 F1800 X166.004 Y45.812 E17.21834
G1 X166.028 Y79.672 E18.34453
G1 X165.658 Y81.17 E18.39585
G1 X164.716 Y82.234 E18.44311
G1 X163.326 Y82.761 E18.49256
G1 X129.572 Y82.761 E19.61522
G1 X127.975 Y82.567 E19.66873
G1 X126.804 Y81.759 E19.71605
G1 X126.144 Y80.502 E19.76327
G1 X126.144 Y45.078 E20.94147
G1 X126.804 Y43.822 E20.98866
G1 X127.975 Y43.013 E21.036
G1 X129.572 Y42.819 E21.08951
G1 X163.326 Y42.819 E22.21217
G1 X164.715 Y43.346 E22.26158
G1 X165.66 Y44.41 E22.30892
G0 F3600 X166.024 Y44.217
G1 F1800 X166.404 Y45.766 E22.36196
G1 X166.428 Y79.719 E23.49125
G1 X166.023 Y81.361 E23.54749
G1 X164.963 Y82.557 E23.60065
G1 X164.928 Y82.581 E23.60206
G1 X163.4 Y83.161 E23.65642
G1 X129.549 Y83.161 E24.78231
G1 X127.829 Y82.952 E24.83994
G1 X126.496 Y82.032 E24.89381
G1 X125.744 Y80.6 E24.9476
G1 X125.744 Y44.98 E26.13233
G1 X126.496 Y43.549 E26.1861
G1 X127.829 Y42.628 E26.23999
G1 X129.549 Y42.419 E26.29761
G1 X163.4 Y42.419 E27.4235
G1 X164.949 Y43.007 E27.47861
G1 X166.024 Y44.217 E27.53244
G0 F3600 X166.388 Y44.026
;TYPE:WALL-OUTER
G1 F1800 X166.804 Y45.72 E27.59046
G1 X166.828 Y79.766 E28.72283
G1 X166.388 Y81.552 E28.78401
G1 X165.228 Y82.86 E28.84216
G1 X165.117 Y82.937 E28.84665
G1 X163.473 Y83.561 E28.90514
G1 X129.526 Y83.561 E30.03422
G1 X127.683 Y83.337 E30.09597
G1 X126.188 Y82.305 E30.15639
G1 X125.344 Y80.698 E30.21676
G1 X125.344 Y44.882 E31.40801
G1 X126.188 Y43.276 E31.46835
G1 X127.683 Y42.243 E31.52879
G1 X129.526 Y42.019 E31.59054
G1 X163.473 Y42.019 E32.71962
G1 X165.182 Y42.667 E32.78041
G1 X166.388 Y44.026 E32.84085
G0 F3600 X166.435 Y44.22
G0 X165.951 Y44.337
G0 X164.94 Y44.79
;TYPE:SKIN
G1 F1800 X165.214 Y45.907 E32.8791
G1 X165.238 Y79.579 E33.99903
G1 X164.938 Y80.792 E34.04059
G1 X164.255 Y81.564 E34.07488
G1 X163.181 Y81.971 E34.11308
G1 X129.626 Y81.971 E35.22912
G1 X128.262 Y81.805 E35.27482
G1 X127.412 Y81.218 E35.30918
G1 X126.934 Y80.309 E35.34334
G1 X126.934 Y45.271 E36.50871
G1 X127.412 Y44.363 E36.54284
G1 X128.262 Y43.775 E36.57721
G1 X129.626 Y43.609 E36.62291
G1 X163.181 Y43.609 E37.73896
G1 X164.253 Y44.016 E37.7771
G1 X164.94 Y44.79 E37.81152
G0 F3600 X164.061 Y44.136
G1 F1800 X164.562 Y44.636 E37.83506
G0 F3600 X164.95 Y45.59
G1 F1800 X163.15 Y43.79 E37.91973
G0 F3600 X162.582 Y43.789
G1 F1800 X165.033 Y46.239 E38.03499
G0 F3600 X165.033 Y46.805
G1 F1800 X162.017 Y43.789 E38.17685
G0 F3600 X161.451 Y43.789
G1 F1800 X165.034 Y47.371 E38.34536
G0 F3600 X165.035 Y47.938
G1 F1800 X160.885 Y43.789 E38.54054
G0 F3600 X160.32 Y43.789
G1 F1800 X165.035 Y48.503 E38.7623
G0 F3600 X165.035 Y49.07
G1 F1800 X159.754 Y43.789 E39.0107
G0 F3600 X159.188 Y43.789
G1 F1800 X165.035 Y49.636 E39.28573
G0 F3600 X165.036 Y50.202
G1 F1800 X158.623 Y43.789 E39.58737
G0 F3600 X158.057 Y43.789
G1 F1800 X165.036 Y50.768 E39.91564
G0 F3600 X165.037 Y51.334
G1 F1800 X157.491 Y43.789 E40.27056
G0 F3600 X156.926 Y43.789
G1 F1800 X165.038 Y51.9 E40.6521
G0 F3600 X165.038 Y52.466
G1 F1800 X156.36 Y43.789 E41.06027
G0 F3600 X155.794 Y43.789
G1 F1800 X165.038 Y53.033 E41.49507
G0 F3600 X165.038 Y53.598
G1 F1800 X155.229 Y43.789 E41.95646
G0 F3600 X154.663 Y43.789
G1 F1800 X165.039 Y54.165 E42.44452
G0 F3600 X165.039 Y54.73
G1 F1800 X154.097 Y43.789 E42.95917
G0 F3600 X153.531 Y43.789
G1 F1800 X165.04 Y55.297 E43.50049
G0 F3600 X165.04 Y55.863
G1 F1800 X152.966 Y43.789 E44.06842
G0 F3600 X152.4 Y43.789
G1 F1800 X165.04 Y56.429 E44.66296
G0 F3600 X165.041 Y56.995
G1 F1800 X151.834 Y43.789 E45.28416
G0 F3600 X151.269 Y43.789
G1 F1800 X165.041 Y57.561 E45.93195
G0 F3600 X165.042 Y58.127
G1 F1800 X150.703 Y43.789 E46.60639
G0 F3600 X150.137 Y43.789
G1 F1800 X165.042 Y58.693 E47.30745
G0 F3600 X165.042 Y59.259
G1 F1800 X149.572 Y43.789 E48.03511
G0 F3600 X149.006 Y43.789
G1 F1800 X165.043 Y59.826 E48.78944
G0 F3600 X165.043 Y60.391
G1 F1800 X148.44 Y43.789 E49.57038
G0 F3600 X147.875 Y43.789
G1 F1800 X165.044 Y60.958 E50.37795
G0 F3600 X165.044 Y61.523
G1 F1800 X147.309 Y43.789 E51.21213
G0 F3600 X146.743 Y43.789
G1 F1800 X165.045 Y62.09 E52.07298
G0 F3600 X165.045 Y62.656
G1 F1800 X146.178 Y43.789 E52.96042
G0 F3600 X145.612 Y43.789
G1 F1800 X165.045 Y63.222 E53.87449
G0 F3600 X165.046 Y63.788
G1 F1800 X145.046 Y43.789 E54.81521
G0 F3600 X144.481 Y43.789
G1 F1800 X165.046 Y64.354 E55.78252
G0 F3600 X165.047 Y64.92
G1 F1800 X143.915 Y43.789 E56.77648
G0 F3600 X143.349 Y43.789
G1 F1800 X165.047 Y65.486 E57.79706
G0 F3600 X165.047 Y66.052
G1 F1800 X142.783 Y43.789 E58.84427
G0 F3600 X142.218 Y43.789
G1 F1800 X165.047 Y66.618 E59.91808
G0 F3600 X165.048 Y67.185
G1 F1800 X141.652 Y43.789 E61.01855
G0 F3600 X141.086 Y43.789
G1 F1800 X165.049 Y67.751 E62.14568
G0 F3600 X165.049 Y68.317
G1 F1800 X140.521 Y43.789 E63.2994
G0 F3600 X139.955 Y43.789
G1 F1800 X165.05 Y68.883 E64.47977
G0 F3600 X165.05 Y69.449
G1 F1800 X139.389 Y43.789 E65.68676
G0 F3600 X138.824 Y43.789
G1 F1800 X165.05 Y70.015 E66.92035
G0 F3600 X165.05 Y70.581
G1 F1800 X138.258 Y43.789 E68.18056
G0 F3600 X137.692 Y43.789
G1 F1800 X165.051 Y71.147 E69.46742
G0 F3600 X165.052 Y71.714
G1 F1800 X137.127 Y43.789 E70.78093
G0 F3600 X136.561 Y43.789
G1 F1800 X165.052 Y72.279 E72.12103
G0 F3600 X165.052 Y72.846
G1 F1800 X135.995 Y43.789 E73.48779
G0 F3600 X135.43 Y43.789
G1 F1800 X165.052 Y73.411 E74.88111
G0 F3600 X165.053 Y73.978
G1 F1800 X134.864 Y43.789 E76.30111
G0 F3600 X134.298 Y43.789
G1 F1800 X165.053 Y74.543 E77.74771
G0 F3600 X165.054 Y75.11
G1 F1800 X133.732 Y43.789 E79.22098
G0 F3600 X133.167 Y43.789
G1 F1800 X165.054 Y75.676 E80.72084
G0 F3600 X165.054 Y76.242
G1 F1800 X132.601 Y43.789 E82.24733
G0 F3600 X132.035 Y43.789
G1 F1800 X165.055 Y76.808 E83.80047
G0 F3600 X165.055 Y77.374
G1 F1800 X131.47 Y43.789 E85.3802
G0 F3600 X130.904 Y43.789
G1 F1800 X165.056 Y77.94 E86.98659
G0 F3600 X165.056 Y78.506
G1 F1800 X130.338 Y43.789 E88.61959
G0 F3600 X129.773 Y43.789
G1 F1800 X165.057 Y79.072 E90.27922
G0 F3600 X165.04 Y79.622
G1 F1800 X129.254 Y43.836 E91.96248
G0 F3600 X128.75 Y43.897
G1 F1800 X164.929 Y80.076 E93.66423
G0 F3600 X164.816 Y80.529
G1 F1800 X128.273 Y43.986 E95.3831
G0 F3600 X127.938 Y44.216
G1 F1800 X164.61 Y80.889 E97.10806
G0 F3600 X164.345 Y81.189
G1 F1800 X127.603 Y44.448 E98.83627
G0 F3600 X127.385 Y44.795
G1 F1800 X164.041 Y81.451 E100.56046
G0 F3600 X163.631 Y81.607
G1 F1800 X127.19 Y45.166 E102.27453
G0 F3600 X127.113 Y45.654
G1 F1800 X163.221 Y81.762 E103.97294
G0 F3600 X162.684 Y81.791
G1 F1800 X127.113 Y46.22 E105.64609
G0 F3600 X127.113 Y46.785
G1 F1800 X162.118 Y81.791 E107.29264
G0 F3600 X161.552 Y81.791
G1 F1800 X127.113 Y47.351 E108.91257
G0 F3600 X127.113 Y47.917
G1 F1800 X160.987 Y81.791 E110.5059
G0 F3600 X160.421 Y81.791
G1 F1800 X127.113 Y48.482 E112.07263
G0 F3600 X127.113 Y49.048
G1 F1800 X159.855 Y81.791 E113.61274
G0 F3600 X159.289 Y81.791
G1 F1800 X127.113 Y49.614 E115.12622
G0 F3600 X127.113 Y50.179
G1 F1800 X158.724 Y81.791 E116.61313
G0 F3600 X158.158 Y81.791
G1 F1800 X127.113 Y50.745 E118.07341
G0 F3600 X127.113 Y51.311
G1 F1800 X157.592 Y81.791 E119.50708
G0 F3600 X157.027 Y81.791
G1 F1800 X127.113 Y51.876 E120.91416
G0 F3600 X127.113 Y52.442
G1 F1800 X156.461 Y81.791 E122.29463
G0 F3600 X155.895 Y81.791
G1 F1800 X127.113 Y53.008 E123.64847
G0 F3600 X127.113 Y53.573
G1 F1800 X155.33 Y81.791 E124.97573
G0 F3600 X154.764 Y81.791
G1 F1800 X127.113 Y54.139 E126.27637
G0 F3600 X127.113 Y54.705
G1 F1800 X154.198 Y81.791 E127.55039
G0 F3600 X153.633 Y81.791
G1 F1800 X127.113 Y55.271 E128.79781
G0 F3600 X127.113 Y55.836
G1 F1800 X153.067 Y81.791 E130.01863
G0 F3600 X152.501 Y81.791
G1 F1800 X127.113 Y56.402 E131.21283
G0 F3600 X127.113 Y56.968
G1 F1800 X151.936 Y81.791 E132.38043
G0 F3600 X151.37 Y81.791
G1 F1800 X127.113 Y57.533 E133.52142
G0 F3600 X127.113 Y58.099
G1 F1800 X150.804 Y81.791 E134.6358
G0 F3600 X150.238 Y81.791
G1 F1800 X127.113 Y58.665 E135.72355
G0 F3600 X127.113 Y59.23
G1 F1800 X149.673 Y81.791 E136.78473
