;FLAVOR:Marlin
;TIME:3585
;Filament used: 2.57137m
;Layer height: 0.15
;MINX:29.436
;MINY:36.255
;MINZ:0.2
;MAXX:119.718
;MAXY:88.279
;MAXZ:2.9
;Generated with Cura_SteamEngine 4.4.0
M82 ;absolute extrusion mode
G21 ; set units to millimeters
G90 ; use absolute positioning
M82 ; absolute extrusion mode
M104 S200 ; set extruder temp
M140 S60 ; set bed temp
M190 S60 ; wait for bed temp
M109 S200 ; wait for extruder temp
G28 W ; home all without mesh bed level
G80 ; mesh bed leveling
G92 E0.0 ; reset extruder distance position
G1 Y-3.0 F1000.0 ; go outside print area
G1 X60.0 E9.0 F1000.0 ; intro line
G1 X100.0 E21.5 F1000.0 ; intro line
G92 E0.0 ; reset extruder distance position
G92 E0
G92 E0
G1 F2100 E-0.8
;LAYER_COUNT:19
;LAYER:0
M107
G0 F3600 X31.668 Y38.184 Z0.2
;TYPE:SKIRT
G1 F2100 E0
G1 F1800 X32.316 Y37.72 E0.02651
G1 X32.364 Y37.686 E0.02846
G1 X32.669 Y37.476 E0.04078
G1 X32.702 Y37.454 E0.0421
G1 X33.321 Y37.039 E0.06689
G1 X33.762 Y36.792 E0.0837
G1 X34.236 Y36.617 E0.1005
G1 X34.668 Y36.527 E0.11518
G1 X35.389 Y36.428 E0.13939
G1 X35.439 Y36.421 E0.14107
G1 X35.926 Y36.362 E0.15738
G1 X35.972 Y36.357 E0.15892
G1 X36.591 Y36.291 E0.17963
G1 X36.872 Y36.274 E0.18899
G1 X37.858 Y36.256 E0.22179
G1 X37.916 Y36.255 E0.22372
G1 X112.341 Y36.255 E2.6991
G1 X113.039 Y36.265 E2.72232
G1 X113.542 Y36.312 E2.73912
G1 X114.06 Y36.448 E2.75694
G1 X114.566 Y36.627 E2.77479
G1 X114.631 Y36.651 E2.77709
G1 X115.276 Y36.895 E2.80003
G1 X115.324 Y36.913 E2.80173
G1 X115.962 Y37.166 E2.82456
G1 X116.415 Y37.389 E2.84136
G1 X116.828 Y37.681 E2.85818
G1 X117.141 Y37.979 E2.87255
G1 X117.624 Y38.506 E2.89633
G1 X117.658 Y38.544 E2.89802
G1 X117.989 Y38.917 E2.91461
G1 X118.021 Y38.953 E2.91621
G1 X118.467 Y39.471 E2.93895
G1 X118.766 Y39.879 E2.95577
G1 X118.996 Y40.329 E2.97258
G1 X119.133 Y40.731 E2.98671
G1 X119.349 Y41.537 E3.01446
G1 X119.366 Y41.602 E3.01669
G1 X119.435 Y41.883 E3.02632
G1 X119.444 Y41.921 E3.02762
G1 X119.591 Y42.553 E3.0492
G1 X119.673 Y43.206 E3.07109
G1 X119.697 Y44.266 E3.10635
G1 X119.698 Y44.331 E3.10852
G1 X119.718 Y53.711 E3.4205
G1 X119.718 Y53.755 E3.42196
G1 X119.71 Y54.453 E3.44518
G1 X119.645 Y55.058 E3.46541
G1 X119.592 Y55.317 E3.47421
G1 X119.571 Y55.412 E3.47744
G1 X119.517 Y55.64 E3.48524
G1 X119.51 Y55.67 E3.48626
G1 X119.277 Y56.614 E3.5186
G1 X119.258 Y56.685 E3.52105
G1 X119.143 Y57.109 E3.53566
G1 X118.923 Y57.69 E3.55632
G1 X118.389 Y58.769 E3.59636
G1 X118.364 Y58.818 E3.59819
G1 X118.173 Y59.188 E3.61204
G1 X116.974 Y61.685 E3.70417
G1 X115.863 Y64.181 E3.79504
G1 X114.823 Y66.704 E3.88581
G1 X113.835 Y69.303 E3.97828
G1 X112.953 Y71.846 E4.06781
G1 X112.132 Y74.445 E4.15846
G1 X111.38 Y77.079 E4.24957
G1 X110.687 Y79.796 E4.34283
G1 X110.119 Y82.295 E4.42807
G1 X110.106 Y82.349 E4.42991
G1 X109.874 Y83.292 E4.46221
G1 X109.857 Y83.358 E4.46448
G1 X109.742 Y83.786 E4.47922
G1 X109.573 Y84.263 E4.49605
G1 X109.331 Y84.706 E4.51284
G1 X109.093 Y85.025 E4.52608
G1 X108.753 Y85.426 E4.54356
G1 X108.705 Y85.481 E4.54599
G1 X108.286 Y85.953 E4.56698
G1 X108.258 Y85.984 E4.56837
G1 X107.848 Y86.434 E4.58862
G1 X107.364 Y86.867 E4.61022
G1 X107.148 Y87.024 E4.6191
G1 X106.498 Y87.39 E4.64391
G1 X106.246 Y87.495 E4.65299
G1 X106.152 Y87.532 E4.65635
G1 X105.389 Y87.822 E4.6835
G1 X105.346 Y87.838 E4.68503
G1 X104.692 Y88.076 E4.70818
G1 X104.205 Y88.211 E4.72498
G1 X103.655 Y88.268 E4.74338
G1 X103.094 Y88.278 E4.76204
G1 X103.037 Y88.279 E4.76393
G1 X38.26 Y88.279 E6.91843
G1 X37.622 Y88.27 E6.93965
G1 X37.337 Y88.253 E6.94914
G1 X36.391 Y88.155 E6.98078
G1 X36.336 Y88.149 E6.98262
G1 X36.031 Y88.112 E6.99284
G1 X35.987 Y88.106 E6.99431
G1 X35.278 Y88.01 E7.01811
G1 X34.784 Y87.903 E7.03492
G1 X34.313 Y87.719 E7.05174
G1 X33.93 Y87.5 E7.06641
G1 X33.259 Y87.052 E7.09325
G1 X33.217 Y87.024 E7.09493
G1 X32.871 Y86.785 E7.10891
G1 X32.836 Y86.76 E7.11034
G1 X32.279 Y86.364 E7.13307
G1 X31.891 Y86.039 E7.14991
G1 X31.56 Y85.658 E7.16669
G1 X31.324 Y85.288 E7.18129
G1 X30.969 Y84.637 E7.20595
G1 X30.943 Y84.59 E7.20774
G1 X30.712 Y84.149 E7.2243
G1 X30.692 Y84.108 E7.22582
G1 X30.388 Y83.507 E7.24822
G1 X30.196 Y83.04 E7.26501
G1 X30.08 Y82.547 E7.28186
G1 X30.043 Y82.11 E7.29644
G1 X30.032 Y81.36 E7.32139
G1 X30.032 Y69.8 E7.70588
G1 X30.058 Y67.95 E7.76741
G1 X30.058 Y65.222 E7.85815
G1 X29.98 Y62.471 E7.94968
G1 X29.824 Y59.723 E8.04123
G1 X29.583 Y56.912 E8.13507
G1 X29.463 Y55.724 E8.17478
G1 X29.447 Y55.448 E8.18398
G1 X29.436 Y54.677 E8.20962
G1 X29.436 Y43.129 E8.59371
G1 X29.446 Y42.431 E8.61693
G1 X29.493 Y41.928 E8.63373
G1 X29.619 Y41.438 E8.65056
G1 X29.788 Y41.038 E8.665
G1 X30.138 Y40.343 E8.69088
G1 X30.162 Y40.296 E8.69264
G1 X30.324 Y39.987 E8.70424
G1 X30.346 Y39.946 E8.70579
G1 X30.719 Y39.259 E8.73179
G1 X30.994 Y38.835 E8.7486
G1 X31.333 Y38.46 E8.76541
G1 X31.668 Y38.184 E8.77985
G1 F2100 E7.97985
;MESH:cytokinetics_2d_codeimager.stl
G0 F3600 X36.887 Y38.8
G0 X37.042 Y40.074
G0 X114.788 Y42.239
;TYPE:WALL-INNER
G1 F2100 E8.77985
G1 F1800 X115.096 Y43.495 E8.82286
G1 X115.12 Y54.262 E9.18097
G1 X114.785 Y55.615 E9.22733
G1 X113.975 Y56.531 E9.268
G1 X112.745 Y56.997 E9.31175
G1 X37.087 Y56.997 E11.82815
G1 X35.612 Y56.818 E11.87756
G1 X34.604 Y56.121 E11.91833
G1 X34.036 Y55.04 E11.95894
G1 X34.036 Y42.811 E12.36568
G1 X34.604 Y41.73 E12.40629
G1 X35.612 Y41.034 E12.44704
G1 X37.087 Y40.855 E12.49645
G1 X112.745 Y40.855 E15.01285
G1 X113.973 Y41.321 E15.05654
G1 X114.788 Y42.239 E15.09736
G0 F3600 X115.152 Y42.046
G1 F1800 X115.496 Y43.449 E15.14541
G1 X115.52 Y54.309 E15.50662
G1 X115.15 Y55.806 E15.55791
G1 X114.208 Y56.87 E15.60517
G1 X112.818 Y57.397 E15.65461
G1 X37.064 Y57.397 E18.1742
G1 X35.466 Y57.203 E18.22774
G1 X34.296 Y56.394 E18.27505
G1 X33.636 Y55.138 E18.32224
G1 X33.636 Y42.713 E18.7355
G1 X34.296 Y41.457 E18.78269
G1 X35.466 Y40.649 E18.82998
G1 X37.064 Y40.455 E18.88352
G1 X112.818 Y40.455 E21.40311
G1 X114.207 Y40.982 E21.45252
G1 X115.152 Y42.046 E21.49986
G0 F3600 X115.516 Y41.853
G1 F1800 X115.896 Y43.403 E21.55294
G1 X115.92 Y54.356 E21.91723
G1 X115.515 Y55.997 E21.97345
G1 X114.455 Y57.193 E22.02661
G1 X114.42 Y57.217 E22.02802
G1 X112.892 Y57.797 E22.08238
G1 X37.041 Y57.797 E24.60519
G1 X35.32 Y57.588 E24.66285
G1 X33.988 Y56.667 E24.71671
G1 X33.236 Y55.236 E24.77048
G1 X33.236 Y42.615 E25.19026
G1 X33.988 Y41.184 E25.24402
G1 X35.32 Y40.264 E25.29787
G1 X37.041 Y40.055 E25.35553
G1 X112.892 Y40.055 E27.87834
G1 X114.441 Y40.643 E27.93345
G1 X115.516 Y41.853 E27.98728
G0 F3600 X115.88 Y41.662
;TYPE:WALL-OUTER
G1 F1800 X116.296 Y43.356 E28.0453
G1 X116.32 Y54.403 E28.41273
G1 X115.88 Y56.188 E28.47387
G1 X114.72 Y57.496 E28.53202
G1 X114.609 Y57.573 E28.53651
G1 X112.965 Y58.197 E28.595
G1 X37.018 Y58.197 E31.12101
G1 X35.174 Y57.973 E31.18279
G1 X33.68 Y56.94 E31.2432
G1 X32.836 Y55.334 E31.30354
G1 X32.836 Y42.517 E31.72984
G1 X33.68 Y40.911 E31.79018
G1 X35.174 Y39.879 E31.85058
G1 X37.018 Y39.655 E31.91236
G1 X112.965 Y39.655 E34.43837
G1 X114.674 Y40.303 E34.49916
G1 X115.88 Y41.662 E34.55959
G0 F3600 X115.927 Y41.856
G0 X115.442 Y41.973
G0 X114.432 Y42.426
;TYPE:SKIN
G1 F1800 X114.706 Y43.544 E34.59787
G1 X114.73 Y54.216 E34.95283
G1 X114.43 Y55.428 E34.99435
G1 X113.747 Y56.2 E35.02864
G1 X112.673 Y56.607 E35.06684
G1 X37.118 Y56.607 E37.57981
G1 X35.754 Y56.441 E37.62551
G1 X34.904 Y55.853 E37.65989
G1 X34.426 Y54.945 E37.69401
G1 X34.426 Y42.906 E38.09443
G1 X34.903 Y41.998 E38.12855
G1 X35.753 Y41.411 E38.1629
G1 X37.118 Y41.245 E38.20864
G1 X112.673 Y41.245 E40.72161
G1 X113.745 Y41.652 E40.75975
G1 X114.432 Y42.426 E40.79417
G0 F3600 X112.739 Y41.463
G1 F1800 X114.422 Y43.146 E40.87333
G0 F3600 X114.525 Y43.815
G1 F1800 X112.135 Y41.425 E40.98575
G0 F3600 X111.57 Y41.425
G1 F1800 X114.527 Y44.382 E41.12484
G0 F3600 X114.528 Y44.949
G1 F1800 X111.004 Y41.425 E41.2906
G0 F3600 X110.438 Y41.425
G1 F1800 X114.53 Y45.516 E41.48305
G0 F3600 X114.531 Y46.083
G1 F1800 X109.873 Y41.425 E41.70215
G0 F3600 X109.307 Y41.425
G1 F1800 X114.532 Y46.65 E41.94791
G0 F3600 X114.534 Y47.217
G1 F1800 X108.741 Y41.425 E42.22037
G0 F3600 X108.176 Y41.425
G1 F1800 X114.535 Y47.784 E42.51948
G0 F3600 X114.536 Y48.351
G1 F1800 X107.61 Y41.425 E42.84526
G0 F3600 X107.044 Y41.425
G1 F1800 X114.537 Y48.918 E43.19771
G0 F3600 X114.539 Y49.485
G1 F1800 X106.478 Y41.425 E43.57685
G0 F3600 X105.913 Y41.425
G1 F1800 X114.54 Y50.052 E43.98264
G0 F3600 X114.542 Y50.619
G1 F1800 X105.347 Y41.425 E44.41512
G0 F3600 X104.781 Y41.425
G1 F1800 X114.543 Y51.186 E44.87427
G0 F3600 X114.544 Y51.753
G1 F1800 X104.216 Y41.425 E45.36007
G0 F3600 X103.65 Y41.425
G1 F1800 X114.545 Y52.32 E45.87253
G0 F3600 X114.547 Y52.887
G1 F1800 X103.084 Y41.425 E46.41169
G0 F3600 X102.519 Y41.425
G1 F1800 X114.548 Y53.454 E46.9775
G0 F3600 X114.549 Y54.021
G1 F1800 X101.953 Y41.425 E47.56998
G0 F3600 X101.387 Y41.425
G1 F1800 X114.472 Y54.509 E48.18543
G0 F3600 X114.359 Y54.962
G1 F1800 X100.822 Y41.425 E48.82217
G0 F3600 X100.256 Y41.425
G1 F1800 X114.222 Y55.391 E49.47909
G0 F3600 X113.956 Y55.691
G1 F1800 X99.69 Y41.425 E50.15012
G0 F3600 X99.125 Y41.425
G1 F1800 X113.691 Y55.991 E50.83526
G0 F3600 X113.307 Y56.173
G1 F1800 X98.559 Y41.425 E51.52896
G0 F3600 X97.993 Y41.425
G1 F1800 X112.897 Y56.328 E52.22998
G0 F3600 X112.429 Y56.426
G1 F1800 X97.428 Y41.425 E52.93558
G0 F3600 X96.862 Y41.425
G1 F1800 X111.863 Y56.426 E53.64118
G0 F3600 X111.297 Y56.426
G1 F1800 X96.296 Y41.425 E54.34678
G0 F3600 X95.73 Y41.425
G1 F1800 X110.732 Y56.426 E55.0524
G0 F3600 X110.166 Y56.426
G1 F1800 X95.165 Y41.425 E55.758
G0 F3600 X94.599 Y41.425
G1 F1800 X109.6 Y56.426 E56.46361
G0 F3600 X109.035 Y56.426
G1 F1800 X94.033 Y41.425 E57.16923
G0 F3600 X93.468 Y41.425
G1 F1800 X108.469 Y56.426 E57.87483
G0 F3600 X107.903 Y56.426
G1 F1800 X92.902 Y41.425 E58.58043
G0 F3600 X92.336 Y41.425
G1 F1800 X107.338 Y56.426 E59.28606
G0 F3600 X106.772 Y56.426
G1 F1800 X91.771 Y41.425 E59.99166
G0 F3600 X91.205 Y41.425
G1 F1800 X106.206 Y56.426 E60.69726
G0 F3600 X105.641 Y56.426
G1 F1800 X90.639 Y41.425 E61.40288
G0 F3600 X90.074 Y41.425
G1 F1800 X105.075 Y56.426 E62.10848
G0 F3600 X104.509 Y56.426
G1 F1800 X89.508 Y41.425 E62.81409
G0 F3600 X88.942 Y41.425
G1 F1800 X103.943 Y56.426 E63.51969
G0 F3600 X103.378 Y56.426
G1 F1800 X88.377 Y41.425 E64.22529
G0 F3600 X87.811 Y41.425
G1 F1800 X102.812 Y56.426 E64.93089
G0 F3600 X102.246 Y56.426
G1 F1800 X87.245 Y41.425 E65.63649
G0 F3600 X86.679 Y41.425
G1 F1800 X101.681 Y56.426 E66.34211
G0 F3600 X101.115 Y56.426
G1 F1800 X86.114 Y41.425 E67.04772
G0 F3600 X85.548 Y41.425
G1 F1800 X100.549 Y56.426 E67.75332
G0 F3600 X99.984 Y56.426
G1 F1800 X84.982 Y41.425 E68.45894
G0 F3600 X84.417 Y41.425
G1 F1800 X99.418 Y56.426 E69.16454
G0 F3600 X98.852 Y56.426
G1 F1800 X83.851 Y41.425 E69.87014
G0 F3600 X83.285 Y41.425
G1 F1800 X98.287 Y56.426 E70.57577
G0 F3600 X97.721 Y56.426
G1 F1800 X82.72 Y41.425 E71.28137
G0 F3600 X82.154 Y41.425
G1 F1800 X97.155 Y56.426 E71.98697
G0 F3600 X96.59 Y56.426
G1 F1800 X81.588 Y41.425 E72.69259
G0 F3600 X81.023 Y41.425
G1 F1800 X96.024 Y56.426 E73.3982
G0 F3600 X95.458 Y56.426
G1 F1800 X80.457 Y41.425 E74.1038
G0 F3600 X79.891 Y41.425
G1 F1800 X94.893 Y56.426 E74.80942
G0 F3600 X94.327 Y56.426
G1 F1800 X79.326 Y41.425 E75.51502
G0 F3600 X78.76 Y41.425
G1 F1800 X93.761 Y56.426 E76.22062
G0 F3600 X93.195 Y56.426
G1 F1800 X78.194 Y41.425 E76.92622
G0 F3600 X77.629 Y41.425
G1 F1800 X92.63 Y56.426 E77.63182
G0 F3600 X92.064 Y56.426
G1 F1800 X77.063 Y41.425 E78.33743
G0 F3600 X76.497 Y41.425
G1 F1800 X91.498 Y56.426 E79.04303
G0 F3600 X90.933 Y56.426
G1 F1800 X75.931 Y41.425 E79.74865
G0 F3600 X75.366 Y41.425
G1 F1800 X90.367 Y56.426 E80.45425
G0 F3600 X89.801 Y56.426
G1 F1800 X74.799 Y41.424 E81.1599
G0 F3600 X74.234 Y41.424
G1 F1800 X89.236 Y56.426 E81.86555
G0 F3600 X88.67 Y56.426
G1 F1800 X73.668 Y41.424 E82.5712
G0 F3600 X73.102 Y41.424
G1 F1800 X88.104 Y56.426 E83.27684
G0 F3600 X87.539 Y56.426
G1 F1800 X72.537 Y41.424 E83.98249
G0 F3600 X71.971 Y41.424
G1 F1800 X86.973 Y56.426 E84.68814
G0 F3600 X86.407 Y56.426
G1 F1800 X71.405 Y41.424 E85.39379
G0 F3600 X70.84 Y41.424
G1 F1800 X85.842 Y56.426 E86.09944
G0 F3600 X85.276 Y56.426
G1 F1800 X70.274 Y41.424 E86.80509
G0 F3600 X69.708 Y41.424
G1 F1800 X84.71 Y56.426 E87.51073
G0 F3600 X84.144 Y56.426
G1 F1800 X69.143 Y41.424 E88.21636
G0 F3600 X68.577 Y41.424
G1 F1800 X83.579 Y56.426 E88.92201
G0 F3600 X83.013 Y56.426
G1 F1800 X68.011 Y41.424 E89.62765
G0 F3600 X67.445 Y41.424
G1 F1800 X82.447 Y56.426 E90.3333
G0 F3600 X81.882 Y56.426
G1 F1800 X66.88 Y41.424 E91.03895
G0 F3600 X66.314 Y41.424
G1 F1800 X81.316 Y56.426 E91.7446
G0 F3600 X80.75 Y56.426
G1 F1800 X65.748 Y41.424 E92.45025
G0 F3600 X65.183 Y41.424
G1 F1800 X80.185 Y56.426 E93.15589
G0 F3600 X79.619 Y56.426
G1 F1800 X64.617 Y41.424 E93.86154
G0 F3600 X64.051 Y41.424
G1 F1800 X79.053 Y56.426 E94.56719
G0 F3600 X78.488 Y56.426
G1 F1800 X63.486 Y41.424 E95.27284
G0 F3600 X62.92 Y41.424
G1 F1800 X77.922 Y56.426 E95.97849
G0 F3600 X77.356 Y56.426
G1 F1800 X62.354 Y41.424 E96.68414
G0 F3600 X61.789 Y41.424
G1 F1800 X76.791 Y56.426 E97.38978
G0 F3600 X76.225 Y56.426
G1 F1800 X61.223 Y41.424 E98.09543
G0 F3600 X60.657 Y41.424
G1 F1800 X75.659 Y56.426 E98.80108
G0 F3600 X75.094 Y56.426
G1 F1800 X60.092 Y41.424 E99.50673
G0 F3600 X59.526 Y41.424
G1 F1800 X74.527 Y56.425 E100.21233
G0 F3600 X73.961 Y56.425
G1 F1800 X58.96 Y41.424 E100.91793
G0 F3600 X58.394 Y41.424
G1 F1800 X73.396 Y56.425 E101.62355
G0 F3600 X72.83 Y56.425
G1 F1800 X57.829 Y41.424 E102.32916
G0 F3600 X57.263 Y41.424
G1 F1800 X72.264 Y56.425 E103.03476
G0 F3600 X71.699 Y56.425
G1 F1800 X56.697 Y41.424 E103.74038
G0 F3600 X56.132 Y41.424
G1 F1800 X71.133 Y56.425 E104.44598
G0 F3600 X70.567 Y56.425
G1 F1800 X55.566 Y41.424 E105.15158
G0 F3600 X55 Y41.424
G1 F1800 X70.002 Y56.425 E105.85721
G0 F3600 X69.436 Y56.425
G1 F1800 X54.435 Y41.424 E106.56281
G0 F3600 X53.869 Y41.424
G1 F1800 X68.87 Y56.425 E107.26841
G0 F3600 X68.305 Y56.425
G1 F1800 X53.303 Y41.424 E107.97403
G0 F3600 X52.738 Y41.424
G1 F1800 X67.739 Y56.425 E108.67964
G0 F3600 X67.173 Y56.425
G1 F1800 X52.172 Y41.424 E109.38524
G0 F3600 X51.606 Y41.424
G1 F1800 X66.608 Y56.425 E110.09086
G0 F3600 X66.042 Y56.425
G1 F1800 X51.041 Y41.424 E110.79646
G0 F3600 X50.475 Y41.424
G1 F1800 X65.476 Y56.425 E111.50206
G0 F3600 X64.91 Y56.425
G1 F1800 X49.909 Y41.424 E112.20766
G0 F3600 X49.344 Y41.424
G1 F1800 X64.345 Y56.425 E112.91326
G0 F3600 X63.779 Y56.425
G1 F1800 X48.778 Y41.424 E113.61887
G0 F3600 X48.212 Y41.424
G1 F1800 X63.213 Y56.425 E114.32447
G0 F3600 X62.648 Y56.425
G1 F1800 X47.646 Y41.424 E115.03009
G0 F3600 X47.081 Y41.424
G1 F1800 X62.082 Y56.425 E115.73569
G0 F3600 X61.516 Y56.425
G1 F1800 X46.515 Y41.424 E116.44129
G0 F3600 X45.949 Y41.424
G1 F1800 X60.951 Y56.425 E117.14692
G0 F3600 X60.385 Y56.425
G1 F1800 X45.384 Y41.424 E117.85252
G0 F3600 X44.818 Y41.424
G1 F1800 X59.819 Y56.425 E118.55812
G0 F3600 X59.254 Y56.425
G1 F1800 X44.252 Y41.424 E119.26374
G0 F3600 X43.687 Y41.424
G1 F1800 X58.688 Y56.425 E119.96935
G0 F3600 X58.122 Y56.425
G1 F1800 X43.121 Y41.424 E120.67495
G0 F3600 X42.555 Y41.424
G1 F1800 X57.557 Y56.425 E121.38057
G0 F3600 X56.991 Y56.425
G1 F1800 X41.99 Y41.424 E122.08617
G0 F3600 X41.424 Y41.424
G1 F1800 X56.425 Y56.425 E122.79177
G0 F3600 X55.86 Y56.425
G1 F1800 X40.858 Y41.424 E123.4974
G0 F3600 X40.293 Y41.424
G1 F1800 X55.294 Y56.425 E124.203
G0 F3600 X54.728 Y56.425
G1 F1800 X39.727 Y41.424 E124.9086
G0 F3600 X39.161 Y41.424
G1 F1800 X54.162 Y56.425 E125.6142
G0 F3600 X53.597 Y56.425
G1 F1800 X38.596 Y41.424 E126.3198
G0 F3600 X38.03 Y41.424
G1 F1800 X53.031 Y56.425 E127.0254
G0 F3600 X52.465 Y56.425
G1 F1800 X37.464 Y41.424 E127.731
G0 F3600 X36.924 Y41.449
G1 F1800 X51.9 Y56.425 E128.43543
G0 F3600 X51.334 Y56.425
G1 F1800 X36.42 Y41.511 E129.13694
G0 F3600 X35.916 Y41.572
G1 F1800 X50.768 Y56.425 E129.83555
G0 F3600 X50.203 Y56.425
G1 F1800 X35.549 Y41.771 E130.52483
G0 F3600 X35.214 Y42.002
G1 F1800 X49.637 Y56.425 E131.20325
G0 F3600 X49.071 Y56.425
